lut/ground-control/GroundControl_Grunge.cube
TITLE "Generate by Resolve"
LUT_3D_SIZE 33
0 0 0
0.0160372 0 0
0.032166 0 0
0.049073 0 0
0.0680705 0 0
0.0906386 0 0
0.11664 0 0
0.144625 0 0
0.172869 0 0
0.201205 0 0
0.229603 0 0
0.258152 0 0
0.286946 0 0
0.315785 0 0
0.344778 0 0
0.374258 0 0
0.404105 0 0
0.434226 0 0
0.464454 0 0
0.495079 0 0
0.526757 0 0
0.558953 0 0
0.591394 0 0
0.623972 0 0
0.65687 0 0
0.690425 0 0
0.724529 0 0
0.758679 0 0
0.793011 0 0
0.827604 0 0
0.86247 0 0
0.897841 0 0
0.932845 0 0
0 0.0129549 0
0.0115969 0.0115969 0
0.0276646 0.0102693 0
0.0442512 0.00856031 0
0.0629892 0.00621042 0
0.0853895 0.0028687 0
0.111376 0 0
0.139651 0 0
0.168215 0 0
0.196811 0 0
0.225513 0 0
0.254505 0 0
0.284092 0 0
0.314229 0 0
0.34432 0 0
0.374578 0 0
0.405402 0 0
0.436988 0 0
0.469261 0 0
0.501915 0 0
0.534661 0 0
0.567834 0 0
0.601465 0 0
0.635508 0 0
0.669779 0 0
0.704295 0 0
0.738933 0 0
0.773968 0 0
0.809339 0 0
0.844785 0 0
0.880293 0 0
0.915785 0 0
0.950683 0 0
0 0.0256199 0
0.00663767 0.0240482 0
0.0224918 0.0224918 0
0.0391546 0.0208591 0
0.0581521 0.0187686 0
0.0809033 0.0157778 0
0.107286 0.0119783 0
0.135805 0.00766003 0
0.164935 0.00363165 0
0.194476 6.10361e-05 0
0.224369 0 0
0.254383 0 0
0.284993 0 0
0.316121 0 0
0.347921 0 0
0.380209 0 0
0.41265 0 0
0.44538 0 0
0.478843 0 0
0.512627 0 0
0.546838 0 0
0.581125 0 0
0.615518 0 0
0.650629 0 0
0.685771 0 0
0.721096 0 0
0.756451 0 0
0.791806 0 0
0.827359 0 0
0.863096 0 0
0.898451 0.00190738 0
0.93373 0.00376898 0
0.968368 0.00552377 0
0 0.0382849 0
0.00128176 0.0369726 0
0.0174868 0.0357824 0
0.0344396 0.0344396 0
0.0538033 0.0327153 0
0.0773785 0.0305486 0
0.104753 0.0277409 0
0.134447 0.0245975 0
0.164492 0.0214847 0
0.194934 0.0188144 0
0.226307 0.0170138 0
0.258274 0.0157931 0
0.290669 0.0148165 0
0.323201 0.0139315 0
0.355993 0.0134279 0
0.389364 0.0134585 0
0.423529 0.0142519 0
0.457618 0.0149538 0
0.491814 0.0157473 0
0.526314 0.0168002 0
0.561318 0.0182193 0
0.596643 0.0199435 0
0.632319 0.0221561 0
0.667674 0.0240177 0
0.703029 0.0258946 0
0.738399 0.0277867 0
0.773785 0.0296788 0
0.809216 0.031632 0
0.844877 0.0336767 0
0.879973 0.035172 0
0.914626 0.0363775 0
0.949065 0.0373999 0
0.983032 0.0384833 0
0 0.052781 0
0 0.0519417 0
0.0122072 0.0515908 0
0.030396 0.0514992 0
0.0509346 0.0509346 0
0.0752575 0.0495308 0
0.103639 0.047715 0
0.134859 0.0461128 0
0.166918 0.0449989 0
0.199329 0.0442817 0
0.231815 0.0436255 0
0.264729 0.0433356 0
0.298329 0.0435645 0
0.332341 0.0441749 0
0.366384 0.0449073 0
0.400885 0.046067 0
0.435492 0.047303 0
0.470481 0.0489052 0
0.505714 0.0507362 0
0.541039 0.0526131 0
0.576471 0.0544594 0
0.612268 0.0566567 0
0.647639 0.0585641 0
0.683009 0.0604562 0
0.718379 0.0623331 0
0.753567 0.0640269 0
0.788769 0.0657664 0
0.823362 0.0668803 0
0.857923 0.0678111 0
0.892454 0.0687419 0
0.926833 0.0696727 0
0.961181 0.0705882 0
0.995315 0.0718547 0
0 0.071519 0
0 0.0716869 0
0.00714122 0.0722667 0
0.0265354 0.0733654 0
0.0487678 0.0745098 0
0.0751049 0.0751049 0
0.105058 0.0748608 0
0.137362 0.074342 0
0.170703 0.0745251 0
0.204288 0.0749828 0
0.238163 0.0757 0
0.272145 0.0764935 0
0.306493 0.0774701 0
0.341466 0.0790265 0
0.376608 0.0808728 0
0.411841 0.0827497 0
0.447105 0.0846418 0
0.482383 0.0865339 0
0.517693 0.0884413 0
0.553323 0.0906386 0
0.588846 0.0925612 0
0.624247 0.094377 0
0.659327 0.0959793 0
0.694087 0.0972763 0
0.728618 0.0983139 0
0.763378 0.0995804 0
0.797803 0.100526 0.000457771
0.832197 0.101442 0.00137331
0.866651 0.102281 0.00221256
0.901061 0.10309 0.00302129
0.935347 0.103929 0.00386053
0.96994 0.105089 0.00502022
1 0.106081 0.00601205
0 0.0951705 0
0 0.0974441 0
0.00456245 0.0998703 0
0.0252079 0.102235 0
0.0484321 0.104372 0
0.0758831 0.106065 0
0.107393 0.107393 0
0.141222 0.1084 0
0.17525 0.109255 0
0.209522 0.110414 0
0.244221 0.111955 0
0.27924 0.113787 0
0.314702 0.115862 0
0.350149 0.117906 0
0.385367 0.119814 0
0.42063 0.121752 0
0.455924 0.123674 0
0.491218 0.125582 0
0.526665 0.127611 0
0.561685 0.129198 0
0.596429 0.130358 9.15541e-05
0.631006 0.131319 0.00106813
0.665431 0.13228 0.00201419
0.69984 0.133211 0.00296025
0.734524 0.134417 0.00415045
0.768872 0.135271 0.00500496
0.803189 0.136095 0.00584421
0.837507 0.136934 0.00668345
0.871931 0.137758 0.00749218
0.906661 0.138888 0.00862135
0.941039 0.139818 0.00956741
0.975402 0.140749 0.0104829
1 0.141787 0.0115358
0 0.125338 0
0 0.128435 0
0.00396735 0.132113 0
0.0260929 0.135943 0
0.0505226 0.139284 0
0.0788739 0.141894 0
0.111208 0.14403 0
0.145785 0.145785 0
0.18085 0.147677 0
0.2159 0.14963 0
0.251011 0.151568 0
0.286488 0.153857 0
0.321782 0.155764 0
0.357107 0.157687 0
0.392309 0.159594 0
0.427359 0.161303 0
0.462287 0.162844 0
0.496956 0.164126 0.00105287
0.53135 0.165118 0.00202945
0.565744 0.166079 0.00299077
0.600229 0.166964 0.00389105
0.634684 0.167834 0.00474556
0.6692 0.168872 0.00578317
0.703609 0.169818 0.00672923
0.737942 0.170657 0.00756847
0.772274 0.171496 0.00842298
0.806653 0.172396 0.009308
0.841031 0.173297 0.0102083
0.875776 0.174426 0.0113527
0.910338 0.175387 0.0122988
0.944732 0.176333 0.0132448
0.979126 0.177295 0.0142061
1 0.178378 0.0153048
0 0.159655 0
0 0.16379 0
0.00688182 0.168185 0
0.0297856 0.172793 0
0.0555428 0.177462 0
0.0847944 0.180972 0
0.117556 0.183536 0
0.152392 0.18555 0
0.187518 0.187518 0
0.22266 0.189548 0
0.258076 0.191791 0
0.293141 0.193668 0
0.328115 0.19527 0
0.362799 0.196551 0.00030518
0.397177 0.197604 0.00135805
0.431617 0.198718 0.00247196
0.466148 0.199878 0.00363165
0.50045 0.200793 0.00454719
0.534752 0.201678 0.00543221
0.569039 0.202533 0.00628672
0.603433 0.203326 0.00709545
0.63801 0.204318 0.00807202
0.672496 0.205325 0.00907912
0.706859 0.206226 0.0099794
0.741268 0.207141 0.0108949
0.775662 0.208042 0.0117952
0.810071 0.208972 0.012726
0.8448 0.210224 0.0139773
0.879332 0.211154 0.0149081
0.913878 0.212085 0.0158389
0.948302 0.213077 0.0168307
0.982727 0.214054 0.0178073
1 0.215381 0.0191501
0 0.196841 0
0 0.202014 0
0.0128786 0.207294 0
0.0366217 0.212741 0
0.0622263 0.217258 0
0.0914931 0.220798 0
0.124285 0.223392 0
0.159136 0.225422 0
0.194156 0.227283 0
0.229099 0.229099 0
0.263493 0.230335 0.000961318
0.297734 0.231373 0.00201419
0.332082 0.232349 0.00299077
0.36643 0.233295 0.00393683
0.400977 0.234531 0.00517281
0.435203 0.235416 0.00605783
0.469429 0.236271 0.00691234
0.50367 0.237125 0.00776684
0.537942 0.237995 0.00862135
0.572351 0.238972 0.00959792
0.607034 0.24007 0.0106966
0.64152 0.240955 0.0115969
0.675914 0.241871 0.0125124
0.710323 0.242802 0.0134432
0.744762 0.243748 0.0143893
0.779339 0.244846 0.0154879
0.813962 0.245991 0.0166171
0.848417 0.246967 0.0175937
0.882979 0.247913 0.0185397
0.91754 0.248875 0.019501
0.951995 0.249866 0.0205081
0.986618 0.251072 0.0217136
1 0.252308 0.0229496
0 0.236561 0
0 0.242115 0
0.019913 0.247486 0
0.0433356 0.252613 0
0.068925 0.257115 0
0.0979629 0.26041 0
0.13019 0.262455 0
0.164553 0.263981 0.00146487
0.198749 0.265019 0.00250248
0.232883 0.266041 0.00352483
0.267033 0.267033 0.00451667
0.301167 0.267964 0.00544747
0.335409 0.268833 0.00631724
0.36997 0.269978 0.00746166
0.40415 0.270863 0.00833143
0.438376 0.271748 0.00923171
0.472663 0.272663 0.0101472
0.506966 0.273594 0.0110628
0.541375 0.274571 0.0120546
0.575982 0.275761 0.0132448
0.610483 0.276661 0.0141451
0.645014 0.277592 0.0150759
0.679454 0.278569 0.0160525
0.713909 0.27953 0.0170138
0.74847 0.280629 0.0180972
0.783139 0.281804 0.0192721
0.817609 0.28278 0.020264
0.852079 0.283787 0.0212558
0.886656 0.284749 0.0222324
0.921233 0.285725 0.0231937
0.955993 0.287037 0.024506
0.990433 0.288029 0.0255131
1 0.289158 0.0266423
0 0.276722 0
0.00381476 0.281987 0
0.0261845 0.286946 0
0.0489357 0.291402 0
0.0736706 0.295064 0
0.102007 0.297658 0.00195315
0.134127 0.299596 0.00387579
0.168017 0.300649 0.00492866
0.202106 0.301579 0.00585946
0.236133 0.302495 0.00677501
0.270207 0.303395 0.00767529
0.304295 0.304295 0.00857557
0.338872 0.305501 0.00978103
0.37319 0.306416 0.0106966
0.407446 0.307362 0.0116426
0.441733 0.308309 0.0125887
0.476051 0.309255 0.0135348
0.510704 0.310521 0.0148013
0.545098 0.311498 0.0157778
0.579507 0.312474 0.0167544
0.614038 0.31342 0.0177005
0.6486 0.314382 0.0186618
0.683085 0.315389 0.0196689
0.71783 0.316655 0.0209506
0.752316 0.317662 0.0219425
0.786801 0.318654 0.0229343
0.821271 0.319646 0.0239261
0.855741 0.320638 0.024918
0.89041 0.321691 0.0259709
0.9252 0.322881 0.0271611
0.959655 0.323888 0.0281682
0.994064 0.32488 0.02916
1 0.325978 0.0302586
0 0.315328 0
0.00813306 0.319692 0
0.0299077 0.324071 0
0.052369 0.328222 0
0.0771801 0.331945 0.00285344
0.105516 0.334539 0.00544747
0.13724 0.33608 0.00697337
0.171038 0.337057 0.00794995
0.205127 0.337972 0.00888075
0.2392 0.338933 0.00982681
0.273579 0.340154 0.0110628
0.307805 0.341176 0.0120851
0.342123 0.342123 0.0130312
0.376471 0.343069 0.0139773
0.410773 0.344045 0.0149538
0.445106 0.345052 0.0159457
0.479774 0.346349 0.017258
0.514153 0.347341 0.0182498
0.548562 0.348333 0.0192416
0.582986 0.34934 0.0202335
0.617548 0.350301 0.02121
0.65211 0.351278 0.0221866
0.6869 0.35259 0.0234836
0.72137 0.353582 0.0244755
0.75584 0.354574 0.0254673
0.790326 0.355566 0.0264744
0.824796 0.356558 0.027451
0.859327 0.357595 0.0285039
0.894133 0.358801 0.0297093
0.928679 0.359747 0.0306554
0.963104 0.360708 0.0316167
0.997497 0.361685 0.0325933
1 0.362768 0.0336614
0 0.352087 0
0.0113832 0.356344 0
0.033051 0.360601 0
0.0555734 0.364843 0.00233463
0.0802777 0.368444 0.00593576
0.108522 0.370962 0.0084535
0.140291 0.372534 0.0100404
0.174166 0.373587 0.0110933
0.208316 0.374578 0.0120699
0.242664 0.375799 0.0133059
0.276905 0.376883 0.0143893
0.311116 0.377905 0.0153964
0.34548 0.378897 0.0163882
0.379873 0.379873 0.01738
0.414191 0.38088 0.0183871
0.448859 0.382208 0.0196994
0.483238 0.38323 0.0207218
0.517632 0.384237 0.0217288
0.552056 0.385245 0.0227512
0.586496 0.386252 0.0237583
0.621347 0.387503 0.0250095
0.65594 0.388495 0.0260014
0.69041 0.389502 0.0269932
0.72488 0.390494 0.027985
0.75935 0.39147 0.0289769
0.793805 0.392447 0.0299535
0.828565 0.393713 0.03122
0.863005 0.39469 0.0321813
0.897551 0.395605 0.0331121
0.932067 0.396536 0.0340276
0.966445 0.397467 0.0349584
1 0.398398 0.0359045
1 0.39971 0.0372168
0 0.388479 0
0.0144503 0.392706 0
0.0364385 0.397314 0.00149538
0.0588693 0.401434 0.00563058
0.0834974 0.404974 0.00917067
0.111803 0.407553 0.0117342
0.143618 0.409171 0.0133516
0.177676 0.410407 0.0145876
0.212024 0.411597 0.0157778
0.246189 0.412634 0.0168307
0.280385 0.413672 0.0178683
0.314626 0.41471 0.0189059
0.349004 0.415717 0.019913
0.383627 0.416938 0.0211185
0.418067 0.418067 0.0222629
0.45243 0.419089 0.0232853
0.486824 0.420111 0.0243076
0.521218 0.421118 0.0253147
0.555642 0.422141 0.0263218
0.590341 0.423392 0.0275883
0.624949 0.424414 0.0286107
0.659495 0.425376 0.0295567
0.69395 0.426352 0.0305333
0.728389 0.427314 0.0314946
0.762829 0.428275 0.0324559
0.797589 0.429526 0.0337224
0.831998 0.430472 0.0346532
0.866392 0.431388 0.0355688
0.900877 0.432258 0.0364538
0.935363 0.433127 0.0373236
0.969711 0.434028 0.0382239
1 0.435203 0.0393988
1 0.436164 0.0403601
0 0.42504 0
0.0179751 0.429587 0.000442512
0.0397192 0.433921 0.00477607
0.0621805 0.438087 0.00894179
0.0868544 0.441672 0.0125277
0.115206 0.444282 0.0151369
0.147173 0.446067 0.0169223
0.181308 0.447364 0.0182193
0.215518 0.448417 0.0192721
0.249699 0.449485 0.0203403
0.283925 0.450538 0.0213931
0.318166 0.451606 0.0224613
0.352743 0.452796 0.0236515
0.387289 0.453941 0.0247959
0.421622 0.454963 0.0258183
0.455985 0.455985 0.0268406
0.490379 0.457008 0.027863
0.524773 0.458015 0.0288701
0.559487 0.459312 0.0301671
0.593896 0.460288 0.0311437
0.628428 0.461234 0.0320897
0.662959 0.462165 0.0330205
0.697383 0.463127 0.0339818
0.732021 0.464271 0.0351263
0.766491 0.465263 0.0361181
0.800885 0.466163 0.0370184
0.835264 0.467063 0.0379187
0.869627 0.467948 0.0388037
0.904051 0.468772 0.0396277
0.938735 0.469841 0.0406958
0.973037 0.470695 0.0415503
1 0.471504 0.042359
1 0.472419 0.0432746
0 0.461952 0
0.0213321 0.4663 0.00378424
0.043122 0.47068 0.00817884
0.0656138 0.474876 0.0123598
0.0903029 0.478492 0.0159762
0.118975 0.481437 0.0189212
0.150866 0.483116 0.0205997
0.184817 0.48426 0.0217441
0.219043 0.485313 0.0228122
0.253239 0.486381 0.0238804
0.287556 0.487541 0.0250248
0.322026 0.488823 0.0263066
0.356405 0.48983 0.0273136
0.390829 0.490837 0.0283207
0.425147 0.491859 0.0293431
0.459495 0.492866 0.0303502
0.493996 0.493996 0.0314946
0.528527 0.49514 0.0326238
0.562921 0.496117 0.0336004
0.597299 0.497063 0.0345617
0.631785 0.497963 0.0354467
0.66627 0.498848 0.0363317
0.700847 0.499947 0.0374456
0.735317 0.500954 0.0384375
0.76968 0.501823 0.0393072
0.803998 0.502663 0.0401465
0.8383 0.503471 0.0409705
0.872602 0.504295 0.0417792
0.90724 0.505318 0.0428016
0.941634 0.506111 0.043595
0.975814 0.506844 0.0443275
1 0.507561 0.0450446
1 0.508385 0.0458839
0.0028687 0.498772 0.0028687
0.0247654 0.503136 0.00723278
0.0465858 0.507546 0.0116426
0.0691081 0.511772 0.0158694
0.0941176 0.515694 0.019791
0.122499 0.518349 0.022446
0.154391 0.520027 0.0241245
0.188342 0.521172 0.0252689
0.222568 0.522225 0.0263218
0.256825 0.523369 0.0274662
0.291279 0.524666 0.0287633
0.325521 0.525704 0.0298009
0.359884 0.526696 0.0307927
0.394278 0.527687 0.0317693
0.42858 0.528679 0.0327764
0.46302 0.529778 0.033875
0.497536 0.530922 0.0350195
0.531853 0.531853 0.0359503
0.566201 0.532784 0.0368811
0.600534 0.5337 0.0377813
0.634989 0.534554 0.0386511
0.669718 0.535698 0.0397803
0.704036 0.536522 0.0406195
0.738323 0.537346 0.0414435
0.772625 0.538155 0.0422522
0.806897 0.538949 0.0430457
0.841291 0.539864 0.0439612
0.875624 0.540719 0.0448157
0.909926 0.54139 0.0454871
0.944198 0.542062 0.0461585
0.978317 0.542733 0.0468299
1 0.543359 0.0474556
1 0.544289 0.0483864
0.00634775 0.535668 0.00634775
0.028275 0.540047 0.0107271
0.0500801 0.544457 0.0151369
0.0729076 0.548989 0.0196689
0.0976272 0.552621 0.0233005
0.126009 0.555261 0.0259403
0.157885 0.556954 0.0276341
0.191836 0.558083 0.0287633
0.226352 0.559426 0.0301213
0.260517 0.560479 0.0311589
0.294713 0.561502 0.0321813
0.328923 0.562524 0.0332036
0.363272 0.5635 0.0341802
0.39765 0.564477 0.0351568
0.432181 0.565682 0.0363775
0.466453 0.566629 0.0373083
0.50074 0.567544 0.0382239
0.535027 0.568444 0.0391241
0.569299 0.569299 0.0399786
0.603662 0.57023 0.0409094
0.638254 0.571237 0.0419165
0.672633 0.572015 0.0426947
0.706889 0.572793 0.043473
0.7411 0.573526 0.0442054
0.775296 0.574243 0.0449226
0.809628 0.575082 0.0457618
0.843946 0.575921 0.0466163
0.87808 0.576577 0.0472572
0.912276 0.577157 0.047837
0.946426 0.577707 0.0483864
0.980438 0.578286 0.0489662
1 0.579019 0.0496986
1 0.579751 0.0504311
0.00984207 0.572595 0.00984207
0.0320287 0.577234 0.0144808
0.0538796 0.581689 0.0189364
0.0764019 0.585916 0.0231632
0.101106 0.589532 0.0267796
0.129458 0.592157 0.0294041
0.161318 0.593805 0.0310674
0.19556 0.595224 0.0324712
0.22974 0.596246 0.0334936
0.263874 0.597253 0.0345159
0.298024 0.598245 0.0355077
0.332189 0.599222 0.0364691
0.366491 0.600153 0.0373999
0.401099 0.601358 0.0386053
0.435309 0.602258 0.0395056
0.46952 0.603128 0.0403754
0.503731 0.603967 0.0412146
0.537957 0.604807 0.0420539
0.572244 0.605676 0.0429236
0.606683 0.606683 0.043946
0.640986 0.607385 0.0446326
0.675258 0.608072 0.0453193
0.709438 0.608774 0.0460212
0.743587 0.609445 0.0466926
0.777996 0.610376 0.0476234
0.812085 0.610971 0.0482185
0.846128 0.611536 0.0487831
0.880171 0.6121 0.0493477
0.91429 0.612604 0.0498512
0.948455 0.613169 0.0504158
0.982513 0.613794 0.0510414
1 0.614206 0.0514534
1 0.61474 0.0519875
0.0134585 0.609796 0.0134585
0.0354314 0.614221 0.0178836
0.0572213 0.618616 0.0222782
0.0796979 0.622797 0.0264591
0.104387 0.626398 0.0300603
0.132723 0.629007 0.0326696
0.164858 0.63093 0.0345922
0.198734 0.631998 0.0356603
0.232868 0.632959 0.0366217
0.266957 0.633936 0.0375982
0.301076 0.634897 0.0385595
0.33547 0.636103 0.039765
0.369711 0.636957 0.0406195
0.403952 0.637797 0.0414588
0.438117 0.638651 0.042298
0.472267 0.63946 0.043122
0.506416 0.640238 0.0439002
0.540825 0.64126 0.0449226
0.57496 0.641993 0.0456397
0.60911 0.642695 0.0463569
0.643336 0.643336 0.0469825
0.677516 0.643915 0.0475776
0.711604 0.644541 0.0482032
0.745907 0.645365 0.0490272
0.77995 0.645914 0.0495766
0.813947 0.646433 0.0500954
0.847898 0.646891 0.0505531
0.881804 0.647318 0.0509804
0.915877 0.647776 0.0514382
0.950042 0.648341 0.0520027
0.983841 0.648692 0.0523537
1 0.648981 0.0526436
1 0.649363 0.0530251
0.0168154 0.646754 0.0168154
0.0386969 0.651087 0.0211643
0.0604715 0.655467 0.0255283
0.0829175 0.659617 0.0296788
0.107759 0.663371 0.0334325
0.136141 0.66601 0.0360723
0.167926 0.667597 0.0376745
0.20177 0.66862 0.0386816
0.235843 0.669535 0.0395972
0.269856 0.670436 0.0404974
0.304158 0.67158 0.0416419
0.338262 0.67248 0.0425422
0.372442 0.673274 0.0433356
0.406592 0.674037 0.0440986
0.44065 0.674784 0.0448463
0.474723 0.675502 0.0455787
0.509087 0.676509 0.0465858
0.543145 0.67718 0.0472419
0.577173 0.677791 0.0478523
0.6112 0.678386 0.0484474
0.645319 0.67892 0.0489815
0.679438 0.679438 0.0495155
0.713695 0.680232 0.0502937
0.747616 0.680659 0.0507362
0.781521 0.681086 0.0511482
0.815412 0.681483 0.0515602
0.849271 0.681865 0.0519265
0.88336 0.68246 0.0525368
0.917205 0.682704 0.0527657
0.951019 0.682918 0.0529793
0.984695 0.683146 0.0532235
1 0.683345 0.0534218
1 0.683665 0.053727
0.0200961 0.683497 0.0200961
0.0419318 0.687785 0.0243839
0.0636454 0.692119 0.0287022
0.086244 0.696406 0.0330053
0.110948 0.700038 0.0366217
0.139178 0.70251 0.0391089
0.170886 0.704036 0.0406195
0.204654 0.704982 0.0415808
0.238682 0.705852 0.0424353
0.272938 0.706981 0.0435798
0.306889 0.707774 0.0443732
0.340856 0.708553 0.0451362
0.374945 0.70927 0.0458534
0.409049 0.709957 0.04654
0.443244 0.710842 0.0474403
0.477272 0.711528 0.048127
0.511238 0.712123 0.0487221
0.545205 0.712703 0.0493019
0.579156 0.713252 0.049836
0.613077 0.713726 0.0503243
0.647334 0.714412 0.0509957
0.681346 0.714809 0.0514076
0.715221 0.715221 0.0518044
0.74905 0.715572 0.0521553
0.782834 0.715862 0.0524605
0.816571 0.716121 0.0527199
0.850568 0.71664 0.0532235
0.884276 0.716854 0.0534524
0.918029 0.716991 0.0535897
0.951705 0.717067 0.053666
0.985214 0.717144 0.0537423
1 0.71722 0.0538186
1 0.717617 0.0542153
0.0232242 0.720104 0.0232242
0.0450904 0.724437 0.0275578
0.0669566 0.728893 0.0320134
0.0892958 0.732937 0.0360571
0.113817 0.736385 0.0394903
0.141985 0.738811 0.0419318
0.173632 0.740261 0.0433661
0.207462 0.741268 0.0443732
0.241535 0.742184 0.045304
0.275425 0.742947 0.046067
0.309316 0.743679 0.0467842
0.343191 0.74435 0.0474708
0.377157 0.744945 0.0480659
0.411353 0.745739 0.0488441
0.445335 0.74641 0.0495308
0.47921 0.74696 0.0500649
0.513054 0.747433 0.0505531
0.546883 0.747875 0.0509804
0.580728 0.748302 0.0514076
0.614801 0.748943 0.0520485
0.648737 0.749294 0.0523995
0.682597 0.749554 0.0526589
0.71632 0.749798 0.052903
0.750027 0.750027 0.0531319
0.783719 0.750225 0.0533455
0.817624 0.750652 0.0537575
0.851194 0.750729 0.0538491
0.884718 0.75079 0.0538949
0.918349 0.750805 0.0539101
0.951919 0.750774 0.0538949
0.985595 0.750988 0.0541085
1 0.750881 0.0539864
1 0.750851 0.0539712
0.0261845 0.756558 0.0261845
0.0481575 0.760983 0.0306096
0.069749 0.765179 0.0348058
0.0919966 0.769131 0.0387579
0.116426 0.772473 0.0420996
0.144518 0.774823 0.0444495
0.176211 0.776318 0.0459602
0.209995 0.777279 0.0469062
0.243824 0.777951 0.0475776
0.277592 0.778592 0.0482185
0.311376 0.779232 0.0488594
0.345174 0.779828 0.0494545
0.379355 0.780621 0.0502632
0.413214 0.781079 0.0507057
0.446967 0.781537 0.0511635
0.480751 0.781964 0.0515908
0.514504 0.782361 0.0519875
0.548394 0.782864 0.052491
0.582208 0.783261 0.0528878
0.615885 0.783505 0.0531319
0.649683 0.783703 0.0533303
0.683436 0.783871 0.0534981
0.717037 0.783993 0.0536202
0.75079 0.784268 0.0538949
0.78439 0.78439 0.0540169
0.817899 0.784421 0.0540475
0.851362 0.78439 0.0540169
0.884764 0.784314 0.0539406
0.918212 0.784146 0.0537728
0.951873 0.784207 0.0538338
0.985138 0.784039 0.053666
1 0.783719 0.0533455
1 0.783383 0.0530098
0.029099 0.79295 0.029099
0.050721 0.79704 0.0331884
0.0722362 0.80116 0.0372931
0.0944381 0.805051 0.0411994
0.118822 0.808347 0.0444953
0.147051 0.810849 0.0469825
0.1785 0.8121 0.048249
0.212024 0.812802 0.0489509
0.245777 0.813397 0.0495308
0.279454 0.813947 0.0500801
0.313191 0.814527 0.0506752
0.347051 0.815198 0.0513466
0.38085 0.81561 0.0517586
0.414633 0.815976 0.0521248
0.448264 0.816312 0.0524605
0.48188 0.816587 0.0527352
0.515648 0.816999 0.0531319
0.549416 0.817365 0.0535134
0.583001 0.817548 0.0536812
0.616541 0.817655 0.0538033
0.650172 0.817685 0.0538338
0.683787 0.8177 0.0538491
0.717464 0.817914 0.0540475
0.750988 0.81796 0.0540932
0.78436 0.817853 0.0539864
0.8177 0.8177 0.0538338
0.851011 0.817533 0.053666
0.88426 0.817288 0.0534371
0.917723 0.817151 0.0532998
0.95079 0.816602 0.0527504
0.983642 0.816022 0.0521706
1 0.815412 0.0515602
1 0.814801 0.0509499
0.0314946 0.82884 0.0314946
0.0530404 0.832837 0.0354925
0.0744335 0.836835 0.0394903
0.0965438 0.840635 0.0433051
0.121096 0.844099 0.0467536
0.148974 0.84625 0.0489052
0.180316 0.847395 0.0500649
0.213703 0.847959 0.0506142
0.247349 0.848432 0.0511025
0.28098 0.848966 0.0516213
0.314763 0.849577 0.0522469
0.348287 0.849912 0.0525826
0.381933 0.850172 0.052842
0.415595 0.850431 0.0530861
0.449134 0.85066 0.0533303
0.482918 0.851118 0.0537728
0.516381 0.851209 0.0538796
0.549844 0.851286 0.0539406
0.583307 0.851331 0.0540017
0.616754 0.851347 0.0540017
0.650355 0.851362 0.0540169
0.68397 0.851377 0.0540322
0.717281 0.851225 0.0538796
0.750576 0.851041 0.0536965
0.78378 0.850752 0.0534066
0.816846 0.850324 0.0529793
0.849912 0.849912 0.0525673
0.882902 0.849424 0.052079
0.915831 0.848737 0.0513924
0.948608 0.847913 0.0505684
0.981048 0.846906 0.0495613
1 0.845747 0.0484016
1 0.844816 0.0474708
0.0335699 0.864393 0.0335699
0.055024 0.868299 0.0374762
0.0766155 0.872496 0.0416724
0.0985733 0.876158 0.0453346
0.122713 0.87921 0.0483864
0.1505 0.881254 0.0504463
0.181765 0.882322 0.0514992
0.21503 0.88278 0.051957
0.248814 0.883391 0.0525673
