lut/ground-control/GroundControl_Grunge2.cube
TITLE "Generate by Resolve"
LUT_3D_SIZE 33
0 0 0
0.00694286 0.00656138 0.00656138
0.0143893 0.0129854 0.0129854
0.0222629 0.0193027 0.0193027
0.0305486 0.0254978 0.0254978
0.0392157 0.0316014 0.0316014
0.048249 0.0375982 0.0375982
0.0576333 0.0435035 0.0435035
0.0673991 0.0493019 0.0493019
0.0774853 0.0550088 0.0550088
0.0879072 0.0606394 0.0606394
0.0986496 0.0661784 0.0661784
0.109712 0.0716259 0.0716259
0.121096 0.076997 0.076997
0.132784 0.0822766 0.0822766
0.144778 0.0874647 0.0874647
0.157076 0.0925917 0.0925917
0.16968 0.0976272 0.0976272
0.182589 0.102571 0.102571
0.195773 0.107454 0.107454
0.209262 0.112245 0.112245
0.223041 0.11696 0.11696
0.237095 0.121614 0.121614
0.251453 0.126177 0.126177
0.266087 0.130663 0.130663
0.28098 0.135073 0.135073
0.296178 0.139406 0.139406
0.311635 0.143664 0.143664
0.327382 0.14786 0.14786
0.343389 0.15198 0.15198
0.35967 0.156008 0.156008
0.376211 0.159991 0.159991
0.393042 0.163882 0.163882
0.0218662 0.0225223 0.0218662
0.0297551 0.0288548 0.0280003
0.0379034 0.035111 0.0340581
0.0464027 0.0412604 0.0400244
0.0552682 0.0473335 0.0458839
0.0644999 0.0532998 0.0516518
0.074052 0.0591592 0.0573281
0.0839551 0.0649424 0.0629129
0.0941939 0.0706493 0.0684062
0.104753 0.0762493 0.0738079
0.115633 0.0817578 0.0791333
0.126818 0.0872053 0.0843671
0.138338 0.092546 0.0895094
0.150149 0.0978103 0.0945754
0.162264 0.102998 0.0995651
0.174685 0.108095 0.104479
0.187411 0.113115 0.1093
0.200412 0.118059 0.114046
0.213718 0.122927 0.1187
0.227314 0.127718 0.123293
0.241184 0.132418 0.12781
0.25536 0.137057 0.132235
0.269795 0.141604 0.136599
0.28452 0.14609 0.140871
0.299535 0.1505 0.145083
0.314809 0.154818 0.149218
0.330373 0.159075 0.153277
0.346197 0.163256 0.157259
0.362295 0.167376 0.161166
0.378668 0.171405 0.164996
0.3953 0.175372 0.168765
0.412207 0.179263 0.172457
0.429374 0.183078 0.176089
0.0427558 0.0454566 0.0427558
0.0515755 0.051545 0.0484321
0.0604105 0.0576333 0.0541238
0.0695354 0.0636454 0.0597238
0.0789807 0.0695811 0.0652476
0.0887312 0.0754101 0.0706798
0.0988174 0.0811627 0.0760204
0.109224 0.0868391 0.0812848
0.119936 0.0924239 0.0864576
0.130968 0.0979171 0.0915541
0.142306 0.103334 0.0965591
0.153933 0.108659 0.101488
0.165881 0.113909 0.106325
0.178134 0.119081 0.111086
0.190661 0.124163 0.11577
0.20351 0.129183 0.120378
0.216632 0.134112 0.124895
0.230045 0.138964 0.129351
0.243748 0.14374 0.133715
0.257725 0.14844 0.138003
0.271992 0.153063 0.142229
0.286534 0.15761 0.146365
0.301366 0.162081 0.150423
0.316457 0.166476 0.154421
0.331838 0.170809 0.158343
0.347478 0.175051 0.162188
0.363394 0.179232 0.165957
0.379583 0.183337 0.16965
0.396033 0.187366 0.173281
0.412757 0.191333 0.176837
0.42974 0.195224 0.180316
0.446983 0.199039 0.183719
0.4645 0.202777 0.18706
0.0626078 0.0688029 0.0626078
0.0723583 0.0746624 0.0678416
0.0818799 0.0805829 0.0731518
0.0916304 0.0864576 0.0784009
0.10164 0.0922408 0.0835737
0.11194 0.0979629 0.0886702
0.12253 0.103593 0.0936751
0.133425 0.109148 0.0986038
0.144625 0.114611 0.103456
0.156115 0.119997 0.108232
0.16791 0.125307 0.112932
0.179995 0.130541 0.11754
0.19237 0.135698 0.122072
0.205051 0.140764 0.126528
0.218006 0.145769 0.130907
0.23125 0.150683 0.13521
0.244785 0.15552 0.139422
0.258595 0.160296 0.143572
0.272679 0.164981 0.147646
0.287053 0.169589 0.151644
0.301701 0.174136 0.155566
0.316625 0.178592 0.159411
0.331823 0.182986 0.16318
0.347295 0.187304 0.166873
0.363027 0.191546 0.170504
0.379034 0.195727 0.17406
0.395315 0.199817 0.177539
0.411856 0.203845 0.180941
0.428672 0.207813 0.184283
0.445731 0.211688 0.187549
0.463066 0.215503 0.190753
0.480659 0.219257 0.193866
0.498512 0.222934 0.196933
0.0814069 0.0925612 0.0814069
0.0921035 0.0981918 0.0861982
0.102312 0.103944 0.0911269
0.112657 0.109667 0.0960098
0.123232 0.115328 0.100832
0.134081 0.120912 0.105592
0.14519 0.126436 0.110277
0.156573 0.131868 0.114885
0.168246 0.137224 0.119402
0.180209 0.142519 0.123857
0.192462 0.147723 0.128237
0.20499 0.15285 0.132525
0.217792 0.157916 0.136751
0.230884 0.16289 0.140902
0.244266 0.167788 0.144961
0.257923 0.17261 0.148959
0.271855 0.177371 0.15288
0.286061 0.18204 0.156725
0.300542 0.186648 0.160494
0.315312 0.19118 0.164187
0.330343 0.195636 0.167819
0.345632 0.200015 0.171359
0.361212 0.204334 0.174838
0.377035 0.20856 0.178241
0.393149 0.212726 0.181567
0.409522 0.216831 0.184833
0.426154 0.220844 0.188022
0.443046 0.224796 0.19115
0.460197 0.228687 0.194186
0.477623 0.232502 0.197177
0.495293 0.23624 0.200076
0.513222 0.239918 0.202914
0.531411 0.243519 0.205692
0.0991684 0.116747 0.0991684
0.11078 0.122148 0.103502
0.121675 0.127733 0.108049
0.132631 0.133303 0.112566
0.143786 0.138827 0.117052
0.155154 0.144305 0.121462
0.166781 0.149691 0.125811
0.178668 0.155016 0.130083
0.190814 0.160266 0.134279
0.203235 0.165454 0.138415
0.21593 0.17055 0.142473
0.228901 0.175586 0.146456
0.242145 0.180545 0.150362
0.255665 0.185428 0.154192
0.269459 0.190249 0.157961
0.283513 0.19498 0.161639
0.297856 0.199649 0.165255
0.312459 0.204227 0.168795
0.327337 0.208759 0.172259
0.342473 0.213199 0.175662
0.357885 0.217563 0.178973
0.373556 0.221866 0.182239
0.389502 0.226108 0.185412
0.405707 0.230259 0.188525
0.422171 0.234348 0.191562
0.438895 0.238361 0.194522
0.455879 0.242313 0.197421
0.473136 0.246189 0.200244
0.490639 0.250004 0.203006
0.5084 0.253742 0.205692
0.526421 0.257404 0.208316
0.544686 0.261006 0.210864
0.563226 0.26453 0.213336
0.115846 0.14136 0.115846
0.128405 0.146517 0.119738
0.139971 0.151949 0.123903
0.151553 0.157382 0.128069
0.163256 0.162768 0.132189
0.175158 0.168109 0.136263
0.187304 0.173388 0.140261
0.19968 0.178592 0.144213
0.212299 0.183734 0.148089
0.225193 0.188815 0.151888
0.238331 0.19382 0.155627
0.251743 0.198749 0.159289
0.265415 0.203616 0.16289
0.279362 0.208408 0.166415
0.293553 0.213123 0.169863
0.308034 0.217777 0.173236
0.322759 0.222354 0.176547
0.337758 0.226856 0.179782
0.353033 0.231281 0.18294
0.368551 0.235645 0.186038
0.384344 0.239933 0.189059
0.400397 0.24416 0.19202
0.416709 0.24831 0.194888
0.43328 0.252384 0.197711
0.450095 0.256397 0.200443
0.467185 0.260334 0.203128
0.484535 0.26421 0.205722
0.502129 0.268009 0.208255
0.519982 0.271748 0.210727
0.538094 0.27541 0.213123
0.556451 0.279011 0.215442
0.575067 0.282536 0.217716
0.593927 0.286 0.219898
0.131456 0.166384 0.131456
0.144945 0.171313 0.134905
0.157198 0.176577 0.138674
0.169375 0.181872 0.142473
0.181659 0.187121 0.146242
0.194095 0.19234 0.149981
0.206744 0.197498 0.153643
0.219608 0.202609 0.157259
0.232715 0.207645 0.160815
0.246052 0.212604 0.164294
0.259648 0.217517 0.167712
0.273503 0.222354 0.171054
0.287602 0.227115 0.174334
0.301961 0.231815 0.177539
0.316579 0.236439 0.180682
0.331456 0.241001 0.183749
0.346593 0.245487 0.186755
0.36199 0.249897 0.189685
0.377646 0.254246 0.192538
0.393545 0.258534 0.195331
0.40972 0.262745 0.198047
0.426139 0.26688 0.200702
0.442817 0.270954 0.203281
0.459754 0.274952 0.205798
0.476936 0.278889 0.20824
0.494377 0.28275 0.21062
0.512078 0.286549 0.212924
0.530022 0.290272 0.215167
0.548226 0.293935 0.21735
0.566674 0.29752 0.219455
0.585382 0.301045 0.221485
0.604334 0.304509 0.223453
0.623529 0.307897 0.22536
0.145998 0.191852 0.145998
0.160403 0.196551 0.148989
0.173342 0.201648 0.152377
0.18613 0.20679 0.15581
0.198978 0.211917 0.159228
0.211948 0.217014 0.162615
0.225101 0.222049 0.165957
0.238453 0.227039 0.169223
0.252033 0.231968 0.172442
0.265843 0.236835 0.175601
0.279881 0.241642 0.178698
0.294179 0.246372 0.181735
0.308705 0.251041 0.184695
0.323491 0.25565 0.187594
0.338521 0.260182 0.190417
0.353796 0.264652 0.193179
0.369329 0.269062 0.195865
0.385122 0.273381 0.198489
0.40116 0.277653 0.201038
0.417441 0.281849 0.203525
0.433997 0.285969 0.205951
0.450782 0.290028 0.208301
0.467842 0.294026 0.21059
0.48513 0.297948 0.212802
0.502678 0.301808 0.214954
0.520485 0.305592 0.217029
0.538537 0.309316 0.219043
0.556832 0.312963 0.220981
0.575372 0.316564 0.222858
0.594171 0.320073 0.224674
0.613214 0.323537 0.226413
0.632425 0.326925 0.228138
0.651972 0.330251 0.22974
0.159457 0.217746 0.159457
0.174792 0.222217 0.16199
0.188403 0.227146 0.164996
0.201801 0.232151 0.168063
0.215213 0.23714 0.17113
0.228717 0.242115 0.174166
0.242374 0.247044 0.177157
0.256229 0.251911 0.180102
0.270268 0.256733 0.183001
0.284535 0.261494 0.18584
0.299031 0.266194 0.188602
0.313756 0.270832 0.191318
0.32871 0.27541 0.193957
0.343908 0.279927 0.196536
0.35935 0.284367 0.199054
0.375036 0.288746 0.201511
0.390982 0.293065 0.203891
0.407156 0.297307 0.20621
0.423575 0.301488 0.208453
0.440253 0.305608 0.210636
0.457176 0.309651 0.212757
0.474342 0.313634 0.214801
0.491753 0.31754 0.216785
0.509407 0.321386 0.218692
0.527321 0.32517 0.220554
0.54548 0.328878 0.222324
0.563882 0.332525 0.224048
0.582528 0.33611 0.225696
0.601358 0.339635 0.227314
0.620508 0.343084 0.22884
0.639887 0.346456 0.230274
0.659525 0.349767 0.231662
0.679393 0.353017 0.232975
0.171817 0.244068 0.171817
0.188083 0.24831 0.173907
0.20238 0.253086 0.176532
0.216388 0.257939 0.179232
0.23035 0.262806 0.181933
0.244388 0.267643 0.184634
0.258564 0.27245 0.187289
0.272892 0.277226 0.189899
0.287419 0.281941 0.192462
0.302144 0.286595 0.194965
0.317082 0.291203 0.197421
0.332235 0.295735 0.199802
0.347631 0.300221 0.202136
0.363241 0.304631 0.204395
0.379095 0.308995 0.206607
0.395193 0.313283 0.208743
0.411521 0.31751 0.210803
0.428092 0.321675 0.212818
0.444907 0.325765 0.214755
0.461952 0.329793 0.216648
0.479255 0.333761 0.218448
0.496788 0.337667 0.220203
0.514565 0.341497 0.221881
0.532601 0.345266 0.223499
0.550835 0.348974 0.225071
0.569329 0.352605 0.226566
0.588083 0.356176 0.227985
0.607095 0.359686 0.229328
0.626322 0.363134 0.230625
0.645808 0.366506 0.23183
0.665537 0.369818 0.23299
0.685496 0.373053 0.234089
0.705699 0.376242 0.235111
0.183093 0.270832 0.183093
0.200275 0.274846 0.184726
0.215259 0.279454 0.186954
0.229877 0.284169 0.189288
0.244404 0.288899 0.191653
0.258976 0.293614 0.194003
0.273655 0.298314 0.196307
0.288472 0.302968 0.198596
0.303471 0.307576 0.200824
0.318654 0.312123 0.203006
0.334035 0.316625 0.205127
0.34963 0.321065 0.207202
0.365438 0.32546 0.209201
0.381476 0.329778 0.211154
0.397742 0.334051 0.213046
0.414237 0.338247 0.214878
0.430961 0.342382 0.216632
0.447929 0.346471 0.218341
0.465126 0.350484 0.219974
0.482551 0.354421 0.221546
0.500237 0.358312 0.223056
0.518105 0.362142 0.224537
0.536263 0.365896 0.22591
0.55465 0.369589 0.227222
0.573281 0.373205 0.228473
0.592142 0.376776 0.229648
0.611246 0.38027 0.230762
0.630594 0.383703 0.231815
0.650172 0.387076 0.232807
0.669993 0.390372 0.233738
0.690059 0.393606 0.234592
0.710353 0.396796 0.235401
0.730877 0.399893 0.236133
0.193271 0.298024 0.193271
0.211383 0.301808 0.194446
0.227054 0.306264 0.196292
0.242267 0.310826 0.19826
0.257359 0.315419 0.200275
0.27245 0.320027 0.202274
0.287633 0.324605 0.204242
0.302953 0.329137 0.20618
0.31841 0.333639 0.208087
0.334051 0.338094 0.209934
0.349889 0.342504 0.211734
0.365911 0.346853 0.213489
0.382162 0.351141 0.215183
0.398611 0.355367 0.216815
0.41529 0.359548 0.218387
0.432181 0.363653 0.219898
0.449317 0.367712 0.221347
0.466667 0.371695 0.222751
0.484215 0.375631 0.224109
0.502037 0.379507 0.225376
0.520088 0.383307 0.226566
0.538369 0.387045 0.22771
0.556878 0.390723 0.228779
0.575631 0.394339 0.229801
0.594614 0.397879 0.230747
0.61384 0.401373 0.231632
0.633295 0.404791 0.232441
0.652979 0.408164 0.233204
0.672908 0.41146 0.233906
0.693065 0.414679 0.234531
0.713451 0.417853 0.235096
0.734081 0.420966 0.235615
0.754955 0.424002 0.236057
0.20235 0.325658 0.20235
0.221393 0.329213 0.203082
0.237736 0.333501 0.204532
0.253559 0.337926 0.206134
0.2692 0.342397 0.207782
0.28484 0.346868 0.20943
0.300526 0.351324 0.211078
0.31632 0.355764 0.21268
0.332265 0.360159 0.214252
0.348363 0.364508 0.215778
0.36463 0.368811 0.217258
0.381109 0.373053 0.218677
0.397772 0.377249 0.22005
0.414649 0.381399 0.221363
0.431708 0.385473 0.222675
0.449012 0.389502 0.223865
0.466529 0.393469 0.224994
0.484276 0.397375 0.226078
0.502235 0.401221 0.2271
0.520439 0.405005 0.228046
0.538857 0.408728 0.228946
0.557504 0.41239 0.229786
0.576394 0.415991 0.230549
0.595499 0.419532 0.231266
0.614832 0.423011 0.231907
0.634409 0.426413 0.232502
0.654215 0.42977 0.233021
0.67425 0.433051 0.233478
0.694514 0.436286 0.23389
0.715023 0.439445 0.234226
0.735744 0.442542 0.234501
0.75671 0.445579 0.234714
0.777905 0.448554 0.234852
0.21033 0.353735 0.21033
0.230289 0.357061 0.210605
0.247318 0.361181 0.211673
0.263737 0.365469 0.212909
0.279957 0.369802 0.214191
0.296117 0.374151 0.215503
0.312306 0.3785 0.2168
0.328588 0.382818 0.218067
0.345006 0.387106 0.219303
0.361563 0.391348 0.220508
0.378286 0.39556 0.221653
0.395178 0.39971 0.222797
0.412268 0.403815 0.22385
0.429557 0.407858 0.224842
0.447059 0.411856 0.225788
0.464759 0.415793 0.226658
0.482673 0.419669 0.227497
0.500801 0.423499 0.22826
0.519158 0.427268 0.228962
0.537728 0.430961 0.229618
0.556512 0.434607 0.230213
0.57554 0.438193 0.230747
0.594781 0.441718 0.231205
0.614252 0.445167 0.231617
0.633951 0.448569 0.231968
0.653864 0.451911 0.232258
0.674022 0.455192 0.232486
0.694408 0.458396 0.232654
0.715007 0.461555 0.232746
0.735851 0.464637 0.232792
0.756924 0.467674 0.232776
0.77821 0.470634 0.232685
0.799741 0.473548 0.232547
0.217197 0.382254 0.217197
0.238102 0.385336 0.217029
0.255787 0.389303 0.2177
0.272831 0.393439 0.21857
0.289601 0.39765 0.219501
0.306279 0.401877 0.220462
0.322988 0.406104 0.221408
0.339757 0.410315 0.222354
0.356649 0.414496 0.223285
0.373648 0.418647 0.224155
0.390814 0.422751 0.224979
0.408148 0.42681 0.225757
0.425666 0.430808 0.22649
0.443366 0.434775 0.227161
0.46128 0.438682 0.227787
0.479377 0.442527 0.228367
0.497688 0.446326 0.22887
0.516213 0.450065 0.229343
0.534951 0.453742 0.22974
0.553887 0.457359 0.230076
0.573068 0.460929 0.230365
0.592447 0.464424 0.230594
0.612055 0.467872 0.230762
0.631891 0.47126 0.230869
0.651942 0.474586 0.230915
0.672221 0.477836 0.230915
0.692714 0.481041 0.230838
0.713436 0.484184 0.230701
0.734401 0.487266 0.230503
0.755566 0.490288 0.230259
0.776974 0.493248 0.229938
0.798611 0.496147 0.229557
0.820462 0.498985 0.229114
0.222965 0.4112 0.222965
0.244785 0.414069 0.222339
0.263157 0.417868 0.222629
0.280797 0.421866 0.223133
0.298146 0.425925 0.223743
0.315358 0.430045 0.224353
0.33257 0.43415 0.224948
0.349813 0.438254 0.225544
0.367163 0.442329 0.226108
0.384634 0.446372 0.226658
0.402243 0.450385 0.227146
0.420005 0.454337 0.227604
0.437949 0.458259 0.228016
0.456077 0.462119 0.228382
0.474388 0.465934 0.228687
0.492897 0.469703 0.228946
0.511589 0.473411 0.229145
0.53051 0.477058 0.229297
0.549615 0.480659 0.229404
0.568948 0.484199 0.229435
0.588495 0.487678 0.229419
0.60824 0.491112 0.229343
0.628214 0.494469 0.229206
0.648402 0.49778 0.229007
0.668818 0.50103 0.228748
0.689448 0.504219 0.228443
0.710292 0.507347 0.228061
0.731365 0.510414 0.227634
0.752651 0.513436 0.227146
0.774182 0.516381 0.226581
0.795911 0.519265 0.225971
0.817884 0.522103 0.225299
0.84007 0.524865 0.224552
0.227634 0.440604 0.227634
0.250401 0.443214 0.226581
0.269444 0.44686 0.226474
0.287678 0.450721 0.226596
0.305562 0.454673 0.22681
0.323308 0.458656 0.22707
0.341024 0.462654 0.227329
0.358755 0.466651 0.227588
0.376577 0.470619 0.227832
0.394491 0.474556 0.228031
0.412558 0.478462 0.228214
0.430762 0.482322 0.228351
0.449119 0.486152 0.228443
0.467658 0.489921 0.228473
0.486381 0.493645 0.228473
0.505287 0.497322 0.228428
0.524376 0.500938 0.228321
0.543679 0.504509 0.228153
0.56318 0.508034 0.227939
0.582879 0.511482 0.227665
0.602792 0.514885 0.227344
0.622919 0.518242 0.226963
0.643259 0.521523 0.22652
0.663798 0.524758 0.226032
0.684565 0.527932 0.225467
0.705547 0.531044 0.224857
0.726757 0.534096 0.224186
0.748165 0.537102 0.223438
0.769802 0.540032 0.222644
0.791669 0.542916 0.22179
0.813748 0.545739 0.220874
0.836042 0.548486 0.219913
0.858564 0.551186 0.218875
0.231205 0.47042 0.231205
0.254856 0.472831 0.229648
0.274586 0.47631 0.22916
0.293416 0.480018 0.228916
0.311864 0.483848 0.228779
0.330144 0.487709 0.228687
0.348363 0.4916 0.228611
0.366583 0.495476 0.228534
0.384863 0.499336 0.228428
0.40325 0.503182 0.228321
0.421744 0.506981 0.228168
0.440391 0.51075 0.22797
0.459174 0.514473 0.227741
0.478126 0.518166 0.227466
0.497261 0.521798 0.227146
0.516564 0.525383 0.22678
0.536049 0.528923 0.226368
0.555734 0.532403 0.225895
0.575616 0.535836 0.225376
0.595697 0.539223 0.224796
0.615991 0.542535 0.224155
0.636484 0.545815 0.223468
0.657176 0.54902 0.222721
0.678096 0.552178 0.221912
0.699214 0.555276 0.221057
0.720546 0.558312 0.220142
0.742092 0.561303 0.219165
0.763851 0.564218 0.218128
0.78584 0.567086 0.217029
0.808026 0.569894 0.215869
0.830442 0.572641 0.214664
0.853086 0.575341 0.213382
0.875929 0.577966 0.212055
0.233616 0.50071 0.233616
0.258198 0.502892 0.231617
0.278599 0.506203 0.230732
0.298054 0.509773 0.230121
0.317067 0.513466 0.229633
0.335866 0.51722 0.229191
0.354574 0.520974 0.228763
0.373297 0.524742 0.228351
0.39205 0.528511 0.227924
0.41088 0.532235 0.227481
0.429831 0.535943 0.226993
0.44889 0.53962 0.22649
0.468116 0.543252 0.22594
0.48748 0.546853 0.225345
0.507012 0.550393 0.224704
0.526711 0.553887 0.224018
0.546609 0.557351 0.223285
0.566674 0.560754 0.222507
0.586938 0.564095 0.221668
0.607401 0.567391 0.220783
0.628061 0.570642 0.219837
0.64892 0.573831 0.218845
0.669978 0.576959 0.217792
0.691249 0.580041 0.216678
0.712734 0.583062 0.215518
0.734417 0.586038 0.214298
0.756313 0.588937 0.213016
0.778424 0.591791 0.211673
0.800748 0.594583 0.210269
0.823285 0.59733 0.20882
0.845991 0.600015 0.207385
0.868955 0.60264 0.205814
0.892119 0.605203 0.204196
0.234928 0.531441 0.234928
0.260441 0.533394 0.232471
0.281514 0.536553 0.231205
0.301564 0.539971 0.230213
0.321141 0.543526 0.229358
0.340459 0.547158 0.22858
0.359686 0.550805 0.227817
0.378882 0.554467 0.227054
0.398108 0.558114 0.226291
0.417395 0.561746 0.225528
0.43679 0.565362 0.22472
0.456291 0.568933 0.22388
0.475929 0.572473 0.223011
0.495705 0.575982 0.222095
0.515648 0.579431 0.221134
0.53576 0.582849 0.220142
0.556039 0.586221 0.219089
0.576501 0.589532 0.21799
0.597147 0.592798 0.216846
0.617975 0.596017 0.215656
0.639017 0.599191 0.214405
0.660243 0.602289 0.213092
0.681666 0.605356 0.211734
0.703288 0.608362 0.210315
0.725124 0.611307 0.208835
0.747158 0.614191 0.207309
0.76939 0.617029 0.205798
0.791836 0.619821 0.204166
0.814496 0.622538 0.202472
0.837354 0.625208 0.200732
0.860441 0.627817 0.198932
0.883726 0.630381 0.19707
0.907225 0.632868 0.195163
0.235126 0.562615 0.235126
0.261555 0.56434 0.232197
0.283314 0.56733 0.230549
0.30396 0.570611 0.229191
0.324086 0.574044 0.227985
0.343954 0.577539 0.226841
0.363668 0.581079 0.225742
0.383352 0.584634 0.224643
0.403052 0.588174 0.22356
0.422797 0.591714 0.222446
0.442618 0.595224 0.221317
0.462562 0.598703 0.220157
0.482612 0.602152 0.218952
0.502815 0.605554 0.217716
0.523156 0.608927 0.216449
0.543664 0.612253 0.215137
0.56434 0.615534 0.213764
0.585199 0.618769 0.21236
0.606226 0.621958 0.210895
0.627436 0.625086 0.209384
0.648829 0.628183 0.207813
0.670436 0.631205 0.206195
0.692226 0.634195 0.204532
0.714199 0.63711 0.202884
0.73637 0.639994 0.201114
0.758755 0.642817 0.199298
0.781353 0.645579 0.197421
0.804135 0.64828 0.195483
0.827131 0.650935 0.1935
0.85034 0.653529 0.191455
0.873762 0.656077 0.189364
0.897383 0.658564 0.187198
0.921202 0.66099 0.184985
0.234195 0.594232 0.234195
0.261555 0.595728 0.230823
0.283986 0.59855 0.228779
0.305241 0.601709 0.227054
0.325917 0.605005 0.225483
0.346303 0.608377 0.223987
0.366537 0.611811 0.222553
0.386709 0.615244 0.221118
0.406867 0.618692 0.219684
0.42707 0.62211 0.218235
0.447333 0.625528 0.216785
0.467704 0.628916 0.21529
0.488182 0.632273 0.213779
0.508797 0.635584 0.212222
0.529549 0.638865 0.21062
0.550454 0.642115 0.208988
0.571527 0.645304 0.207309
0.592752 0.648463 0.205585
0.614176 0.65156 0.2038
0.635752 0.654612 0.201999
0.657526 0.657618 0.200183
0.679484 0.660578 0.19826
0.70164 0.663478 0.196307
0.72398 0.666331 0.194278
0.746517 0.669123 0.192218
0.769253 0.67187 0.190082
0.792187 0.674571 0.187915
0.81532 0.677195 0.185672
0.838651 0.679789 0.183398
0.862196 0.682307 0.181048
0.885939 0.684779 0.178653
0.909895 0.687205 0.176196
0.934051 0.68957 0.173693
0.232151 0.626307 0.232151
0.260426 0.627573 0.228321
0.283543 0.630228 0.225879
0.305394 0.633234 0.223789
0.326635 0.636408 0.221851
0.347539 0.639673 0.22002
0.368277 0.642969 0.218219
0.388922 0.646311 0.216449
0.409552 0.649638 0.214679
0.430213 0.652964 0.212909
0.450919 0.656291 0.211109
0.471717 0.659571 0.209293
0.492622 0.662837 0.207462
0.513649 0.666072 0.20557
0.534813 0.669261 0.203662
0.556115 0.672404 0.201709
0.577585 0.675517 0.199771
0.599207 0.678584 0.197742
0.620996 0.681605 0.195666
0.642954 0.684581 0.193545
0.665095 0.68751 0.191379
0.687419 0.690379 0.189151
0.709926 0.693217 0.186877
0.732631 0.695979 0.184558
0.75552 0.698711 0.182177
0.778607 0.701381 0.179751
0.801892 0.704005 0.177279
0.82536 0.706569 0.174746
0.849042 0.709087 0.172152
0.872923 0.711543 0.169512
0.897002 0.713939 0.166812
0.921279 0.716289 0.164065
0.945769 0.718578 0.161257
0.228977 0.658808 0.228977
0.258183 0.659861 0.224689
0.281956 0.662364 0.221866
0.304417 0.665217 0.219394
0.326223 0.668269 0.217105
0.347646 0.671397 0.214908
0.368887 0.674601 0.212772
0.390021 0.677821 0.210651
0.411109 0.681041 0.208545
0.432227 0.684276 0.206439
0.453376 0.687495 0.204318
0.474601 0.690684 0.202167
0.495933 0.693858 0.2
0.517388 0.696986 0.197879
0.538949 0.700084 0.195651
0.560662 0.703151 0.193393
0.582513 0.706172 0.191089
0.604517 0.709163 0.188739
0.626688 0.712108 0.186343
0.649027 0.714992 0.183917
0.671534 0.717845 0.18143
0.694224 0.720638 0.178912
0.717098 0.7234 0.176333
0.740154 0.726101 0.173693
0.763409 0.72874 0.171023
0.786831 0.73135 0.168292
0.810468 0.733898 0.165515
0.834287 0.736385 0.162676
0.858305 0.738827 0.159792
0.882521 0.741222 0.156847
0.906935 0.743557 0.153857
0.931548 0.74583 0.150805
0.956359 0.748058 0.147707
0.224674 0.691783 0.224674
0.254795 0.692592 0.219928
0.279255 0.694942 0.216709
0.302312 0.697658 0.21387
0.324666 0.700572 0.211215
0.346624 0.703593 0.208652
0.368368 0.706661 0.20618
0.389975 0.709773 0.203708
0.411536 0.712902 0.201266
0.433127 0.716014 0.198886
0.454719 0.719127 0.19646
0.476387 0.72224 0.193988
0.498131 0.725307 0.191516
0.519982 0.728359 0.188998
0.541955 0.731365 0.18645
0.564065 0.734356 0.183871
0.586313 0.737285 0.181262
0.608698 0.740185 0.178607
0.631251 0.743053 0.175906
0.653971 0.745861 0.173159
0.676844 0.748638 0.170367
0.699901 0.751354 0.167529
0.72314 0.754025 0.164645
0.746548 0.756649 0.161715
0.770153 0.759228 0.158724
0.793927 0.761761 0.155688
0.817914 0.764233 0.152605
0.842069 0.766659 0.149477
0.866423 0.769024 0.146288
0.890974 0.771344 0.143053
0.915724 0.773617 0.139757
0.940673 0.77583 0.1364
0.965805 0.777981 0.133013
0.219242 0.7252 0.219242
0.250278 0.72578 0.214023
0.27541 0.727962 0.210407
0.299062 0.730541 0.207202
0.321981 0.733333 0.204181
0.344472 0.736233 0.201282
0.366751 0.739178 0.19852
0.388846 0.742168 0.195727
0.41088 0.74519 0.19295
0.432898 0.748211 0.190188
0.454932 0.751232 0.187427
0.477028 0.754238 0.184634
0.499199 0.757214 0.181827
0.521462 0.760174 0.178988
0.543832 0.763104 0.176135
0.566339 0.766003 0.173236
0.588968 0.768856 0.170306
0.611749 0.771679 0.16733
0.634684 0.774456 0.164324
0.657771 0.777188 0.161257
0.681025 0.779873 0.15816
0.704448 0.782513 0.155016
0.728038 0.785122 0.151827
0.751812 0.787671 0.148592
0.775769 0.790173 0.145296
0.799893 0.792615 0.14197
0.824216 0.795026 0.138582
0.848722 0.797375 0.135149
0.873411 0.79968 0.131655
0.898299 0.801923 0.128115
0.923384 0.80412 0.124514
0.948653 0.806271 0.120882
0.974121 0.808362 0.117174
0.212665 0.75906 0.212665
0.244617 0.759426 0.206989
