lut/ground-control/GroundControl_Green_Undertones.cube
TITLE "Generate by Resolve"
LUT_3D_SIZE 5
0 0.130129 0.168444
0.205402 0.118578 0.156893
0.501656 0.105226 0.143542
0.815045 0.0863508 0.124651
0.989807 0.101808 0.140124
0 0.361257 0.174609
0.215869 0.353994 0.167346
0.508263 0.336797 0.150149
0.818753 0.315007 0.128374
0.993881 0.330831 0.144198
0 0.59028 0.176974
0.219455 0.584237 0.170932
0.515297 0.570474 0.157183
0.831586 0.554498 0.141192
1 0.576776 0.16347
0 0.835523 0.183658
0.232303 0.835645 0.183795
0.531991 0.825727 0.173877
0.847547 0.809018 0.157168
1 0.824628 0.172778
0.0596628 1 0.2757
0.313237 1 0.264729
0.592782 1 0.234668
0.888609 0.980224 0.198215
1 0.97467 0.19266
0 0.130785 0.354528
0.209277 0.122454 0.346197
0.506249 0.109819 0.333562
0.818555 0.0898451 0.313588
0.992981 0.104982 0.328725
0 0.364584 0.363363
0.219013 0.357137 0.355932
0.511421 0.339956 0.338735
0.822126 0.318364 0.317159
0.997726 0.334676 0.333471
0 0.59379 0.365927
0.223468 0.588251 0.360388
0.520256 0.575448 0.34757
0.837156 0.560067 0.332189
1 0.582559 0.354696
0 0.84126 0.374838
0.238041 0.841382 0.37496
0.537179 0.83093 0.364492
0.851804 0.813275 0.346838
1 0.824964 0.358541
0.0630198 1 0.464485
0.312688 1 0.449607
0.59118 1 0.418494
0.886091 0.977707 0.381125
1 0.967834 0.371252
0 0.132647 0.537438
0.214298 0.127474 0.532265
0.510857 0.114443 0.519234
0.822202 0.093492 0.498283
0.99646 0.108461 0.513252
0 0.36817 0.547997
0.222446 0.360586 0.540413
0.514946 0.343465 0.523308
0.825956 0.322194 0.502037
1 0.338994 0.518837
0 0.597757 0.550942
0.228138 0.59292 0.546105
0.525719 0.580911 0.534096
0.843198 0.56611 0.519295
1 0.588632 0.541802
0 0.847349 0.561975
0.243961 0.847303 0.561929
0.542504 0.83624 0.550866
0.855528 0.816983 0.531609
1 0.824796 0.539422
0.0656748 1 0.648203
0.311498 1 0.629465
0.589792 1 0.598169
0.882429 0.974044 0.558511
1 0.960494 0.544976
0 0.135058 0.737469
0.218173 0.13135 0.733761
0.513649 0.11722 0.719631
0.824598 0.0958877 0.698299
0.998703 0.110704 0.7131
0 0.370459 0.747906
0.224704 0.362829 0.740276
0.517342 0.345876 0.723323
0.828702 0.324956 0.702403
1 0.342458 0.719905
0 0.600748 0.751537
0.23183 0.596613 0.747402
0.530312 0.585489 0.736278
0.848096 0.571008 0.721798
1 0.593362 0.744152
0 0.852262 0.764492
0.248539 0.851881 0.764126
0.546212 0.839948 0.752194
0.857145 0.818616 0.730846
1 0.822461 0.734691
0.0649577 1 0.84509
0.308949 1 0.824521
0.586892 1 0.792859
0.876616 0.968246 0.750317
1 0.950851 0.732937
0 0.141314 0.897047
0.225071 0.138247 0.89398
0.519463 0.123033 0.878767
0.830091 0.101396 0.857114
1 0.116152 0.87187
0 0.375921 0.906706
0.230182 0.368307 0.899092
0.523033 0.351568 0.882338
0.834882 0.331121 0.861906
1 0.34931 0.880079
0 0.607111 0.911223
0.239124 0.603906 0.908034
0.538201 0.593393 0.897505
0.856199 0.57911 0.883223
1 0.60116 0.905272
0 0.860319 0.925872
0.256046 0.859388 0.924956
0.552743 0.846479 0.912047
0.859709 0.82118 0.886748
1 0.823102 0.88867
0.0666667 1 1
0.309667 1 0.978561
0.586618 1 0.945922
0.872023 0.963638 0.899046
1 0.943999 0.879408
