lut/ground-control/GroundControl_Bright_Warm.cube
TITLE "Generate by Resolve"
LUT_3D_SIZE 5
0 0 0
0.105989 0.0382086 0.0382086
0.270466 0.0606241 0.0606241
0.479011 0.0711376 0.0711376
0.710399 0.0754864 0.0754864
0.0966049 0.209018 0.0966049
0.412863 0.193591 0.0469978
0.627253 0.20502 0.0311589
0.824567 0.22034 0.0271916
1 0.240589 0.0355535
0.0472725 0.476173 0.0472725
0.493523 0.424384 0
0.702754 0.435416 0
0.869902 0.456886 0.00228885
1 0.485557 0.0423285
0.0238499 0.732998 0.0238499
0.489998 0.671794 0
0.68748 0.681468 0.0377966
0.829313 0.704234 0.123384
0.928222 0.736568 0.240681
0.163836 0.924758 0.163836
0.573693 0.86923 0.235752
0.74641 0.875715 0.391806
0.85919 0.89778 0.569833
0.932662 0.931456 0.748775
0.0177615 0.0177615 0.0192874
0.144808 0.0497749 0.0568246
0.32134 0.0683299 0.082002
0.536706 0.0763561 0.0970169
0.767193 0.0803693 0.107393
0.104097 0.228687 0.127184
0.441321 0.206867 0.0791638
0.657465 0.217166 0.0694591
0.851987 0.232715 0.0714275
1 0.253849 0.0847486
0.0563363 0.493751 0.0938125
0.509331 0.439597 0.0251926
0.717861 0.450446 0.0325017
0.882795 0.472297 0.0591745
1 0.501823 0.102251
0.0433814 0.746334 0.0817273
0.506844 0.685466 0.0487221
0.701381 0.695552 0.104814
0.838605 0.719219 0.195026
0.93167 0.752941 0.31577
0.208362 0.929137 0.236896
0.604257 0.877089 0.31545
0.770397 0.885481 0.471839
0.877317 0.90988 0.644129
0.946654 0.945754 0.813428
0.0345617 0.0345617 0.0508278
0.182696 0.0586709 0.104662
0.369055 0.0720378 0.152209
0.587549 0.0767224 0.191241
0.81442 0.0795453 0.223957
0.106188 0.242451 0.232288
0.461753 0.213458 0.201099
0.678141 0.222019 0.208011
0.869154 0.237369 0.222309
1 0.259174 0.243565
0.0582895 0.502556 0.248371
0.516426 0.446296 0.185519
0.724025 0.457084 0.196033
0.886564 0.479591 0.223301
1 0.510475 0.264759
0.0561074 0.751003 0.245441
0.51635 0.691188 0.211551
0.708141 0.70251 0.263493
0.841321 0.728176 0.345861
0.929656 0.764584 0.45388
0.249699 0.927016 0.383673
0.631296 0.880232 0.452216
0.791455 0.892332 0.589487
0.893751 0.920485 0.73817
0.960296 0.95967 0.882918
0.0488594 0.0488594 0.114641
0.217258 0.0627909 0.209537
0.410437 0.069276 0.305226
0.628534 0.069398 0.390555
0.848951 0.070222 0.462287
0.10016 0.247333 0.449134
0.471275 0.210544 0.449531
0.686595 0.216831 0.482063
0.873564 0.231693 0.513039
1 0.254108 0.542931
0.0505074 0.500084 0.543328
0.512444 0.442115 0.486076
0.719066 0.453178 0.496895
0.879255 0.47686 0.519463
1 0.509926 0.550378
0.0603037 0.745174 0.538384
0.517052 0.68751 0.493446
0.706783 0.70135 0.52639
0.837049 0.730648 0.58146
0.922332 0.771572 0.653788
0.287404 0.918227 0.607111
0.654719 0.879103 0.641886
0.810071 0.896941 0.736599
0.909224 0.930434 0.84152
0.974426 0.97406 0.946242
0.0585641 0.0585641 0.237476
0.245655 0.0596933 0.404074
0.442176 0.0574807 0.576135
0.656413 0.051957 0.728756
0.868254 0.0500191 0.853071
0.0835126 0.240787 0.810468
0.467582 0.195804 0.853925
0.680903 0.199542 0.91751
0.863584 0.213901 0.966201
1 0.237095 1
0.0312657 0.484672 1
0.495979 0.425635 0.945296
0.701717 0.437476 0.950973
0.859861 0.463172 0.959594
0.982452 0.499672 0.965896
0.0552682 0.728008 0.970733
0.508629 0.674052 0.899077
0.697414 0.692241 0.891722
0.826444 0.727291 0.893431
0.910933 0.774899 0.901884
0.321767 0.903761 0.896742
0.67538 0.874937 0.86978
0.827375 0.900557 0.897261
0.924956 0.940887 0.939254
0.990127 0.98999 0.989746
