lut/ground-control/GroundControl_Warm2.cube
TITLE "Generate by Resolve"
LUT_3D_SIZE 9
0 0 0
0.186572 0 0
0.333913 0 0
0.468162 0 0
0.593835 0 0
0.712978 0 0
0.826749 0 0
0.935882 0 0
1 0 0
0 0.125933 0
0.179736 0.110384 0
0.323827 0.105104 0
0.455207 0.103273 0
0.578241 0.103685 0
0.694881 0.105806 0
0.806271 0.109361 0
0.913115 0.114153 0
1 0.120012 0.00230411
0 0.251087 0
0.174914 0.236622 0
0.315816 0.232074 0
0.444373 0.230869 0
0.564797 0.231846 0
0.678981 0.234516 0
0.788037 0.238575 0.000991836
0.892653 0.243839 0.00895705
0.993317 0.250156 0.0179904
0.00184634 0.374258 0.00184634
0.175128 0.360845 0
0.312856 0.357031 0
0.43859 0.356451 0
0.556435 0.358007 0.00210575
0.668193 0.361196 0.00941482
0.774945 0.365743 0.0180972
0.877333 0.371481 0.0279393
0.97586 0.378241 0.0388495
0.0122072 0.495125 0.0122072
0.181079 0.482765 0.00540169
0.315648 0.479683 0.00787366
0.438605 0.479728 0.0134585
0.553857 0.481849 0.021149
0.663203 0.485557 0.0304265
0.767651 0.490608 0.0410163
0.867826 0.496803 0.052781
0.964218 0.504005 0.0655528
0.0286717 0.613581 0.0286717
0.193179 0.602258 0.0243687
0.32459 0.599893 0.0290074
0.444755 0.600549 0.0366674
0.557458 0.603235 0.0463569
0.664378 0.607477 0.0575875
0.766537 0.613001 0.0701152
0.86453 0.619654 0.083772
0.958801 0.627298 0.0984207
0.0515297 0.729473 0.0515297
0.211658 0.719219 0.0497292
0.33991 0.717556 0.0565194
0.457298 0.718837 0.0662547
0.567437 0.722087 0.0779431
0.671962 0.726833 0.0911574
0.771817 0.732845 0.105623
0.867628 0.739956 0.121187
0.959792 0.748043 0.137728
0.0808881 0.842786 0.0808881
0.236637 0.83357 0.08159
0.361761 0.832624 0.0905623
0.476371 0.834531 0.102373
0.583963 0.838315 0.116091
0.686091 0.84358 0.131273
0.783673 0.85008 0.147692
0.877287 0.857649 0.165164
0.967361 0.866163 0.183612
0.116899 0.953445 0.116899
0.268284 0.945281 0.120119
0.39028 0.945052 0.131273
0.502129 0.947555 0.145174
0.607156 0.951904 0.160906
0.706889 0.957671 0.178073
0.802213 0.964645 0.196429
0.893645 0.972671 0.215839
0.981628 0.981628 0.236179
0.00248722 0.00248722 0.0930037
0.188586 0 0.0756847
0.335561 0 0.068925
0.46949 0 0.0657054
0.594873 0 0.0647746
0.713741 0 0.0656138
0.827222 0 0.0678874
0.936095 0 0.0714275
1 0 0.0760662
0.000656138 0.128511 0.0881361
0.182284 0.113176 0.073228
0.326024 0.10808 0.0685435
0.457084 0.106416 0.0672923
0.579812 0.106981 0.0682841
0.696178 0.109285 0.0710002
0.807294 0.112993 0.0751202
0.913878 0.117922 0.0804761
1 0.123934 0.0869154
0.000823987 0.253758 0.0852522
0.178012 0.23949 0.0728008
0.318563 0.235126 0.0702373
0.446799 0.234089 0.0710002
0.566918 0.235248 0.0739605
0.680842 0.238071 0.0785992
0.789624 0.242283 0.0846265
0.893965 0.2477 0.0918288
0.994385 0.25417 0.100114
0.0059968 0.377005 0.0873884
0.17879 0.363806 0.077409
0.316167 0.360159 0.0769818
0.441581 0.359762 0.0798047
0.559121 0.361471 0.0847334
0.670604 0.364828 0.09131
0.777081 0.369543 0.0992294
0.87921 0.375418 0.108339
0.977478 0.382345 0.118486
0.0169223 0.497963 0.0952621
0.185321 0.485817 0.0877699
0.319539 0.482902 0.0895094
0.442161 0.483116 0.0943618
0.557122 0.485405 0.101305
0.666178 0.489281 0.109834
0.770352 0.494469 0.119692
0.870283 0.500816 0.130694
0.96643 0.508186 0.142702
0.0339666 0.61648 0.10927
0.197986 0.605386 0.104265
0.329046 0.603189 0.108171
0.44889 0.604028 0.115099
0.561288 0.606867 0.124056
0.667933 0.611261 0.134539
0.769802 0.616953 0.146319
0.867536 0.623758 0.159213
0.961578 0.631556 0.173114
0.0573892 0.732464 0.129641
0.217029 0.722408 0.127153
0.34493 0.720943 0.133211
0.461997 0.722393 0.142214
0.571832 0.725795 0.15317
0.676081 0.730709 0.165621
0.775677 0.736873 0.179355
0.871214 0.744137 0.194156
0.963134 0.752377 0.209949
0.0873274 0.845853 0.156527
0.242588 0.836851 0.156542
0.367361 0.836088 0.164782
0.481651 0.838148 0.175875
0.588937 0.842115 0.188846
0.690791 0.847532 0.203281
0.788098 0.854185 0.218936
0.881453 0.861906 0.235676
0.971283 0.870573 0.253361
0.123919 0.956588 0.190082
0.274815 0.948638 0.192599
0.39646 0.948577 0.203037
0.507973 0.951263 0.21619
0.612711 0.955764 0.231189
0.712169 0.9617 0.247608
0.807202 0.968841 0.265217
0.89839 0.977005 0.283879
0.986114 0.986114 0.303471
0.00289921 0.00289921 0.212741
0.188525 0 0.194461
0.335164 0 0.186694
0.468803 0 0.182452
0.593912 0 0.180514
0.712505 0 0.180331
0.825757 0 0.181598
0.934386 0 0.1841
1 0 0.187716
0.00167849 0.129076 0.20444
0.182849 0.113985 0.188571
0.326253 0.109087 0.182895
0.457008 0.107607 0.180621
0.579461 0.10837 0.180606
0.695567 0.110842 0.1823
0.806424 0.114733 0.185397
0.912779 0.119844 0.189731
1 0.126024 0.195132
0.00247196 0.25449 0.198154
0.179202 0.240452 0.184726
0.319417 0.236301 0.18117
0.447349 0.235447 0.180941
0.567208 0.236789 0.182879
0.680858 0.239796 0.186496
0.789395 0.24419 0.191485
0.893507 0.249775 0.197681
0.993683 0.256413 0.204929
0.00828565 0.37789 0.196887
0.180621 0.36492 0.185931
0.317647 0.361486 0.184527
0.442786 0.361273 0.186328
0.560037 0.363165 0.190249
0.67126 0.366705 0.195804
0.777493 0.371588 0.202701
0.879377 0.377646 0.210788
0.977417 0.384741 0.219898
0.019852 0.499001 0.201373
0.187793 0.487083 0.192905
0.32166 0.484382 0.193637
0.443992 0.484779 0.197498
0.558679 0.487251 0.203418
0.667475 0.49131 0.210925
0.771389 0.496681 0.21976
0.871077 0.503197 0.22974
0.966995 0.510735 0.240711
0.0375372 0.61767 0.211978
0.201099 0.606806 0.206012
0.331823 0.604822 0.208911
0.451362 0.605844 0.214832
0.563485 0.608865 0.222782
0.669871 0.613443 0.232227
0.771496 0.619303 0.242985
0.868986 0.626291 0.254871
0.962783 0.634272 0.267735
0.0616007 0.733806 0.228962
0.220768 0.723995 0.225483
0.348348 0.722713 0.230564
0.46511 0.724361 0.238544
0.57467 0.727947 0.248493
0.67866 0.733043 0.259937
0.777996 0.739391 0.272633
0.873304 0.746822 0.286412
0.964996 0.75523 0.301183
0.0921798 0.847349 0.252461
0.246983 0.838575 0.251499
0.37142 0.83801 0.258747
0.48542 0.840269 0.268818
0.592432 0.844419 0.280766
0.694011 0.850019 0.294194
0.791074 0.85684 0.308827
0.884199 0.864744 0.324544
0.973785 0.873579 0.341192
0.129427 0.958236 0.282612
0.279866 0.950515 0.284169
0.40116 0.950652 0.293599
0.512398 0.953521 0.30576
0.616846 0.958221 0.319738
0.716045 0.96434 0.335134
0.810834 0.971649 0.35172
0.901778 0.979995 0.36936
0.989273 0.989273 0.387915
0.00233463 0.00233463 0.345006
0.187518 0 0.325612
0.333837 0 0.316732
0.46717 0 0.311345
0.59202 0 0.308248
0.710369 0 0.30692
0.823377 0 0.307027
0.931777 0 0.30837
1 0 0.310826
0.00177005 0.12871 0.33283
0.182483 0.113863 0.315862
0.325551 0.109178 0.309041
0.456031 0.107897 0.305638
0.57821 0.108858 0.304463
0.694072 0.111513 0.304997
0.8047 0.115602 0.30695
0.910811 0.120882 0.310124
1 0.12726 0.314366
0.00321965 0.254307 0.322683
0.179507 0.240528 0.308156
0.319387 0.236576 0.303471
0.447044 0.235935 0.302083
0.566613 0.237461 0.302876
0.680018 0.240665 0.305348
0.788312 0.245243 0.309178
0.892195 0.251011 0.314214
0.992157 0.257847 0.320302
0.00970474 0.377905 0.317556
0.181582 0.365179 0.305516
0.318288 0.361959 0.302968
0.443137 0.361944 0.303624
0.560128 0.364034 0.306401
0.671107 0.367758 0.310796
0.777081 0.372839 0.316548
0.878737 0.37908 0.323461
0.976562 0.386358 0.331426
0.0219425 0.499199 0.318196
0.189425 0.487541 0.308629
0.322972 0.485039 0.308232
0.445014 0.485634 0.310948
0.559442 0.488304 0.315724
0.667994 0.492546 0.322087
0.771664 0.498116 0.329747
0.871122 0.504829 0.338567
0.966827 0.512535 0.348394
0.0403143 0.618067 0.324956
0.203418 0.607446 0.317891
0.333806 0.605661 0.319661
0.453071 0.606882 0.324437
0.56492 0.610117 0.331212
0.671061 0.614878 0.339544
0.772442 0.620935 0.349142
0.869703 0.628092 0.359854
0.963287 0.636255 0.371557
0.0650645 0.734386 0.338094
0.223774 0.724819 0.333532
0.351019 0.723751 0.337469
0.467506 0.725597 0.34432
0.576791 0.729381 0.353109
0.680522 0.734661 0.363394
0.779629 0.741192 0.374929
0.874708 0.748821 0.387564
0.966171 0.757412 0.40116
0.0963149 0.848112 0.357748
0.25066 0.839582 0.355703
0.374777 0.839231 0.361822
0.488487 0.841688 0.370748
0.595224 0.846021 0.381552
0.696559 0.85182 0.39382
0.793393 0.858839 0.407294
0.886275 0.866911 0.421851
0.975647 0.875944 0.437339
0.134234 0.959182 0.38407
0.284215 0.951705 0.384527
0.405203 0.952056 0.392828
0.516136 0.955123 0.403845
0.62034 0.960021 0.416663
0.71928 0.966323 0.430915
0.813825 0.973816 0.446357
0.90454 0.982345 0.462821
0.991806 0.991806 0.480217
0.00109865 0.00109865 0.485878
0.18584 0 0.465293
0.331838 0 0.455177
0.464897 0 0.448554
0.589487 0 0.444221
0.707591 0 0.441642
0.820356 0 0.440497
0.928542 0 0.440589
1 0 0.441779
0.00120546 0.127703 0.46952
0.181476 0.1131 0.451347
0.324239 0.108644 0.443305
0.454429 0.107561 0.438651
0.576349 0.108721 0.43624
0.691966 0.111589 0.435523
0.80235 0.115862 0.436225
0.908263 0.12134 0.438132
1 0.127916 0.441123
0.00334173 0.253513 0.455177
0.179187 0.239994 0.43946
0.318761 0.236255 0.433555
0.446128 0.235813 0.43093
0.565438 0.237552 0.430472
0.678599 0.240955 0.431693
0.786664 0.245716 0.434272
0.890333 0.251682 0.438056
0.990082 0.258701 0.442878
0.0105287 0.377325 0.445884
0.181964 0.364858 0.432639
0.318349 0.361852 0.42887
0.442908 0.362036 0.42829
0.55964 0.36434 0.429816
0.670375 0.368261 0.432975
0.77612 0.373541 0.437476
0.877562 0.379965 0.443137
0.975174 0.387427 0.449821
0.0234684 0.498833 0.442359
0.190509 0.487419 0.431601
0.323735 0.485145 0.429969
0.445502 0.485954 0.431449
0.559655 0.488823 0.434974
0.667964 0.493263 0.440085
0.771405 0.499031 0.44651
0.870649 0.505928 0.454063
0.96614 0.513832 0.462623
0.0425269 0.617914 0.444953
0.205188 0.607538 0.436698
0.335271 0.605982 0.437232
0.454246 0.607416 0.440772
0.565835 0.610834 0.446296
0.671733 0.615808 0.453376
0.7729 0.622049 0.461723
0.869932 0.629404 0.471183
0.963302 0.637751 0.481636
0.0679942 0.734432 0.453925
0.226261 0.725124 0.448157
0.353185 0.724285 0.450874
0.469383 0.726329 0.456474
0.578424 0.730312 0.464027
0.68191 0.73579 0.47306
0.780789 0.742519 0.48336
0.875639 0.750332 0.494728
0.966888 0.759121 0.507073
0.0999466 0.848371 0.469413
0.253864 0.840101 0.466163
0.377661 0.839963 0.471061
0.491081 0.842634 0.478752
0.597559 0.847181 0.488304
0.69865 0.853162 0.499321
0.795239 0.86038 0.511559
0.887922 0.86865 0.524849
0.977066 0.877867 0.539086
0.138582 0.959655 0.491585
0.288121 0.952422 0.490837
0.408789 0.953002 0.497917
0.519448 0.956283 0.507683
0.623377 0.961379 0.519265
0.722072 0.96788 0.532265
0.816403 0.97557 0.546456
0.906889 0.984298 0.561669
0.993942 0.993942 0.577813
0 0 0.633326
0.183658 0 0.611475
0.329335 0 0.600061
0.462119 0 0.592111
0.58645 0 0.586465
0.704326 0 0.582559
0.816876 0 0.580072
0.924849 0 0.578836
1 0 0.578698
0.00015259 0.126207 0.612512
0.17998 0.111864 0.593072
0.322423 0.107622 0.583719
0.452338 0.106767 0.577768
0.574014 0.108125 0.574029
0.689387 0.111192 0.572
0.799558 0.115663 0.571359
0.905241 0.121355 0.571939
1 0.128115 0.573602
0.00300603 0.252247 0.593744
0.178408 0.238972 0.576761
0.317662 0.235477 0.569543
0.444755 0.235248 0.565606
0.563821 0.237186 0.563836
0.676738 0.240787 0.563714
0.784588 0.245762 0.564981
0.888029 0.251926 0.567422
0.987579 0.259144 0.570932
0.0108949 0.376287 0.580026
0.181888 0.36408 0.565515
0.317983 0.361303 0.560433
0.442252 0.3617 0.558541
0.55874 0.364218 0.55874
0.66923 0.368338 0.560571
0.774746 0.373816 0.563745
0.875975 0.380438 0.568078
0.973388 0.388113 0.573434
0.0245518 0.498039 0.572061
0.19115 0.486885 0.560037
0.324071 0.484825 0.557107
0.445563 0.485847 0.557275
0.559472 0.48893 0.559472
0.667536 0.493584 0.563256
0.770764 0.499535 0.568353
0.86978 0.50663 0.574578
0.965057 0.514733 0.581811
0.0443427 0.617334 0.570245
0.206561 0.607233 0.560708
0.336339 0.60589 0.559945
0.455039 0.607538 0.562173
0.566369 0.611185 0.566384
0.672038 0.616342 0.572122
0.772961 0.622797 0.579156
0.869795 0.63035 0.587274
0.962951 0.638895 0.596399
0.0705119 0.734112 0.574792
0.228351 0.725048 0.567758
0.354971 0.724422 0.569162
0.470893 0.726696 0.573465
0.579675 0.730877 0.57969
0.682933 0.736568 0.587396
0.781582 0.743496 0.596368
0.876219 0.751507 0.606409
0.967269 0.760494 0.617411
0.103212 0.848264 0.58587
0.256687 0.840253 0.581353
0.380163 0.840345 0.584939
0.493309 0.843229 0.591302
0.599542 0.847974 0.599557
0.700404 0.85417 0.609247
0.796765 0.861585 0.620142
0.88922 0.870054 0.632105
0.978164 0.879469 0.645014
0.142565 0.959777 0.603616
0.291676 0.952804 0.601617
0.412024 0.953613 0.60737
0.522408 0.957107 0.615839
0.626093 0.962402 0.626093
0.724559 0.969116 0.637766
0.818647 0.977005 0.650629
0.908919 0.985931 0.664515
0.995773 0.995773 0.679332
0 0 0.786068
0.181064 0 0.762875
0.326436 0 0.750088
0.458961 0 0.74078
0.583047 0 0.73373
0.700679 0 0.728435
0.813001 0 0.724575
0.92076 0 0.721935
1 0 0.720409
0 0.1243 0.760586
0.178103 0.110231 0.739803
0.320241 0.106218 0.729091
0.449882 0.105577 0.721752
0.571313 0.107149 0.71664
0.686458 0.11043 0.713207
0.796399 0.115114 0.711192
0.901884 0.120989 0.710384
1 0.127962 0.710643
0.00227359 0.250599 0.737179
0.177249 0.237598 0.718853
0.316197 0.234318 0.710262
0.443015 0.234318 0.704952
0.561837 0.236469 0.701793
0.674525 0.240284 0.700282
0.782147 0.245457 0.70016
0.88539 0.25182 0.701213
0.984726 0.259236 0.703319
0.0108949 0.374899 0.718807
0.181476 0.362951 0.702953
0.31725 0.360403 0.696513
0.44126 0.361028 0.693233
0.557488 0.363745 0.692073
0.66775 0.368078 0.6925
0.773053 0.373754 0.694286
0.874067 0.380591 0.697215
0.971267 0.388464 0.701183
0.0252995 0.496895 0.706203
0.191455 0.486 0.692851
0.324086 0.484169 0.688548
0.445304 0.48542 0.687327
0.558953 0.488701 0.688151
0.666789 0.493568 0.690547
0.769787 0.499733 0.69424
0.868605 0.507027 0.699077
0.963684 0.515343 0.704921
0.0458228 0.616449 0.699748
0.207614 0.606607 0.688884
0.337087 0.605493 0.686748
0.455512 0.607355 0.687602
0.566598 0.611215 0.690425
0.672023 0.616587 0.694789
0.772732 0.62324 0.700404
0.869352 0.630991 0.707149
0.96231 0.63975 0.71487
0.0727245 0.733455 0.699657
0.230152 0.724666 0.691295
0.356466 0.724269 0.691341
0.472114 0.726757 0.694255
0.580652 0.731167 0.699092
0.683665 0.737057 0.705425
0.782101 0.744198 0.712993
0.876524 0.752407 0.721645
0.967361 0.761593 0.731258
0.106172 0.847868 0.706111
0.25922 0.840116 0.700267
0.382391 0.840436 0.70248
0.495277 0.843534 0.707469
0.601251 0.848493 0.714336
0.701885 0.854902 0.722637
0.798032 0.862516 0.732143
0.890272 0.871199 0.742718
0.979019 0.880812 0.754223
0.146273 0.959625 0.719234
0.294957 0.952911 0.715892
0.415 0.953948 0.720287
0.525109 0.957656 0.727367
0.62855 0.96318 0.736248
0.726772 0.970092 0.746532
0.820645 0.978195 0.757992
0.910719 0.98732 0.770489
0.99736 0.99736 0.783902
0 0 0.943191
0.178134 0 0.918608
0.323217 0 0.904402
0.455467 0 0.89366
0.579309 0 0.885176
0.696712 0 0.878431
0.80882 0 0.873121
0.916381 0 0.869047
1 0 0.866056
0 0.122072 0.912856
0.175891 0.108263 0.8907
0.317739 0.104494 0.878553
0.44712 0.104067 0.86978
0.568292 0.105867 0.863218
0.683207 0.109361 0.858366
0.79295 0.114244 0.854887
0.898207 0.120348 0.852628
0.999512 0.127504 0.851438
0.00123598 0.248646 0.884611
0.175784 0.235904 0.864897
0.314427 0.232868 0.854887
0.440986 0.233082 0.848142
0.559564 0.235462 0.843549
0.672023 0.239475 0.840604
0.779431 0.244877 0.839017
0.882475 0.251438 0.838636
0.981598 0.259068 0.839277
0.010605 0.373205 0.861418
0.180758 0.361532 0.844175
0.316228 0.359213 0.836301
0.439963 0.360052 0.831601
0.555962 0.362997 0.829007
0.665995 0.367544 0.827985
0.771084 0.373434 0.828321
0.871885 0.380484 0.829801
0.968887 0.388556 0.832319
0.0257572 0.49546 0.843992
0.191501 0.48484 0.829252
0.323812 0.483238 0.823529
0.444755 0.484718 0.820874
0.558175 0.488228 0.820264
0.665782 0.493294 0.82121
0.768566 0.499672 0.823468
0.867185 0.507179 0.826841
0.962051 0.515694 0.831235
0.0470436 0.615274 0.832715
0.208408 0.605707 0.820462
0.337575 0.604822 0.816892
0.455726 0.606912 0.816312
0.566567 0.610986 0.8177
0.671763 0.616587 0.820615
0.772259 0.623438 0.824811
0.868681 0.631403 0.830091
0.961425 0.64036 0.836362
0.0746929 0.732555 0.827817
0.231693 0.724025 0.818067
0.357702 0.723873 0.816678
0.473091 0.726574 0.818158
0.581369 0.731197 0.821561
0.684169 0.737301 0.826444
0.782376 0.744656 0.832563
0.8766 0.753079 0.839765
0.967239 0.762463 0.847929
0.108904 0.847227 0.82945
0.261524 0.83975 0.822202
0.38439 0.840299 0.822995
0.497002 0.843626 0.826566
0.602747 0.848798 0.831983
0.703136 0.855421 0.838834
0.799069 0.863249 0.846906
0.891112 0.872129 0.856016
0.979644 0.881941 0.866087
0.149767 0.959243 0.837751
0.298024 0.952804 0.833021
0.417762 0.95407 0.835996
0.527596 0.958007 0.841642
0.630793 0.963729 0.849088
0.728801 0.970871 0.857923
0.822461 0.979171 0.867933
0.912306 0.98851 0.878981
0.998764 0.998764 0.890944
0 0 1
0.174929 0 1
0.319707 0 1
0.451698 0 1
0.575296 0 1
0.69247 0 1
0.804379 0 1
0.911727 0 1
1 0 1
0 0.11957 1
0.173419 0.106035 1
0.314961 0.102495 1
0.444083 0.102312 1
0.565026 0.104326 1
0.679713 0.108034 1
0.789227 0.11313 1
0.894301 0.119448 0.998093
0.995392 0.126818 0.995392
0 0.246433 1
0.17406 0.233951 1
0.312413 0.231144 1
0.438697 0.231601 0.994568
0.557046 0.234195 0.988495
0.669276 0.238437 0.984054
0.776471 0.244038 0.980987
0.879301 0.250813 0.979095
0.978241 0.258656 0.978241
0.010071 0.371267 1
0.179782 0.359854 0.988571
0.314961 0.357778 0.979232
0.438437 0.358846 0.973053
0.554192 0.362005 0.968948
0.663996 0.366781 0.966445
0.768872 0.372885 0.965286
0.86949 0.380133 0.96527
0.966278 0.388418 0.966278
0.0259556 0.493797 0.984863
0.191302 0.483452 0.968658
0.323308 0.482094 0.961471
0.443992 0.483787 0.957336
0.557168 0.487511 0.95523
0.664561 0.492805 0.954681
0.767132 0.499397 0.955444
0.865538 0.507118 0.957321
0.96022 0.515831 0.96022
0.0480201 0.613886 0.968582
0.208972 0.604578 0.954879
0.337835 0.603937 0.949844
0.455726 0.606271 0.947784
0.566339 0.610559 0.947692
0.671305 0.616358 0.949111
0.771588 0.623438 0.951797
0.867796 0.631617 0.955581
0.960357 0.640772 0.960357
0.0764477 0.731441 0.958694
0.233021 0.723186 0.947509
0.35874 0.723262 0.94464
0.473854 0.726192 0.944656
0.581903 0.731044 0.946563
0.684474 0.737362 0.94995
0.782467 0.74493 0.954574
0.876493 0.753567 0.960281
0.966949 0.763165 0.966949
0.111421 0.846387 0.955352
0.263615 0.83917 0.94667
0.386191 0.839963 0.945983
0.498543 0.843519 0.948074
0.604044 0.84892 0.951995
0.704219 0.855756 0.957366
0.799939 0.863798 0.963943
0.891768 0.872877 0.971557
0.980117 0.882918 0.980117
0.153063 0.958679 0.958679
0.300893 0.952499 0.952499
0.42034 0.954009 0.954009
0.529915 0.958175 0.958175
0.632868 0.964126 0.964126
0.730648 0.971481 0.971481
0.824094 0.979995 0.979995
0.913756 0.989532 0.989532
1 1 1
