lut/ground-control/GroundControl_LoCon.cube
TITLE "Generate by Resolve"
LUT_3D_SIZE 5
0.0792248 0.0988022 0.105394
0.314122 0.092134 0.0987259
0.558267 0.0928511 0.0994583
0.812421 0.0899672 0.0965591
0.966461 0.111009 0.117617
0.0810559 0.33164 0.107225
0.320256 0.329274 0.10486
0.560555 0.326146 0.101732
0.811795 0.320348 0.0959335
0.966217 0.341772 0.117357
0.0760357 0.563607 0.102205
0.316442 0.562463 0.101045
0.560174 0.562768 0.101366
0.817227 0.562783 0.101381
0.978103 0.590646 0.129244
0.0715648 0.813291 0.097734
0.318135 0.818311 0.102754
0.565713 0.822461 0.106905
0.822049 0.821744 0.106188
0.976242 0.842939 0.127382
0.161364 1 0.187533
0.396826 1 0.181445
0.624262 1 0.165454
0.860853 0.993851 0.144991
0.993881 0.993881 0.145037
0.076997 0.0965591 0.328603
0.315114 0.0931258 0.325154
0.55996 0.0945449 0.326589
0.813031 0.0905776 0.322606
0.966751 0.111315 0.343343
0.0814984 0.332082 0.333104
0.320516 0.329534 0.330556
0.560815 0.326406 0.327443
0.812268 0.320821 0.321843
0.967163 0.342733 0.343755
0.0766613 0.564248 0.328267
0.317571 0.563592 0.327626
0.562264 0.564843 0.328878
0.819913 0.565469 0.329488
0.981003 0.593545 0.35758
0.0744182 0.816144 0.326024
0.320989 0.821164 0.331044
0.568032 0.824765 0.334646
0.823407 0.823117 0.332998
0.973693 0.840406 0.350286
0.161837 1 0.413428
0.393393 1 0.403433
0.619776 1 0.386404
0.855451 0.988434 0.365026
0.984161 0.984161 0.360754
0.0749981 0.0945602 0.561044
0.316274 0.0942855 0.560769
0.560739 0.0953231 0.561807
0.812833 0.0903792 0.556848
0.966369 0.110918 0.577401
0.0812238 0.331807 0.567285
0.320104 0.329122 0.564584
0.560479 0.32607 0.561547
0.812253 0.320806 0.556268
0.967636 0.343191 0.578668
0.0767681 0.56434 0.562814
0.318395 0.564401 0.562875
0.563867 0.566461 0.564935
0.82211 0.567651 0.56614
0.9832 0.595758 0.594232
0.0766613 0.818387 0.562707
0.323049 0.823224 0.567544
0.569482 0.82623 0.57055
0.82327 0.822965 0.5673
0.969665 0.836378 0.580697
0.160647 1 0.646693
0.388342 1 0.632837
0.614542 1 0.61561
0.847929 0.980911 0.591959
0.972976 0.972976 0.584009
0.0733196 0.0928969 0.813657
0.31606 0.0940719 0.814832
0.559426 0.0940108 0.814786
0.811139 0.0886702 0.809445
0.964523 0.109071 0.829847
0.0794385 0.330007 0.81976
0.318257 0.327276 0.817029
0.558801 0.324392 0.814145
0.81091 0.319463 0.809216
0.966995 0.34255 0.832303
0.0756695 0.563241 0.816007
0.317983 0.564004 0.816754
0.564355 0.566949 0.819715
0.822919 0.56846 0.821225
0.983841 0.596399 0.849165
0.0774701 0.819196 0.817807
0.323552 0.823713 0.822324
0.569116 0.825849 0.82446
0.820798 0.820508 0.819104
0.963226 0.829938 0.82855
0.155825 1 0.896147
0.381704 1 0.880476
0.607538 0.997574 0.862898
0.838041 0.971023 0.836347
0.959228 0.959228 0.824552
0.0809186 0.100481 0.955932
0.3243 0.102312 0.957763
0.566583 0.101167 0.956619
0.817975 0.0955215 0.950973
0.971313 0.115862 0.971313
0.086244 0.336828 0.961273
0.325078 0.334096 0.958541
0.565835 0.331426 0.955856
0.818433 0.326986 0.951415
0.975189 0.350759 0.975189
0.0833753 0.570947 0.958389
0.326635 0.572641 0.960082
0.573602 0.576181 0.963638
0.832364 0.577905 0.965347
0.992996 0.605539 0.992996
0.0868696 0.828595 0.961883
0.332403 0.832563 0.965866
0.576989 0.833722 0.96701
0.82472 0.824414 0.957702
0.965225 0.831937 0.965225
0.158877 1 1
0.383764 1 1
0.608606 0.998642 0.998642
0.834775 0.967773 0.967773
0.953719 0.953719 0.953719
