lut/ground-control/GroundControl_Punch2.cube
TITLE "Generate by Resolve"
LUT_3D_SIZE 9
0 0 0
0.0628519 0.00906386 0.00906386
0.12903 0.0169528 0.0169528
0.210315 0.0209354 0.0209354
0.298161 0.0233463 0.0233463
0.387274 0.0268559 0.0268559
0.475257 0.0322576 0.0322576
0.563134 0.0415656 0.0415656
0.651621 0.0543832 0.0543832
0 0.0959182 0
0.0950942 0.0950942 0.017792
0.178866 0.0989395 0.0354772
0.270268 0.104875 0.0446937
0.365713 0.113344 0.0534829
0.462196 0.124727 0.0637369
0.555474 0.138277 0.0753643
0.644205 0.154253 0.0879988
0.730129 0.171283 0.101564
0 0.208484 0
0.0955367 0.213428 0.00611887
0.21648 0.21648 0.0327611
0.328466 0.223667 0.0554818
0.431937 0.235096 0.0726177
0.530297 0.248142 0.0866102
0.622843 0.26421 0.101122
0.709957 0.281819 0.116091
0.793118 0.300954 0.132723
0 0.350958 0
0.0935073 0.358633 0.000808728
0.228458 0.360601 0.0244602
0.362875 0.362875 0.049836
0.481987 0.37052 0.074052
0.587366 0.381903 0.0949416
0.681895 0.397513 0.11487
0.768154 0.415167 0.134676
0.847059 0.434333 0.155154
0 0.501244 0
0.09308 0.509972 0
0.233433 0.511406 0.0202182
0.380102 0.511147 0.0430304
0.513756 0.513756 0.0677195
0.630106 0.521553 0.0930495
0.729366 0.534157 0.117418
0.816129 0.549538 0.141939
0.891463 0.567498 0.167636
0 0.651331 0
0.0986648 0.659937 0.00389105
0.241367 0.660639 0.0222171
0.392477 0.657847 0.0412299
0.534676 0.656718 0.0635691
0.659998 0.659998 0.0882124
0.76492 0.668162 0.114168
0.851881 0.679744 0.141161
0.926589 0.693965 0.169589
0.000183108 0.794369 0.000183108
0.114275 0.802029 0.0185855
0.257939 0.800549 0.0334325
0.409842 0.795178 0.0481422
0.554665 0.790204 0.0657816
0.683696 0.788556 0.0870222
0.791638 0.791638 0.11104
0.879149 0.798932 0.137972
0.954498 0.808621 0.167041
0.0296025 0.924529 0.0296025
0.141573 0.929534 0.0447089
0.283589 0.924712 0.0545357
0.433021 0.916091 0.0641031
0.577462 0.907759 0.076585
0.70721 0.902007 0.0933089
0.81593 0.90013 0.113298
0.902556 0.902556 0.13695
0.978454 0.907164 0.163836
0.055848 1 0.055848
0.164981 1 0.0672923
0.304326 1 0.0729381
0.451179 1 0.0776532
0.593317 1 0.0847944
0.722133 1 0.0959182
0.830961 0.995102 0.111833
0.918257 0.994522 0.132815
0.996262 0.996262 0.157504
1.5259e-05 1.5259e-05 0.0892348
0.0643473 0.0128939 0.0643473
0.126055 0.0220035 0.0718242
0.205737 0.026215 0.0766918
0.292775 0.029221 0.0805829
0.381872 0.032929 0.0856489
0.470222 0.0395972 0.0936141
0.55877 0.0497597 0.105959
0.647456 0.0629435 0.121767
0 0.0961318 0.0961318
0.0967727 0.0967727 0.0967727
0.172869 0.104768 0.104768
0.263691 0.112261 0.112261
0.359518 0.122179 0.122179
0.456397 0.133852 0.133852
0.54931 0.147601 0.147601
0.637934 0.163531 0.163531
0.723674 0.180072 0.180072
0 0.21091 0.084123
0.0929274 0.219135 0.0929274
0.220966 0.220966 0.115434
0.327855 0.230182 0.139513
0.426841 0.242893 0.155856
0.523842 0.256825 0.171176
0.615442 0.27274 0.187335
0.702419 0.290608 0.204868
0.785489 0.309178 0.223163
0 0.355138 0.0790417
0.0903639 0.365362 0.0903639
0.229465 0.367086 0.108705
0.368032 0.368032 0.136584
0.483619 0.375769 0.16672
0.584985 0.388418 0.191577
0.676966 0.404501 0.213581
0.761746 0.422248 0.234562
0.840711 0.441367 0.255741
0 0.505776 0.077409
0.0898756 0.516869 0.0898756
0.231632 0.518761 0.106523
0.383108 0.516945 0.129015
0.518288 0.518288 0.159762
0.632395 0.526009 0.192981
0.728649 0.538628 0.222675
0.812711 0.554421 0.249546
0.887068 0.572488 0.275547
0 0.655863 0.0828107
0.0957656 0.666896 0.0957656
0.237873 0.667948 0.110216
0.392386 0.664057 0.127657
0.537682 0.661433 0.153399
0.663478 0.663478 0.186191
0.766323 0.670848 0.219623
0.851179 0.682322 0.251102
0.92398 0.696544 0.281209
0.00230411 0.79852 0.0995956
0.111147 0.80824 0.111147
0.25304 0.807126 0.12253
0.407019 0.800717 0.135714
0.554894 0.794476 0.155337
0.685512 0.791318 0.182742
0.793164 0.793164 0.214313
0.879377 0.799863 0.247211
0.953094 0.809247 0.279484
0.0310063 0.927779 0.128618
0.137423 0.934554 0.137423
0.277516 0.93019 0.144488
0.428397 0.920882 0.15259
0.574945 0.91136 0.166003
0.706538 0.903975 0.187198
0.815778 0.900542 0.213352
0.902083 0.902083 0.243732
0.976974 0.906126 0.275074
0.0560311 1 0.15436
0.159808 1 0.159808
0.29659 1 0.162448
0.444358 1 0.165866
0.588449 1 0.173205
0.71928 1 0.187793
0.829084 0.995026 0.209491
0.917021 0.993698 0.237308
0.994888 0.994888 0.267384
0 0 0.201862
0.076585 0.00985733 0.152895
0.131777 0.0239414 0.131777
0.206363 0.0298314 0.136065
0.29131 0.0335699 0.143725
0.378836 0.0378424 0.152987
0.467308 0.0453498 0.166247
0.555795 0.0565957 0.183505
0.644495 0.0700236 0.202792
0 0.0941176 0.221027
0.0959487 0.0959487 0.212116
0.174807 0.108766 0.174807
0.260868 0.118624 0.185763
0.355138 0.129519 0.200305
0.450935 0.14139 0.215595
0.543023 0.155764 0.231891
0.631434 0.171511 0.249149
0.717189 0.188464 0.267369
0 0.211566 0.211566
0.0934462 0.220462 0.220462
0.223835 0.223835 0.223835
0.320012 0.237537 0.237537
0.418097 0.250645 0.250645
0.515099 0.265217 0.265217
0.607034 0.281209 0.281209
0.694102 0.298878 0.298878
0.777295 0.317372 0.317372
0 0.356374 0.206989
0.0910811 0.367468 0.218158
0.223774 0.372198 0.223774
0.371069 0.371069 0.250507
0.480293 0.380423 0.280598
0.578347 0.394873 0.301213
0.668772 0.411719 0.31986
0.753017 0.429297 0.338567
0.83267 0.448615 0.35845
0 0.507515 0.20647
0.0906386 0.519188 0.218402
0.224918 0.524315 0.224918
0.381445 0.521096 0.243183
0.521004 0.521004 0.277195
0.632166 0.529274 0.311757
0.72433 0.542916 0.339391
0.806821 0.559121 0.363378
0.880308 0.577691 0.38674
0 0.657618 0.212833
0.0960861 0.669047 0.224765
0.230381 0.672801 0.230381
0.387045 0.668421 0.24416
0.537606 0.664302 0.270191
0.665232 0.665232 0.305043
0.766217 0.672557 0.339803
0.848692 0.684398 0.370657
0.919219 0.699046 0.398947
0.00273136 0.799863 0.231632
0.110719 0.80972 0.241764
0.245075 0.811063 0.245075
0.399725 0.804456 0.254292
0.551141 0.796918 0.272801
0.685008 0.79234 0.300587
0.793347 0.793347 0.333516
0.878401 0.799893 0.367742
0.95024 0.809232 0.39971
0.0302586 0.928069 0.262364
0.135744 0.934813 0.269139
0.268482 0.932876 0.268482
0.419501 0.923583 0.272923
0.568826 0.912993 0.284428
0.703182 0.904158 0.304112
0.814008 0.899626 0.331014
0.900587 0.900587 0.362829
0.97464 0.904418 0.395026
0.054078 1 0.28806
0.15671 1 0.291432
0.286397 1 0.286397
0.433433 1 0.286046
0.579446 1 0.291524
0.712993 1 0.304799
0.825528 0.993698 0.326421
0.914595 0.991806 0.355428
0.992767 0.992767 0.386877
0 0 0.335363
0.0805829 0.00479133 0.285389
0.145724 0.0194858 0.231037
0.214527 0.0294804 0.214527
0.294087 0.0357366 0.219287
0.380072 0.0412604 0.230228
0.467735 0.0500649 0.245853
0.555779 0.0624094 0.265263
0.643595 0.0761883 0.286015
0 0.0906386 0.363409
0.0935073 0.0935073 0.346914
0.191165 0.104189 0.291386
0.268803 0.121218 0.268803
0.357153 0.134905 0.280613
0.450278 0.147997 0.297292
0.540902 0.162905 0.315084
0.628138 0.178927 0.333928
0.713512 0.19617 0.353399
0 0.210666 0.360113
0.0928969 0.219928 0.369329
0.224491 0.224491 0.362173
0.32253 0.243061 0.32253
0.414389 0.258274 0.336339
0.509773 0.273274 0.352926
0.601007 0.289448 0.370352
0.687633 0.307027 0.388998
0.771405 0.325475 0.408347
0 0.356313 0.356313
0.0910353 0.367697 0.367697
0.223224 0.372702 0.372702
0.373312 0.373312 0.373312
0.472328 0.387472 0.387472
0.56907 0.402869 0.402869
0.659464 0.419471 0.419471
0.74461 0.437217 0.437217
0.824475 0.456352 0.456352
0 0.507774 0.356008
0.0907149 0.519646 0.367895
0.223987 0.525109 0.373388
0.374182 0.525002 0.374182
0.52314 0.52314 0.401175
0.628519 0.533013 0.432319
0.717189 0.548104 0.454047
0.798459 0.565103 0.47364
0.872175 0.583551 0.494041
0 0.657938 0.362539
0.0956893 0.669306 0.373999
0.229038 0.673289 0.37821
0.378515 0.672206 0.378515
0.534951 0.667033 0.395087
0.6663 0.6663 0.429099
0.764477 0.673915 0.462913
0.843885 0.68687 0.49102
0.912932 0.701976 0.515023
0.00204471 0.799649 0.381186
0.109621 0.8094 0.390631
0.242679 0.810941 0.392248
0.390127 0.807172 0.390127
0.54435 0.799161 0.399908
0.683207 0.792996 0.424186
0.793027 0.793027 0.457145
0.876646 0.799725 0.491203
0.945968 0.809262 0.520943
0.0285344 0.926909 0.411261
0.133471 0.933486 0.417136
0.264378 0.931548 0.414572
0.408804 0.925063 0.408804
0.559579 0.91429 0.413077
0.697536 0.904158 0.428
0.811383 0.898314 0.453269
0.898802 0.898802 0.485405
0.971832 0.902541 0.517555
0.0512551 1 0.435706
0.153231 1 0.438071
0.280919 1 0.430961
0.421225 1 0.421225
0.567926 1 0.420584
0.704982 1 0.429419
0.820554 0.992203 0.448814
0.91165 0.989685 0.477134
0.990356 0.990356 0.5093
0 0 0.472221
0.0804608 0.000518807 0.42446
0.158221 0.0124666 0.357763
0.230076 0.0248112 0.314763
0.303853 0.0345159 0.303853
0.385718 0.0434882 0.310887
0.471717 0.0540169 0.326787
0.558816 0.0671855 0.347082
0.645655 0.0816052 0.368765
0 0.0870985 0.504997
0.0912947 0.0912947 0.485039
0.199405 0.0998245 0.432029
0.287633 0.118486 0.378424
0.368277 0.137224 0.368277
0.455238 0.152987 0.379767
0.543313 0.168887 0.397803
0.628717 0.18526 0.417014
0.7131 0.203128 0.437675
0 0.209598 0.510842
0.0932326 0.219226 0.517205
0.224964 0.224964 0.502785
0.342153 0.239582 0.445838
0.42298 0.262272 0.42298
0.511528 0.279454 0.435798
0.600534 0.296605 0.45449
0.685344 0.314305 0.473945
0.768383 0.333196 0.494469
0 0.356176 0.50808
0.0907301 0.367529 0.519448
0.223316 0.372778 0.524636
0.374136 0.374136 0.514336
0.474754 0.393515 0.474754
0.565652 0.410636 0.489723
0.654505 0.427283 0.507805
0.738811 0.445197 0.526635
0.818799 0.464103 0.545998
0 0.50779 0.50779
0.0907301 0.519829 0.519829
0.223606 0.525048 0.525048
0.373449 0.525338 0.525338
0.525216 0.525216 0.525216
0.620539 0.539498 0.539498
0.708064 0.555306 0.555306
0.78999 0.572229 0.572229
0.864424 0.590326 0.590326
0 0.658015 0.514412
0.0951858 0.669108 0.525475
0.228107 0.672999 0.529305
0.376959 0.67219 0.528649
0.527642 0.670222 0.527642
0.667445 0.667445 0.552377
0.760464 0.676661 0.582132
0.837125 0.690639 0.603021
0.904875 0.706218 0.621561
0.00132753 0.799207 0.532448
0.108324 0.808499 0.541222
0.240589 0.809796 0.542367
0.387167 0.806409 0.538827
0.534554 0.801434 0.534554
0.679194 0.793912 0.547875
0.792813 0.792813 0.578912
0.874098 0.799954 0.610941
0.940536 0.810132 0.63595
0.0267338 0.92546 0.561227
0.131273 0.931807 0.566598
0.261311 0.929793 0.563455
0.404456 0.923354 0.556069
0.548394 0.915175 0.548394
0.689509 0.90428 0.553826
0.808057 0.897246 0.574365
0.896986 0.896986 0.605371
0.9691 0.900969 0.636225
0.0485389 1 0.584527
0.149645 1 0.585992
0.276295 1 0.5785
0.415396 1 0.566964
0.555886 1 0.555886
0.694743 1 0.557107
0.814374 0.991058 0.57113
0.908553 0.987778 0.597314
0.988144 0.988144 0.62829
0 0 0.603983
0.0792096 0 0.559442
0.166079 0.00642405 0.49221
0.246113 0.0184482 0.431662
0.319799 0.0308995 0.402029
0.398169 0.0432136 0.398169
0.480446 0.0569619 0.409934
0.564828 0.0716259 0.428672
0.650446 0.0867323 0.450263
0 0.0846418 0.639017
0.0899214 0.0899214 0.618326
0.203235 0.0975357 0.570123
0.304738 0.114137 0.507225
0.387182 0.135317 0.47187
0.467903 0.155138 0.467903
0.550378 0.17319 0.479866
0.633249 0.191043 0.497948
0.715938 0.209186 0.518303
0 0.209567 0.652796
0.0943313 0.219638 0.655375
0.225986 0.225986 0.637644
0.353384 0.236988 0.584802
0.443519 0.260395 0.532555
0.523125 0.282628 0.523125
0.605295 0.302083 0.535698
0.688136 0.320806 0.554894
0.769451 0.340215 0.575372
0 0.356771 0.652308
0.0910811 0.368078 0.663539
0.225315 0.373342 0.666163
0.375311 0.375311 0.648798
0.495048 0.390921 0.594644
0.574548 0.414862 0.574548
0.656657 0.433661 0.588022
0.738399 0.45243 0.606928
0.816907 0.471412 0.626642
0 0.508553 0.652369
0.09131 0.520577 0.664408
0.22414 0.525612 0.66923
0.374075 0.525963 0.669551
0.526497 0.526497 0.659297
0.622629 0.545419 0.622629
0.704952 0.562585 0.637507
0.785138 0.579705 0.655314
0.858763 0.59733 0.673167
0 0.65861 0.65861
0.0953536 0.66949 0.66949
0.228107 0.673213 0.673213
0.376852 0.672343 0.672343
0.526696 0.670298 0.670298
0.668879 0.668879 0.668879
0.753002 0.68217 0.68217
0.829114 0.696544 0.696544
0.897276 0.711818 0.711818
0.0011902 0.799252 0.675639
0.107897 0.80827 0.684153
0.239704 0.809354 0.684886
0.385687 0.805631 0.681147
0.532082 0.800671 0.675715
0.671565 0.796002 0.671565
0.793072 0.793072 0.693385
0.870146 0.801343 0.72015
0.933654 0.812421 0.737652
0.0256199 0.924544 0.702815
0.129595 0.930373 0.707683
0.259159 0.928374 0.704616
0.401877 0.921675 0.696773
0.544289 0.913298 0.687663
0.679667 0.904967 0.679667
0.803555 0.897047 0.689418
0.895766 0.895766 0.717098
0.965789 0.900145 0.745144
0.0463111 1 0.724453
0.146624 1 0.725444
0.272618 1 0.717723
0.411124 1 0.706111
0.550286 1 0.693538
0.683604 1 0.683604
0.806836 0.990723 0.688884
0.905531 0.986664 0.709667
0.98674 0.98674 0.739025
0 0 0.72253
0.0781415 0 0.681315
0.171359 0.00215152 0.618311
0.259602 0.0129244 0.551354
0.337331 0.0267338 0.506874
0.415 0.0418097 0.490639
0.494697 0.0581521 0.494697
0.575494 0.0745861 0.508644
0.658152 0.0914168 0.528069
0 0.0834669 0.757687
0.0899519 0.0899519 0.73753
0.206744 0.0974594 0.695003
0.31783 0.111757 0.634119
0.406989 0.132769 0.5841
0.486412 0.154971 0.562829
0.56379 0.175509 0.56379
0.642267 0.195712 0.576486
0.721691 0.215259 0.594247
0 0.210727 0.775845
0.0965744 0.22153 0.776669
0.227817 0.227817 0.757397
0.360327 0.237369 0.711437
0.462547 0.257816 0.651789
0.542504 0.282567 0.619715
0.618112 0.30518 0.618112
0.695354 0.326513 0.631052
0.77406 0.346853 0.64976
0 0.35874 0.779538
0.0934157 0.370108 0.789487
0.228565 0.375143 0.788174
0.377935 0.377935 0.769009
0.50779 0.389914 0.72076
0.594171 0.414099 0.673945
0.667826 0.437644 0.667826
0.743526 0.45864 0.680873
0.819333 0.47808 0.699214
0 0.510765 0.779583
0.092958 0.522744 0.791608
0.226047 0.527321 0.796323
0.377035 0.527779 0.794247
0.528572 0.528572 0.778393
0.641474 0.543542 0.729381
0.713451 0.567025 0.713451
0.787488 0.586069 0.726787
0.858625 0.604028 0.744183
0 0.660517 0.785199
0.0968338 0.671305 0.79585
0.229618 0.674815 0.799695
0.378042 0.673762 0.798932
0.527596 0.671168 0.79646
0.67013 0.67013 0.786252
0.755215 0.687327 0.755215
0.826215 0.702953 0.768109
0.893248 0.718044 0.783856
0.00230411 0.800641 0.800641
0.108721 0.809293 0.809293
0.24033 0.810086 0.810086
0.385901 0.806027 0.806027
0.531823 0.800702 0.800702
0.670588 0.795926 0.795926
0.794293 0.794293 0.794293
0.863569 0.805646 0.805646
0.92665 0.816907 0.816907
0.0258946 0.924971 0.825788
0.129458 0.930358 0.83093
0.258656 0.928084 0.827909
0.400778 0.92105 0.82034
0.542382 0.912123 0.810636
0.676875 0.9037 0.801968
0.796674 0.898192 0.796674
0.895552 0.895552 0.814984
0.962036 0.901427 0.836789
0.0452735 1 0.845808
0.14522 1 0.847089
0.270588 1 0.839628
0.408728 1 0.828168
0.547585 1 0.81561
0.679942 0.998611 0.804898
0.798535 0.991424 0.798535
0.9019 0.986786 0.809277
0.986587 0.986587 0.834302
0 0 0.825803
0.0777905 0 0.790372
0.175418 0 0.733547
0.27039 0.00843824 0.667002
0.35436 0.0228428 0.614633
0.433707 0.0398413 0.587259
0.511894 0.0582132 0.582238
0.590219 0.076585 0.590219
0.669734 0.0950942 0.605142
0 0.084123 0.857847
0.0912947 0.0912947 0.841199
0.210758 0.0989395 0.805997
0.328054 0.111223 0.751812
0.424704 0.130938 0.696773
0.50663 0.153811 0.662577
0.581659 0.176425 0.651896
0.656291 0.198856 0.656291
0.732021 0.220066 0.669062
0 0.213947 0.877791
0.100099 0.225071 0.878035
0.231296 0.231296 0.860975
0.366247 0.239643 0.823087
0.477729 0.256901 0.76759
0.562921 0.281483 0.722591
0.636393 0.306294 0.705867
0.708995 0.330098 0.70901
0.782498 0.352148 0.721523
0 0.362158 0.883543
0.0977035 0.373877 0.892561
0.23331 0.378897 0.889616
0.381964 0.381964 0.87126
0.516136 0.391669 0.832303
0.61297 0.412726 0.781033
0.686351 0.43856 0.755703
0.755611 0.462394 0.755611
0.825757 0.483955 0.76788
0 0.514778 0.884565
0.0958419 0.526177 0.896117
0.230426 0.530907 0.900252
0.382223 0.531182 0.895994
0.532326 0.532326 0.878981
0.654459 0.543404 0.839216
0.731823 0.567178 0.802136
0.797375 0.589975 0.797375
0.862654 0.609567 0.808988
0 0.66392 0.889403
0.0998093 0.674403 0.900252
0.232731 0.678019 0.904112
0.381003 0.676738 0.903288
0.531212 0.673747 0.899199
0.672923 0.672923 0.88481
0.772152 0.686107 0.846769
0.833112 0.706935 0.833112
0.894514 0.723598 0.843854
0.00485237 0.803479 0.903456
0.111116 0.81178 0.91194
0.242618 0.81239 0.912886
0.387869 0.807965 0.909224
0.533165 0.80206 0.903624
0.671839 0.797147 0.899245
0.795697 0.795697 0.890471
0.8654 0.809934 0.8654
0.924056 0.822065 0.875029
0.0277409 0.92694 0.92694
0.130999 0.932036 0.932036
0.259831 0.929366 0.929366
0.401465 0.921798 0.921798
0.542489 0.912398 0.912398
0.6766 0.90367 0.90367
0.795712 0.898009 0.898009
0.896651 0.896651 0.896651
0.95697 0.905409 0.905409
0.0458381 1 0.945083
0.145403 1 0.946532
0.270405 1 0.939635
0.408209 1 0.928283
0.546746 1 0.916457
0.678889 0.998093 0.905837
0.796902 0.991058 0.899062
0.897154 0.988602 0.897154
0.987686 0.987686 0.91397
0 0 0.914641
0.0786908 0 0.883894
0.17937 0 0.836286
0.28014 0.00546273 0.777417
0.370077 0.0195163 0.722927
0.453056 0.0378119 0.688258
0.531197 0.0576333 0.674586
0.607645 0.0776226 0.675074
0.684642 0.097673 0.684642
0 0.0861982 0.946685
0.0941176 0.0941176 0.931579
0.215259 0.101717 0.901473
0.33695 0.112245 0.856764
0.440589 0.129946 0.806607
0.526558 0.152285 0.765652
0.601816 0.176379 0.74461
0.673777 0.200214 0.74023
0.746075 0.223636 0.746075
0 0.218051 0.969619
0.104463 0.229541 0.968811
0.235798 0.235798 0.951675
0.372305 0.243351 0.918349
0.490105 0.258122 0.871962
0.581979 0.280598 0.826185
0.656992 0.306294 0.799298
0.726772 0.331975 0.791684
0.795743 0.356023 0.795743
0 0.366629 0.978134
0.102663 0.378378 0.985321
0.23856 0.383413 0.98027
0.386908 0.386908 0.961761
0.523232 0.395148 0.927611
0.629252 0.413016 0.882139
0.706691 0.438346 0.84863
0.773266 0.463966 0.83537
0.837812 0.488029 0.837812
0 0.519402 0.980728
0.10016 0.530602 0.991608
0.235752 0.53521 0.994125
0.38764 0.535378 0.987015
0.536721 0.536721 0.968704
0.663325 0.545861 0.934157
0.750454 0.566735 0.894209
0.814389 0.591104 0.873533
0.87306 0.613581 0.87306
0 0.668208 0.985428
0.103532 0.678523 0.996139
0.236408 0.681895 0.999802
0.385153 0.679942 0.997681
0.535668 0.676631 0.990372
0.676341 0.676341 0.97351
0.78381 0.686213 0.939712
0.849058 0.70692 0.907774
0.902861 0.727199 0.902861
0.00798047 0.806836 0.998718
0.114199 0.814923 1
0.245396 0.815137 1
0.390387 0.810422 1
0.535409 0.804227 0.998016
0.674846 0.79884 0.991226
0.797574 0.797574 0.977539
0.87895 0.808454 0.943374
0.929534 0.825101 0.929534
0.0298009 0.929091 1
0.132982 0.934142 1
0.26154 0.931121 1
0.40267 0.922972 1
0.543282 0.913222 1
0.677119 0.904219 0.996536
0.796017 0.898283 0.990372
0.897169 0.897169 0.982193
0.958358 0.90901 0.958358
0.0467994 1 1
0.146029 1 1
0.270756 1 1
0.408194 1 1
0.5467 1 1
0.678752 0.998123 0.998123
0.796719 0.991119 0.991119
0.896727 0.98883 0.98883
0.988769 0.988769 0.988769
