lut/ground-control/GroundControl_Grunge2.cube
TITLE "Generate by Resolve"
LUT_3D_SIZE 9
0 0 0
0.0305486 0.0254978 0.0254978
0.0673991 0.0493019 0.0493019
0.109712 0.0716259 0.0716259
0.157076 0.0925917 0.0925917
0.209262 0.112245 0.112245
0.266087 0.130663 0.130663
0.327382 0.14786 0.14786
0.393042 0.163882 0.163882
0.0814069 0.0925612 0.0814069
0.123232 0.115328 0.100832
0.168246 0.137224 0.119402
0.217792 0.157916 0.136751
0.271855 0.177371 0.15288
0.330343 0.195636 0.167819
0.393149 0.212726 0.181567
0.460197 0.228687 0.194186
0.531411 0.243519 0.205692
0.145998 0.191852 0.145998
0.198978 0.211917 0.159228
0.252033 0.231968 0.172442
0.308705 0.251041 0.184695
0.369329 0.269062 0.195865
0.433997 0.285969 0.205951
0.502678 0.301808 0.214954
0.575372 0.316564 0.222858
0.651972 0.330251 0.22974
0.193271 0.298024 0.193271
0.257359 0.315419 0.200275
0.31841 0.333639 0.208087
0.382162 0.351141 0.215183
0.449317 0.367712 0.221347
0.520088 0.383307 0.226566
0.594614 0.397879 0.230747
0.672908 0.41146 0.233906
0.754955 0.424002 0.236057
0.222965 0.4112 0.222965
0.298146 0.425925 0.223743
0.367163 0.442329 0.226108
0.437949 0.458259 0.228016
0.511589 0.473411 0.229145
0.588495 0.487678 0.229419
0.668818 0.50103 0.228748
0.752651 0.513436 0.227146
0.84007 0.524865 0.224552
0.234928 0.531441 0.234928
0.321141 0.543526 0.229358
0.398108 0.558114 0.226291
0.475929 0.572473 0.223011
0.556039 0.586221 0.219089
0.639017 0.599191 0.214405
0.725124 0.611307 0.208835
0.814496 0.622538 0.202472
0.907225 0.632868 0.195163
0.228977 0.658808 0.228977
0.326223 0.668269 0.217105
0.411109 0.681041 0.208545
0.495933 0.693858 0.2
0.582513 0.706172 0.191089
0.671534 0.717845 0.18143
0.763409 0.72874 0.171023
0.858305 0.738827 0.159792
0.956359 0.748058 0.147707
0.20502 0.793362 0.20502
0.313283 0.800168 0.186831
0.406104 0.811139 0.172808
0.497917 0.8224 0.15906
0.590906 0.833341 0.144991
0.685985 0.843702 0.130358
0.783597 0.853391 0.115053
0.884001 0.862333 0.09897
0.98735 0.870466 0.0821088
0.162966 0.935103 0.162966
0.282231 0.939284 0.13843
0.38294 0.94847 0.118914
0.481727 0.95819 0.0999161
0.58114 0.967727 0.0807355
0.682246 0.976806 0.0611124
0.785595 0.98529 0.0408789
0.891478 0.993088 0.0199588
1 1 0
0.0089723 0.0089723 0.00970474
0.0407263 0.0339361 0.0369421
0.0784924 0.0572824 0.0625772
0.121599 0.0791791 0.0867628
0.169726 0.099733 0.10959
0.222614 0.11899 0.131136
0.28011 0.137011 0.151431
0.342077 0.153826 0.17052
0.408362 0.169467 0.188449
0.0890211 0.101305 0.0974289
0.132067 0.123522 0.118593
0.177966 0.144976 0.138994
0.228321 0.165225 0.15819
0.283131 0.184283 0.176196
0.342321 0.202152 0.192996
0.405814 0.218845 0.208652
0.473533 0.234409 0.223163
0.545388 0.248859 0.236561
0.152193 0.200381 0.168276
0.206394 0.219913 0.183261
0.260349 0.239506 0.198306
0.31783 0.258152 0.212406
0.379202 0.275746 0.225452
0.444572 0.292271 0.237415
0.513954 0.307713 0.248295
0.587304 0.322072 0.258106
0.664546 0.335378 0.26688
0.198047 0.30634 0.221805
0.263355 0.323201 0.230549
0.325307 0.340963 0.240192
0.389868 0.358038 0.249149
0.45774 0.374197 0.257221
0.529259 0.389395 0.264271
0.604471 0.403571 0.270344
0.683406 0.416754 0.275395
0.766094 0.428931 0.279454
0.226322 0.419318 0.257755
0.302708 0.433509 0.260258
0.372625 0.449454 0.264469
0.444221 0.464958 0.268223
0.518624 0.479698 0.271229
0.596231 0.493568 0.273381
0.677226 0.506523 0.274601
0.76173 0.518532 0.274876
0.84979 0.52958 0.274205
0.236835 0.539345 0.275944
0.324254 0.550912 0.272129
0.402136 0.565042 0.270893
0.480766 0.578973 0.269459
0.561624 0.592294 0.267414
0.645304 0.604868 0.264591
0.732113 0.616587 0.260914
0.822126 0.627436 0.256458
0.915511 0.637385 0.251041
0.22945 0.666529 0.276219
0.327901 0.675441 0.266087
0.413687 0.68777 0.259358
0.499336 0.70013 0.252735
0.586648 0.712062 0.245624
0.676387 0.723323 0.237858
0.768933 0.733837 0.229328
0.8645 0.743526 0.220005
0.963195 0.752377 0.209812
0.204044 0.80087 0.258503
0.313527 0.807141 0.242054
0.407233 0.81767 0.229862
0.499855 0.828489 0.21796
0.593606 0.839017 0.205768
0.689387 0.848997 0.193011
0.787671 0.858289 0.179583
0.888731 0.866835 0.165408
0.992737 0.874586 0.150439
0.160525 0.942428 0.22266
0.28101 0.946059 0.199863
0.38262 0.954803 0.182177
0.482216 0.96408 0.165026
0.582391 0.973205 0.147738
0.684199 0.981903 0.129992
0.78822 0.98999 0.11165
0.894774 0.997391 0.0926223
1 1 0.0728618
0.017792 0.017792 0.0213016
0.050721 0.0421759 0.0509651
0.0893263 0.0650034 0.0791333
0.133181 0.0864271 0.105852
0.18201 0.106508 0.131243
0.235554 0.125322 0.155352
0.29369 0.142885 0.178241
0.356237 0.159258 0.199908
0.423117 0.174472 0.220432
0.0962997 0.109712 0.117662
0.140505 0.13135 0.141268
0.187259 0.1523 0.164172
0.238361 0.172061 0.185916
0.293873 0.190646 0.206485
0.353719 0.208057 0.225864
0.417838 0.224323 0.244083
0.486152 0.239445 0.261189
0.558587 0.253452 0.277165
0.1579 0.208392 0.197101
0.213245 0.227329 0.214511
0.268055 0.246433 0.23209
0.326284 0.264591 0.248722
0.388357 0.281727 0.264332
0.454383 0.297795 0.278859
0.524392 0.312779 0.292332
0.598306 0.326711 0.304738
0.676188 0.339574 0.316075
0.202152 0.31397 0.259205
0.268605 0.330236 0.27039
0.331411 0.347494 0.282551
0.396719 0.36408 0.294041
0.465309 0.379782 0.304662
0.537469 0.394522 0.31429
0.613306 0.408255 0.322942
0.692851 0.420996 0.330587
0.77612 0.432731 0.337224
0.228809 0.426551 0.303716
0.306355 0.440162 0.308644
0.377127 0.455604 0.315373
0.44947 0.470619 0.321675
0.524559 0.484886 0.32726
0.602823 0.498314 0.331975
0.684459 0.510811 0.335775
0.769574 0.522377 0.338643
0.858198 0.532998 0.340536
0.237705 0.546212 0.330465
0.326284 0.557168 0.329091
0.405005 0.570794 0.330373
0.484382 0.584253 0.331472
0.565942 0.597116 0.331991
0.650294 0.609216 0.331746
0.737697 0.620508 0.330709
0.828336 0.630915 0.328771
0.922301 0.640421 0.325948
0.228687 0.672999 0.3393
0.328283 0.681331 0.331594
0.414939 0.693156 0.327398
0.501335 0.705043 0.323308
0.589349 0.716487 0.318761
0.679744 0.727306 0.313558
0.772915 0.737362 0.307622
0.869078 0.746624 0.300862
0.968353 0.755032 0.293263
0.201648 0.806958 0.330114
0.312291 0.81265 0.316106
0.406851 0.822675 0.306432
0.500221 0.833021 0.297078
0.594675 0.843076 0.287449
0.691112 0.852598 0.277256
0.790021 0.861433 0.266407
0.891691 0.869551 0.254826
0.996277 0.876875 0.242451
0.156497 0.94815 0.302815
0.278141 0.951202 0.282475
0.380606 0.959426 0.267292
0.480949 0.968231 0.252689
0.581811 0.976898 0.237949
0.684291 0.985122 0.222782
0.788937 0.992767 0.207019
0.896086 0.999725 0.19057
1 1 0.173404
0.0264439 0.0264439 0.0351415
0.0605173 0.0502022 0.0675975
0.0999313 0.0725109 0.0986038
0.144518 0.093431 0.128206
0.194003 0.113008 0.156497
0.248188 0.131334 0.183505
0.30692 0.14844 0.209308
0.370062 0.16434 0.233906
0.437491 0.17908 0.257343
0.103319 0.117876 0.141268
0.148653 0.138888 0.167636
0.196231 0.159304 0.193408
0.248066 0.178561 0.218036
0.304234 0.196658 0.241489
0.364721 0.213581 0.263783
0.42945 0.229358 0.284932
0.498344 0.244022 0.304952
0.571328 0.257572 0.323857
0.163241 0.216052 0.230442
0.21973 0.234379 0.250629
0.275349 0.252949 0.271046
0.33431 0.270604 0.290562
0.397055 0.287236 0.309071
0.463722 0.302831 0.326513
0.534325 0.317342 0.342885
0.608804 0.330816 0.358206
0.687251 0.343206 0.372473
0.205798 0.321157 0.302251
0.273396 0.336812 0.316197
0.337026 0.353536 0.331228
0.403052 0.369619 0.345602
0.472313 0.384817 0.359106
0.545113 0.399069 0.371649
0.621546 0.412345 0.383215
0.701671 0.424613 0.393774
0.785489 0.435889 0.403357
0.230808 0.433249 0.356466
0.309438 0.44625 0.364157
0.381033 0.461158 0.373739
0.454109 0.47567 0.382925
0.52987 0.489448 0.391409
0.608759 0.502388 0.399023
0.691005 0.514427 0.405753
0.776684 0.525521 0.411536
0.865888 0.535683 0.416373
0.237949 0.552453 0.392905
0.327672 0.562799 0.394293
0.407218 0.575891 0.398428
0.487312 0.58883 0.402426
0.569543 0.601205 0.405829
0.654521 0.612833 0.408484
0.742535 0.623636 0.410376
0.833753 0.633585 0.411353
0.928267 0.642634 0.41146
0.227207 0.678782 0.411414
0.327947 0.686488 0.406485
0.415412 0.69778 0.405142
0.502556 0.709148 0.403952
0.591241 0.720119 0.402289
0.682261 0.730449 0.4
0.776043 0.740032 0.396963
0.87277 0.748821 0.393133
0.97261 0.756771 0.388464
0.198474 0.812268 0.411917
0.310246 0.817334 0.400687
0.405631 0.826825 0.393866
0.499718 0.836667 0.387396
0.594842 0.846235 0.380652
0.691905 0.855268 0.373373
0.791424 0.863645 0.365454
0.893675 0.87129 0.356771
0.99881 0.878141 0.347326
0.151598 0.952987 0.394293
0.274372 0.955413 0.376715
0.377646 0.963119 0.364401
0.478721 0.97142 0.352682
0.580255 0.979583 0.340841
0.68336 0.987335 0.328573
0.788617 0.994507 0.315724
0.896345 1 0.302205
1 1 0.287892
0.0349126 0.0349126 0.0514229
0.0700847 0.0580148 0.0869001
0.110307 0.0797742 0.121004
0.155596 0.100175 0.153735
0.205737 0.119249 0.185168
0.260548 0.137072 0.215335
0.31986 0.153674 0.244282
0.383551 0.1691 0.272038
0.451514 0.183368 0.29865
0.110079 0.125765 0.168139
0.156527 0.146151 0.197528
0.204913 0.166003 0.226398
0.25745 0.184741 0.254154
0.31429 0.202319 0.280735
0.375372 0.218753 0.306172
0.440681 0.234043 0.33048
0.51014 0.248219 0.353658
0.583658 0.261295 0.375738
0.168261 0.223407 0.267857
0.225864 0.241093 0.291051
0.282292 0.259098 0.314565
0.341955 0.276234 0.337209
0.405356 0.292363 0.358846
0.472633 0.307454 0.379446
0.543816 0.321477 0.398978
0.618875 0.334462 0.417456
0.697856 0.34638 0.434882
0.209079 0.327962 0.350179
0.27779 0.342977 0.367147
0.342214 0.359152 0.38526
0.408942 0.374716 0.402762
0.478874 0.38941 0.419394
0.552285 0.403159 0.435096
0.629297 0.41593 0.449821
0.709987 0.427726 0.463554
0.794339 0.438514 0.476295
0.232303 0.439521 0.414908
0.312062 0.451896 0.425605
0.384451 0.466255 0.4383
0.458244 0.480232 0.450614
0.534661 0.493507 0.462211
0.61416 0.505943 0.472984
0.696986 0.517479 0.482872
0.78323 0.528099 0.491814
0.872969 0.537774 0.499825
0.23769 0.55819 0.461845
0.328527 0.567895 0.466255
0.408865 0.580438 0.473487
0.489677 0.592859 0.480598
0.572564 0.604715 0.487144
0.658152 0.615839 0.492958
0.746746 0.626169 0.497993
0.838529 0.635615 0.502144
0.933577 0.64419 0.505409
0.225177 0.683986 0.490867
0.327031 0.691051 0.488945
0.41532 0.701778 0.49073
0.503151 0.712642 0.492622
0.592477 0.723095 0.494102
0.684123 0.732921 0.494957
0.778485 0.742031 0.495079
0.875776 0.750332 0.494423
0.97615 0.757794 0.492912
0.194659 0.816953 0.501854
0.307546 0.821378 0.493629
0.403723 0.83032 0.489906
0.498527 0.839628 0.486564
0.594293 0.848692 0.482963
0.691981 0.857221 0.478828
0.792081 0.86511 0.474052
0.894881 0.872267 0.468544
1 0.878645 0.462272
0.145983 0.957137 0.494713
0.269886 0.958938 0.480156
0.373968 0.966079 0.470939
0.475746 0.973846 0.462333
0.577935 0.981506 0.453635
0.681651 0.988754 0.444511
0.787488 0.995438 0.434821
0.895781 1 0.42446
1 1 0.413352
0.0431678 0.0431678 0.0703136
0.0794385 0.0656291 0.109026
0.120439 0.0868238 0.146426
0.16643 0.106661 0.182467
0.217212 0.125216 0.217212
0.272618 0.142535 0.250721
0.332494 0.158633 0.283024
0.396735 0.173556 0.314137
0.465232 0.18732 0.344106
0.116594 0.13341 0.198276
0.164141 0.15314 0.230869
0.213306 0.172427 0.263035
0.266545 0.190631 0.294087
0.32401 0.207691 0.32401
0.385702 0.22359 0.352789
0.451575 0.238376 0.380438
0.521569 0.252049 0.406973
0.595621 0.264637 0.43241
0.172992 0.230442 0.309178
0.231693 0.247486 0.335576
0.288914 0.264927 0.362387
0.349264 0.281529 0.388342
0.413306 0.297124 0.413306
0.481178 0.311696 0.437232
0.55288 0.325231 0.460105
0.628534 0.337697 0.481941
0.708034 0.349111 0.502739
0.211994 0.334417 0.40267
0.281804 0.348775 0.422827
0.347021 0.364401 0.444251
0.41445 0.3794 0.465034
0.485008 0.393576 0.485008
0.559014 0.406806 0.504051
0.636606 0.419089 0.522133
0.71783 0.430365 0.539208
0.802716 0.440665 0.555306
0.233417 0.445396 0.478538
0.314275 0.457099 0.492439
0.387457 0.470893 0.508431
0.461936 0.484337 0.524056
0.538979 0.497078 0.538994
0.619089 0.50901 0.553109
0.70248 0.520043 0.566323
0.789273 0.530159 0.578637
0.879545 0.53933 0.590005
0.236973 0.56347 0.536629
0.328908 0.572534 0.544244
0.41004 0.584512 0.554772
0.491554 0.596384 0.565194
0.575067 0.607721 0.575067
0.66125 0.618326 0.584237
0.750423 0.628138 0.592599
0.842741 0.637095 0.600107
0.938323 0.645167 0.606729
0.222629 0.688685 0.576791
0.325582 0.695109 0.578088
0.414679 0.705272 0.583154
0.503182 0.715587 0.588357
0.593164 0.725521 0.593164
0.685405 0.734829 0.59736
0.780331 0.74342 0.600839
0.878157 0.751217 0.603525
0.979065 0.758206 0.605386
0.19028 0.821073 0.598917
0.304265 0.824842 0.593896
0.401236 0.833219 0.593454
0.496742 0.841993 0.593423
0.593149 0.850523 0.593149
0.691432 0.858549 0.592371
0.792096 0.865919 0.590936
0.895445 0.872572 0.588785
1 0.878462 0.58587
0.139788 0.960678 0.602914
0.264775 0.961822 0.591546
0.36965 0.968414 0.585611
0.472114 0.975631 0.580331
0.574945 0.982773 0.57496
0.679271 0.989502 0.569177
0.785657 0.995666 0.562829
0.894499 1 0.555825
1 1 0.548104
0.051194 0.051194 0.0920424
0.0885634 0.0729992 0.134066
0.130343 0.0936141 0.174899
0.17702 0.112917 0.21442
0.228428 0.130938 0.252674
0.284413 0.147707 0.289677
0.344839 0.163287 0.325475
0.409613 0.177707 0.360113
0.478614 0.190967 0.393606
0.12285 0.140795 0.231708
0.171481 0.159854 0.267674
0.221424 0.178576 0.303273
0.275334 0.196216 0.337804
0.333425 0.212741 0.371221
0.395712 0.228122 0.403494
0.462135 0.24239 0.434653
0.532662 0.255543 0.464698
0.607233 0.267613 0.49366
0.177417 0.237201 0.354314
0.237201 0.253574 0.384085
0.295201 0.270436 0.414343
0.356237 0.286473 0.443778
0.42089 0.301549 0.472236
0.489357 0.315587 0.499657
0.561624 0.328588 0.526024
0.637797 0.340551 0.551385
0.717815 0.351461 0.575708
0.214572 0.340536 0.459525
0.285481 0.354238 0.483055
0.351461 0.369268 0.507912
0.419577 0.383719 0.532174
0.490761 0.39736 0.555642
0.565347 0.410071 0.57818
0.643488 0.42182 0.599771
0.725246 0.432593 0.620371
0.810651 0.44239 0.639979
0.234134 0.450874 0.547082
0.316091 0.461921 0.564355
0.390036 0.475135 0.58378
0.465202 0.488029 0.602884
0.542885 0.500237 0.621317
0.623575 0.511635 0.638926
0.707515 0.522148 0.655665
0.794842 0.531746 0.671489
0.885573 0.540429 0.686381
0.235843 0.568322 0.616861
0.328862 0.576715 0.627832
0.410773 0.588129 0.64181
0.492958 0.599451 0.655711
0.577096 0.610239 0.669093
0.663874 0.620325 0.681743
0.753597 0.629618 0.693614
0.846448 0.638056 0.704631
0.942535 0.645624 0.714778
0.219608 0.692912 0.668711
0.323659 0.69868 0.673381
0.413535 0.708263 0.68188
0.502724 0.718029 0.690547
0.593317 0.727413 0.698848
0.686152 0.736202 0.706554
0.781628 0.744274 0.713527
0.880003 0.751568 0.719722
0.981399 0.758038 0.725109
0.185397 0.824674 0.70251
0.300481 0.827802 0.700847
0.398215 0.835599 0.703853
0.494408 0.843809 0.707301
0.59144 0.851804 0.710506
0.690303 0.859297 0.713222
0.791531 0.866148 0.715312
0.895399 0.872297 0.71667
1 0.877668 0.717266
0.133028 0.963668 0.718166
0.259098 0.964157 0.71017
0.364752 0.970153 0.707683
0.467903 0.976837 0.705867
0.571359 0.983429 0.70399
0.676265 0.989639 0.701701
0.783215 0.995285 0.698863
0.892576 1 0.695354
1 1 0.691188
0.0590219 0.0590219 0.116579
0.0974594 0.0801556 0.162112
0.140002 0.100175 0.206531
0.18735 0.118898 0.249668
0.239368 0.13637 0.291539
0.295933 0.152621 0.332174
0.356909 0.167666 0.371633
0.422187 0.181552 0.409918
0.491707 0.194293 0.447074
0.128832 0.147921 0.268482
0.178546 0.166308 0.307927
0.229252 0.184436 0.347127
0.283848 0.201526 0.385275
0.34255 0.217487 0.422309
0.405402 0.232334 0.458228
0.472374 0.246067 0.493034
0.54342 0.258701 0.526741
0.618494 0.270253 0.55935
0.181537 0.243641 0.403265
0.242405 0.259342 0.436545
0.301167 0.275624 0.470375
0.362875 0.291096 0.503426
0.428153 0.305623 0.535515
0.497185 0.319112 0.566583
0.570016 0.331594 0.596582
0.646708 0.343023 0.625605
0.727214 0.353429 0.65359
0.216831 0.346303 0.520638
0.288792 0.359335 0.547677
0.355566 0.373785 0.576074
0.424338 0.387686 0.603998
0.496132 0.400763 0.631098
0.571298 0.412924 0.657267
0.649989 0.424155 0.682506
0.732265 0.434409 0.706752
0.818158 0.443671 0.730037
0.234485 0.456001 0.620356
0.317525 0.466377 0.641138
0.392233 0.478996 0.664149
0.468071 0.49131 0.68687
0.546365 0.502968 0.708919
0.627634 0.513832 0.730175
0.712123 0.523812 0.750561
0.799969 0.532891 0.770047
0.891203 0.541054 0.788586
0.234302 0.572778 0.702296
0.328405 0.580499 0.716777
0.411063 0.591318 0.73434
0.493919 0.602075 0.751858
0.578683 0.612314 0.768872
0.666026 0.621866 0.785153
0.756298 0.630625 0.800656
0.849668 0.638544 0.815335
0.946258 0.645594 0.829145
0.216159 0.696712 0.766293
0.321324 0.701778 0.774441
0.411933 0.710796 0.786542
0.501793 0.719997 0.798825
0.592996 0.728832 0.810758
0.686397 0.737087 0.822095
0.782422 0.744625 0.832715
0.881315 0.751385 0.842573
0.98323 0.757336 0.851606
0.180041 0.827817 0.812222
0.296193 0.830259 0.814054
0.394705 0.837461 0.820661
0.491554 0.845121 0.827726
0.589197 0.852567 0.834562
0.688655 0.85951 0.840909
0.790417 0.865843 0.846632
0.89482 0.871458 0.851652
1 0.876326 0.855909
0.12575 0.966155 0.840024
0.252903 0.965957 0.835523
0.359319 0.971374 0.836622
0.463142 0.977493 0.838422
0.567208 0.983536 0.840162
0.672694 0.989197 0.84152
0.780194 0.994324 0.842344
0.890074 0.998795 0.842496
1 1 0.841962
0.0666056 0.0666056 0.144076
0.106111 0.0870527 0.19324
0.149416 0.106477 0.241367
0.197421 0.124636 0.288243
0.25005 0.141543 0.333867
0.307164 0.157244 0.378271
0.368673 0.171756 0.421485
0.434485 0.185107 0.463554
0.504479 0.197314 0.504479
0.134569 0.154788 0.308614
0.185351 0.172488 0.351705
0.236805 0.190021 0.394598
0.292058 0.206531 0.436484
0.35137 0.221942 0.477272
0.414786 0.23624 0.516945
0.482292 0.249439 0.55552
0.553857 0.26154 0.593011
0.629404 0.272557 0.629404
0.185382 0.249805 0.456016
0.247318 0.26482 0.492912
0.306813 0.280491 0.530465
0.369192 0.295399 0.567239
0.435065 0.309361 0.603067
0.504631 0.322332 0.637842
0.578042 0.334249 0.671687
0.655238 0.345144 0.704479
0.736248 0.355016 0.736248
0.218753 0.351766 0.585962
0.291783 0.364111 0.616617
0.359304 0.377951 0.648722
0.428748 0.391272 0.680385
0.501152 0.4038 0.711238
0.576883 0.415427 0.741176
0.656092 0.426108 0.770169
0.738888 0.435828 0.798199
0.825269 0.444572 0.825269
0.234485 0.460746 0.698253
0.318578 0.470436 0.722652
0.394064 0.48246 0.749386
0.470558 0.494209 0.775845
0.549447 0.505318 0.801648
0.631281 0.515618 0.826658
0.716304 0.525063 0.850828
0.804669 0.533608 0.874098
0.896391 0.541253 0.896391
0.232364 0.576837 0.792752
0.327535 0.583886 0.810864
0.410956 0.594095 0.832135
0.494469 0.604273 0.853407
0.579843 0.613962 0.874128
0.66775 0.622965 0.894194
0.758556 0.631189 0.913481
0.85243 0.638575 0.93193
0.949508 0.645106 0.949508
0.212284 0.700084 0.869337
0.318532 0.704463 0.881086
0.409873 0.712871 0.896895
0.500404 0.721508 0.912917
0.592218 0.729793 0.928603
0.686183 0.737484 0.943694
0.782742 0.744488 0.958099
0.882139 0.750729 0.971725
0.984543 0.756146 0.984543
0.174228 0.830488 0.927794
0.291447 0.832258 0.933257
0.390723 0.838865 0.943572
0.488228 0.845945 0.95436
0.58648 0.852827 0.96495
0.686488 0.859236 0.975067
0.7888 0.865019 0.984573
0.893706 0.870115 0.993362
1 0.874449 1
0.117998 0.968139 0.968139
0.24622 0.967269 0.967269
0.353384 0.972091 0.972091
0.457862 0.97763 0.97763
0.562539 0.983108 0.983108
0.668589 0.988235 0.988235
0.776623 0.992813 0.992813
0.887007 0.99675 0.99675
1 1 1
