lut/ground-control/GroundControl_Warm2.cube
TITLE "Generate by Resolve"
LUT_3D_SIZE 33
0 0 0
0.0579385 0 0
0.104005 0 0
0.14641 0 0
0.186572 0 0
0.225116 0 0
0.262379 0 0
0.298589 0 0
0.333913 0 0
0.368444 0 0
0.402289 0 0
0.435508 0 0
0.468162 0 0
0.500282 0 0
0.531914 0 0
0.563088 0 0
0.593835 0 0
0.624186 0 0
0.654139 0 0
0.683742 0 0
0.712978 0 0
0.741894 0 0
0.770489 0 0
0.798764 0 0
0.826749 0 0
0.854444 0 0
0.881865 0 0
0.908995 0 0
0.935882 0 0
0.962509 0 0
0.988876 0 0
1 0 0
1 0 0
0 0.0312657 0
0.057496 0.0241398 0
0.103288 0.0202182 0
0.145449 0.017258 0
0.185382 0.0149081 0
0.223697 0.0129854 0
0.260761 0.0114137 0
0.296773 0.0101167 0
0.331899 0.00906386 0
0.366247 0.00822461 0
0.399908 0.00756847 0
0.432944 0.00708019 0
0.465415 0.00674449 0
0.497368 0.00654612 0
0.528832 0.00648508 0
0.559838 0.00654612 0
0.590417 0.00671397 0
0.6206 0.00698863 0
0.650401 0.00737011 0
0.679835 0.0078584 0
0.708934 0.00843824 0
0.737682 0.00909438 0
0.766125 0.00985733 0
0.794263 0.0106813 0
0.822095 0.0115969 0
0.849638 0.012604 0
0.876905 0.0136721 0
0.903899 0.0148013 0
0.930648 0.016022 0
0.957122 0.0173037 0
0.983352 0.0186465 0
1 0.0200504 0
1 0.0215305 0
0 0.0628214 0
0.0563363 0.0558022 0
0.101854 0.0519417 0
0.143771 0.0490425 0
0.183474 0.0467384 0
0.221576 0.0448768 0
0.258427 0.0433509 0
0.29424 0.0420996 0
0.329183 0.0410925 0
0.363348 0.0402991 0
0.396826 0.0396735 0
0.429679 0.0392309 0
0.461982 0.0389258 0
0.493767 0.0387732 0
0.525063 0.0387427 0
0.555901 0.0388342 0
0.586328 0.0390478 0
0.616358 0.0393683 0
0.645991 0.0397803 0
0.675273 0.0402991 0
0.704219 0.0409094 0
0.732815 0.0416114 0
0.761105 0.0423896 0
0.78909 0.0432593 0
0.81677 0.0442054 0
0.844175 0.0452277 0
0.871305 0.0463264 0
0.898161 0.0475013 0
0.924758 0.0487526 0
0.951095 0.0500496 0
0.977188 0.0514382 0
1 0.0528725 0
1 0.0543832 0
0 0.0944076 0
0.0551461 0.0874647 0
0.100389 0.0836652 0
0.142061 0.0808423 0
0.181537 0.078584 0
0.21944 0.0767681 0
0.256077 0.075288 0
0.291691 0.0740978 0
0.326436 0.0731212 0
0.360418 0.0723735 0
0.393713 0.0717937 0
0.426398 0.0713817 0
0.458534 0.0711223 0
0.490135 0.0710002 0
0.521263 0.0710155 0
0.551949 0.0711528 0
0.582208 0.071397 0
0.612085 0.0717479 0
0.641566 0.0721904 0
0.670695 0.0727398 0
0.699474 0.0733959 0
0.727932 0.0741283 0
0.756069 0.0749371 0
0.783917 0.0758373 0
0.81146 0.0768139 0
0.838712 0.0778668 0
0.86569 0.078996 0
0.892409 0.0802014 0
0.918868 0.0814832 0
0.945068 0.0828107 0
0.971023 0.0842145 0
0.99675 0.0856947 0
1 0.0872206 0
0 0.125933 0
0.054078 0.119097 0
0.0990463 0.115358 0
0.140475 0.112581 0
0.179736 0.110384 0
0.217411 0.108629 0
0.253849 0.107195 0
0.289281 0.106035 0
0.323827 0.105104 0
0.357626 0.104387 0
0.390738 0.103853 0
0.423255 0.103487 0
0.455207 0.103273 0
0.486656 0.103182 0
0.517617 0.103227 0
0.548135 0.103395 0
0.578241 0.103685 0
0.60795 0.104067 0
0.637278 0.104555 0
0.666255 0.105135 0
0.694881 0.105806 0
0.723186 0.106584 0
0.751186 0.107424 0
0.778866 0.108354 0
0.806271 0.109361 0
0.833387 0.11046 0
0.860227 0.11162 0
0.886809 0.11284 0
0.913115 0.114153 0
0.939193 0.115511 0
0.965011 0.11696 0
0.990585 0.118456 0.000411994
1 0.120012 0.00230411
0 0.157382 0
0.0532082 0.150637 0
0.0979019 0.14696 0
0.139101 0.144244 0
0.178134 0.142107 0
0.215595 0.140383 0
0.251835 0.13901 0
0.287053 0.137896 0
0.321416 0.137011 0
0.355032 0.136339 0
0.387976 0.135836 0
0.42031 0.135515 0
0.452094 0.135332 0
0.48336 0.135286 0
0.514168 0.135363 0
0.544518 0.135576 0
0.574472 0.135882 0
0.604013 0.136309 0
0.633188 0.136828 0
0.662013 0.137438 0
0.690501 0.138155 0
0.718654 0.138949 0
0.746502 0.139834 0
0.774044 0.140795 0
0.801297 0.141833 0
0.828275 0.142947 0
0.854978 0.144137 0
0.881407 0.145403 0
0.907591 0.146731 0
0.933516 0.148135 0
0.959197 0.149599 0.00184634
0.984649 0.151125 0.0037995
1 0.152712 0.00579843
0 0.188724 0
0.0525978 0.182071 0
0.0970169 0.17847 0
0.137957 0.175814 0
0.176776 0.173724 0
0.214023 0.172061 0
0.250065 0.170718 0
0.285084 0.16965 0
0.319265 0.168811 0
0.352697 0.168185 0
0.385458 0.167727 0
0.417624 0.167437 0
0.449226 0.167285 0
0.480339 0.167285 0
0.510979 0.167407 0
0.541161 0.167636 0
0.570947 0.167987 0
0.600351 0.168444 0
0.629374 0.168994 0
0.65803 0.16965 0
0.686366 0.170397 0
0.714382 0.171221 0
0.742077 0.172137 0
0.769482 0.173129 0
0.796582 0.174197 0
0.823423 0.175341 0
0.849973 0.176562 0
0.87628 0.177859 0
0.902312 0.179217 0.00146487
0.928115 0.180652 0.0033875
0.953658 0.182147 0.00538643
0.978973 0.183703 0.0074464
1 0.185321 0.00956741
0 0.219974 0
0.0522469 0.213413 0
0.0964065 0.209873 0
0.137102 0.207263 0
0.175692 0.205234 0
0.212726 0.203616 0
0.248569 0.202319 0
0.283406 0.201297 0
0.317388 0.200504 0
0.350637 0.199908 0
0.383215 0.199496 0
0.415213 0.199237 0
0.446647 0.19913 0
0.477592 0.199161 0
0.508064 0.199329 0
0.538094 0.199603 0
0.567712 0.199985 0
0.596963 0.200473 0
0.625818 0.201068 0
0.654337 0.20174 0
0.682521 0.202518 0
0.710384 0.203372 0
0.737942 0.204318 0
0.765194 0.205356 0
0.792157 0.206455 0
0.818845 0.20763 0
0.845273 0.208881 0.00115969
0.871427 0.210193 0.00308232
0.897337 0.211582 0.00505074
0.922988 0.213046 0.00709545
0.948409 0.214572 0.00921645
0.973587 0.216159 0.0113832
0.998535 0.217792 0.0136263
0 0.251087 0
0.0522164 0.244617 0
0.0960861 0.241138 0
0.136553 0.23859 0
0.174914 0.236622 0
0.211749 0.23505 0
0.247379 0.233799 0
0.282017 0.232822 0
0.315816 0.232074 0
0.348882 0.231525 0
0.381292 0.231144 0
0.413092 0.23093 0
0.444373 0.230869 0
0.475135 0.23093 0
0.505455 0.231128 0
0.535332 0.231434 0
0.564797 0.231846 0
0.593881 0.23238 0
0.622583 0.233005 0
0.65095 0.233722 0
0.678981 0.234516 0
0.706706 0.235416 0
0.734112 0.236393 0
0.761212 0.237446 0
0.788037 0.238575 0.000991836
0.814588 0.23978 0.00288396
0.840864 0.241062 0.00483711
0.866896 0.24242 0.00686656
0.892653 0.243839 0.00895705
0.918181 0.245319 0.0111238
0.94345 0.246876 0.0133516
0.968505 0.248478 0.0156405
0.993317 0.250156 0.0179904
0 0.282078 0
0.052491 0.2757 0
0.0961013 0.272297 0
0.136324 0.269795 0
0.174456 0.267872 0
0.211078 0.266346 0
0.246509 0.265156 0
0.280949 0.264225 0
0.314565 0.263508 0
0.347448 0.263005 0
0.379675 0.262669 0
0.411307 0.262501 0
0.44242 0.26247 0
0.473014 0.262562 0
0.503166 0.262791 0
0.532876 0.263142 0
0.562188 0.2636 0
0.591119 0.264149 0
0.619669 0.264805 0
0.647883 0.265553 0
0.675776 0.266392 0
0.703334 0.267323 0
0.730602 0.26833 0.000976577
0.757565 0.269413 0.00282292
0.784253 0.270573 0.00474556
0.810651 0.271809 0.00675975
0.836789 0.273121 0.00883497
0.862669 0.27451 0.0109712
0.888304 0.275959 0.0131838
0.913695 0.27747 0.0154726
0.938842 0.279042 0.0178073
0.963745 0.28069 0.0202182
0.988434 0.282383 0.0226902
0 0.312947 0
0.0531014 0.306661 0
0.096437 0.303319 0
0.136416 0.300877 0
0.174334 0.299001 0
0.210742 0.297536 0
0.24596 0.296376 0
0.280217 0.295491 0
0.313649 0.29482 0
0.346349 0.294347 0
0.378393 0.294057 0
0.409857 0.293919 0
0.440787 0.293935 0
0.471229 0.294072 0
0.501213 0.294331 0
0.53077 0.294713 0
0.559915 0.295201 0
0.588693 0.295796 0
0.617105 0.296483 0
0.645167 0.297261 0
0.672892 0.298131 0.00112917
0.700313 0.299092 0.00294499
0.727428 0.30013 0.00483711
0.754253 0.301244 0.00680552
0.780789 0.302449 0.00885023
0.80705 0.303716 0.0109712
0.833051 0.305043 0.0131685
0.858808 0.306462 0.0154269
0.884291 0.307927 0.0177615
0.909545 0.309468 0.0201572
0.934554 0.311086 0.0226139
0.959365 0.312749 0.0251164
0.983902 0.314473 0.0277104
0.000183108 0.343664 0.000183108
0.0540475 0.337469 0
0.0971237 0.334188 0
0.136858 0.331807 0
0.174548 0.329992 0
0.210742 0.328573 0
0.245777 0.327459 0
0.279835 0.326619 0
0.313069 0.325994 0
0.345586 0.325567 0
0.377462 0.325307 0
0.408759 0.325216 0
0.439521 0.325261 0
0.469795 0.325429 0
0.499611 0.325734 0
0.529 0.326146 0
0.557992 0.32668 0
0.586618 0.327291 0
0.614862 0.328023 0.00149538
0.642786 0.328832 0.00325017
0.670375 0.329732 0.00509651
0.697643 0.330724 0.00701915
0.724605 0.331792 0.00903334
0.751293 0.332937 0.0111238
0.777691 0.334173 0.0132906
0.803815 0.33547 0.0155337
0.829664 0.336828 0.0178378
0.855283 0.338277 0.0202335
0.880644 0.339773 0.0226596
0.90576 0.341344 0.0251774
0.930632 0.342977 0.0277562
0.955276 0.344671 0.030396
0.97969 0.346441 0.0330968
0.00184634 0.374258 0.00184634
0.0553445 0.368154 0
0.0981613 0.364935 0
0.137652 0.362615 0
0.175128 0.360845 0
0.211109 0.359472 0
0.24593 0.358404 0
0.279805 0.35761 0
0.312856 0.357031 0
0.34519 0.356634 0
0.376883 0.35642 0
0.407996 0.356359 0
0.43859 0.356451 0
0.468711 0.356664 0
0.49836 0.357 0
0.527596 0.357443 0.000503548
0.556435 0.358007 0.00210575
0.584894 0.358663 0.00378424
0.613001 0.359411 0.00556954
0.640757 0.360265 0.0074464
0.668193 0.361196 0.00941482
0.695323 0.362219 0.0114748
0.722148 0.363317 0.0135958
0.748684 0.364492 0.0158083
0.774945 0.365743 0.0180972
0.800931 0.367071 0.0204471
0.826658 0.368475 0.0228733
0.85211 0.36994 0.0253758
0.877333 0.371481 0.0279393
0.902312 0.373068 0.0305791
0.927047 0.374731 0.0332647
0.951568 0.376455 0.0360266
0.97586 0.378241 0.0388495
0.00387579 0.4047 0.00387579
0.057023 0.398672 0
0.0995499 0.395529 0
0.138811 0.393271 0
0.176059 0.391546 0
0.211826 0.390219 0
0.246464 0.389212 0
0.280125 0.388449 0
0.312993 0.387915 0
0.345144 0.387564 0
0.376669 0.387381 0
0.407614 0.387366 0
0.438041 0.387488 0.000122072
0.467979 0.387732 0.00149538
0.497475 0.388113 0.00297551
0.526543 0.388602 0.00459297
0.55523 0.389181 0.00630198
0.583535 0.389883 0.0081178
0.61149 0.390661 0.0100252
0.639094 0.391546 0.0120241
0.666392 0.392508 0.0141146
0.69337 0.393561 0.0162661
0.720058 0.39469 0.0185245
0.746441 0.395895 0.0208591
0.772549 0.397192 0.0232548
0.798398 0.39855 0.025742
0.823987 0.399969 0.0282902
0.849302 0.401465 0.0308995
0.874388 0.403037 0.0335851
0.899229 0.404654 0.0363317
0.923842 0.406348 0.0391546
0.948226 0.408103 0.0420233
0.972381 0.409918 0.0449531
0.00628672 0.434989 0.00628672
0.0590524 0.429068 0.00157168
0.10132 0.425986 0
0.140337 0.423774 0
0.177356 0.42211 0
0.212924 0.420829 0
0.247349 0.419852 0
0.280827 0.41915 0
0.313512 0.418647 0
0.34548 0.418341 0.000518807
0.376822 0.418204 0.0016022
0.407599 0.418219 0.00282292
0.437842 0.418387 0.00419623
0.467628 0.418677 0.00569162
0.496956 0.419074 0.00730907
0.525872 0.419593 0.00903334
0.554391 0.420218 0.0108644
0.582544 0.420951 0.0128023
0.610346 0.421775 0.0148165
0.637812 0.422675 0.0169528
0.664958 0.423682 0.0191653
0.691783 0.424765 0.0214542
0.718318 0.425925 0.0238346
0.744564 0.427161 0.026276
0.770535 0.428473 0.028809
0.796246 0.429862 0.0314031
0.821683 0.431327 0.0340734
0.846876 0.432853 0.0368048
0.871824 0.43444 0.0395972
0.896529 0.436088 0.0424659
0.921019 0.437812 0.0453956
0.945266 0.439582 0.0483864
0.969284 0.441428 0.0514382
0.0090486 0.465141 0.0090486
0.0614633 0.459297 0.00451667
0.103456 0.456275 0.0027924
0.142229 0.454124 0.0019379
0.179034 0.452506 0.00163272
0.214389 0.451286 0.00169375
0.248615 0.45037 0.00207523
0.281895 0.449699 0.00270085
0.314397 0.449241 0.00355535
0.346181 0.448981 0.00459297
0.37734 0.448875 0.00579843
0.40795 0.448936 0.00714122
0.438041 0.449134 0.00863661
0.467643 0.449454 0.0102693
0.496818 0.449897 0.0119936
0.525582 0.450446 0.0138399
0.553948 0.451102 0.0158083
0.581933 0.451865 0.0178683
0.609583 0.45272 0.0200198
0.636896 0.453666 0.0222782
0.66389 0.454704 0.0245975
0.690578 0.455817 0.0270085
0.71696 0.457008 0.0295109
0.743069 0.458274 0.0320745
0.768902 0.459617 0.0347295
0.794461 0.461036 0.0374456
0.819776 0.462516 0.0402228
0.844831 0.464073 0.0430762
0.869642 0.46569 0.0459907
0.894209 0.467369 0.0489815
0.918563 0.469123 0.052018
0.942672 0.470924 0.0551308
0.966567 0.472801 0.0583047
0.0122072 0.495125 0.0122072
0.0642405 0.489387 0.0078584
0.105974 0.486427 0.00628672
0.144503 0.484337 0.0055848
0.181079 0.482765 0.00540169
0.216236 0.48159 0.00561532
0.250248 0.48072 0.00611887
0.283345 0.480095 0.00688182
0.315648 0.479683 0.00787366
0.347265 0.479454 0.00903334
0.378256 0.479393 0.0103609
0.408682 0.4795 0.0118257
0.438605 0.479728 0.0134585
0.468055 0.480079 0.0152132
0.497063 0.480568 0.0170748
0.525658 0.481147 0.0190585
0.553857 0.481849 0.021149
0.581704 0.482643 0.023331
0.609201 0.483528 0.0256046
0.636362 0.484504 0.0279698
0.663203 0.485557 0.0304265
0.689738 0.486702 0.0329595
0.715984 0.487938 0.0355688
0.741955 0.489235 0.0382544
0.767651 0.490608 0.0410163
0.793072 0.492058 0.0438544
0.818235 0.493568 0.0467689
0.843153 0.495155 0.0497292
0.867826 0.496803 0.052781
0.892271 0.498512 0.0558785
0.916472 0.500282 0.0590372
0.940459 0.502113 0.0622721
0.964218 0.504005 0.0655528
0.0157473 0.524971 0.0157473
0.0674144 0.519326 0.0115663
0.108873 0.516426 0.0101625
0.147173 0.514397 0.00959792
0.18352 0.512871 0.00956741
0.218463 0.511742 0.0099031
0.252277 0.510918 0.0105592
0.285191 0.510338 0.0114595
0.317296 0.509972 0.0125429
0.34873 0.509789 0.0138552
0.379538 0.509758 0.0153201
0.409812 0.509896 0.0169223
0.439551 0.51017 0.018677
0.468833 0.510567 0.0205539
0.497688 0.51107 0.0225528
0.526116 0.511696 0.0246586
0.554177 0.512428 0.0268559
0.581857 0.513252 0.02916
0.609201 0.514168 0.0315709
0.63621 0.515175 0.0340581
0.662913 0.516274 0.0366217
0.689311 0.517449 0.0392767
0.715404 0.5187 0.0420081
0.741222 0.520027 0.044831
0.766781 0.521431 0.047715
0.792065 0.522911 0.05066
0.81709 0.524453 0.0536965
0.841871 0.52607 0.0567941
0.866407 0.527749 0.0599527
0.890715 0.529488 0.0631723
0.914794 0.531289 0.0664225
0.938659 0.53315 0.0697642
0.96228 0.535073 0.073167
0.0196689 0.554665 0.0196689
0.0709697 0.549096 0.015671
0.112154 0.546273 0.0144198
0.150225 0.544289 0.0139925
0.186343 0.54284 0.0140841
0.221073 0.541756 0.0145724
0.254688 0.540963 0.0153658
0.287404 0.540429 0.0164034
0.319341 0.540093 0.0176394
0.350591 0.539956 0.0190738
0.381231 0.539971 0.0206607
0.411307 0.540139 0.0224002
0.440894 0.540444 0.0242771
0.470008 0.540887 0.0262913
0.498695 0.541436 0.028397
0.52697 0.542092 0.0306249
0.554879 0.542855 0.0329595
0.582406 0.543709 0.0353857
0.609598 0.544671 0.0379187
0.636454 0.545708 0.040528
0.663005 0.546838 0.0432136
0.68925 0.548043 0.0460059
0.715206 0.549325 0.0488594
0.740887 0.550683 0.0517891
0.766293 0.552117 0.0547951
0.79144 0.553628 0.0578775
0.816342 0.5552 0.0610056
0.840986 0.556832 0.06421
0.865385 0.558541 0.0674754
0.889555 0.560311 0.0708171
0.913512 0.562127 0.0742199
0.937224 0.564019 0.0776684
0.960739 0.565972 0.0811933
0.0239719 0.584192 0.0239719
0.0749065 0.578729 0.0201419
0.115831 0.575967 0.0190433
0.153658 0.574044 0.0187839
0.189563 0.572625 0.0190433
0.224079 0.571588 0.0196689
0.257511 0.570855 0.0205844
0.290028 0.570352 0.0217594
0.321767 0.570077 0.0231327
0.352834 0.56997 0.0246891
0.383307 0.570031 0.0264134
0.413214 0.57023 0.028275
0.442634 0.570581 0.0302739
0.47158 0.571054 0.0324102
0.500099 0.571633 0.0346532
0.528222 0.57232 0.0370031
0.555962 0.573129 0.0394598
0.583352 0.574014 0.0420081
0.610376 0.575006 0.0446632
0.637095 0.576074 0.0473945
0.663493 0.577234 0.0502174
0.689601 0.57847 0.0531167
0.715404 0.579782 0.0561074
0.740948 0.58117 0.0591287
0.766217 0.582635 0.0622568
0.791226 0.584176 0.0654459
0.815976 0.585779 0.0687114
0.840482 0.587442 0.0720378
0.864759 0.589166 0.0754253
0.888792 0.590967 0.0788891
0.912612 0.592828 0.0823987
0.936202 0.594736 0.0859693
0.959564 0.596719 0.0896162
0.0286717 0.613581 0.0286717
0.0792554 0.608194 0.0250553
0.119905 0.605493 0.0241093
0.157488 0.603616 0.0239872
0.193179 0.602258 0.0243687
0.227481 0.601282 0.0251469
0.260716 0.60058 0.0261997
0.293034 0.600137 0.0274968
0.32459 0.599893 0.0290074
0.355489 0.599832 0.0306859
0.385763 0.599924 0.0325475
0.415518 0.600168 0.0345464
0.444755 0.600549 0.0366674
0.473548 0.601053 0.0389258
0.501915 0.601678 0.0413062
0.52987 0.602411 0.0437781
0.557458 0.603235 0.0463569
0.58468 0.604166 0.0490425
0.611566 0.605173 0.0518196
0.638132 0.606287 0.0546578
0.664378 0.607477 0.0575875
0.690349 0.608743 0.0606088
0.716014 0.610086 0.0637064
0.741405 0.611505 0.0668803
0.766537 0.613001 0.0701152
0.791394 0.614557 0.0734417
0.816022 0.61619 0.0768139
0.840391 0.617884 0.0802625
0.86453 0.619654 0.083772
0.888426 0.621469 0.0873426
0.912108 0.623362 0.0909743
0.935561 0.625299 0.094667
0.958801 0.627298 0.0984207
0.0337835 0.642786 0.0337835
0.0840009 0.637491 0.0303349
0.124376 0.634867 0.0295415
0.16173 0.633051 0.029572
0.197192 0.631739 0.0301061
0.231296 0.630808 0.0310063
0.264317 0.630152 0.0321965
0.296452 0.629755 0.0336309
0.327825 0.629541 0.0352789
0.358526 0.629526 0.0370947
0.388632 0.629664 0.0390784
0.418204 0.629953 0.0411994
0.447288 0.630365 0.043473
0.475914 0.6309 0.0458534
0.504112 0.631556 0.0483558
0.531914 0.632319 0.0509651
0.559335 0.633188 0.0536507
0.586419 0.63415 0.0564431
0.613153 0.635203 0.0593423
0.639567 0.636332 0.0623178
0.665675 0.637552 0.0653697
0.691478 0.638849 0.068513
0.717006 0.640223 0.0717327
0.74226 0.641688 0.0750286
0.767239 0.643198 0.0783856
0.791974 0.6448 0.0818189
0.816449 0.646448 0.0853285
0.840696 0.648173 0.0888838
0.864698 0.649973 0.0925154
0.888457 0.65182 0.0962081
0.912001 0.653727 0.0999619
0.935332 0.655695 0.103777
0.95845 0.657725 0.107637
0.039292 0.671839 0.039292
0.089128 0.666651 0.0360266
0.129244 0.664073 0.0353857
0.166354 0.662318 0.0355688
0.201602 0.661067 0.0362402
0.235492 0.660166 0.0372778
0.268315 0.659571 0.0386206
0.300267 0.659205 0.040177
0.331456 0.659037 0.0419623
0.361975 0.659068 0.0439155
0.391913 0.659236 0.0460212
0.421317 0.659556 0.0482795
0.450217 0.660014 0.0506752
0.478676 0.660594 0.0531624
0.506722 0.66128 0.055787
0.534356 0.662089 0.0585031
0.561639 0.662974 0.0613413
0.588556 0.663966 0.0642557
0.615137 0.665049 0.067277
0.641398 0.666224 0.0703746
0.667369 0.667475 0.0735637
0.693034 0.668803 0.0768292
0.71841 0.670207 0.0801709
0.743526 0.671687 0.0835737
0.768368 0.673243 0.0870527
0.79295 0.674861 0.0906081
0.817288 0.676555 0.0942397
0.841398 0.678309 0.0979171
0.865263 0.680125 0.101671
0.888899 0.682002 0.10547
0.912306 0.68394 0.109346
0.9355 0.685939 0.113283
0.958495 0.687999 0.117266
0.0452125 0.70074 0.0452125
0.0946822 0.695628 0.0421149
0.134524 0.693126 0.0416419
0.171389 0.691432 0.0419623
0.206424 0.690227 0.0427863
0.240101 0.689372 0.0439612
0.272725 0.688823 0.0454261
0.304479 0.688502 0.0471351
0.335485 0.68838 0.0490425
0.36582 0.688441 0.0511177
0.395575 0.688655 0.0533455
0.424811 0.689021 0.0557412
0.453559 0.689509 0.0582437
0.481849 0.69012 0.0608835
0.509728 0.690852 0.0636301
0.537209 0.691676 0.0664836
0.564324 0.692607 0.0694438
0.591089 0.693629 0.0724804
0.617533 0.694759 0.0756237
0.643641 0.695949 0.0788434
0.669459 0.69723 0.0821546
0.694972 0.698604 0.0855421
0.720211 0.700038 0.0890059
0.74519 0.701549 0.0925307
0.769894 0.70312 0.0961318
0.794339 0.704784 0.0998093
0.81854 0.706493 0.103548
0.842512 0.708278 0.107362
0.866239 0.710124 0.111223
0.889738 0.712032 0.115145
0.913024 0.714 0.119142
0.93608 0.716014 0.123186
0.958938 0.718105 0.127291
0.0515297 0.729473 0.0515297
0.100633 0.724453 0.0486152
0.140215 0.722011 0.0482948
0.176852 0.720363 0.0487678
0.211658 0.719219 0.0497292
0.245121 0.718425 0.0510567
0.277531 0.717906 0.0526436
0.309102 0.717632 0.0544747
0.33991 0.717556 0.0565194
0.370077 0.717662 0.058732
0.399664 0.717922 0.0610971
0.428717 0.718318 0.0636149
0.457298 0.718837 0.0662547
0.48542 0.719493 0.0690166
0.513146 0.720256 0.0718853
0.540475 0.721111 0.0748608
0.567437 0.722087 0.0779431
0.594049 0.72314 0.081117
0.620325 0.724285 0.0843824
0.646296 0.725521 0.0877241
0.671962 0.726833 0.0911574
0.697337 0.728222 0.094667
0.722423 0.729686 0.0982376
0.74725 0.731228 0.1019
0.771817 0.732845 0.105623
0.796139 0.734524 0.109422
0.820203 0.736278 0.113283
0.844022 0.738079 0.117205
0.867628 0.739956 0.121187
0.89099 0.741894 0.125231
0.914137 0.743877 0.129335
0.937072 0.745937 0.133501
0.959792 0.748043 0.137728
0.0582589 0.758053 0.0582589
0.106996 0.753124 0.0555428
0.146319 0.750744 0.055375
0.182696 0.749157 0.0559701
0.217273 0.748058 0.0570687
0.250538 0.747311 0.0585336
0.282765 0.746838 0.0602731
0.314122 0.746609 0.0622416
0.344762 0.746578 0.0644083
0.374746 0.746715 0.0667582
0.40415 0.747005 0.0692454
0.433036 0.747448 0.0719005
0.461448 0.748012 0.0746624
0.489418 0.748699 0.0775464
0.516976 0.749493 0.0805524
0.544137 0.750393 0.0836652
0.570947 0.751385 0.0868696
0.597406 0.752483 0.0901656
0.623529 0.753658 0.0935378
0.649348 0.754925 0.0970169
0.674876 0.756268 0.100557
0.700099 0.757687 0.104189
0.725048 0.759197 0.107897
0.749737 0.760754 0.111666
0.774166 0.762402 0.115526
0.798337 0.764111 0.119432
0.822263 0.765881 0.123415
0.84596 0.767727 0.127459
0.869413 0.769619 0.131563
0.892653 0.771588 0.135729
0.915679 0.773602 0.139956
0.938476 0.775692 0.144244
0.961074 0.777813 0.148577
0.0653849 0.786465 0.0653849
0.113756 0.781628 0.0628367
0.152804 0.779309 0.0628214
0.188952 0.777768 0.0635843
0.223316 0.77673 0.0648203
0.256367 0.776028 0.0664225
0.288396 0.775601 0.0682994
0.31957 0.775418 0.0704051
0.350011 0.775418 0.0727092
0.379812 0.775601 0.0751812
0.409049 0.775937 0.077821
0.437766 0.77641 0.0805829
0.466011 0.77702 0.0834821
0.493812 0.777737 0.0865034
0.521202 0.778561 0.0896315
0.548226 0.779492 0.0928664
0.574868 0.780529 0.0961929
0.601175 0.781659 0.0996109
0.627161 0.782864 0.10312
0.652827 0.784161 0.106706
0.678203 0.785534 0.110384
0.703288 0.786999 0.114137
0.728084 0.788525 0.117968
0.752636 0.790127 0.121859
0.776913 0.791791 0.125826
0.800946 0.79353 0.129854
0.82475 0.795331 0.133959
0.848295 0.797192 0.138125
0.871626 0.79913 0.142351
0.894728 0.801114 0.146639
0.917617 0.803159 0.150973
0.940291 0.805264 0.155383
0.962753 0.807431 0.159838
0.0729229 0.81471 0.0729229
0.120928 0.809964 0.0705577
0.159716 0.807706 0.0706951
0.195621 0.806226 0.0716106
0.22977 0.805234 0.0729992
0.262608 0.804578 0.0747387
0.294438 0.804211 0.0767529
0.325414 0.804059 0.078996
0.355688 0.804105 0.0814374
