lut/ground-control/GroundControl_Grunge.cube
TITLE "Generate by Resolve"
LUT_3D_SIZE 9
0 0 0
0.0680705 0 0
0.172869 0 0
0.286946 0 0
0.404105 0 0
0.526757 0 0
0.65687 0 0
0.793011 0 0
0.932845 0 0
0 0.052781 0
0.0509346 0.0509346 0
0.166918 0.0449989 0
0.298329 0.0435645 0
0.435492 0.047303 0
0.576471 0.0544594 0
0.718379 0.0623331 0
0.857923 0.0678111 0
0.995315 0.0718547 0
0 0.159655 0
0.0555428 0.177462 0
0.187518 0.187518 0
0.328115 0.19527 0
0.466148 0.199878 0.00363165
0.603433 0.203326 0.00709545
0.741268 0.207141 0.0108949
0.879332 0.211154 0.0149081
1 0.215381 0.0191501
0 0.315328 0
0.0771801 0.331945 0.00285344
0.205127 0.337972 0.00888075
0.342123 0.342123 0.0130312
0.479774 0.346349 0.017258
0.617548 0.350301 0.02121
0.75584 0.354574 0.0254673
0.894133 0.358801 0.0297093
1 0.362768 0.0336614
0 0.461952 0
0.0903029 0.478492 0.0159762
0.219043 0.485313 0.0228122
0.356405 0.48983 0.0273136
0.493996 0.493996 0.0314946
0.631785 0.497963 0.0354467
0.76968 0.501823 0.0393072
0.90724 0.505318 0.0428016
1 0.508385 0.0458839
0.0134585 0.609796 0.0134585
0.104387 0.626398 0.0300603
0.232868 0.632959 0.0366217
0.369711 0.636957 0.0406195
0.506416 0.640238 0.0439002
0.643336 0.643336 0.0469825
0.77995 0.645914 0.0495766
0.915877 0.647776 0.0514382
1 0.649363 0.0530251
0.0261845 0.756558 0.0261845
0.116426 0.772473 0.0420996
0.243824 0.777951 0.0475776
0.379355 0.780621 0.0502632
0.514504 0.782361 0.0519875
0.649683 0.783703 0.0533303
0.78439 0.78439 0.0540169
0.918212 0.784146 0.0537728
1 0.783383 0.0530098
0.0351873 0.899611 0.0351873
0.123903 0.914015 0.0495766
0.2495 0.917693 0.053254
0.382803 0.918135 0.0536965
0.516106 0.918029 0.0535897
0.648447 0.916533 0.0521096
0.779202 0.913268 0.0488441
0.907942 0.907942 0.0435035
1 0.901564 0.0371252
0.0386816 1 0.0386816
0.125154 1 0.0508278
0.247562 1 0.0513161
0.376333 1 0.0472419
0.504189 1 0.0416724
0.631159 1 0.0348211
0.757397 1 0.0270237
0.882933 1 0.0185092
1 1 0.0099794
0 0 0.0720989
0.0658427 0 0.0658427
0.170504 0 0.0486
0.2851 0 0.0303349
0.403998 0 0.0158236
0.529183 0 0.00717174
0.661341 0 0.00529488
0.798901 0 0.00880446
0.939651 0 0.0161898
0 0.0514992 0.0514992
0.0511788 0.0511788 0.0511788
0.170016 0.0480964 0.0480964
0.303578 0.0488136 0.0488136
0.44213 0.0539406 0.0539406
0.583459 0.0614481 0.0614481
0.725032 0.0690013 0.0690013
0.863615 0.073518 0.073518
1 0.0771038 0.0771038
0 0.165133 0.0432136
0.0621653 0.18407 0.0621653
0.194507 0.194507 0.0725872
0.334173 0.201328 0.079408
0.471763 0.205509 0.0835889
0.608988 0.208896 0.0869764
0.746914 0.212787 0.0908675
0.885069 0.216876 0.0949569
1 0.220935 0.0990158
0 0.321065 0.0663005
0.082536 0.337301 0.082536
0.210727 0.343587 0.0888228
0.347799 0.347799 0.0930343
0.485191 0.351766 0.0970016
0.623316 0.356069 0.101305
0.761608 0.360327 0.105562
0.89987 0.364523 0.109758
1 0.368444 0.113664
0.00515755 0.467674 0.0794842
0.0960555 0.484245 0.0960555
0.224811 0.491081 0.102892
0.362173 0.495583 0.107408
0.499565 0.499565 0.111391
0.63743 0.503609 0.115419
0.775219 0.507362 0.119188
0.912612 0.510689 0.122499
1 0.51371 0.125536
0.0191196 0.615457 0.0934462
0.110094 0.632105 0.110094
0.238499 0.63859 0.116579
0.375204 0.642451 0.120439
0.511788 0.645609 0.123598
0.648569 0.648569 0.126558
0.785046 0.651011 0.129
0.920714 0.652613 0.130602
1 0.654078 0.132067
0.0316167 0.76199 0.105943
0.121798 0.777829 0.121798
0.248997 0.783123 0.127092
0.384161 0.785443 0.129397
0.519326 0.787182 0.131136
0.654322 0.788342 0.132311
0.788739 0.788739 0.132692
0.922377 0.788327 0.13228
1 0.786984 0.130938
0.0401465 0.904585 0.114473
0.128634 0.918746 0.128634
0.254017 0.92221 0.132097
0.387106 0.922438 0.132342
0.520134 0.922042 0.131945
0.651957 0.920058 0.129946
0.78175 0.915816 0.125704
0.910109 0.910109 0.119997
1 0.903395 0.113283
0.0428931 1 0.11722
0.128893 1 0.128893
0.250751 1 0.128832
0.378943 1 0.124178
0.506294 1 0.118105
0.632898 1 0.110887
0.75874 1 0.102708
0.884337 1 0.0942245
1 1 0.0856794
0 0 0.188525
0.0600137 0 0.181933
0.164935 0 0.164935
0.280324 0 0.147478
0.400824 0 0.134554
0.528786 0 0.128695
0.663111 0 0.128985
0.80206 0 0.133883
0.943114 0 0.141573
0 0.0475929 0.169512
0.0492103 0.0492103 0.17113
0.170184 0.0482643 0.170184
0.305592 0.0508125 0.172732
0.445502 0.0573281 0.179232
0.587015 0.0650187 0.186923
0.727703 0.0716564 0.193576
0.865827 0.0757153 0.197635
1 0.0792096 0.201129
0 0.167727 0.167727
0.0656901 0.18761 0.18761
0.198032 0.198032 0.198032
0.336492 0.203632 0.203632
0.473625 0.207355 0.207355
0.61117 0.211078 0.211078
0.749157 0.21503 0.21503
0.88719 0.218997 0.218997
1 0.223255 0.223255
0 0.323125 0.19028
0.0846418 0.339406 0.206561
0.21294 0.3458 0.21294
0.350088 0.350088 0.217227
0.487511 0.354086 0.221241
0.625635 0.358404 0.225544
0.763928 0.362646 0.229801
0.901839 0.366506 0.233646
1 0.370642 0.237797
0.00714122 0.469657 0.203387
0.0983749 0.486564 0.220295
0.227146 0.493416 0.227146
0.364477 0.497902 0.231632
0.501839 0.501839 0.235569
0.639628 0.505806 0.239536
0.77731 0.509453 0.243183
0.914382 0.512459 0.246189
1 0.515526 0.249256
0.0212406 0.617578 0.217487
0.112322 0.634333 0.234241
0.24065 0.640742 0.24065
0.377005 0.644236 0.244144
0.51371 0.647532 0.24744
0.650309 0.650309 0.250217
0.786603 0.652567 0.252476
0.922103 0.654002 0.25391
1 0.655283 0.255192
0.0336156 0.763989 0.229847
0.123659 0.779706 0.245579
0.250721 0.784848 0.250721
0.38558 0.786862 0.252735
0.520623 0.788479 0.254353
0.655406 0.789441 0.255314
0.789563 0.789563 0.255436
0.922988 0.788937 0.25481
1 0.787076 0.252949
0.0416114 0.90605 0.237858
0.129915 0.920012 0.251835
0.254994 0.923171 0.254994
0.387884 0.923217 0.255024
0.520455 0.922377 0.254185
0.651743 0.919829 0.251637
0.780896 0.914961 0.246769
0.908782 0.908782 0.240589
1 0.901686 0.233509
0.0436255 1 0.239857
0.129046 1 0.250965
0.249989 1 0.249989
0.377859 1 0.245014
0.504845 1 0.238575
0.631067 1 0.230976
0.756786 1 0.22266
0.882261 1 0.214069
1 1 0.205509
0 0 0.315053
0.0532845 0 0.308049
0.15877 0 0.29163
0.275578 0 0.275578
0.398016 0 0.264607
0.528099 0 0.260853
0.664317 0 0.263035
0.804776 0 0.269444
0.945785 0 0.277089
0 0.0432898 0.298054
0.0476387 0.0476387 0.302403
0.17055 0.0486458 0.30341
0.307332 0.0525673 0.307332
0.448035 0.0598459 0.314611
0.589776 0.0677653 0.32253
0.729229 0.0731823 0.327947
0.867094 0.0769818 0.331746
1 0.0805982 0.335363
0 0.170108 0.302953
0.068452 0.190372 0.323217
0.200412 0.200412 0.333272
0.337957 0.205097 0.337957
0.474907 0.208652 0.341497
0.612589 0.212497 0.345342
0.750652 0.216526 0.349371
0.88864 0.220447 0.353307
1 0.224796 0.357641
0 0.324453 0.324453
0.0859846 0.340749 0.340749
0.214374 0.347234 0.347234
0.351431 0.351431 0.351431
0.489036 0.355627 0.355627
0.627176 0.35993 0.35993
0.765454 0.364172 0.364172
0.903319 0.367987 0.367987
1 0.372045 0.372045
0.00865187 0.471168 0.337758
0.0999161 0.488106 0.354696
0.228672 0.494942 0.361532
0.365667 0.499092 0.365667
0.503288 0.503288 0.369863
0.641001 0.507179 0.373754
0.778378 0.510521 0.377096
0.915511 0.513588 0.380179
1 0.516472 0.383062
0.0227359 0.619074 0.351827
0.113741 0.635752 0.368505
0.241978 0.642069 0.374823
0.37821 0.645457 0.37821
0.514794 0.64863 0.381384
0.651255 0.651255 0.384009
0.78706 0.653025 0.385779
0.922621 0.654521 0.387289
1 0.655604 0.388357
0.0347601 0.765133 0.363851
0.124666 0.780697 0.379431
0.251575 0.785702 0.384421
0.386282 0.787549 0.386282
0.521111 0.788968 0.387701
0.65565 0.789685 0.388403
0.789425 0.789425 0.388144
0.922545 0.788479 0.387213
1 0.786099 0.384817
0.0421912 0.90663 0.371298
0.130312 0.920409 0.385077
0.254978 0.923171 0.387823
0.387823 0.923171 0.387823
0.519814 0.921736 0.386404
0.650355 0.918441 0.383108
0.779049 0.9131 0.377768
0.906569 0.906569 0.371221
1 0.899168 0.363821
0.0433967 1 0.372488
0.128298 1 0.383062
0.248417 1 0.381277
0.375799 1 0.375799
0.502434 1 0.369024
0.628397 1 0.361151
0.753994 1 0.352728
0.879393 1 0.344045
1 1 0.335439
0 0 0.441978
0.0466621 0 0.434852
0.152682 0 0.418952
0.271229 0 0.404639
0.396216 0 0.396216
0.528359 0 0.394537
0.66598 0 0.398123
0.807157 0 0.405234
0.948501 0 0.41323
0 0.0392157 0.427405
0.046479 0.046479 0.434669
0.171557 0.0496376 0.437827
0.309743 0.0549783 0.443153
0.450752 0.0625772 0.450752
0.592142 0.0701305 0.45832
0.730663 0.0746166 0.462806
0.868147 0.0780346 0.466224
1 0.0819715 0.470161
0 0.172549 0.438819
0.0711986 0.193103 0.459373
0.202182 0.202182 0.468452
0.339254 0.206409 0.472679
0.476219 0.209949 0.476219
0.613977 0.213886 0.480156
0.752117 0.21799 0.484245
0.890074 0.221881 0.488151
1 0.226291 0.492561
0 0.325704 0.459129
0.0873426 0.342107 0.475517
0.215793 0.348653 0.482063
0.352743 0.352743 0.486168
0.490547 0.357122 0.490547
0.628672 0.36144 0.49485
0.766796 0.365515 0.498939
0.904723 0.36939 0.5028
1 0.373388 0.506798
0.0101472 0.472648 0.472648
0.101427 0.489601 0.489601
0.230152 0.496422 0.496422
0.367117 0.500542 0.500542
0.504662 0.504662 0.504662
0.642283 0.508461 0.508461
0.779477 0.51162 0.51162
0.916564 0.514641 0.514641
1 0.517372 0.517372
0.0241703 0.620508 0.486686
0.115099 0.63711 0.503288
0.243046 0.643137 0.5093
0.379309 0.646555 0.512734
0.51577 0.649592 0.51577
0.652064 0.652064 0.518242
0.787717 0.653681 0.519844
0.923064 0.654978 0.521157
1 0.655802 0.521965
0.0358587 0.766217 0.49836
0.125582 0.781613 0.513756
0.252018 0.786145 0.518288
0.386816 0.788098 0.520241
0.521477 0.789334 0.521477
0.655589 0.789624 0.521767
0.789334 0.789334 0.521477
0.921874 0.787823 0.519966
1 0.78471 0.516838
0.0426642 0.907103 0.50518
0.130556 0.920653 0.518746
0.255024 0.923201 0.521294
0.387579 0.922911 0.520989
0.519051 0.920974 0.519051
0.6486 0.916701 0.514778
0.776944 0.911009 0.509087
0.904128 0.904128 0.502205
1 0.896498 0.494575
0.0428473 1 0.505364
0.127184 1 0.515373
0.246754 1 0.513024
0.373632 1 0.507057
0.499901 1 0.499901
0.625574 1 0.491737
0.751125 1 0.483268
0.876478 1 0.474556
1 1 0.465843
0 0 0.569055
0.0402533 0 0.562264
0.147082 0 0.547189
0.26717 0 0.534417
0.39501 0 0.528847
0.529305 0 0.529305
0.668315 0 0.534279
0.809827 0 0.541726
0.950896 0 0.549447
0 0.0364996 0.558511
0.0458381 0.0458381 0.567849
0.172717 0.0507973 0.572808
0.312093 0.0573281 0.579339
0.453468 0.0652781 0.587289
0.593912 0.0719158 0.593912
0.732006 0.0759594 0.597971
0.869413 0.0793011 0.601312
1 0.0833295 0.605341
0 0.175235 0.575326
0.0738537 0.195773 0.595865
0.203616 0.203616 0.603723
0.340276 0.207431 0.607523
0.477531 0.211261 0.611353
0.615366 0.215274 0.615366
0.753246 0.21912 0.619211
0.891554 0.223362 0.623453
1 0.227756 0.627863
0 0.326955 0.594186
0.0886854 0.34345 0.610697
0.217227 0.350072 0.617319
0.354192 0.354192 0.621439
0.492012 0.358602 0.625834
0.630137 0.36289 0.630137
0.768032 0.366751 0.633997
0.906081 0.370733 0.63798
1 0.37464 0.641886
0.0116121 0.474113 0.60795
0.102892 0.491081 0.624903
0.231525 0.497795 0.631617
0.368521 0.501945 0.635767
0.505989 0.505989 0.639826
0.643503 0.509682 0.643503
0.780545 0.512673 0.64651
0.91751 0.515587 0.649409
1 0.518166 0.652003
0.0255436 0.621881 0.621881
0.116396 0.638407 0.638407
0.244114 0.644221 0.644221
0.380377 0.647623 0.647623
0.516655 0.650477 0.650477
0.652628 0.652628 0.652628
0.788235 0.6542 0.6542
0.923415 0.655314 0.655314
1 0.655894 0.655894
0.0368505 0.767224 0.633188
0.126375 0.782422 0.648386
0.252674 0.786801 0.652781
0.387259 0.78854 0.654505
0.521706 0.789563 0.655528
0.655558 0.789593 0.655558
0.789075 0.789075 0.655039
0.921096 0.78703 0.65301
1 0.782986 0.648951
0.0430762 0.907515 0.639414
0.130526 0.920623 0.652537
0.254932 0.923125 0.655024
0.38703 0.922362 0.654261
0.517952 0.919875 0.651774
0.646922 0.915022 0.646922
0.774762 0.908827 0.640726
0.901564 0.901564 0.633463
1 0.893523 0.625422
0.0421454 1 0.638483
0.125505 1 0.647517
0.2448 1 0.644892
0.371313 1 0.63856
0.497108 1 0.630945
0.622751 1 0.622751
0.748196 1 0.61416
0.873549 1 0.605447
0.99826 0.99826 0.596811
0 0 0.696315
0.0339971 0 0.690044
0.14229 0 0.676417
0.264317 0 0.665599
0.394293 0 0.66215
0.530434 0 0.664469
0.670878 0 0.670878
0.812512 0 0.678462
0.952697 0 0.685267
0 0.0349584 0.69099
0.0461891 0.0461891 0.70222
0.174426 0.0525216 0.708553
0.314717 0.0599527 0.715984
0.456123 0.0679332 0.72398
0.595346 0.0733349 0.729381
0.733028 0.0769818 0.733028
0.87071 0.0805982 0.736645
1 0.0847028 0.740749
0 0.177905 0.712032
0.076112 0.198032 0.732158
0.204868 0.204868 0.738994
0.341512 0.208652 0.742794
0.478874 0.212604 0.746731
0.61677 0.216678 0.750805
0.754681 0.220554 0.754681
0.893004 0.224811 0.758938
1 0.229206 0.763333
0 0.328206 0.729488
0.0900435 0.344808 0.74609
0.218326 0.351186 0.752453
0.355657 0.355657 0.756924
0.493462 0.360052 0.761334
0.631571 0.364324 0.765606
0.769421 0.368139 0.769421
0.907393 0.372061 0.773327
1 0.375845 0.777127
0.0130617 0.475578 0.743435
0.104341 0.492531 0.760388
0.232731 0.498985 0.766857
0.369879 0.503304 0.77116
0.507271 0.507271 0.775143
0.644388 0.510567 0.778424
0.781582 0.513726 0.781582
0.918379 0.516457 0.784314
1 0.518868 0.786725
0.0268711 0.623209 0.757244
0.117617 0.639628 0.773663
0.245243 0.645335 0.77937
0.381384 0.648615 0.78265
0.517494 0.651331 0.785367
0.653132 0.653132 0.787167
0.788663 0.654627 0.788663
0.923629 0.655543 0.789563
1 0.655848 0.789883
0.0377661 0.768139 0.768139
0.127077 0.783123 0.783123
0.253285 0.787411 0.787411
0.387655 0.788937 0.788937
0.521843 0.7897 0.7897
0.655467 0.789502 0.789502
0.788525 0.788525 0.788525
0.920012 0.785946 0.785946
1 0.781231 0.781231
0.0433814 0.90782 0.773754
0.130556 0.920668 0.786603
0.254795 0.922972 0.788922
0.386297 0.921645 0.787579
0.51635 0.918273 0.784207
0.644968 0.913069 0.779004
0.772442 0.906508 0.772442
0.898894 0.898894 0.764828
1 0.890684 0.756619
0.0412299 1 0.771603
0.123919 1 0.77995
0.242649 1 0.776776
0.368811 1 0.770092
0.494377 1 0.762234
0.619883 1 0.753902
0.745235 1 0.745235
0.870451 1 0.736385
0.995422 0.995422 0.728008
0 0 0.823728
0.0278782 0 0.817975
0.137911 0 0.806088
0.262623 0 0.797955
0.394553 0 0.796475
0.532097 0 0.800183
0.673259 0 0.807324
0.815183 0 0.815183
0.954131 0 0.820783
0 0.0337682 0.823865
0.0471504 0.0471504 0.837247
0.176761 0.0548409 0.844953
0.317388 0.062623 0.852735
0.458427 0.0702373 0.860334
0.596735 0.0747234 0.864836
0.734188 0.0781415 0.868254
0.872038 0.0819409 0.872038
1 0.0861067 0.876219
0 0.180606 0.848783
0.0778058 0.199725 0.867903
0.206104 0.206104 0.874296
0.342763 0.209918 0.878111
0.480217 0.213947 0.882139
0.618082 0.21799 0.886183
0.75613 0.222004 0.890196
0.894453 0.226261 0.894453
1 0.23064 0.898833
0.000427253 0.329519 0.864851
0.0914168 0.346181 0.881514
0.219745 0.352605 0.887938
0.357107 0.357107 0.892439
0.494926 0.361501 0.896834
0.632715 0.365469 0.900801
0.770779 0.369497 0.904845
0.908675 0.373342 0.908675
1 0.376883 0.912215
0.0145113 0.477028 0.87895
0.105608 0.493797 0.89572
0.234119 0.500389 0.902312
0.371206 0.504631 0.906554
0.508507 0.508507 0.91043
0.645502 0.511681 0.913603
0.782589 0.514733 0.916655
0.919234 0.517311 0.919234
1 0.519234 0.921157
0.0281834 0.624521 0.892622
0.118532 0.640543 0.908629
0.246311 0.646403 0.914488
0.3823 0.649531 0.917632
0.518273 0.652094 0.920195
0.653742 0.653742 0.921828
0.789059 0.655024 0.923125
0.923781 0.65568 0.923781
1 0.655589 0.92369
0.0386358 0.769009 0.903075
0.127581 0.783627 0.917693
0.253773 0.7879 0.921965
0.387976 0.789242 0.923308
0.521691 0.789563 0.923613
0.655314 0.789349 0.923415
0.787808 0.787808 0.921874
0.918563 0.784497 0.918563
1 0.779293 0.913359
0.0435645 0.908003 0.908003
0.130556 0.920653 0.920653
0.254475 0.922667 0.922667
0.385473 0.920821 0.920821
0.514672 0.916594 0.916594
0.642817 0.910918 0.910918
0.769955 0.904005 0.904005
0.896132 0.896132 0.896132
1 0.887816 0.887816
0.0400092 1 0.904433
0.122179 1 0.912291
0.240436 1 0.908629
0.366186 1 0.901534
0.491569 1 0.893492
0.616953 1 0.885054
0.74229 1 0.876356
0.867491 1 0.867491
0.992599 0.992599 0.859251
0 0 0.950729
0.0223697 0 0.94583
0.133852 0 0.935393
0.261463 0 0.930159
0.39556 0 0.930831
0.534493 0 0.935943
0.67599 0 0.943404
0.817578 0 0.950927
0.955566 0 0.955566
0 0.0332036 0.956664
0.0483711 0.0483711 0.971832
0.179156 0.0572519 0.980713
0.320134 0.0653697 0.98883
0.460197 0.0720073 0.995468
0.598093 0.0760815 0.999542
0.735485 0.0794385 1
0.873442 0.0833295 1
1 0.0875715 1
0 0.183276 0.984833
0.0792706 0.20119 1
0.207309 0.207309 1
0.344121 0.211276 1
0.481636 0.215366 1
0.619348 0.219257 1
0.757641 0.223514 1
0.895949 0.227756 1
1 0.232044 1
0.00181582 0.330907 0.999603
0.0927901 0.347555 1
0.221241 0.354086 1
0.358602 0.358602 1
0.496422 0.362997 1
0.634134 0.366888 1
0.772152 0.370886 1
0.909957 0.374624 1
1 0.377981 1
0.016022 0.478523 1
0.107012 0.495201 1
0.235569 0.501839 1
0.37258 0.506004 1
0.509621 0.509621 1
0.646632 0.512795 1
0.783566 0.515709 1
0.920058 0.518135 1
1 0.51989 1
0.0295109 0.625849 1
0.119753 0.641764 1
0.247395 0.647486 1
0.383215 0.650462 1
0.518715 0.652537 1
0.654292 0.654292 1
0.789441 0.655406 1
0.923781 0.65568 1
1 0.655497 1
0.0393225 0.769696 1
0.128283 0.784329 1
0.254246 0.788373 1
0.38822 0.789502 1
0.521752 0.789609 1
0.655085 0.789105 1
0.787045 0.787045 1
0.916793 0.782727 1
1 0.777203 1
0.0435035 0.907942 1
0.130495 0.920607 1
0.253941 0.922133 1
0.38439 0.919738 1
0.513008 0.914931 1
0.640665 0.908751 1
0.767422 0.901488 1
0.893278 0.893278 1
1 0.884947 1
0.038468 1 1
0.120241 1 1
0.238148 1 1
0.363455 1 1
0.488777 1 1
0.614054 1 1
0.739376 1 1
0.864652 0.998016 0.998016
0.989456 0.989456 0.989456
