lut/ground-control/GroundControl_Green_Undertones.cube
TITLE "Generate by Resolve"
LUT_3D_SIZE 33
0 0.130129 0.168444
0 0.12871 0.167025
0.009308 0.127718 0.166033
0.041062 0.125689 0.164004
0.0707256 0.124651 0.162966
0.0988632 0.124071 0.162387
0.131029 0.122805 0.161105
0.167666 0.120684 0.158999
0.205402 0.118578 0.156893
0.241917 0.116579 0.154894
0.277836 0.11487 0.153185
0.314076 0.113512 0.151812
0.350439 0.112108 0.150408
0.38703 0.110628 0.148943
0.424353 0.10898 0.147295
0.462394 0.10721 0.14551
0.501656 0.105226 0.143542
0.542245 0.102602 0.140917
0.583902 0.0996567 0.137972
0.626154 0.0968032 0.135119
0.668132 0.0937972 0.132113
0.709285 0.090837 0.129152
0.749157 0.0880751 0.12639
0.785229 0.0865644 0.12488
0.815045 0.0863508 0.124651
0.843397 0.0865187 0.124834
0.870954 0.0868849 0.1252
0.894163 0.0887312 0.127031
0.910964 0.0919356 0.130236
0.928069 0.0950332 0.133349
0.948531 0.0972152 0.135531
0.969299 0.0996567 0.137972
0.989807 0.101808 0.140124
0 0.155535 0.165484
0 0.154376 0.16434
0.00735485 0.154131 0.16408
0.0399023 0.15288 0.162844
0.0701915 0.152483 0.162432
0.0989853 0.152544 0.162493
0.131792 0.151919 0.161868
0.168643 0.150011 0.159976
0.206485 0.148028 0.157977
0.243519 0.146532 0.156481
0.279942 0.145327 0.155291
0.316182 0.143969 0.153918
0.352529 0.14255 0.152499
0.389319 0.141283 0.151232
0.426581 0.139574 0.149523
0.464469 0.137636 0.147585
0.503456 0.135393 0.145342
0.544076 0.132784 0.142748
0.585733 0.129839 0.139788
0.627497 0.126513 0.136461
0.669123 0.12314 0.133089
0.710262 0.120165 0.130129
0.750011 0.117281 0.127245
0.785748 0.115434 0.125383
0.815503 0.11516 0.125124
0.844038 0.115511 0.125475
0.871534 0.115816 0.125765
0.894423 0.117342 0.127306
0.911192 0.120516 0.13048
0.928527 0.123857 0.133806
0.948959 0.126009 0.135958
0.969406 0.12813 0.138079
0.989899 0.130251 0.140215
0 0.183459 0.163699
0 0.183108 0.163363
0.00668345 0.183169 0.163409
0.0395514 0.182239 0.162478
0.0703746 0.182376 0.162615
0.0995193 0.182788 0.163043
0.132448 0.1823 0.162539
0.169619 0.180697 0.160952
0.207874 0.179126 0.159365
0.2448 0.177523 0.157778
0.280995 0.176089 0.156344
0.317311 0.174792 0.155047
0.353689 0.173419 0.153658
0.390158 0.171832 0.152087
0.427298 0.169986 0.15024
0.465248 0.168124 0.148363
0.503944 0.165591 0.14583
0.544152 0.16257 0.142824
0.585443 0.159258 0.139513
0.627253 0.155978 0.136217
0.668925 0.152651 0.132891
0.709758 0.149371 0.12961
0.749416 0.146395 0.126635
0.785336 0.144732 0.124987
0.815061 0.144427 0.124666
0.843305 0.144488 0.124743
0.870756 0.144762 0.125002
0.893874 0.146502 0.126741
0.910613 0.149645 0.129885
0.927642 0.152682 0.132937
0.948074 0.154818 0.135073
0.968765 0.157198 0.137438
0.989227 0.159304 0.139544
0 0.212894 0.16347
0 0.212894 0.16347
0.00740063 0.21355 0.164141
0.0406348 0.213001 0.163577
0.0714427 0.213107 0.163684
0.100679 0.213611 0.164187
0.133867 0.213367 0.163943
0.170932 0.211688 0.162264
0.208835 0.209751 0.160327
0.245747 0.208148 0.158724
0.282094 0.206851 0.157427
0.318105 0.205264 0.15584
0.354131 0.203525 0.154101
0.390494 0.201831 0.152407
0.42742 0.199786 0.150362
0.464942 0.197482 0.148058
0.503563 0.194858 0.145449
0.543969 0.19205 0.142641
0.585184 0.188663 0.139239
0.62678 0.185153 0.135729
0.668269 0.181674 0.13225
0.709255 0.178546 0.129122
0.748959 0.175601 0.126177
0.784588 0.173648 0.124224
0.814267 0.173297 0.123873
0.842741 0.173587 0.124163
0.870161 0.173831 0.124407
0.893004 0.175311 0.125887
0.909728 0.178424 0.129015
0.927016 0.18172 0.132296
0.947417 0.183841 0.134417
0.967849 0.185946 0.136538
0.988327 0.188067 0.138643
0 0.243412 0.16556
0 0.243549 0.165698
0.00944533 0.244038 0.166171
0.0427253 0.243519 0.165667
0.0736095 0.243717 0.165866
0.10277 0.244144 0.166293
0.135607 0.243549 0.165698
0.172595 0.241779 0.163928
0.21059 0.239948 0.162081
0.247181 0.23801 0.160159
0.282994 0.236194 0.158343
0.318868 0.23447 0.156603
0.354925 0.232761 0.15491
0.391028 0.230808 0.152956
0.427832 0.228626 0.150774
0.465492 0.226474 0.148623
0.504082 0.223819 0.145968
0.544182 0.220706 0.142855
0.585367 0.217288 0.139422
0.627192 0.214008 0.136141
0.668635 0.210468 0.132616
0.709407 0.207126 0.129259
0.748989 0.204089 0.126223
0.784848 0.20235 0.124483
0.814527 0.201999 0.124147
0.842741 0.202029 0.124163
0.870146 0.202258 0.124392
0.893248 0.203967 0.126116
0.909957 0.207095 0.129229
0.926986 0.210132 0.132265
0.947417 0.212268 0.134417
0.968109 0.214649 0.136782
0.988586 0.21677 0.138903
0 0.273518 0.168231
0 0.273564 0.168276
0.0122377 0.27425 0.168963
0.0453498 0.273564 0.168292
0.0759442 0.273472 0.1682
0.105028 0.273823 0.168551
0.137713 0.273075 0.167788
0.174395 0.271 0.165728
0.211933 0.268696 0.163424
0.248417 0.266667 0.161395
0.284428 0.265049 0.159777
0.320134 0.263157 0.15787
0.355947 0.261204 0.155932
0.392126 0.259327 0.154055
0.429023 0.257237 0.151949
0.466438 0.254841 0.149554
0.504936 0.25211 0.146822
0.545266 0.24921 0.143923
0.586404 0.245747 0.140475
0.627939 0.242191 0.136904
0.669383 0.238636 0.133364
0.710399 0.235538 0.130251
0.749966 0.232486 0.127199
0.78558 0.230503 0.125216
0.815229 0.230121 0.124834
0.843687 0.230396 0.125124
0.871107 0.230625 0.125353
0.89395 0.232105 0.126833
0.910674 0.235248 0.129961
0.927977 0.238544 0.133272
0.948409 0.240696 0.135409
0.968872 0.242832 0.13756
0.989441 0.245029 0.139757
0 0.303609 0.170962
0 0.303517 0.170871
0.0142977 0.30367 0.171023
0.0471504 0.302739 0.170077
0.0776989 0.302602 0.169955
0.106477 0.302647 0.170001
0.138964 0.301686 0.169039
0.175769 0.299733 0.167086
0.213306 0.297444 0.164797
0.249714 0.295338 0.162692
0.28542 0.293416 0.160769
0.321141 0.291524 0.158877
0.357137 0.289769 0.157122
0.393149 0.287709 0.155062
0.429862 0.285451 0.152804
0.467414 0.283192 0.15053
0.505989 0.280522 0.147875
0.546044 0.277348 0.144701
0.587167 0.273884 0.141238
0.628946 0.270558 0.137911
0.670375 0.267002 0.134356
0.711131 0.26363 0.130983
0.750698 0.260578 0.127932
0.786572 0.258869 0.126223
0.816236 0.258503 0.125856
0.844465 0.258534 0.125887
0.871885 0.258778 0.126131
0.895003 0.260533 0.127886
0.911757 0.263676 0.131029
0.928832 0.266773 0.134127
0.94931 0.268956 0.136309
0.970077 0.271397 0.13875
0.9906 0.273579 0.140917
0 0.33257 0.172763
0 0.33225 0.172427
0.0159915 0.33254 0.172732
0.0487373 0.331487 0.171679
0.0790112 0.331075 0.171252
0.10779 0.331136 0.171313
0.140383 0.330282 0.170459
0.176974 0.328115 0.168292
0.214405 0.325704 0.165881
0.25098 0.323766 0.163958
0.286702 0.321859 0.162036
0.322332 0.31989 0.160067
0.358083 0.317876 0.158068
0.394156 0.315892 0.156069
0.431037 0.313802 0.153979
0.468406 0.311345 0.151522
0.506889 0.308583 0.148775
0.547127 0.305623 0.1458
0.588296 0.30219 0.142367
0.629831 0.298604 0.138796
0.671275 0.295064 0.135241
0.712291 0.291966 0.132143
0.751873 0.28893 0.129107
0.787503 0.286961 0.127153
0.817182 0.28661 0.126802
0.845685 0.286931 0.127123
0.873152 0.287221 0.127398
0.896056 0.288746 0.128939
0.91284 0.291936 0.132113
0.930205 0.295308 0.1355
0.950713 0.297536 0.137713
0.971283 0.299779 0.139956
0.991897 0.302037 0.142214
0 0.361257 0.174609
0 0.360845 0.174212
0.0174411 0.360815 0.174166
0.0501259 0.359701 0.173068
0.0806287 0.359503 0.172869
0.1093 0.359457 0.172808
0.141665 0.358389 0.171756
0.178332 0.356298 0.169665
0.215869 0.353994 0.167346
0.252216 0.351827 0.165179
0.287861 0.349844 0.16321
0.323735 0.348119 0.161471
0.359487 0.346105 0.159472
0.395468 0.34403 0.157382
0.432166 0.341741 0.155108
0.469642 0.339406 0.152773
0.508263 0.336797 0.150149
0.548318 0.333623 0.14699
0.589456 0.330175 0.143526
0.631251 0.326863 0.140215
0.672709 0.323323 0.13669
0.713481 0.319982 0.133349
0.753109 0.316991 0.130343
0.789029 0.315312 0.128679
0.818753 0.315007 0.128374
0.847028 0.315099 0.128466
0.874525 0.315419 0.128771
0.897734 0.31725 0.130617
0.914595 0.320516 0.133867
0.931777 0.32369 0.137057
0.952331 0.325978 0.13933
0.973205 0.328527 0.141878
0.993881 0.330831 0.144198
0 0.389532 0.175784
0 0.389105 0.175357
0.0188144 0.389288 0.17554
0.0514534 0.388144 0.174395
0.081651 0.38764 0.173892
0.110323 0.387594 0.173846
0.142901 0.386725 0.172992
0.179431 0.384512 0.170764
0.216815 0.382055 0.168307
0.253315 0.380026 0.166293
0.289052 0.378134 0.164385
0.324666 0.37615 0.162402
0.360418 0.374136 0.160388
0.396658 0.37232 0.158572
0.433371 0.370047 0.156313
0.470741 0.367605 0.153857
0.509239 0.364874 0.151125
0.549462 0.361883 0.148135
0.590723 0.358541 0.144793
0.632303 0.355016 0.141268
0.673793 0.351522 0.137774
0.71487 0.34847 0.134737
0.754528 0.345495 0.131746
0.790219 0.343603 0.12987
0.820005 0.343359 0.12961
0.8486 0.343786 0.130037
0.876173 0.344167 0.130419
0.899168 0.345785 0.132052
0.91606 0.349096 0.135348
0.933577 0.352605 0.138857
0.954238 0.354986 0.141238
0.97496 0.357382 0.143633
0.995712 0.359762 0.146029
0 0.41799 0.176989
0 0.417517 0.176532
0.0196994 0.417426 0.176425
0.0523232 0.416266 0.175265
0.0827649 0.416007 0.175021
0.111406 0.415915 0.174914
0.14374 0.414816 0.173816
0.180331 0.41265 0.171664
0.217899 0.410376 0.169375
0.254231 0.408194 0.167208
0.289891 0.406226 0.165225
0.325719 0.40444 0.163455
0.361532 0.402502 0.161501
0.397528 0.400443 0.159442
0.434256 0.398184 0.157198
0.471916 0.396033 0.155032
0.51046 0.393332 0.152346
0.550561 0.390219 0.149233
0.59176 0.386816 0.14583
0.63357 0.38352 0.142535
0.675166 0.380133 0.139132
0.71603 0.376883 0.135897
0.755764 0.373983 0.132998
0.791791 0.372427 0.131426
0.821607 0.372213 0.131228
0.850004 0.372427 0.131426
0.877653 0.372885 0.131899
0.901015 0.374884 0.133898
0.918013 0.378286 0.137301
0.935332 0.381613 0.140612
0.956054 0.384054 0.143053
0.977142 0.386801 0.145815
0.998032 0.389349 0.148348
0 0.446174 0.177691
0 0.445792 0.177325
0.0206302 0.445838 0.177356
0.053254 0.444663 0.176181
0.0834211 0.444144 0.175662
0.112062 0.444053 0.17557
0.144656 0.443214 0.174731
0.181186 0.440986 0.172519
0.218585 0.438544 0.170077
0.255039 0.4365 0.168017
0.290852 0.434669 0.166201
0.326513 0.432715 0.164248
0.362295 0.430747 0.16228
0.398581 0.428962 0.160494
0.435355 0.42678 0.158297
0.472786 0.424384 0.155917
0.51136 0.421729 0.153246
0.551781 0.418921 0.150439
0.593042 0.415579 0.147112
0.634714 0.412161 0.143679
0.67631 0.408759 0.140291
0.717479 0.405814 0.137346
0.757275 0.402975 0.134508
0.793133 0.401251 0.132769
0.823056 0.401144 0.132677
0.851804 0.401709 0.133242
0.87953 0.402243 0.133776
0.902693 0.404044 0.135576
0.919829 0.407584 0.139101
0.937545 0.411307 0.142824
0.958419 0.413901 0.145418
0.979324 0.41648 0.148013
1 0.419104 0.150622
0 0.474586 0.178561
0 0.474098 0.178073
0.0212253 0.473991 0.177966
0.0540017 0.472969 0.176944
0.0843061 0.472572 0.176547
0.112947 0.472496 0.176471
0.145296 0.471412 0.175387
0.181872 0.46923 0.173205
0.219532 0.467048 0.171008
0.255924 0.464927 0.168887
0.291615 0.462989 0.166964
0.327459 0.461234 0.165194
0.363394 0.459388 0.163363
0.399466 0.457404 0.161379
0.436286 0.455253 0.159228
0.474052 0.453208 0.157183
0.512688 0.450599 0.154574
0.552895 0.447593 0.151553
0.594202 0.444297 0.148272
0.63621 0.441199 0.145174
0.677897 0.437903 0.141878
0.718929 0.434821 0.138781
0.758785 0.432059 0.136019
0.79498 0.43064 0.134615
0.824994 0.430625 0.1346
0.853605 0.431052 0.135027
0.881468 0.431739 0.135714
0.905043 0.433951 0.137926
0.922255 0.437552 0.141527
0.939803 0.441123 0.145098
0.960891 0.443915 0.14789
0.982208 0.446906 0.150881
1 0.449714 0.153689
0 0.502968 0.178637
0 0.502556 0.178225
0.0216068 0.502663 0.178332
0.0542306 0.501503 0.177172
0.0844434 0.501015 0.176684
0.113298 0.501152 0.176822
0.145769 0.500175 0.175845
0.182361 0.498024 0.173693
0.219806 0.495628 0.171298
0.256291 0.493599 0.169268
0.292241 0.491905 0.167575
0.327993 0.490059 0.165728
0.363882 0.488182 0.163851
0.400214 0.486458 0.162127
0.43714 0.484413 0.160082
0.474708 0.482155 0.157824
0.51342 0.479637 0.155306
0.553994 0.476997 0.152667
0.595407 0.473793 0.149477
0.637217 0.470512 0.146181
0.678981 0.467277 0.142947
0.720363 0.464561 0.14023
0.760372 0.461936 0.137606
0.796445 0.460426 0.136095
0.826566 0.460517 0.136187
0.855543 0.461311 0.13698
0.883528 0.462089 0.137758
0.906981 0.464179 0.139864
0.924376 0.467994 0.143664
0.942397 0.472007 0.147677
0.963516 0.474845 0.150515
0.984695 0.477699 0.153368
1 0.48072 0.15639
0 0.531853 0.178531
0 0.531395 0.178088
0.0213016 0.531334 0.178027
0.0540627 0.530327 0.177005
0.0844739 0.530037 0.176715
0.113176 0.530007 0.176699
0.145602 0.529 0.175692
0.182483 0.527123 0.1738
0.22002 0.524834 0.171511
0.256519 0.522805 0.169497
0.292317 0.520974 0.167651
0.328222 0.519265 0.165957
0.364324 0.517617 0.164309
0.400565 0.515785 0.162478
0.437537 0.513787 0.160464
0.475425 0.511849 0.158541
0.514229 0.509422 0.156115
0.554604 0.506584 0.153277
0.596139 0.503517 0.150195
0.638376 0.500648 0.147341
0.680278 0.497566 0.144244
0.721492 0.494667 0.14136
0.761593 0.492134 0.138827
0.798062 0.49102 0.137713
0.828367 0.491295 0.137987
0.857267 0.491997 0.138689
0.885374 0.492927 0.13962
0.909224 0.495415 0.142092
0.926696 0.49929 0.145983
0.944549 0.503151 0.149828
0.96582 0.506142 0.152819
0.987411 0.509392 0.156085
1 0.512383 0.159075
0 0.560739 0.177905
0 0.560327 0.177493
0.0209812 0.56054 0.177722
0.0536965 0.559472 0.176638
0.0840009 0.559091 0.176257
0.112917 0.559274 0.17644
0.145541 0.55845 0.175616
0.182223 0.556374 0.173556
0.219791 0.554116 0.171283
0.256611 0.552422 0.169589
0.292515 0.550683 0.167865
0.32842 0.548989 0.166155
0.364446 0.54725 0.164416
0.400885 0.545632 0.162799
0.438071 0.543832 0.161013
0.475853 0.541802 0.158968
0.514778 0.539498 0.156664
0.555566 0.537072 0.154238
0.597177 0.534081 0.151247
0.639246 0.531044 0.148211
0.681285 0.528099 0.145266
0.722988 0.525673 0.142855
0.763256 0.523323 0.14049
0.799573 0.522042 0.139223
0.829969 0.522408 0.139574
0.859236 0.523507 0.140673
0.88748 0.524559 0.141726
0.911192 0.526894 0.14406
0.928771 0.530892 0.148058
0.946975 0.535103 0.15227
0.968292 0.538125 0.155291
0.98967 0.541176 0.158343
1 0.544289 0.161456
0 0.59028 0.176974
0 0.589929 0.176623
0.0199435 0.58996 0.176669
0.0527504 0.588998 0.175692
0.0833143 0.588861 0.17557
0.112154 0.588968 0.175662
0.144732 0.588113 0.174807
0.181704 0.586328 0.173022
0.219455 0.584237 0.170932
0.256077 0.582345 0.169055
0.292042 0.580682 0.167391
0.328313 0.579355 0.166064
0.364492 0.577768 0.164477
0.400931 0.57615 0.16286
0.438117 0.57435 0.161044
0.476173 0.572595 0.159289
0.515297 0.570474 0.157183
0.555978 0.567941 0.154635
0.597772 0.565148 0.151843
0.640299 0.562554 0.149248
0.682445 0.559716 0.14641
0.723934 0.557092 0.143801
0.764309 0.554849 0.141543
0.801068 0.554009 0.140703
0.831586 0.554498 0.141192
0.860655 0.555383 0.142092
0.88896 0.556512 0.143206
0.913024 0.559182 0.145892
0.930663 0.563241 0.14995
0.948653 0.567239 0.153948
0.970031 0.570321 0.157031
0.99173 0.573709 0.160403
1 0.576776 0.16347
0 0.619898 0.175662
0 0.619593 0.175357
0.0189975 0.619959 0.175723
0.0518654 0.619043 0.174807
0.0823224 0.618799 0.174563
0.111315 0.619074 0.174838
0.144137 0.618463 0.174228
0.181018 0.616571 0.172335
0.218799 0.614511 0.170291
0.255802 0.613016 0.16878
0.291966 0.611536 0.1673
0.328054 0.610025 0.165789
0.364324 0.60853 0.164309
0.401175 0.607324 0.163088
0.438529 0.605707 0.161471
0.476585 0.603937 0.159701
0.51577 0.601892 0.157656
0.556771 0.59968 0.155444
0.598718 0.597025 0.152789
0.641062 0.594263 0.150027
0.68336 0.591562 0.147326
0.725261 0.589364 0.145129
0.765713 0.587182 0.142947
0.802228 0.586099 0.141863
0.832807 0.586648 0.142412
0.862257 0.587915 0.143679
0.890623 0.589105 0.144869
0.914427 0.591531 0.147311
0.932113 0.595621 0.151385
0.950408 0.599924 0.155688
0.971786 0.603006 0.15877
0.993194 0.606104 0.161868
1 0.609171 0.16495
0 0.650111 0.174685
0 0.649897 0.174472
0.0179294 0.65008 0.174655
0.0508583 0.64921 0.1738
0.0816663 0.649332 0.173922
0.110719 0.649668 0.174243
0.143511 0.649027 0.173602
0.180652 0.647395 0.171969
0.218662 0.645563 0.170153
0.255543 0.643931 0.168505
0.291798 0.642557 0.167147
0.328374 0.641535 0.16611
0.364813 0.640208 0.164797
0.401495 0.638834 0.163424
0.438941 0.637308 0.161883
0.477378 0.63592 0.16051
0.516701 0.634012 0.158587
0.55761 0.631693 0.156268
0.599603 0.629099 0.153674
0.642313 0.626688 0.151263
0.684657 0.624048 0.148623
0.726329 0.621607 0.146197
0.766873 0.619516 0.144091
0.803723 0.618799 0.143374
0.834348 0.619379 0.143969
0.863508 0.620371 0.144945
0.891951 0.621607 0.146181
0.915999 0.624292 0.148882
0.933684 0.628382 0.152956
0.95169 0.632395 0.15697
0.973053 0.635462 0.160052
0.99472 0.638819 0.163394
1 0.641825 0.1664
0 0.680217 0.173922
0 0.680293 0.173999
0.0177005 0.68072 0.174426
0.050782 0.680018 0.173724
0.0814221 0.679973 0.173678
0.110597 0.680415 0.174121
0.143755 0.68014 0.173831
0.180911 0.678538 0.172244
0.218982 0.676768 0.170474
0.256199 0.675471 0.169177
0.292668 0.674311 0.168002
0.32903 0.673075 0.166766
0.365591 0.67187 0.16556
0.402701 0.670924 0.16463
0.440284 0.66952 0.16321
0.478508 0.667933 0.161639
0.517891 0.666072 0.159777
0.559136 0.664103 0.157809
0.601221 0.661585 0.155276
0.643702 0.658961 0.152651
0.686091 0.656367 0.150072
0.728099 0.654261 0.147967
0.768643 0.652171 0.145876
0.805219 0.651164 0.144854
0.835843 0.651759 0.145464
0.865309 0.65304 0.146746
0.89369 0.654246 0.147936
0.917479 0.656657 0.150347
0.93521 0.660792 0.154482
0.953353 0.664927 0.158633
0.974655 0.667948 0.161654
0.995972 0.670954 0.164645
1 0.67393 0.16762
0 0.71107 0.173877
0 0.71107 0.173892
0.0175631 0.711482 0.174304
0.0509957 0.711131 0.173938
0.0819104 0.71133 0.174151
0.111223 0.711925 0.174746
0.144274 0.711528 0.17435
0.181613 0.710124 0.17293
0.219959 0.708629 0.17145
0.25713 0.707286 0.170108
0.293629 0.706157 0.168963
0.330358 0.705272 0.168093
0.367041 0.704189 0.16701
0.403906 0.703014 0.16582
0.441535 0.701671 0.164477
0.480156 0.70045 0.163272
0.519585 0.698665 0.161486
0.560601 0.696452 0.159258
0.602686 0.693935 0.156756
0.645472 0.69163 0.154437
0.687877 0.689036 0.151858
0.729595 0.686641 0.149462
0.770138 0.684565 0.147372
0.807004 0.683833 0.146654
0.837598 0.684398 0.147219
0.866712 0.685328 0.14815
0.895033 0.686458 0.149279
0.919066 0.689113 0.151934
0.93666 0.693126 0.155932
0.954528 0.697002 0.159808
0.975875 0.700053 0.162875
0.997223 0.70309 0.165896
1 0.705928 0.16875
0 0.741878 0.174334
0 0.742184 0.174655
0.018677 0.742931 0.175402
0.0520027 0.742473 0.174945
0.0829175 0.742702 0.175158
0.112612 0.743664 0.176135
0.145815 0.743435 0.175891
0.1832 0.742077 0.174533
0.221454 0.740475 0.172946
0.258808 0.739315 0.171786
0.295521 0.738399 0.170871
0.332082 0.737362 0.169818
0.36878 0.736294 0.16875
0.406012 0.735454 0.167926
0.443687 0.734157 0.166629
0.482017 0.732677 0.165133
0.521462 0.730877 0.163348
0.562768 0.728969 0.161425
0.604868 0.726467 0.158923
0.647349 0.723857 0.156313
0.689738 0.721263 0.153719
0.731716 0.719112 0.151568
0.772198 0.716976 0.149432
0.808698 0.715877 0.148348
0.839246 0.716396 0.148867
0.86862 0.717586 0.150042
0.896864 0.718639 0.15111
0.920485 0.720897 0.153353
0.937972 0.724788 0.157259
0.955993 0.728817 0.161273
0.977127 0.731655 0.164126
0.99823 0.734447 0.166903
1 0.737331 0.169802
0 0.773266 0.176104
0 0.773541 0.176394
0.0203555 0.774243 0.177081
0.0540017 0.77409 0.176944
0.0851759 0.774563 0.177417
0.114672 0.775341 0.178195
0.147906 0.775143 0.177981
0.185657 0.774136 0.176974
0.223972 0.77261 0.175463
0.26128 0.771405 0.174243
0.297871 0.770367 0.17322
0.334646 0.769528 0.172381
0.371466 0.768597 0.171435
0.408408 0.767483 0.170336
0.446082 0.766171 0.169024
0.484718 0.764996 0.167834
0.524163 0.763195 0.166049
0.565148 0.760967 0.163806
0.607187 0.758419 0.161257
0.649912 0.756039 0.158877
0.692241 0.753368 0.156222
0.733883 0.750896 0.153735
0.774319 0.748699 0.151537
0.811017 0.747814 0.150668
0.841443 0.748211 0.151064
0.87039 0.748974 0.151812
0.898543 0.749935 0.152773
0.922362 0.752392 0.15523
0.939727 0.756161 0.158999
0.957336 0.759777 0.162615
0.978347 0.762493 0.165347
0.999496 0.765316 0.16817
1 0.76791 0.170748
0 0.804379 0.178943
0 0.804837 0.179416
0.0236667 0.805829 0.180392
0.0571908 0.80557 0.180133
0.088304 0.805982 0.180545
0.118105 0.80705 0.181628
0.151476 0.806989 0.181567
0.188968 0.805737 0.180301
0.227314 0.804242 0.178805
0.264912 0.803326 0.17789
0.301518 0.802304 0.176867
0.338109 0.801282 0.17586
0.374823 0.800244 0.174807
0.411994 0.799344 0.173907
0.449699 0.798077 0.172641
0.487984 0.796536 0.171099
0.527352 0.794675 0.169238
0.568582 0.792676 0.167254
0.61059 0.790082 0.164645
0.652964 0.78735 0.161913
0.695186 0.784588 0.159167
0.73698 0.782269 0.156832
0.777295 0.77995 0.154513
0.813626 0.778698 0.153262
0.843961 0.779004 0.153582
0.873075 0.779934 0.154498
0.901045 0.780728 0.155291
0.924407 0.782712 0.157275
0.941619 0.786328 0.160891
0.959365 0.790082 0.164645
0.980102 0.792538 0.167102
1 0.794842 0.169406
1 0.797131 0.171695
0 0.835523 0.183658
0 0.835981 0.184131
0.0282444 0.83682 0.18497
0.0619364 0.836728 0.184878
0.0932631 0.837354 0.185504
0.12285 0.838224 0.186374
0.156161 0.838102 0.186252
0.193927 0.83711 0.185245
0.232303 0.835645 0.183795
0.269612 0.83444 0.182574
0.306203 0.833387 0.181537
0.343038 0.832639 0.180774
0.37969 0.831525 0.179675
0.416571 0.830335 0.178485
0.454154 0.828946 0.177096
0.492653 0.827634 0.175784
0.531991 0.825727 0.173877
0.572808 0.823331 0.171481
0.614679 0.8206 0.16875
0.657221 0.818036 0.166186
0.699367 0.815198 0.163348
0.740795 0.812497 0.160647
0.780972 0.810056 0.158206
0.81738 0.808881 0.157031
0.847547 0.809018 0.157168
0.876249 0.809522 0.157671
0.904067 0.810162 0.158312
0.927459 0.812192 0.160327
0.944305 0.815442 0.163592
0.961395 0.81854 0.166674
0.981842 0.820691 0.168841
1 0.822934 0.171084
1 0.824628 0.172778
0 0.865293 0.191546
0.0065156 0.865782 0.19205
0.0364538 0.866926 0.193179
0.0700389 0.866712 0.192981
0.101183 0.86717 0.193439
0.130953 0.868208 0.194461
0.164385 0.868208 0.194476
0.201862 0.866926 0.193179
0.240162 0.865385 0.191638
0.277684 0.864393 0.190661
0.314229 0.86331 0.189563
0.350729 0.862196 0.188464
0.38732 0.861051 0.187304
0.424399 0.860059 0.186313
0.46186 0.858549 0.184802
0.499962 0.856825 0.183093
0.539178 0.85481 0.181064
0.580209 0.852613 0.178866
0.621973 0.849775 0.176043
0.664073 0.846784 0.173037
0.706035 0.843748 0.170001
0.747555 0.841154 0.167422
0.78761 0.838575 0.164828
0.82359 0.836973 0.163226
0.853529 0.836866 0.163134
0.882033 0.837201 0.163455
0.909483 0.837461 0.163729
0.932326 0.838926 0.165194
0.948837 0.841856 0.168109
0.965545 0.844572 0.170825
0.985031 0.845777 0.17203
1 0.846738 0.172992
1 0.847669 0.173922
0 0.894697 0.201541
0.016495 0.895186 0.202029
0.0461585 0.89604 0.202884
0.0797742 0.895888 0.202716
0.111131 0.896544 0.203387
0.140673 0.897353 0.204196
0.173907 0.897154 0.203998
0.211536 0.896025 0.202853
0.249882 0.89453 0.201373
0.287053 0.893187 0.200031
0.323491 0.891997 0.198825
0.360143 0.891051 0.197879
0.396628 0.889769 0.196597
0.433326 0.888411 0.195239
0.47071 0.886824 0.193652
0.50898 0.885252 0.192096
0.547997 0.883055 0.189899
0.588556 0.880385 0.187228
0.630182 0.877409 0.184253
0.672419 0.874556 0.181384
0.714168 0.871305 0.178149
0.755093 0.868116 0.17496
0.794751 0.865141 0.171969
0.83064 0.863447 0.170291
0.860243 0.86302 0.169848
0.888121 0.862715 0.169558
0.914931 0.862333 0.169177
0.936889 0.862913 0.169757
0.952392 0.864836 0.171679
0.9682 0.866651 0.17348
0.987289 0.86746 0.174289
1 0.868299 0.175143
1 0.868788 0.175616
0 0.923674 0.211505
0.0266728 0.924376 0.212192
0.0563058 0.925216 0.213046
0.0898146 0.924926 0.212757
0.120882 0.925307 0.213138
0.150484 0.926177 0.214008
0.183841 0.926085 0.213916
0.221134 0.924636 0.212467
0.259266 0.922927 0.210742
