lut/ground-control/GroundControl_Warm1.cube
TITLE "Generate by Resolve"
LUT_3D_SIZE 9
0 0 0
0.0397498 0.0227665 0.0254368
0.138567 0.029572 0.0352331
0.279759 0.0249485 0.0332341
0.443854 0.0142061 0.0245365
0.61268 0.00224308 0.0139773
0.769924 0 0.00598154
0.902892 0 0.0039826
1 0 0.00393683
0 0.13022 0.0605936
0.102464 0.12726 0.0437629
0.249805 0.122057 0.0295872
0.395651 0.116808 0.0202487
0.531929 0.113802 0.0167239
0.664088 0.111894 0.0144961
0.793683 0.110689 0.0129397
0.92134 0.110002 0.0119173
1 0.109728 0.0113069
0 0.267765 0.0579385
0.108583 0.250797 0.040238
0.263722 0.242741 0.0314488
0.4065 0.237995 0.0259861
0.543328 0.234867 0.0221256
0.676417 0.232761 0.0192874
0.806821 0.231357 0.0171969
0.935164 0.230518 0.0156863
1 0.230137 0.0146792
0 0.391226 0.0630198
0.113664 0.373861 0.0445411
0.270024 0.365499 0.0350652
0.413825 0.36051 0.0290227
0.551553 0.357168 0.0246738
0.685344 0.354879 0.0214542
0.816205 0.353368 0.0191501
0.944686 0.352499 0.0176242
1 0.352163 0.0167849
0 0.515694 0.065507
0.116258 0.497902 0.0463874
0.273808 0.489219 0.0365148
0.41854 0.484001 0.0302586
0.556893 0.480461 0.0259098
0.69099 0.478065 0.0229038
0.821866 0.476524 0.0209049
0.950149 0.475654 0.0197452
1 0.475395 0.0192721
0 0.640681 0.0664378
0.117617 0.622415 0.0472419
0.276204 0.613413 0.0375372
0.421576 0.60795 0.0316014
0.560265 0.604288 0.0276036
0.694469 0.601831 0.024918
0.825345 0.600259 0.023209
0.953536 0.599405 0.0222629
1 0.599145 0.0219577
0 0.765408 0.0675669
0.119188 0.746807 0.0486152
0.278325 0.737621 0.0392004
0.423972 0.732052 0.0334936
0.562783 0.728328 0.0296941
0.697032 0.725841 0.0271611
0.827909 0.724254 0.0255741
0.954604 0.7234 0.029099
1 0.723888 0.0454566
0 0.889815 0.0691691
0.121004 0.871092 0.05037
0.280308 0.861845 0.0410773
0.426169 0.856168 0.0358282
0.566979 0.850996 0.0405585
0.70161 0.846204 0.0596017
0.826017 0.842802 0.0950942
0.935363 0.841993 0.149157
1 0.845151 0.223667
0 1 0.072755
0.135775 0.990066 0.0666361
0.309606 0.9738 0.0839551
0.468544 0.959945 0.121355
0.613809 0.948058 0.1794
0.742 0.93904 0.259297
0.8486 0.934203 0.361501
0.929244 0.934966 0.484535
0.981247 0.942611 0.623697
0.0028687 0.0101778 0.015671
0.0522164 0.0285954 0.0560159
0.158785 0.0316014 0.0805829
0.302983 0.0247654 0.0917525
0.465827 0.0133059 0.0938277
0.629694 0.00199893 0.0913405
0.778668 0 0.0885481
0.906889 0 0.0881666
1 0 0.0883497
0 0.137804 0.125597
0.105653 0.131502 0.117311
0.25536 0.124941 0.10956
0.399512 0.119814 0.104021
0.53547 0.116854 0.101015
0.667735 0.1149 0.0990005
0.797421 0.113649 0.0976883
0.92517 0.112902 0.0968948
1 0.112581 0.0965133
0 0.271031 0.142123
0.11162 0.254002 0.124651
0.26688 0.245869 0.11606
0.409766 0.241077 0.110826
0.546715 0.237903 0.107195
0.679881 0.235737 0.104601
0.810376 0.234287 0.102724
0.938766 0.233402 0.101442
1 0.233005 0.100679
0 0.394461 0.147997
0.116533 0.37702 0.129717
0.273014 0.368597 0.12047
0.416938 0.363561 0.114656
0.554757 0.360174 0.110521
0.688594 0.357839 0.10753
0.819471 0.356313 0.105425
0.947936 0.355413 0.104082
1 0.355093 0.10341
0 0.518898 0.151263
0.11902 0.50103 0.132342
0.276692 0.492287 0.122667
0.421515 0.487007 0.116625
0.559915 0.483452 0.112444
0.694026 0.481025 0.109575
0.824903 0.479469 0.107698
0.95317 0.478614 0.10663
1 0.47834 0.106203
0 0.643793 0.152895
0.120424 0.625452 0.133837
0.279103 0.616419 0.124269
0.424521 0.610941 0.118425
0.563226 0.607263 0.114504
0.697444 0.604791 0.111864
0.828305 0.603204 0.110185
0.956497 0.60235 0.10927
1 0.60209 0.10898
0 0.768414 0.154421
0.122087 0.749798 0.135531
0.281254 0.740581 0.126162
0.426917 0.735012 0.120485
0.565728 0.731289 0.116701
0.699992 0.728786 0.114183
0.830808 0.727199 0.112856
0.956283 0.726421 0.119234
1 0.727398 0.137804
0 0.892775 0.156176
0.123934 0.874052 0.137392
0.283253 0.86479 0.128115
0.42977 0.858793 0.124147
0.571374 0.853117 0.131518
0.70573 0.848219 0.152499
0.828717 0.845121 0.18909
0.935439 0.84509 0.243305
1 0.84947 0.316777
0 1 0.16199
0.145144 0.990662 0.158175
0.320928 0.973648 0.177111
0.48072 0.959457 0.215305
0.62565 0.947692 0.273121
0.752239 0.939315 0.351492
0.856016 0.935622 0.450446
0.932921 0.938079 0.56788
0.980941 0.947784 0.698421
0.00311284 0.0198062 0.0446784
0.0633707 0.0331884 0.102663
0.176837 0.0325628 0.142779
0.323247 0.0237888 0.166781
0.48423 0.011902 0.178576
0.642664 0.00155642 0.182498
0.783123 0 0.182773
0.910079 0 0.182834
1 0 0.183291
0 0.143832 0.206561
0.107805 0.134569 0.205615
0.259327 0.127001 0.202502
0.402136 0.122103 0.19855
0.538201 0.119097 0.195804
0.670573 0.117082 0.194049
0.800351 0.11577 0.192996
0.928191 0.114977 0.192477
1 0.114611 0.192355
0 0.273487 0.236789
0.113832 0.256382 0.219547
0.269215 0.248188 0.211231
0.412222 0.243336 0.206256
0.549264 0.240101 0.202884
0.682536 0.237873 0.200549
0.813092 0.236393 0.198932
0.941527 0.235477 0.19791
1 0.235035 0.197375
0 0.396872 0.243565
0.118578 0.37937 0.225528
0.275181 0.370871 0.216541
0.419211 0.365789 0.210971
0.557107 0.362341 0.20708
0.691005 0.359976 0.204318
0.821897 0.358419 0.202426
0.950332 0.357519 0.201266
1 0.357183 0.200748
0 0.521248 0.2477
0.120958 0.503304 0.229007
0.278752 0.494514 0.219547
0.423651 0.489189 0.213703
0.562097 0.485603 0.209689
0.696239 0.483162 0.206958
0.827115 0.48159 0.205188
0.955367 0.480735 0.204181
1 0.480446 0.203815
0 0.646036 0.250065
0.122423 0.627665 0.231144
0.281178 0.618585 0.221683
0.426627 0.613077 0.21593
0.565347 0.6094 0.21207
0.69958 0.606912 0.209476
0.830442 0.605341 0.207828
0.958633 0.604471 0.206943
1 0.604212 0.206668
0 0.770581 0.251972
0.124178 0.751934 0.233127
0.28336 0.742718 0.223789
0.429038 0.737148 0.218143
0.567864 0.733425 0.214374
0.702113 0.730922 0.211872
0.832685 0.72929 0.211566
0.956786 0.72871 0.219959
1 0.730343 0.239582
0 0.894911 0.253834
0.126055 0.876188 0.235065
0.285374 0.866926 0.225788
0.433127 0.860365 0.223682
0.575418 0.854322 0.23267
0.709407 0.84947 0.254337
0.830869 0.84686 0.290517
0.934874 0.847807 0.343053
1 0.853666 0.413352
0 1 0.261982
0.155154 0.990082 0.259434
0.332799 0.972488 0.27866
0.493355 0.958144 0.31603
0.637858 0.946731 0.371679
0.762737 0.939239 0.446296
0.863615 0.936996 0.539483
0.936797 0.94139 0.64863
0.981155 0.953353 0.767559
0.00155642 0.0283513 0.0895247
0.073106 0.0365911 0.165347
0.192782 0.0326543 0.220035
0.340764 0.0222629 0.255253
0.499367 0.0103151 0.274693
0.652033 0.00128176 0.282643
0.785702 0 0.283635
0.912764 0 0.283986
1 0 0.284718
0 0.148577 0.300008
0.1093 0.136782 0.304295
0.262058 0.128634 0.303365
0.404257 0.123903 0.299519
0.540429 0.120836 0.297063
0.672892 0.118761 0.295598
0.802762 0.117388 0.294835
0.930694 0.116548 0.294606
1 0.116121 0.294774
0 0.275441 0.337926
0.115526 0.258259 0.320943
0.271046 0.249989 0.312901
0.41416 0.24509 0.308217
0.551308 0.241794 0.305119
0.684657 0.239521 0.303059
0.815274 0.23798 0.301732
0.94374 0.237034 0.300954
1 0.236576 0.300664
0 0.398779 0.345663
0.120119 0.381186 0.327901
0.276844 0.372641 0.319173
0.420981 0.367498 0.313863
0.558938 0.364004 0.310231
0.692882 0.361608 0.307698
0.823774 0.360021 0.306004
0.952193 0.359106 0.305013
1 0.35877 0.304616
0 0.523095 0.350729
0.122393 0.505074 0.33225
0.280308 0.496223 0.323018
0.425284 0.490867 0.317342
0.563775 0.487236 0.313497
0.697917 0.484779 0.310872
0.828794 0.483207 0.309178
0.957046 0.482338 0.308232
1 0.482063 0.307912
0 0.647776 0.35378
0.123934 0.629343 0.334997
0.28275 0.620233 0.325643
0.428229 0.614725 0.319951
0.566979 0.611017 0.316152
0.701213 0.608545 0.313588
0.832074 0.606958 0.311971
0.960266 0.606104 0.311086
1 0.605844 0.310826
0 0.772244 0.356023
0.12575 0.753582 0.337224
0.284962 0.74435 0.327916
0.430655 0.738766 0.322286
0.569482 0.735042 0.318532
0.703746 0.73254 0.31603
0.833875 0.730907 0.317128
0.956466 0.730678 0.326482
1 0.733104 0.345953
0 0.896544 0.357977
0.127672 0.877806 0.339223
0.287251 0.868452 0.330175
0.436622 0.86125 0.329656
0.579507 0.854978 0.339193
0.713039 0.850309 0.36025
0.832868 0.848386 0.394522
0.934051 0.850507 0.443687
1 0.858045 0.508873
0 1 0.367971
0.166201 0.988693 0.365576
0.345617 0.970687 0.383749
0.506844 0.95639 0.418708
0.650767 0.945541 0.470436
0.7738 0.939178 0.539315
0.871672 0.938628 0.624613
0.941146 0.945159 0.7234
0.981979 0.959487 0.829374
0 0.0356451 0.151125
0.0813916 0.0388495 0.243534
0.206653 0.0319677 0.310964
0.355657 0.0203708 0.355108
0.511437 0.00874342 0.379629
0.657908 0.00143435 0.3888
0.787915 0 0.389349
0.915068 0 0.390005
1 0 0.391043
0 0.152224 0.403693
0.110307 0.138369 0.410651
0.263844 0.130037 0.409125
0.406012 0.125322 0.405371
0.542275 0.122194 0.403204
0.674846 0.120058 0.402045
0.804807 0.118624 0.401587
0.932799 0.117739 0.401648
1 0.117266 0.402106
0 0.277012 0.443915
0.116854 0.259754 0.427222
0.272511 0.251423 0.419486
0.415732 0.246448 0.415076
0.552972 0.243091 0.412299
0.686397 0.240772 0.410513
0.817075 0.239185 0.409445
0.945556 0.238209 0.408942
1 0.237736 0.408881
0 0.400305 0.452689
0.121263 0.382635 0.435203
0.278126 0.374014 0.426749
0.422354 0.368811 0.421698
0.560388 0.365286 0.418311
0.694362 0.362844 0.415991
0.825269 0.361242 0.414481
0.953658 0.360327 0.413642
1 0.359991 0.413352
0 0.524544 0.458686
0.123476 0.506462 0.440436
0.281498 0.497551 0.431388
0.426535 0.492149 0.425879
0.565072 0.488502 0.422156
0.699229 0.48603 0.419638
0.830106 0.484459 0.418021
0.958328 0.483589 0.417121
1 0.483314 0.416831
0 0.649134 0.462394
0.125078 0.630655 0.443717
0.283955 0.621515 0.43444
0.429465 0.615991 0.428809
0.568231 0.612284 0.42504
0.702464 0.609781 0.422522
0.833326 0.608209 0.42092
0.961517 0.60734 0.42005
1 0.60708 0.419776
0 0.773526 0.464897
0.12697 0.754849 0.446143
0.286198 0.745602 0.436851
0.431891 0.740017 0.431235
0.570718 0.736294 0.427497
0.704982 0.733776 0.425132
0.834562 0.732204 0.427253
0.95552 0.732479 0.436469
1 0.735882 0.454459
0 0.897795 0.466941
0.128923 0.879057 0.448188
0.289509 0.869337 0.439734
0.440421 0.861631 0.43978
0.583841 0.855253 0.448692
0.716793 0.850965 0.467781
0.834882 0.849912 0.498619
0.933165 0.853407 0.542672
1 0.862806 0.600916
0 1 0.477653
0.178515 0.986694 0.474174
0.359594 0.968444 0.489876
0.52137 0.954391 0.520851
0.664561 0.944335 0.566873
0.78558 0.93933 0.628153
0.880323 0.940703 0.7037
0.946105 0.949554 0.790402
0.983658 0.966278 0.882124
0 0.0415961 0.229389
0.0882429 0.0400702 0.336294
0.21854 0.0306401 0.414038
0.368063 0.018265 0.464424
0.520623 0.00738537 0.491157
0.660685 0.00215152 0.498589
0.789822 0.000869764 0.499031
0.917067 0.000106813 0.499992
1 0 0.50135
0 0.15491 0.515572
0.11104 0.139498 0.522393
0.265171 0.131212 0.518624
0.407446 0.126421 0.515175
0.543816 0.123232 0.513329
0.676478 0.121035 0.512489
0.806516 0.119554 0.512337
0.934585 0.118608 0.512703
1 0.11809 0.513466
0 0.278279 0.553887
0.117876 0.260929 0.537499
0.27364 0.252537 0.530053
0.416983 0.247501 0.525963
0.554314 0.244099 0.523476
0.687816 0.241718 0.521981
0.81854 0.240085 0.521187
0.947051 0.239078 0.520928
1 0.23859 0.52108
0 0.401511 0.563729
0.122118 0.383764 0.546502
0.279088 0.375082 0.538338
0.423407 0.369833 0.533547
0.561517 0.366247 0.530388
0.695521 0.36379 0.528267
0.826429 0.362173 0.526909
0.954803 0.361242 0.526192
1 0.360906 0.525994
0 0.525689 0.570657
0.124239 0.507515 0.552605
0.282383 0.498573 0.54374
0.427497 0.493126 0.538369
0.566049 0.489464 0.534752
0.700221 0.486992 0.532311
0.831098 0.485405 0.530739
0.959319 0.484535 0.529885
1 0.484245 0.52961
0 0.650172 0.574929
0.125917 0.631647 0.556344
0.284855 0.622492 0.547127
0.430411 0.616938 0.541558
0.569177 0.61323 0.53782
0.70341 0.610742 0.535317
0.834287 0.609155 0.53373
0.962463 0.608301 0.53286
1 0.608072 0.532677
0 0.774487 0.577661
0.127886 0.75581 0.558923
0.287144 0.746563 0.549645
0.432837 0.740978 0.544045
0.571679 0.73724 0.540307
0.705959 0.734676 0.538293
0.834852 0.733318 0.540383
0.954055 0.734249 0.548226
1 0.738811 0.563378
0 0.898741 0.579751
0.12987 0.880003 0.560998
0.292332 0.869688 0.552972
0.444709 0.861601 0.552483
0.588556 0.855283 0.559472
0.720821 0.851545 0.575158
0.837064 0.851545 0.600946
0.932357 0.856611 0.638193
1 0.868086 0.687724
0 1 0.589364
0.192279 0.984192 0.58349
0.374884 0.965881 0.595254
0.537057 0.95227 0.620584
0.679362 0.943236 0.65919
0.798184 0.939834 0.711086
0.889647 0.943328 0.775219
0.951751 0.954635 0.848356
0.986282 0.973754 0.925353
0 0.0462348 0.323629
0.0937667 0.0403296 0.442374
0.22855 0.0288243 0.527642
0.378119 0.0160983 0.581323
0.527138 0.00634775 0.607233
0.662242 0.00292973 0.611307
0.79147 0.00158694 0.612085
0.918807 0.00077821 0.613382
1 0.000350958 0.615061
0 0.156786 0.633677
0.11165 0.140337 0.637278
0.266239 0.132113 0.631495
0.408621 0.127275 0.628367
0.545083 0.12401 0.626856
0.677836 0.121767 0.626322
0.807965 0.120226 0.626505
0.93611 0.119219 0.627176
1 0.118654 0.628244
0 0.279286 0.667247
0.118639 0.26186 0.651164
0.274525 0.253391 0.644038
0.41796 0.248295 0.640253
0.555383 0.244816 0.638071
0.68896 0.24239 0.636866
0.81973 0.240742 0.636347
0.948241 0.239689 0.636301
1 0.2392 0.636637
0 0.402457 0.678172
0.122698 0.384634 0.661234
0.279805 0.375891 0.65333
0.424216 0.370581 0.648783
0.562371 0.366964 0.645838
0.696406 0.364477 0.6439
0.827314 0.362844 0.64268
0.955657 0.361913 0.642054
1 0.361578 0.641932
0 0.526543 0.686015
0.124773 0.508324 0.668147
0.283009 0.499321 0.659434
0.428183 0.493858 0.654169
0.566781 0.490166 0.650645
0.700954 0.487678 0.648264
0.83183 0.486091 0.646738
0.960052 0.485222 0.645914
1 0.484947 0.64567
0 0.650935 0.690791
0.126528 0.63238 0.672267
0.285512 0.623209 0.663111
0.431098 0.617655 0.657572
0.569863 0.613931 0.653864
0.704112 0.611429 0.651362
0.834989 0.609842 0.64979
0.963165 0.608988 0.648936
1 0.608988 0.648829
0 0.775204 0.69369
0.128557 0.756512 0.674968
0.287816 0.747265 0.665705
0.433524 0.741665 0.660121
0.572366 0.737926 0.656382
0.706752 0.735348 0.654353
0.834852 0.73434 0.655253
0.952163 0.73611 0.66038
1 0.742016 0.671214
0 0.899443 0.695827
0.130953 0.880583 0.677089
0.295811 0.869581 0.668681
0.449577 0.861265 0.666407
0.593774 0.855192 0.670115
0.725246 0.852171 0.680873
0.839536 0.853422 0.699992
0.931746 0.860273 0.72871
0.997421 0.87396 0.767819
0 1 0.701747
0.207599 0.981292 0.692103
0.391623 0.963104 0.69836
0.554025 0.950179 0.716411
0.695232 0.942382 0.745846
0.811643 0.94081 0.786725
0.899687 0.946609 0.838056
0.958114 0.960449 0.897078
0.989899 0.981903 0.959045
0 0.0495918 0.432731
0.098024 0.0397803 0.560342
0.236774 0.0266423 0.650065
0.385977 0.0140078 0.703883
0.531044 0.00584421 0.725658
0.663554 0.00347906 0.727016
0.792889 0.00207523 0.728115
0.920302 0.0011902 0.729747
1 0.000717174 0.731777
0 0.158038 0.756039
0.112276 0.141039 0.75346
0.267079 0.132799 0.747341
0.409552 0.127886 0.744549
0.546136 0.124559 0.743358
0.678981 0.122255 0.743175
0.809186 0.120653 0.743664
0.937392 0.1196 0.744656
1 0.11899 0.746014
0 0.280049 0.783597
0.119158 0.262547 0.767819
0.275166 0.254017 0.761013
0.418708 0.248844 0.757549
0.556207 0.245319 0.755673
0.68986 0.242847 0.754757
0.820661 0.241154 0.754467
0.949172 0.240085 0.754635
1 0.239582 0.755138
0 0.403159 0.795621
0.123049 0.38526 0.778973
0.280278 0.376455 0.771328
0.424765 0.371099 0.76701
0.562997 0.367437 0.764248
0.697047 0.364935 0.762448
0.827955 0.363287 0.761334
0.956283 0.362356 0.760784
1 0.36202 0.760723
0 0.527184 0.804349
0.125078 0.508888 0.786618
0.283421 0.49984 0.778027
0.428656 0.494347 0.772869
0.567269 0.490654 0.769406
0.701473 0.488151 0.767071
0.832334 0.486564 0.765591
0.960555 0.485695 0.764782
1 0.48542 0.764538
0 0.651484 0.809522
0.126925 0.632898 0.791058
0.285954 0.623697 0.781933
0.431556 0.618128 0.776425
0.570336 0.614404 0.772732
0.704601 0.611902 0.770245
0.835462 0.61033 0.768673
0.963638 0.609461 0.767819
1 0.609934 0.767269
0 0.775708 0.812543
0.129015 0.756985 0.793851
0.288289 0.747738 0.784588
0.433997 0.742138 0.779004
0.572915 0.738384 0.775235
0.707439 0.735866 0.772244
0.834638 0.735363 0.770672
0.949935 0.73814 0.771695
1 0.745602 0.776669
0 0.899916 0.81471
0.132876 0.880659 0.795712
0.300069 0.869123 0.785733
0.455146 0.860716 0.780392
0.599588 0.855039 0.77937
0.73019 0.852949 0.783612
0.842405 0.855665 0.794385
0.931456 0.864485 0.812894
0.99321 0.880552 0.840009
0.00131228 1 0.813596
0.224628 0.978088 0.798688
0.409903 0.96025 0.797848
0.572351 0.948211 0.806928
0.712245 0.941894 0.825574
0.826001 0.942382 0.853941
0.91046 0.950637 0.891432
0.96524 0.967025 0.935927
0.994537 0.990662 0.983627
0 0.0517739 0.555322
0.101122 0.038529 0.688563
0.243351 0.0242313 0.779492
0.391791 0.0121462 0.830152
0.532677 0.00596628 0.844633
0.664668 0.00381476 0.845365
0.794095 0.00234989 0.84683
0.921599 0.00141909 0.848798
1 0.000869764 0.851164
0 0.158785 0.88072
0.112779 0.141573 0.871626
0.267704 0.133272 0.865843
0.410285 0.128283 0.863401
0.54696 0.124895 0.862547
0.679896 0.12253 0.862699
0.810178 0.120867 0.863523
0.938445 0.119768 0.864836
1 0.119127 0.866468
0 0.280613 0.902617
0.119463 0.26302 0.88716
0.275593 0.254414 0.88069
0.419242 0.249195 0.877546
0.556832 0.245609 0.875959
0.690532 0.243091 0.875303
0.821378 0.241367 0.875242
0.949874 0.240284 0.875593
1 0.23978 0.876234
0 0.403662 0.91577
0.123201 0.385687 0.899382
0.280537 0.376806 0.891981
0.425132 0.371405 0.887877
0.563409 0.367727 0.885267
0.697475 0.365194 0.883589
0.828367 0.363546 0.882567
0.95668 0.362615 0.882078
1 0.36228 0.882048
0 0.527596 0.925292
0.125216 0.509239 0.907713
0.28365 0.50016 0.899214
0.428931 0.494652 0.894118
0.567575 0.490929 0.890715
0.701778 0.488426 0.888411
0.832654 0.486839 0.886946
0.960861 0.485969 0.886152
1 0.485695 0.885924
0 0.65182 0.9308
0.127138 0.633204 0.912367
0.286213 0.623987 0.903288
0.43183 0.618418 0.89778
0.570626 0.614694 0.894102
0.704875 0.612192 0.89163
0.835737 0.610605 0.890059
0.963806 0.609796 0.889113
1 0.611002 0.887007
0 0.775998 0.933913
0.129274 0.757275 0.915221
0.288563 0.748028 0.905974
0.434287 0.742428 0.900389
0.573541 0.738628 0.896117
0.708095 0.736294 0.890974
0.834302 0.736492 0.885573
0.947478 0.740459 0.880995
1 0.749645 0.878508
0 0.900206 0.936095
0.135775 0.880278 0.915892
0.305196 0.86836 0.90312
0.461524 0.860044 0.893294
0.606119 0.854963 0.886
0.735714 0.853986 0.882109
0.845777 0.858351 0.882856
0.931594 0.869322 0.889525
0.989487 0.887892 0.903288
0.0181582 1 0.923735
0.243458 0.97467 0.902037
0.429831 0.957397 0.892439
0.592111 0.946471 0.890898
0.730404 0.941878 0.8972
0.841245 0.94461 0.911849
0.921904 0.955474 0.934844
0.973083 0.974365 0.965057
1 0.999939 0.999664
