lut/ground-control/GroundControl_LoCon.cube
TITLE "Generate by Resolve"
LUT_3D_SIZE 9
0.0792248 0.0988022 0.105394
0.193454 0.0944228 0.10103
0.314122 0.092134 0.0987259
0.433051 0.0926986 0.0993057
0.558267 0.0928511 0.0994583
0.689815 0.0908522 0.0974441
0.812421 0.0899672 0.0965591
0.903395 0.0968795 0.103471
0.966461 0.111009 0.117617
0.0770733 0.21178 0.103243
0.197086 0.213199 0.104646
0.320058 0.213199 0.104662
0.43827 0.213077 0.104524
0.561425 0.211154 0.102602
0.691051 0.207233 0.0986954
0.812634 0.205325 0.096788
0.90312 0.211749 0.103197
0.965988 0.225681 0.117128
0.0810559 0.33164 0.107225
0.199023 0.330999 0.1066
0.320256 0.329274 0.10486
0.437766 0.328435 0.104021
0.560555 0.326146 0.101732
0.690059 0.322103 0.0976883
0.811795 0.320348 0.0959335
0.902693 0.327184 0.10277
0.966217 0.341772 0.117357
0.0813153 0.446448 0.107485
0.199008 0.445548 0.106584
0.320226 0.443793 0.104829
0.437964 0.443198 0.104234
0.561273 0.441428 0.102464
0.691569 0.438163 0.0991989
0.814343 0.437446 0.0984817
0.906661 0.445701 0.106737
0.972015 0.462119 0.123156
0.0760357 0.563607 0.102205
0.194324 0.563302 0.1019
0.316442 0.562463 0.101045
0.435386 0.563043 0.10164
0.560174 0.562768 0.101366
0.692393 0.56144 0.100023
0.817227 0.562783 0.101381
0.911376 0.572869 0.111467
0.978103 0.590646 0.129244
0.0674449 0.686595 0.0935988
0.187411 0.687968 0.0949722
0.311452 0.689052 0.0960555
0.43241 0.691661 0.0986648
0.558984 0.693141 0.10016
0.692332 0.692958 0.0999619
0.817746 0.694881 0.101884
0.911864 0.704936 0.11194
0.977859 0.721996 0.129015
0.0715648 0.813291 0.097734
0.193118 0.816236 0.100679
0.318135 0.818311 0.102754
0.439414 0.821241 0.105684
0.565713 0.822461 0.106905
0.698177 0.821363 0.105806
0.822049 0.821744 0.106188
0.913863 0.829511 0.113954
0.976242 0.842939 0.127382
0.106126 0.931884 0.132296
0.227131 0.934295 0.134707
0.35108 0.935271 0.135683
0.470634 0.936477 0.136904
0.594125 0.93489 0.135302
0.721767 0.929 0.129412
0.838163 0.921889 0.122301
0.921782 0.921462 0.121874
0.97763 0.928359 0.128771
0.161364 1 0.187533
0.279179 1 0.186755
0.396826 1 0.181445
0.508537 1 0.174792
0.624262 1 0.165454
0.746761 1 0.154391
0.860853 0.993851 0.144991
0.942489 0.991409 0.142565
0.993881 0.993881 0.145037
0.0780652 0.0976425 0.217029
0.192981 0.0939498 0.213352
0.314504 0.0925154 0.211902
0.433997 0.0936599 0.213062
0.559121 0.0937057 0.213107
0.690455 0.0914931 0.21088
0.812741 0.0902876 0.209674
0.903593 0.0970779 0.21648
0.966613 0.111162 0.230564
0.0780194 0.212741 0.216983
0.19791 0.214023 0.218265
0.320485 0.213626 0.217884
0.438544 0.213352 0.217594
0.561624 0.211353 0.215595
0.691188 0.20737 0.211612
0.812757 0.205447 0.209689
0.903243 0.211872 0.216114
0.966125 0.225818 0.23006
0.0812848 0.331868 0.220249
0.199191 0.331182 0.219562
0.320378 0.329397 0.217792
0.437873 0.328542 0.216938
0.560678 0.326268 0.214649
0.690227 0.322255 0.210651
0.812009 0.320562 0.208957
0.903014 0.327504 0.215885
0.966659 0.342214 0.23061
0.0814221 0.446555 0.220386
0.199145 0.44567 0.219516
0.320409 0.443976 0.217807
0.438224 0.443442 0.217273
0.561608 0.441764 0.215595
0.692058 0.438651 0.212482
0.81503 0.438132 0.211963
0.907515 0.446571 0.220401
0.973098 0.463203 0.237034
0.0763409 0.563912 0.215305
0.19472 0.563699 0.215091
0.31696 0.562982 0.214374
0.436133 0.56379 0.215183
0.561181 0.563775 0.215167
0.693553 0.562585 0.213977
0.818555 0.564095 0.215488
0.91281 0.574289 0.225681
0.979538 0.592096 0.243488
0.0682231 0.687373 0.207187
0.188464 0.689036 0.208835
0.312718 0.690303 0.210117
0.433768 0.693019 0.212818
0.560418 0.694575 0.214389
0.693782 0.694392 0.214206
0.81912 0.696239 0.216052
0.91313 0.706188 0.226001
0.978973 0.72311 0.242908
0.0729686 0.814694 0.211933
0.194553 0.817685 0.214923
0.319585 0.819745 0.216983
0.440757 0.822568 0.219806
0.566888 0.823636 0.220874
0.699184 0.82237 0.219608
0.822812 0.822507 0.219745
0.914046 0.829679 0.226917
0.975174 0.841886 0.239124
0.107439 0.933196 0.246403
0.22826 0.935409 0.248615
0.351949 0.936156 0.249363
0.471199 0.937041 0.250263
0.594171 0.934936 0.248142
0.720256 0.927489 0.240696
0.836057 0.919799 0.233005
0.919509 0.919173 0.23238
0.975372 0.926101 0.239322
0.161654 1 0.300618
0.27866 1 0.299031
0.395224 1 0.292622
0.506249 1 0.285313
0.622003 1 0.27599
0.744427 1 0.264866
0.858289 0.991287 0.255238
0.938918 0.987854 0.251789
0.989212 0.989212 0.253162
0.076997 0.0965591 0.328603
0.193057 0.0940261 0.326055
0.315114 0.0931258 0.325154
0.434974 0.0946365 0.326665
0.55996 0.0945449 0.326589
0.690913 0.0919509 0.32398
0.813031 0.0905776 0.322606
0.903807 0.0972915 0.32932
0.966751 0.111315 0.343343
0.0789502 0.213657 0.330556
0.198688 0.214817 0.331701
0.320836 0.213977 0.330877
0.438788 0.213596 0.33048
0.561807 0.211536 0.32842
0.691325 0.207507 0.324392
0.812879 0.205554 0.322454
0.90338 0.212009 0.328893
0.966293 0.225986 0.34287
0.0814984 0.332082 0.333104
0.199344 0.331334 0.332357
0.320516 0.329534 0.330556
0.437995 0.328664 0.329686
0.560815 0.326406 0.327443
0.690425 0.322454 0.323491
0.812268 0.320821 0.321843
0.903365 0.327855 0.328878
0.967163 0.342733 0.343755
0.0815595 0.446677 0.333165
0.199298 0.445823 0.332311
0.320623 0.44419 0.330678
0.438529 0.443748 0.33022
0.56202 0.442161 0.328634
0.692592 0.439185 0.325658
0.815778 0.438895 0.325368
0.908522 0.447562 0.334035
0.974258 0.464363 0.350835
0.0766613 0.564248 0.328267
0.195193 0.564172 0.328206
0.317571 0.563592 0.327626
0.436912 0.564584 0.328618
0.562264 0.564843 0.328878
0.69482 0.563851 0.327886
0.819913 0.565469 0.329488
0.91426 0.575753 0.339773
0.981003 0.593545 0.35758
0.0691234 0.688273 0.320729
0.189578 0.690135 0.322591
0.314031 0.691615 0.324071
0.435187 0.694423 0.326879
0.561852 0.696025 0.328481
0.695232 0.695842 0.328298
0.820462 0.697597 0.330037
0.914321 0.707378 0.339834
0.979995 0.724132 0.356588
0.0744182 0.816144 0.326024
0.196002 0.819135 0.329015
0.320989 0.821164 0.331044
0.4421 0.823911 0.333791
0.568032 0.824765 0.334646
0.700084 0.82327 0.33315
0.823407 0.823117 0.332998
0.914122 0.829755 0.339635
0.973693 0.840406 0.350286
0.108705 0.934447 0.360296
0.229358 0.936522 0.362371
0.352773 0.936965 0.362814
0.471519 0.937362 0.36321
0.593713 0.934493 0.360342
0.718669 0.925887 0.351736
0.833799 0.917525 0.343374
0.917266 0.91693 0.342779
0.973053 0.923796 0.349645
0.161837 1 0.413428
0.277501 1 0.410498
0.393393 1 0.403433
0.503975 1 0.395666
0.619776 1 0.386404
0.742016 0.998489 0.375082
0.855451 0.988434 0.365026
0.935241 0.984176 0.360769
0.984161 0.984161 0.360754
0.076051 0.095613 0.440772
0.193332 0.094316 0.43946
0.315938 0.0939345 0.439094
0.435859 0.0955215 0.440665
0.560723 0.0953078 0.440467
0.691218 0.092256 0.437415
0.813245 0.0907912 0.435935
0.90396 0.0974441 0.442603
0.966873 0.111421 0.456565
0.0797742 0.214481 0.444495
0.199283 0.215396 0.445411
0.321126 0.214267 0.444282
0.438972 0.213779 0.443778
0.561929 0.211658 0.441672
0.691432 0.207614 0.437613
0.812955 0.205646 0.43566
0.903487 0.212116 0.44213
0.966461 0.226154 0.456153
0.0816663 0.33225 0.446387
0.199451 0.331441 0.445579
0.320607 0.329625 0.443763
0.438087 0.328756 0.442908
0.560937 0.326528 0.440665
0.690593 0.322637 0.43679
0.812543 0.321096 0.435233
0.903731 0.328222 0.442359
0.967666 0.343221 0.457359
0.0816663 0.446784 0.446387
0.199435 0.44596 0.445563
0.320821 0.444389 0.443976
0.438834 0.444053 0.443641
0.562463 0.442603 0.442191
0.693156 0.43975 0.439353
0.816541 0.439643 0.439231
0.90956 0.4486 0.448188
0.975479 0.465583 0.465171
0.0769818 0.564553 0.441703
0.195666 0.564645 0.441794
0.318257 0.564263 0.441413
0.437766 0.565438 0.442588
0.563317 0.565911 0.443061
0.696086 0.565133 0.442283
0.821286 0.566842 0.443992
0.915679 0.577157 0.454307
0.982406 0.594965 0.472114
0.0701152 0.689265 0.434836
0.190723 0.691279 0.436851
0.315328 0.692912 0.438483
0.436591 0.695842 0.441413
0.563287 0.697459 0.443015
0.696605 0.69723 0.442802
0.821759 0.698894 0.444465
0.915419 0.708492 0.454047
0.980865 0.725002 0.470573
0.0758373 0.817563 0.440558
0.197421 0.820554 0.443549
0.322332 0.822492 0.445487
0.44332 0.825147 0.448142
0.5691 0.825849 0.448844
0.700877 0.824063 0.447059
0.823713 0.823407 0.446403
0.913695 0.829328 0.452323
0.972076 0.838788 0.461784
0.109834 0.935592 0.474556
0.230335 0.937484 0.476463
0.353506 0.937713 0.476677
0.471672 0.937514 0.476478
0.592554 0.933318 0.472297
0.716823 0.924056 0.46302
0.831479 0.915221 0.454185
0.914992 0.914656 0.45362
0.970611 0.92134 0.460319
0.161807 1 0.526528
0.275944 1 0.522072
0.391241 1 0.514397
0.501671 1 0.506493
0.617502 1 0.49723
0.739498 0.995987 0.485679
0.85211 0.985107 0.474815
0.931121 0.980056 0.469764
0.978973 0.978973 0.468681
0.0749981 0.0945602 0.561044
0.193118 0.0940871 0.560571
0.316274 0.0942855 0.560769
0.436088 0.0957504 0.562234
0.560739 0.0953231 0.561807
0.690929 0.0919509 0.558434
0.812833 0.0903792 0.556848
0.903502 0.0969863 0.56347
0.966369 0.110918 0.577401
0.0799725 0.214694 0.566033
0.199084 0.215198 0.566537
0.320775 0.213931 0.56527
0.438544 0.213352 0.564691
0.56144 0.21117 0.562509
0.690929 0.207111 0.55845
0.812467 0.205142 0.556481
0.903014 0.211627 0.562966
0.966033 0.225727 0.577066
0.0812238 0.331807 0.567285
0.198978 0.330953 0.56643
0.320104 0.329122 0.564584
0.437598 0.328267 0.563745
0.560479 0.32607 0.561547
0.690196 0.32224 0.557702
0.812253 0.320806 0.556268
0.903563 0.328054 0.563531
0.967636 0.343191 0.578668
0.081178 0.446311 0.567224
0.199008 0.445533 0.566461
0.320455 0.444022 0.56495
0.43856 0.443778 0.564706
0.562341 0.442481 0.563409
0.693233 0.439826 0.560754
0.816785 0.439887 0.560815
0.910033 0.449073 0.570001
0.976165 0.46627 0.587198
0.0767681 0.56434 0.562814
0.195575 0.564553 0.563043
0.318395 0.564401 0.562875
0.438163 0.56582 0.564294
0.563867 0.566461 0.564935
0.696788 0.565835 0.564309
0.82211 0.567651 0.56614
0.916503 0.577981 0.576471
0.9832 0.595758 0.594232
0.0705577 0.689708 0.556619
0.191363 0.69192 0.558831
0.31606 0.69366 0.560555
0.437415 0.696666 0.563561
0.564111 0.698283 0.565179
0.697353 0.697978 0.564874
0.822416 0.699535 0.566445
0.915908 0.70898 0.575875
0.981064 0.7252 0.592096
0.0766613 0.818387 0.562707
0.198245 0.821378 0.565698
0.323049 0.823224 0.567544
0.44387 0.825696 0.570016
0.569482 0.82623 0.57055
0.701015 0.824216 0.568536
0.82327 0.822965 0.5673
0.911971 0.827619 0.571939
0.969665 0.836378 0.580697
0.110353 0.936095 0.596399
0.230579 0.937743 0.598047
0.353445 0.937636 0.59794
0.471077 0.936934 0.597223
0.590417 0.931197 0.591485
0.714107 0.921324 0.581628
0.828595 0.912322 0.572625
0.912108 0.911788 0.572076
0.967498 0.918242 0.578531
0.160647 1 0.646693
0.273701 1 0.641154
0.388342 1 0.632837
0.498802 1 0.624949
0.614542 1 0.61561
0.736309 0.992798 0.60383
0.847929 0.980911 0.591959
0.925811 0.974746 0.585779
0.972976 0.972976 0.584009
0.0737621 0.0933242 0.690959
0.192401 0.09337 0.691005
0.315908 0.0939193 0.691554
0.435599 0.0952621 0.692897
0.559838 0.0944228 0.692058
0.689876 0.0909133 0.688548
0.811704 0.08925 0.686885
0.902296 0.0957809 0.693431
0.965164 0.109712 0.707347
0.0794232 0.21413 0.696635
0.198093 0.214206 0.696712
0.319677 0.212833 0.695323
0.4374 0.212207 0.694697
0.56025 0.209979 0.69247
0.689708 0.20589 0.68838
0.811261 0.203952 0.686442
0.901839 0.210468 0.692958
0.96492 0.224613 0.707118
0.0800488 0.330617 0.697261
0.197772 0.329747 0.696376
0.318883 0.327901 0.69453
0.436408 0.327077 0.693706
0.559335 0.324926 0.691569
0.689113 0.321157 0.687785
0.811261 0.319814 0.686442
0.902739 0.32723 0.693858
0.966995 0.34255 0.709178
0.0799878 0.445121 0.6972
0.197879 0.444419 0.696498
0.319432 0.443 0.695079
0.437629 0.442847 0.694926
0.561532 0.441672 0.693751
0.692653 0.439246 0.691325
0.816464 0.439567 0.691646
0.909865 0.448905 0.700984
0.97615 0.466255 0.718334
0.0759136 0.563485 0.693126
0.194858 0.563836 0.693477
0.317845 0.563851 0.693492
0.437903 0.56556 0.695201
0.563806 0.566384 0.696025
0.696818 0.565866 0.695491
0.822217 0.567773 0.697398
0.916609 0.578103 0.707744
0.983246 0.595804 0.725429
0.0703288 0.689479 0.687541
0.191348 0.691905 0.689952
0.316152 0.693736 0.691798
0.437522 0.696773 0.69482
0.564218 0.69839 0.696437
0.697368 0.697993 0.69604
0.822263 0.699382 0.697444
0.915587 0.708659 0.706706
0.980514 0.724651 0.722698
0.0767834 0.818494 0.69398
0.198322 0.821454 0.696925
0.323049 0.823209 0.698695
0.443671 0.825498 0.700969
0.569039 0.825788 0.701274
0.700267 0.823453 0.69894
0.821988 0.821698 0.697169
0.909148 0.824781 0.700267
0.966247 0.832959 0.708431
0.110109 0.935866 0.727321
0.230076 0.937224 0.728679
0.352422 0.936614 0.728069
0.469261 0.935103 0.726558
0.587488 0.928252 0.719707
0.710506 0.917723 0.709178
0.82501 0.908736 0.700191
0.908461 0.908125 0.69958
0.963623 0.914366 0.705821
0.158099 1 0.775311
0.270527 1 0.769131
0.384726 1 0.760372
0.495232 1 0.752529
0.610773 1 0.743008
0.732097 0.988586 0.73077
0.842908 0.975891 0.71809
0.919402 0.968338 0.710536
0.965911 0.965911 0.70811
0.0733196 0.0928969 0.813657
0.192508 0.0934768 0.814252
0.31606 0.0940719 0.814832
0.43563 0.0952926 0.816052
0.559426 0.0940108 0.814786
0.689357 0.0903944 0.81117
0.811139 0.0886702 0.809445
0.901686 0.0951705 0.815946
0.964523 0.109071 0.829847
0.0792706 0.213993 0.819608
0.197665 0.213779 0.819394
0.319142 0.212299 0.817914
0.436805 0.211597 0.817227
0.559625 0.209354 0.814984
0.689082 0.205249 0.81088
0.810651 0.203342 0.808957
0.901274 0.209903 0.815534
0.964416 0.224125 0.82974
0.0794385 0.330007 0.81976
0.197131 0.329122 0.818875
0.318257 0.327276 0.817029
0.435798 0.326467 0.81622
0.558801 0.324392 0.814145
0.68867 0.320714 0.810468
0.81091 0.319463 0.809216
0.90251 0.327001 0.816754
0.966995 0.34255 0.832303
0.079408 0.444541 0.819745
0.19736 0.443885 0.819089
0.319005 0.442573 0.817792
0.437339 0.442573 0.817777
0.561379 0.441535 0.816739
0.692683 0.439277 0.814496
0.81677 0.439887 0.815091
0.910369 0.449409 0.824613
0.976761 0.466865 0.842069
0.0756695 0.563241 0.816007
0.194827 0.56379 0.816556
0.317983 0.564004 0.816754
0.438254 0.565911 0.818677
0.564355 0.566949 0.819715
0.69749 0.566522 0.819287
0.822919 0.56846 0.821225
0.917311 0.578805 0.831556
0.983841 0.596399 0.849165
0.0707561 0.689921 0.811093
0.191928 0.692485 0.813657
0.316838 0.694423 0.81561
0.438224 0.697475 0.818647
0.564874 0.699046 0.820233
0.697948 0.698573 0.819745
0.822644 0.699763 0.820951
0.915724 0.708797 0.829984
0.980362 0.724498 0.84567
0.0774701 0.819196 0.817807
0.198932 0.822065 0.820676
0.323552 0.823713 0.822324
0.444022 0.825833 0.824445
0.569116 0.825849 0.82446
0.69984 0.823026 0.821637
0.820798 0.820508 0.819104
0.906798 0.822431 0.821042
0.963226 0.829938 0.82855
0.110353 0.936095 0.85069
0.230076 0.93724 0.85182
0.351827 0.936034 0.850614
0.467338 0.933181 0.847761
0.584909 0.925673 0.840253
0.707469 0.914687 0.829267
0.822019 0.905745 0.820325
0.905287 0.904952 0.819532
0.960021 0.910765 0.825345
0.155825 1 0.896147
0.267628 1 0.889372
0.381704 1 0.880476
0.492226 1 0.872648
0.607538 0.997574 0.862898
0.728023 0.984512 0.849821
0.838041 0.971023 0.836347
0.913497 0.962417 0.827741
0.959228 0.959228 0.824552
0.0757153 0.0952773 0.900816
0.195499 0.0964675 0.901991
0.318944 0.0969406 0.90248
0.43827 0.0979171 0.903456
0.561776 0.0963607 0.901884
0.691585 0.0926223 0.898146
0.813306 0.0908522 0.896376
0.903838 0.097322 0.902846
0.966659 0.111208 0.916732
0.0817121 0.216419 0.906813
0.199954 0.216068 0.906462
0.321355 0.214511 0.904891
0.438956 0.213764 0.904143
0.561761 0.21149 0.901869
0.691218 0.207401 0.89778
0.812818 0.205493 0.895888
0.903502 0.212131 0.90251
0.966751 0.226444 0.916823
0.08159 0.332158 0.906691
0.199268 0.331258 0.905776
0.320409 0.329427 0.903944
0.437995 0.328664 0.903181
0.561028 0.326619 0.901152
0.69102 0.323064 0.897581
0.813382 0.321935 0.896452
0.905119 0.32961 0.904128
0.969787 0.345342 0.919875
0.0816205 0.446754 0.906722
0.199634 0.446174 0.906142
0.32137 0.444938 0.904906
0.439872 0.44509 0.905058
0.564111 0.444251 0.904219
0.695598 0.442191 0.902159
0.819898 0.443 0.902968
0.913695 0.452735 0.912703
0.980179 0.470298 0.930266
0.0782177 0.565789 0.903319
0.197604 0.566583 0.904097
0.321019 0.567025 0.904555
0.441444 0.5691 0.90663
0.567697 0.570291 0.907805
0.700938 0.56997 0.9075
0.826383 0.571923 0.909453
0.920745 0.582223 0.919753
0.987198 0.599741 0.93727
0.074052 0.693202 0.899153
0.1953 0.695872 0.901808
0.320302 0.697887 0.903838
0.441688 0.700938 0.906874
0.568261 0.702434 0.90837
0.701228 0.701854 0.90779
0.825757 0.702892 0.908827
0.918578 0.711635 0.917586
0.982712 0.726848 0.932784
0.0809339 0.82266 0.90602
0.202289 0.825422 0.908797
0.326741 0.826902 0.910277
0.447044 0.828855 0.91223
0.571893 0.828626 0.912001
0.702022 0.825223 0.908583
0.821698 0.821393 0.904768
0.907012 0.822644 0.90602
0.962966 0.829664 0.913039
0.113237 0.938994 0.938338
0.232639 0.939788 0.939132
0.353872 0.938064 0.937407
0.467842 0.933684 0.933028
0.584802 0.925582 0.924926
0.70721 0.914427 0.913771
0.821775 0.905516 0.904845
0.904814 0.904494 0.903822
0.958755 0.909483 0.908827
0.156207 1 0.981308
0.267369 1 0.973877
0.381476 1 0.965011
0.491905 1 0.957092
0.606989 0.997024 0.947097
0.726467 0.982956 0.933028
0.835325 0.968322 0.918395
0.910109 0.959045 0.909117
0.955291 0.955291 0.905364
0.0809186 0.100481 0.955932
0.200992 0.101961 0.957412
0.3243 0.102312 0.957763
0.443229 0.102892 0.958343
0.566583 0.101167 0.956619
0.69633 0.0973678 0.952804
0.817975 0.0955215 0.950973
0.908492 0.101976 0.957427
0.971313 0.115862 0.971313
0.0865797 0.221286 0.961593
0.20473 0.220844 0.961151
0.32607 0.219226 0.959533
0.443626 0.218433 0.958724
0.566415 0.216144 0.956451
0.695888 0.21207 0.952361
0.817517 0.210193 0.9505
0.908263 0.216892 0.957183
0.971603 0.231296 0.971603
0.086244 0.336828 0.961273
0.203922 0.335897 0.960342
0.325078 0.334096 0.958541
0.442725 0.333379 0.957824
0.565835 0.331426 0.955856
0.695903 0.327947 0.952377
0.818433 0.326986 0.951415
0.910353 0.334844 0.959289
0.975189 0.350759 0.975189
0.0863661 0.451499 0.961379
0.204471 0.451011 0.960906
0.326314 0.449882 0.959777
0.444923 0.450141 0.960037
0.56939 0.449546 0.959426
0.701137 0.44773 0.95761
0.825589 0.448692 0.958587
0.919539 0.458595 0.968475
0.986145 0.476265 0.986145
0.0833753 0.570947 0.958389
0.20293 0.571893 0.95935
0.326635 0.572641 0.960082
0.447242 0.574899 0.962356
0.573602 0.576181 0.963638
0.70692 0.575952 0.963394
0.832364 0.577905 0.965347
0.92665 0.588129 0.97557
0.992996 0.605539 0.992996
0.0798962 0.699046 0.95491
0.201251 0.701808 0.957687
0.326268 0.703868 0.959731
0.447669 0.70692 0.962783
0.574136 0.708309 0.964172
0.706935 0.707561 0.963424
0.831312 0.708431 0.964294
0.923873 0.716945 0.972808
0.987427 0.731563 0.987427
0.0868696 0.828595 0.961883
0.208148 0.831281 0.964569
0.332403 0.832563 0.965866
0.452461 0.834272 0.967575
0.576989 0.833722 0.96701
0.7066 0.829786 0.963088
0.82472 0.824414 0.957702
0.909438 0.825086 0.958373
0.965225 0.831937 0.965225
0.118593 0.944335 0.993606
0.237461 0.94461 0.993881
0.35787 0.942061 0.991333
0.470756 0.936599 0.98587
0.58706 0.92784 0.977096
0.709499 0.916716 0.965972
0.823987 0.907713 0.956985
0.906798 0.906462 0.955734
0.959716 0.91046 0.959716
0.158877 1 1
0.269627 1 1
0.383764 1 1
0.494011 1 1
0.608606 0.998642 0.998642
0.727291 0.98378 0.98378
0.834775 0.967773 0.967773
0.908904 0.957839 0.957839
0.953719 0.953719 0.953719
