lut/ground-control/GroundControl_Blue_Undertones.cube
TITLE "Generate by Resolve"
LUT_3D_SIZE 33
0 0 0
0.00262455 0.00733959 0.0114748
0.00616464 0.0143587 0.023621
0.0115663 0.0208438 0.0355535
0.0189517 0.0267643 0.0471046
0.0282139 0.0322118 0.0579385
0.0397955 0.0370947 0.0673686
0.0530709 0.0416571 0.0751202
0.0675059 0.0459602 0.0820172
0.0834363 0.0498054 0.0890516
0.10132 0.0530556 0.0961929
0.121279 0.0557259 0.10312
0.143252 0.0578164 0.109651
0.167224 0.0593729 0.115679
0.193072 0.0604257 0.121172
0.220661 0.0610208 0.126085
0.249851 0.0611887 0.130449
0.280491 0.0609903 0.134264
0.312413 0.0604562 0.13756
0.345464 0.0596323 0.140352
0.379522 0.0585641 0.142702
0.414405 0.0572976 0.14461
0.449958 0.0558633 0.146136
0.486061 0.0542916 0.147326
0.52253 0.0526589 0.148196
0.559258 0.0509651 0.148806
0.596063 0.0492714 0.149187
0.632837 0.0476081 0.149371
0.669429 0.0460212 0.149416
0.705684 0.0445411 0.14934
0.741497 0.0431983 0.149187
0.77673 0.0420386 0.148989
0.811261 0.0410773 0.148806
0 0.0273594 0.0406806
0.00239567 0.0345006 0.0525826
0.00787366 0.0410163 0.0639811
0.0158083 0.0468605 0.0747234
0.0261234 0.052079 0.0847028
0.0383612 0.0567941 0.093843
0.0534981 0.0608377 0.101381
0.070634 0.0644999 0.106615
0.0881819 0.0682383 0.109941
0.106172 0.0717632 0.113985
0.125933 0.0746624 0.119081
0.147784 0.076936 0.124285
0.171633 0.078645 0.129168
0.197375 0.0798352 0.133577
0.224811 0.0805829 0.137469
0.253758 0.0809186 0.140841
0.284016 0.0809339 0.143694
0.31545 0.0806287 0.14609
0.34786 0.0800946 0.148043
0.381125 0.0793317 0.149599
0.415061 0.0784161 0.150805
0.449531 0.0773632 0.151705
0.484382 0.0762341 0.152331
0.519478 0.0750439 0.152728
0.554681 0.0738537 0.152941
0.589822 0.072694 0.152987
0.624796 0.0715953 0.152941
0.659464 0.0705882 0.152819
0.693675 0.0697185 0.152667
0.727321 0.0690318 0.152514
0.760235 0.0685435 0.152407
0.792325 0.0682994 0.152377
0.823804 0.0682231 0.152407
0 0.0585489 0.0797589
0 0.0650187 0.0897841
0.000991836 0.0707713 0.0990768
0.0123293 0.0758221 0.107576
0.0260166 0.0802625 0.115328
0.0413519 0.0842756 0.122438
0.0598917 0.0874647 0.128267
0.0811017 0.0900435 0.13225
0.103182 0.0926986 0.133074
0.123583 0.0958724 0.133455
0.144976 0.0984817 0.136629
0.168566 0.100389 0.140383
0.194202 0.101701 0.143877
0.221546 0.102556 0.146883
0.250324 0.103044 0.149386
0.280339 0.103212 0.151415
0.31136 0.103105 0.153033
0.343236 0.1028 0.154269
0.375814 0.102312 0.155184
0.408911 0.101701 0.155825
0.44239 0.100999 0.156237
0.476112 0.100237 0.156466
0.509941 0.0994583 0.156542
0.543725 0.0987106 0.156512
0.577325 0.098024 0.15642
0.610651 0.0974136 0.156283
0.643488 0.0969558 0.156176
0.675776 0.0966659 0.1561
0.707362 0.0965591 0.156115
0.73872 0.0965286 0.156161
0.770047 0.0964981 0.156191
0.801328 0.0964828 0.156222
0.832578 0.0964828 0.156252
0 0.092668 0.111986
0 0.0982223 0.119524
0 0.103075 0.126299
0.00323491 0.107271 0.132357
0.0203861 0.110918 0.137774
0.0387274 0.114244 0.142779
0.0603037 0.116716 0.146792
0.0846265 0.118471 0.149813
0.111223 0.119722 0.15111
0.136416 0.121798 0.14844
0.159274 0.124163 0.149691
0.18468 0.125643 0.152361
0.212085 0.126558 0.15462
0.240879 0.127108 0.156344
0.270771 0.127382 0.157641
0.301518 0.127443 0.158587
0.332967 0.127306 0.159228
0.364935 0.127062 0.15964
0.397299 0.126711 0.159869
0.429892 0.126299 0.159945
0.462577 0.125872 0.159915
0.495232 0.12546 0.159838
0.527733 0.125109 0.159731
0.559899 0.124834 0.159655
0.591623 0.124697 0.159625
0.622889 0.124697 0.159655
0.654108 0.124697 0.159701
0.685283 0.124712 0.159747
0.716426 0.124743 0.159792
0.747555 0.124773 0.159838
0.778653 0.124819 0.159884
0.809689 0.12488 0.15993
0.84065 0.124956 0.160006
0 0.128771 0.136126
0 0.133318 0.141176
0 0.137209 0.145556
0 0.14052 0.149325
0.0113222 0.143374 0.152605
0.032578 0.146029 0.155673
0.0569314 0.14786 0.157885
0.083772 0.14902 0.159411
0.112688 0.149615 0.160327
0.143542 0.149722 0.160418
0.170123 0.151217 0.15938
0.19791 0.152102 0.160861
0.226947 0.152667 0.161761
0.256825 0.153017 0.162356
0.287373 0.153185 0.162707
0.318425 0.153216 0.162905
0.349874 0.153155 0.162966
0.381552 0.153033 0.162951
0.413336 0.15288 0.162875
0.445075 0.152743 0.162799
0.476646 0.152651 0.162753
0.507897 0.152651 0.162768
0.538949 0.152712 0.162829
0.570016 0.152758 0.162875
0.601083 0.152804 0.162921
0.632136 0.152865 0.162982
0.663172 0.152911 0.163043
0.694163 0.152987 0.163104
0.725124 0.153063 0.16318
0.756008 0.15317 0.163272
0.786831 0.153277 0.163378
0.817563 0.153414 0.1635
0.848203 0.153597 0.163668
0 0.165972 0.152605
0 0.169451 0.155459
0 0.172366 0.157794
0 0.174792 0.159655
0.000900282 0.176852 0.161196
0.0249638 0.178836 0.162707
0.0519722 0.180011 0.16347
0.0812543 0.180591 0.163668
0.112413 0.180636 0.16347
0.145525 0.180102 0.163287
0.177798 0.179858 0.162631
0.209522 0.179644 0.163348
0.23975 0.179873 0.164096
0.270176 0.180087 0.164462
0.300923 0.180209 0.164645
0.331899 0.180285 0.164736
0.362966 0.180331 0.164797
0.393988 0.180392 0.164874
0.424857 0.180499 0.164996
0.455711 0.180591 0.165133
0.486595 0.180697 0.165255
0.51751 0.180789 0.165377
0.548424 0.180865 0.165484
0.579324 0.180957 0.165606
0.610224 0.181064 0.165713
0.641077 0.181155 0.16585
0.671885 0.181277 0.165988
0.702647 0.181415 0.16614
0.733318 0.181567 0.166323
0.763912 0.181735 0.166522
0.794415 0.181933 0.166751
0.824781 0.182177 0.167025
0.855039 0.182437 0.167315
0 0.203433 0.162661
0 0.205859 0.16376
0 0.207813 0.164508
0 0.209339 0.164965
0 0.21059 0.165255
0.0178988 0.211872 0.165743
0.0475471 0.21236 0.165637
0.0793774 0.212238 0.165255
0.113024 0.211551 0.164996
0.147341 0.210605 0.165301
0.179751 0.210315 0.164675
0.213001 0.21001 0.161822
0.246921 0.209201 0.162005
0.279271 0.208774 0.162997
0.310735 0.208621 0.163912
0.341756 0.208606 0.164691
0.372625 0.208667 0.165316
0.403449 0.208743 0.165805
0.434272 0.20882 0.166217
0.46511 0.208911 0.166567
0.495888 0.209018 0.166888
0.52668 0.209125 0.167178
0.557458 0.209232 0.167468
0.58819 0.209369 0.167742
0.618891 0.209506 0.168017
0.649516 0.209659 0.168307
0.680079 0.209827 0.168612
0.710552 0.210025 0.168933
0.740917 0.210254 0.169284
0.771176 0.210513 0.16968
0.801297 0.210803 0.170092
0.831266 0.211139 0.170565
0.861082 0.211505 0.171069
0 0.240436 0.167803
0 0.241825 0.167697
0 0.242817 0.167376
0 0.243488 0.166949
0 0.243931 0.166583
0.0129702 0.244511 0.166629
0.0450294 0.244297 0.166339
0.078996 0.243503 0.16611
0.113939 0.24239 0.166278
0.148363 0.241413 0.166629
0.181323 0.240955 0.16611
0.213901 0.240894 0.162844
0.248569 0.240055 0.161044
0.283009 0.239094 0.161227
0.316258 0.238392 0.162234
0.348547 0.23798 0.163394
0.380209 0.237736 0.164477
0.411536 0.237629 0.165423
0.442618 0.237583 0.166247
0.473564 0.237613 0.166979
0.504402 0.237659 0.167636
0.535149 0.237751 0.168231
0.56582 0.237873 0.168811
0.596414 0.23801 0.169345
0.626902 0.238178 0.169894
0.657328 0.238361 0.170428
0.687602 0.238605 0.170993
0.717769 0.238865 0.171572
0.747799 0.23917 0.172183
0.777691 0.239506 0.172824
0.807401 0.239902 0.17351
0.836942 0.24033 0.174228
0.866285 0.240818 0.175021
0 0.276341 0.169711
0 0.276738 0.168887
0 0.276814 0.168048
0 0.276646 0.167315
0 0.276341 0.166842
0.0111849 0.276249 0.166979
0.0451362 0.275441 0.167041
0.0803693 0.274235 0.16733
0.115709 0.272953 0.16791
0.150072 0.271977 0.168368
0.1832 0.271458 0.168002
0.215595 0.271366 0.165606
0.249287 0.270985 0.162127
0.28423 0.270008 0.160891
0.318837 0.269001 0.161013
0.352575 0.268177 0.161913
0.385443 0.267582 0.163119
0.417624 0.26717 0.16437
0.449317 0.266911 0.165576
0.480674 0.266773 0.16669
0.511742 0.266728 0.167742
0.54258 0.266743 0.168734
0.573251 0.266819 0.16968
0.603754 0.266957 0.170596
0.634104 0.267124 0.171481
0.664302 0.267353 0.172366
0.694331 0.267628 0.173266
0.724193 0.267948 0.174182
0.753887 0.268315 0.175113
0.783368 0.268742 0.176089
0.81268 0.269215 0.177096
0.841733 0.269749 0.17818
0.870542 0.270375 0.179324
0 0.310597 0.16994
0 0.310079 0.168933
0 0.309316 0.168093
0 0.30837 0.167544
0 0.307393 0.167452
0.0132143 0.306783 0.168093
0.0479591 0.305684 0.168643
0.0832227 0.304433 0.169299
0.11812 0.303273 0.169986
0.152132 0.302419 0.170382
0.185229 0.3019 0.170077
0.217731 0.301701 0.168383
0.250492 0.30164 0.164569
0.284977 0.300923 0.162081
0.319966 0.299901 0.161166
0.354604 0.298878 0.161334
0.388525 0.297993 0.162219
0.421683 0.297307 0.163455
0.45417 0.296803 0.164843
0.486091 0.296452 0.166278
0.517571 0.296239 0.167681
0.548684 0.296147 0.16907
0.579507 0.296132 0.170397
0.610025 0.296223 0.171725
0.640299 0.296376 0.173022
0.670329 0.29662 0.174319
0.70013 0.29691 0.175631
0.729702 0.297276 0.176944
0.759045 0.297704 0.178286
0.788128 0.298207 0.17969
0.816953 0.298787 0.181125
0.845518 0.299428 0.18262
0.873793 0.30016 0.184176
0 0.342763 0.169986
0 0.341405 0.169268
0 0.339986 0.168826
0 0.338643 0.168688
0 0.337484 0.168948
0.0166781 0.336828 0.169894
0.0512703 0.335744 0.170718
0.0861372 0.334585 0.171527
0.120653 0.333547 0.172244
0.154437 0.332753 0.172625
0.187503 0.332235 0.172396
0.220096 0.33196 0.17116
0.252461 0.33196 0.167956
0.286061 0.331609 0.164462
0.32079 0.330755 0.162737
0.355688 0.329732 0.162127
0.390234 0.328725 0.162432
0.42414 0.327825 0.163378
0.457374 0.327108 0.164721
0.489937 0.326558 0.166278
0.52192 0.326177 0.167941
0.553384 0.325933 0.169665
0.584405 0.325826 0.171389
0.61503 0.325841 0.173129
0.645319 0.325963 0.174853
0.675273 0.326162 0.176577
0.70489 0.326482 0.178332
0.734188 0.326879 0.180133
0.76318 0.327352 0.181949
0.791867 0.327932 0.18381
0.820233 0.328603 0.185733
0.84828 0.329351 0.187732
0.875975 0.33019 0.189792
0 0.373083 0.170825
0 0.371527 0.170367
0 0.370016 0.170199
0 0.368597 0.170336
0 0.367391 0.170901
0.0204166 0.366735 0.172091
0.0547189 0.365728 0.173098
0.0892805 0.36466 0.174014
0.123491 0.363699 0.174777
0.157107 0.362951 0.175204
0.190127 0.362432 0.175082
0.222751 0.362127 0.174212
0.255024 0.362066 0.171786
0.287831 0.361975 0.168063
0.32195 0.361379 0.165499
0.356649 0.360464 0.164355
0.391333 0.359472 0.164065
0.42565 0.358511 0.164599
0.459388 0.357656 0.165713
0.492485 0.356954 0.167239
0.524926 0.35642 0.169024
0.556771 0.356054 0.170977
0.588052 0.35584 0.173037
0.61883 0.355764 0.175158
0.649134 0.355825 0.177325
0.679011 0.356008 0.179522
0.708476 0.356313 0.181765
0.737591 0.356725 0.184024
0.766262 0.357244 0.186374
0.794537 0.357885 0.188769
0.822431 0.358633 0.191241
0.849943 0.359487 0.19379
0.877043 0.360464 0.196429
0 0.403021 0.172122
0 0.401389 0.171939
0 0.399802 0.172045
0 0.398352 0.172473
0 0.397147 0.173297
0.0244755 0.396521 0.174685
0.0585336 0.395575 0.175845
0.0928054 0.394568 0.176883
0.126772 0.393683 0.177722
0.160235 0.392966 0.178225
0.193194 0.392462 0.178256
0.225818 0.392111 0.177691
0.258061 0.391989 0.175937
0.290379 0.392004 0.172671
0.323705 0.391699 0.169528
0.357946 0.390982 0.167819
0.392432 0.390082 0.167193
0.426795 0.389151 0.167315
0.460761 0.388251 0.168154
0.494163 0.387472 0.169558
0.52694 0.386831 0.171359
0.559075 0.386358 0.173465
0.590585 0.386053 0.175784
0.6215 0.385901 0.178241
0.65185 0.385916 0.180819
0.681682 0.386069 0.183474
0.710994 0.386358 0.186221
0.739834 0.386801 0.189044
0.768185 0.387366 0.191943
0.796094 0.388052 0.194903
0.823545 0.388876 0.19794
0.850492 0.389838 0.201099
0.876967 0.390936 0.204364
0 0.432685 0.173907
0 0.430976 0.174014
0 0.429343 0.174395
0 0.427878 0.175113
0 0.426688 0.176165
0.0290532 0.426108 0.177737
0.0628519 0.425208 0.179065
0.0968795 0.424277 0.180209
0.130632 0.423438 0.18117
0.163958 0.422751 0.181811
0.196857 0.422232 0.18204
0.229435 0.421866 0.181781
0.261646 0.421698 0.180606
0.29369 0.421729 0.178073
0.326284 0.421637 0.174868
0.359869 0.42118 0.172671
0.393942 0.420432 0.17174
0.428077 0.419577 0.171649
0.461982 0.418738 0.172229
0.495445 0.417945 0.173495
0.528359 0.417273 0.17528
0.560647 0.416739 0.177478
0.592279 0.416373 0.180011
0.62327 0.416175 0.182773
0.65362 0.416144 0.185733
0.683375 0.416266 0.188846
0.71252 0.416571 0.192081
0.7411 0.417014 0.195453
0.769131 0.417624 0.198917
0.796597 0.418387 0.202518
0.823529 0.419303 0.20621
0.849912 0.420371 0.210025
0.875792 0.421561 0.213931
0 0.462013 0.176272
0 0.460258 0.176654
0 0.45861 0.177325
0 0.457145 0.178302
0.00178531 0.455985 0.179568
0.034287 0.455436 0.181353
0.0678721 0.454597 0.182849
0.101671 0.453696 0.184161
0.135241 0.452903 0.185275
0.168429 0.452232 0.186099
0.201236 0.451728 0.186572
0.233722 0.451347 0.186648
0.265873 0.451148 0.186007
0.297749 0.451148 0.184237
0.329793 0.451194 0.181445
0.362615 0.450965 0.179004
0.396124 0.450416 0.177768
0.429831 0.449714 0.177584
0.463447 0.448951 0.178088
0.496757 0.448218 0.179248
0.529595 0.447578 0.181033
0.561852 0.447044 0.183322
0.593469 0.446662 0.186038
0.62443 0.446448 0.189075
0.654688 0.446403 0.192401
0.684291 0.446525 0.195956
0.713222 0.446845 0.19971
0.741512 0.447318 0.203632
0.769162 0.44799 0.207706
0.796185 0.448814 0.211933
0.822583 0.449821 0.216312
0.848371 0.45098 0.220829
0.873518 0.452323 0.225513
0 0.49099 0.179248
0 0.489189 0.17995
0 0.487541 0.180911
0 0.486107 0.182116
0.0080415 0.484962 0.183642
0.0403754 0.484443 0.185641
0.0737469 0.483635 0.18735
0.107347 0.482795 0.188861
0.140734 0.482017 0.190173
0.1738 0.481376 0.191257
0.206485 0.480873 0.19202
0.238865 0.480491 0.192447
0.270924 0.480262 0.192325
0.302632 0.480232 0.191287
0.334279 0.480323 0.189212
0.366384 0.480308 0.186892
0.399191 0.479988 0.185489
0.432349 0.479438 0.185199
0.465507 0.478813 0.185779
0.498451 0.478187 0.186984
0.531029 0.477607 0.188815
0.563073 0.477134 0.191226
0.594507 0.476783 0.194141
0.625269 0.476585 0.197482
0.655344 0.47657 0.201175
0.684688 0.476722 0.205188
0.713329 0.477073 0.209445
0.741268 0.477607 0.213931
0.76849 0.478325 0.218647
0.79501 0.47924 0.223529
0.820844 0.480339 0.228611
0.845975 0.481636 0.233875
0.87042 0.483101 0.239307
0 0.519554 0.182956
0 0.517739 0.183963
0 0.516091 0.185229
0 0.514672 0.186725
0.0153201 0.513558 0.18851
0.0474861 0.513069 0.190738
0.0806744 0.512291 0.192691
0.114076 0.511467 0.194461
0.147311 0.510719 0.196048
0.180209 0.510094 0.197406
0.212757 0.50959 0.19852
0.245014 0.509209 0.199359
0.276921 0.50898 0.199771
0.308476 0.508919 0.199451
0.339803 0.509026 0.198199
0.371298 0.509133 0.196384
0.403326 0.509041 0.195026
0.435813 0.508705 0.194705
0.468406 0.508232 0.195392
0.500847 0.507744 0.196811
0.532967 0.507286 0.198795
0.56463 0.506889 0.201404
0.595712 0.506615 0.204578
0.626154 0.506493 0.20824
0.655879 0.506539 0.212345
0.684886 0.506752 0.2168
0.71313 0.507164 0.221592
0.740612 0.507774 0.226688
0.76733 0.508568 0.232029
0.793286 0.50959 0.237613
0.818494 0.510796 0.243412
0.842939 0.512215 0.249439
0.866636 0.513832 0.255665
0 0.547646 0.187503
0 0.54583 0.188846
0 0.544198 0.190402
0 0.542779 0.192218
0.0238346 0.541695 0.194293
0.055848 0.541222 0.196826
0.0888533 0.540459 0.199069
0.122072 0.539666 0.201129
0.155123 0.538949 0.203037
0.187869 0.538323 0.204761
0.220249 0.537835 0.206271
0.252338 0.537453 0.207584
0.284077 0.537209 0.208545
0.315435 0.537148 0.208942
0.346471 0.53724 0.20856
0.377447 0.537438 0.207477
0.408743 0.53753 0.206455
0.440452 0.537408 0.206271
0.472374 0.537133 0.207095
0.504189 0.536782 0.208789
0.535729 0.536461 0.211139
0.566842 0.536202 0.214038
0.597436 0.536049 0.217533
0.62739 0.536034 0.221576
0.656657 0.536171 0.226123
0.685161 0.536477 0.231083
0.712902 0.53698 0.236439
0.739834 0.537682 0.24213
0.765972 0.538598 0.248142
0.791302 0.539727 0.254429
0.815808 0.54107 0.26099
0.839521 0.542626 0.267796
0.862409 0.544396 0.27483
0 0.575219 0.193011
0 0.573404 0.19469
0 0.571771 0.196628
0 0.570367 0.198779
0.0337682 0.569299 0.20119
0.0656443 0.568826 0.204044
0.0984817 0.568093 0.206638
0.131518 0.567315 0.209064
0.164385 0.566598 0.211353
0.196948 0.566003 0.213504
0.22916 0.565515 0.215473
0.261036 0.565133 0.217288
0.292576 0.564904 0.21886
0.32369 0.564828 0.219989
0.354437 0.56492 0.220478
0.384955 0.565164 0.22031
0.415564 0.565393 0.219913
0.446479 0.565484 0.22005
0.477607 0.565408 0.221134
0.508705 0.56524 0.223133
0.539559 0.565087 0.22591
0.570016 0.564981 0.229282
0.59997 0.564965 0.233204
0.629313 0.565087 0.23769
0.657954 0.565347 0.242725
0.685863 0.565789 0.248234
0.712978 0.566415 0.25417
0.739269 0.567254 0.260517
0.764721 0.568292 0.267201
0.789349 0.569558 0.27422
0.813107 0.571054 0.281529
0.836011 0.572763 0.289128
0.858076 0.574701 0.296971
0 0.602167 0.199634
0 0.600351 0.201709
0 0.598718 0.204013
0.0115053 0.59733 0.206561
0.0453651 0.596277 0.209354
0.0771191 0.595804 0.212604
0.109773 0.595087 0.215595
0.142626 0.594324 0.218433
0.175296 0.593622 0.22118
0.20766 0.593027 0.223819
0.239643 0.592554 0.226307
0.271305 0.592187 0.228702
0.302586 0.591959 0.230915
0.33344 0.591882 0.232807
0.363867 0.591989 0.234195
0.393957 0.592248 0.235019
0.423926 0.592584 0.235462
0.454032 0.592859 0.236133
0.484337 0.592996 0.237613
0.514626 0.593027 0.240024
0.544701 0.593057 0.243275
0.574395 0.593118 0.247196
0.603586 0.593286 0.251698
0.632181 0.593561 0.256718
0.660105 0.593988 0.262303
0.687282 0.594583 0.268406
0.713664 0.595361 0.274968
0.739223 0.596353 0.281971
0.763912 0.597559 0.289357
0.787747 0.598978 0.297108
0.810697 0.600626 0.30518
0.832807 0.602502 0.313466
0.853971 0.604623 0.322133
0 0.628443 0.207507
0 0.626612 0.210025
0 0.624979 0.212772
0.0251621 0.623606 0.215747
0.058854 0.622538 0.218997
0.0904707 0.622065 0.222675
0.122957 0.621347 0.226139
0.155612 0.6206 0.229465
0.188067 0.619913 0.232731
0.220203 0.619318 0.235904
0.251957 0.61886 0.239002
0.283345 0.618509 0.242039
0.314336 0.618296 0.244953
0.344869 0.618235 0.247623
0.374945 0.618357 0.249943
0.404593 0.618647 0.251774
0.433967 0.619058 0.253208
0.46331 0.619486 0.254673
0.492729 0.619821 0.256718
0.522133 0.620066 0.259617
0.551354 0.620295 0.263401
0.580194 0.620554 0.267918
0.608545 0.62089 0.273075
0.636301 0.621363 0.278737
0.663401 0.621973 0.284947
0.689738 0.622751 0.291676
0.715297 0.623713 0.298909
0.740017 0.624872 0.306584
0.763897 0.626261 0.314611
0.786862 0.627863 0.323095
0.808942 0.629709 0.33193
0.830106 0.631769 0.34107
0.85037 0.634089 0.3505
0 0.65391 0.216861
0 0.652079 0.219867
0.00622568 0.650446 0.223102
0.04094 0.649073 0.226566
0.0744793 0.648005 0.230304
0.105959 0.647517 0.234485
0.138262 0.646799 0.238468
0.170687 0.646067 0.242359
0.202914 0.64538 0.246189
0.234791 0.644816 0.249989
0.266255 0.644373 0.253742
0.297353 0.644038 0.257465
0.328008 0.643854 0.261143
0.358175 0.643809 0.264652
0.387854 0.643961 0.267903
0.417029 0.644282 0.270771
0.445838 0.644755 0.273289
0.474418 0.645304 0.2757
0.502953 0.645838 0.278477
0.531426 0.646296 0.282002
0.559716 0.646738 0.286381
0.58764 0.647211 0.291539
0.615076 0.647745 0.297383
0.641901 0.648417 0.303777
0.66807 0.649241 0.310674
0.693523 0.650217 0.318013
0.718166 0.651377 0.325933
0.74197 0.65275 0.334325
0.764904 0.654337 0.343114
0.786969 0.656138 0.3523
0.808118 0.658183 0.361837
0.828367 0.660456 0.371679
0.847715 0.662974 0.381826
0 0.678508 0.227848
0 0.676661 0.231388
0.024567 0.675029 0.235172
0.0590982 0.67364 0.239185
0.0924392 0.672587 0.243488
0.123781 0.672084 0.248234
0.155886 0.671366 0.252796
0.188067 0.670634 0.257298
0.22002 0.669978 0.261784
0.251606 0.669429 0.266255
0.282765 0.669001 0.270726
0.313512 0.668696 0.275196
0.343786 0.668544 0.279667
0.373541 0.668544 0.284062
0.402762 0.668727 0.288258
0.431449 0.669093 0.292195
0.459648 0.669627 0.295827
0.487495 0.670283 0.29929
0.515145 0.670985 0.302953
0.542657 0.671672 0.307225
0.569955 0.672328 0.312276
0.596887 0.67303 0.318029
0.623346 0.673793 0.324575
0.649195 0.674678 0.331731
0.674372 0.675715 0.339391
0.698817 0.676921 0.347509
0.722484 0.678309 0.3561
0.745327 0.679896 0.365148
0.7673 0.681697 0.374609
0.788388 0.683711 0.384451
0.808591 0.685969 0.394644
0.827893 0.688472 0.405142
0.846296 0.691188 0.41593
0 0.702129 0.240696
0.0102541 0.700267 0.244831
0.0455177 0.698634 0.24921
0.0798352 0.697246 0.253834
0.112993 0.696193 0.258732
0.144167 0.695674 0.264103
0.176028 0.694957 0.269322
0.20795 0.69424 0.274495
0.239597 0.693599 0.279683
0.270848 0.69308 0.284886
0.30164 0.692683 0.29012
0.331975 0.692424 0.295399
0.361807 0.692302 0.30071
0.391104 0.692363 0.305974
0.419806 0.692592 0.311147
0.447944 0.693019 0.316136
0.475517 0.693629 0.320897
0.502617 0.694392 0.325475
0.529366 0.695277 0.330068
0.555901 0.696162 0.33518
0.582193 0.697047 0.340993
0.608103 0.697978 0.347539
0.633509 0.69897 0.354788
0.658335 0.700099 0.362646
0.682475 0.701366 0.371038
0.705867 0.7028 0.379873
0.728511 0.704433 0.38912
0.750332 0.706264 0.39881
0.771298 0.708293 0.408896
0.791394 0.710552 0.419348
0.81062 0.713039 0.430137
0.828962 0.715755 0.44123
0.846418 0.718715 0.452598
0 0.724681 0.255589
0.0342565 0.72282 0.260365
0.0692912 0.721187 0.2654
0.103395 0.719799 0.27068
0.136309 0.718746 0.276265
0.1673 0.718212 0.282307
0.198901 0.71751 0.288212
0.230503 0.716808 0.294118
0.261784 0.716197 0.300053
0.292653 0.715709 0.30602
0.323018 0.715373 0.312047
0.35288 0.71516 0.318166
0.382223 0.715114 0.324331
0.410971 0.715221 0.33051
0.439109 0.715526 0.336645
0.46659 0.716045 0.342596
0.493492 0.716747 0.34847
0.51986 0.717632 0.354192
0.545754 0.718639 0.35993
0.571298 0.719722 0.365942
0.596521 0.720851 0.372519
0.621347 0.722026 0.379782
0.645685 0.723293 0.387717
0.669413 0.724651 0.396246
0.692485 0.726177 0.405325
0.714824 0.727871 0.414847
0.736385 0.729747 0.42475
0.757153 0.731823 0.43505
0.777096 0.734112 0.445701
0.796185 0.736614 0.456718
0.81442 0.73933 0.468055
0.831785 0.74229 0.479652
0.848295 0.74548 0.491524
0.0256809 0.746075 0.272709
0.0613107 0.744228 0.278187
0.0960861 0.742596 0.283909
0.129915 0.741222 0.289906
0.16257 0.740169 0.296208
0.193317 0.739635 0.302968
0.224598 0.738964 0.309621
0.255818 0.738293 0.316274
0.286702 0.737728 0.322988
0.317098 0.737301 0.329763
0.346975 0.737011 0.336614
0.376242 0.736904 0.343496
0.40502 0.736934 0.350545
0.433173 0.737133 0.357641
0.460685 0.73753 0.364736
0.487526 0.73814 0.371756
0.51371 0.738949 0.378668
0.539254 0.739956 0.385473
0.564263 0.741115 0.392248
0.588815 0.742412 0.399207
0.612955 0.743786 0.406577
0.636683 0.745205 0.414557
0.659907 0.746731 0.423148
0.682521 0.748363 0.432319
0.704494 0.750149 0.442023
0.725734 0.752102 0.452171
0.746227 0.754238 0.462699
0.765911 0.756573 0.473564
0.784817 0.759121 0.484718
0.802884 0.761883 0.496254
0.820111 0.764858 0.508049
0.836515 0.768048 0.520119
0.852064 0.771481 0.532418
0.0562295 0.766278 0.292241
0.0915694 0.764431 0.298451
0.12604 0.762829 0.304921
0.159518 0.761486 0.31165
0.191836 0.760449 0.3187
0.222293 0.75993 0.326192
0.253193 0.759289 0.333608
0.28397 0.758679 0.341039
0.31429 0.758206 0.348486
0.344182 0.757839 0.356085
0.373495 0.757641 0.363775
0.402228 0.757595 0.371572
0.43035 0.757733 0.379477
0.457816 0.758053 0.387427
0.484596 0.758572 0.395422
0.510674 0.759319 0.403372
0.536049 0.760266 0.411261
0.560769 0.76141 0.419089
0.584863 0.762753 0.426856
0.608408 0.764248 0.434745
0.631479 0.76585 0.442924
0.654078 0.767544 0.451606
0.676173 0.769345 0.460838
0.697673 0.771252 0.470603
0.718517 0.773312 0.480873
0.738659 0.775525 0.491569
0.758053 0.777935 0.502647
0.776669 0.780545 0.514031
0.794522 0.783352 0.525704
0.811551 0.786374 0.537636
0.827787 0.789609 0.549828
0.843229 0.793057 0.56228
0.857847 0.796719 0.574914
0.090135 0.785229 0.31429
0.125093 0.783413 0.321263
0.159182 0.781842 0.328496
0.192264 0.780545 0.336004
0.224094 0.779583 0.343755
0.25417 0.779095 0.351995
0.284642 0.778515 0.360189
0.314916 0.777966 0.368414
0.344732 0.777554 0.376715
