lut/ground-control/GroundControl_Punch1.cube
TITLE "Generate by Resolve"
LUT_3D_SIZE 33
0 0 0
0.00621042 0.00553903 0.00553903
0.0142367 0.0111696 0.0111696
0.0242161 0.0165713 0.0165713
0.0361334 0.021149 0.021149
0.0504158 0.0250553 0.0250553
0.0670939 0.028275 0.028275
0.086244 0.030808 0.030808
0.107836 0.0326848 0.0326848
0.132403 0.0341344 0.0341344
0.159014 0.0349889 0.0349889
0.188052 0.0354772 0.0354772
0.219089 0.0356146 0.0356146
0.251514 0.0354467 0.0354467
0.285985 0.0350652 0.0350652
0.323644 0.0345312 0.0345312
0.363424 0.0337377 0.0337377
0.405264 0.0327153 0.0327153
0.448341 0.0314488 0.0314488
0.492607 0.0299535 0.0299535
0.539422 0.0284276 0.0284276
0.586252 0.0267033 0.0267033
0.633631 0.0249332 0.0249332
0.681239 0.0231479 0.0231479
0.729213 0.0213474 0.0213474
0.777478 0.019791 0.019791
0.825452 0.0185245 0.0185245
0.870832 0.0177768 0.0177768
0.913893 0.0176699 0.0176699
0.954803 0.018204 0.018204
0.993637 0.0193942 0.0193942
1 0.0213931 0.0213931
1 0.0255436 0.0255436
0.0183108 0.0210727 0.0183108
0.0266728 0.0266728 0.0229801
0.0368048 0.0320745 0.0274052
0.0486305 0.0366827 0.0310521
0.0632181 0.0405127 0.0339208
0.0805371 0.0436408 0.0360723
0.100633 0.0461738 0.0376135
0.124285 0.0483558 0.0387274
0.150454 0.0498054 0.0391241
0.179171 0.0506905 0.0389563
0.210071 0.0510872 0.0383001
0.243305 0.0512245 0.0373541
0.279118 0.0512398 0.0362402
0.317968 0.0513466 0.0351263
0.357458 0.0511025 0.0337377
0.398215 0.0505989 0.0320897
0.440314 0.0498817 0.0302586
0.483757 0.0490272 0.0283055
0.528466 0.0480964 0.0263066
0.574441 0.0471656 0.0243381
0.620142 0.0460059 0.0221866
0.665904 0.0449378 0.0202182
0.711742 0.0439918 0.0184176
0.757382 0.0432136 0.0168307
0.802777 0.0426795 0.0155642
0.847517 0.0424811 0.0146944
0.890272 0.0426032 0.0142519
0.930312 0.0435492 0.0147097
0.965301 0.0458839 0.0167239
0.993912 0.0499428 0.0206912
1 0.0545663 0.0252537
1 0.0592966 0.0299382
1 0.0639658 0.0345617
0.0324407 0.04448 0.0324407
0.0426337 0.0496681 0.0356603
0.0544137 0.0544137 0.0384527
0.0686503 0.0587167 0.0407416
0.0865797 0.0623331 0.0422675
0.107881 0.0652476 0.0430762
0.132555 0.0676585 0.0432746
0.159991 0.0692149 0.0426947
0.190692 0.0703441 0.0415961
0.22472 0.0711681 0.040116
0.261448 0.0716869 0.0382849
0.299901 0.0718547 0.0361334
0.340368 0.0719615 0.0339055
0.381018 0.0718242 0.0315404
0.42266 0.0716411 0.0291752
0.465293 0.0713359 0.0267643
0.508507 0.0709087 0.0243229
0.552377 0.0703899 0.0218814
0.597223 0.0700999 0.0197452
0.641413 0.0697337 0.0176852
0.685512 0.0694591 0.0158541
0.729046 0.0693523 0.0143282
0.771756 0.0694896 0.0132296
0.814252 0.0702068 0.0128176
0.854688 0.071107 0.0128023
0.889952 0.0733959 0.0146944
0.922118 0.0765087 0.0176547
0.9523 0.0801556 0.0211948
0.98088 0.0843519 0.0252995
1 0.0890516 0.0299229
1 0.0936904 0.0345006
1 0.0983902 0.0391394
1 0.103105 0.0437934
0.0411383 0.0702678 0.0411383
0.0535592 0.0755627 0.043183
0.0678416 0.0805371 0.0448463
0.0848402 0.0848402 0.0458686
0.106172 0.0882582 0.0459297
0.131945 0.0914168 0.0454566
0.161212 0.093843 0.0442512
0.194003 0.095613 0.0423896
0.229633 0.0966659 0.0398871
0.267735 0.0972 0.0369268
0.308385 0.0975967 0.0337835
0.350042 0.097673 0.0304875
0.392279 0.0975967 0.0271916
0.434562 0.0975357 0.0240635
0.476967 0.0975052 0.0211185
0.519722 0.0975204 0.0184176
0.563455 0.0978561 0.0160983
0.60621 0.0980087 0.0139315
0.648524 0.0983139 0.0121309
0.690196 0.0988174 0.0107881
0.73106 0.0995956 0.0099794
0.770413 0.100847 0.00996414
0.804852 0.103807 0.0125582
0.837736 0.106722 0.0152743
0.870115 0.109789 0.0181888
0.902129 0.112963 0.0212253
0.933516 0.11632 0.0244755
0.963302 0.120165 0.0282292
0.991775 0.124651 0.0326238
1 0.129107 0.0370031
1 0.1337 0.0415198
1 0.138308 0.046067
1 0.142947 0.0506447
0.0436866 0.100938 0.0436866
0.0583658 0.106477 0.0443732
0.0752575 0.112016 0.0448615
0.0957656 0.117311 0.0448615
0.12137 0.12137 0.0437018
0.150912 0.124254 0.0415503
0.183963 0.126345 0.0387121
0.220371 0.127764 0.0352941
0.259602 0.128588 0.0314031
0.301259 0.129107 0.0272984
0.344045 0.129168 0.0230106
0.387213 0.129091 0.0189059
0.430518 0.129122 0.0151369
0.473259 0.129381 0.0118715
0.515358 0.129809 0.00910964
0.557641 0.130617 0.00694286
0.598825 0.131395 0.00521859
0.639155 0.132403 0.00410468
0.676905 0.134096 0.00451667
0.711437 0.136584 0.00662242
0.745266 0.139254 0.00903334
0.778927 0.142428 0.0119936
0.811688 0.145418 0.0148165
0.844068 0.148501 0.0177462
0.876143 0.151659 0.0207828
0.907881 0.154879 0.0238651
0.939361 0.158556 0.0274357
0.968811 0.162264 0.0310521
0.996689 0.166369 0.0350805
1 0.170764 0.0393683
1 0.175265 0.0437934
1 0.179736 0.0482032
1 0.184451 0.052842
0.0401312 0.138369 0.0401312
0.0575265 0.14464 0.0396582
0.0771191 0.150591 0.0388952
0.100359 0.155779 0.0374762
0.129107 0.159487 0.0348363
0.162158 0.162158 0.0313573
0.19855 0.163912 0.0272831
0.237964 0.164904 0.0226902
0.280247 0.165698 0.0180667
0.323705 0.16582 0.0133059
0.367895 0.165805 0.00877394
0.411933 0.165805 0.00469978
0.455238 0.166003 0.00129702
0.497536 0.166812 0
0.538354 0.167926 0
0.57586 0.16968 0
0.611749 0.171801 0
0.64683 0.174151 0.00184634
0.681285 0.176669 0.00411994
0.71548 0.179644 0.00686656
0.749065 0.182483 0.00952163
0.782116 0.185382 0.012253
0.814664 0.188373 0.0150912
0.846799 0.191394 0.0179751
0.878614 0.194461 0.0209201
0.910506 0.197925 0.0242618
0.941421 0.201175 0.0274052
0.970642 0.204776 0.0309148
0.998215 0.208682 0.0347295
1 0.212802 0.0387579
1 0.21709 0.0429694
1 0.221698 0.0475013
1 0.225879 0.0516213
0.0303655 0.181445 0.0303655
0.0504616 0.188052 0.0288396
0.0725872 0.193805 0.0270542
0.0983444 0.198581 0.024567
0.130098 0.201816 0.0210269
0.16614 0.203998 0.0168002
0.205539 0.205539 0.0122835
0.2477 0.206439 0.00759899
0.291478 0.206592 0.00288396
0.336202 0.2065 0
0.381003 0.206439 0
0.424689 0.206653 0
0.46569 0.207675 0
0.50454 0.209216 0
0.541711 0.211002 0
0.578012 0.213046 0
0.613581 0.215274 0
0.648478 0.217685 0.000793469
0.68304 0.220493 0.00340276
0.716869 0.223224 0.00595102
0.750164 0.225925 0.00848402
0.783001 0.228702 0.0111086
0.815366 0.231601 0.0138705
0.847349 0.234531 0.0166629
0.879286 0.237797 0.019791
0.910506 0.240665 0.0225681
0.941085 0.243656 0.025452
0.970047 0.247059 0.0287633
0.997375 0.250797 0.0323949
1 0.254963 0.0364843
1 0.25893 0.0403601
1 0.262837 0.0441901
1 0.266743 0.0480354
0.0154879 0.228779 0.0154879
0.0381933 0.234607 0.0133059
0.0629129 0.240009 0.0111696
0.0914015 0.244434 0.00860609
0.125994 0.247181 0.00500496
0.164782 0.24892 0.0010071
0.206561 0.250034 0
0.250324 0.250324 0
0.29514 0.250202 0
0.339651 0.250034 0
0.383261 0.250095 0
0.425818 0.250889 0
0.466331 0.251789 0
0.504921 0.253208 0
0.542016 0.255024 0
0.57821 0.257053 0
0.613809 0.259373 0
0.648722 0.26186 0
0.682857 0.264286 0.00146487
0.716442 0.266835 0.00384527
0.749569 0.269413 0.00627146
0.782177 0.272023 0.00872816
0.81445 0.274861 0.0114443
0.84625 0.277668 0.0141299
0.877607 0.2804 0.0167391
0.908583 0.283085 0.0193179
0.938827 0.285786 0.021912
0.967346 0.288808 0.0248417
0.994568 0.292454 0.028397
1 0.296132 0.0319982
1 0.299794 0.035584
1 0.303334 0.0390478
1 0.306783 0.0424353
0 0.277928 0
0.0239414 0.283177 0
0.0513619 0.287938 0
0.0824903 0.291691 0
0.120058 0.294163 0
0.1617 0.294835 0
0.205112 0.294957 0
0.249622 0.294789 0
0.294514 0.294514 0
0.339178 0.294377 0
0.383139 0.294728 0
0.425361 0.295155 0
0.465843 0.295995 0
0.504326 0.297322 0
0.541268 0.299001 0
0.577478 0.30103 0
0.613016 0.303319 0
0.647578 0.305455 0
0.681453 0.307668 0
0.714733 0.309941 0.000869764
0.747616 0.312291 0.00306706
0.780194 0.314885 0.00553903
0.812131 0.317449 0.00796521
0.843442 0.319783 0.010193
0.874388 0.322133 0.0124208
0.905028 0.324514 0.0146944
0.935012 0.32697 0.0170596
0.963516 0.329992 0.0200046
0.990005 0.332967 0.0228733
1 0.336126 0.0259709
1 0.339452 0.029221
1 0.342718 0.0324102
1 0.346059 0.0356909
0 0.327199 0
0.012192 0.331426 0
0.0439765 0.334737 0
0.0787976 0.337636 0
0.118318 0.338811 0
0.160555 0.339269 0
0.204227 0.339315 0
0.24889 0.339101 0
0.293919 0.338811 0
0.338842 0.338842 0
0.382452 0.33875 0
0.424582 0.339025 0
0.464988 0.339757 0
0.503365 0.340963 0
0.540505 0.342809 0
0.576318 0.344457 0
0.611353 0.346242 0
0.645701 0.34818 0
0.679377 0.350195 0
0.712474 0.3523 0
0.745205 0.354513 0
0.777203 0.356542 0.00157168
0.808713 0.358679 0.00358587
0.83975 0.360769 0.0055848
0.870329 0.362768 0.00747692
0.900633 0.364828 0.00944533
0.930327 0.36701 0.0115358
0.95819 0.369421 0.0138705
0.98439 0.372122 0.016495
1 0.374929 0.0192264
1 0.377783 0.0220188
1 0.380835 0.0249943
1 0.383795 0.0279088
0 0.372656 0
0.011017 0.376181 0
0.0434424 0.379355 0
0.078233 0.381811 0
0.117968 0.382925 0
0.160327 0.383291 0
0.204028 0.383215 0
0.249012 0.3832 0
0.293965 0.382712 0
0.338537 0.3823 0
0.382071 0.382071 0
0.424033 0.382132 0
0.464195 0.382574 0
0.502678 0.383856 0
0.539284 0.385153 0
0.574899 0.386587 0
0.609628 0.388067 0
0.64358 0.389609 0
0.676982 0.391333 0
0.709972 0.393347 0
0.742184 0.395041 0
0.773785 0.396689 0
0.804807 0.398337 0
0.835447 0.400046 0.000549325
0.865843 0.401877 0.00227359
0.895888 0.403693 0.00399786
0.924987 0.405295 0.00553903
0.952377 0.407248 0.00741588
0.978195 0.409583 0.00967422
1 0.412177 0.012192
1 0.415137 0.0150912
1 0.417777 0.0176699
1 0.420417 0.0202487
0 0.416693 0
0.0116732 0.419913 0
0.0441596 0.422934 0
0.0789807 0.425238 0
0.1187 0.426184 0
0.161044 0.426398 0
0.205066 0.42652 0
0.249638 0.425986 0
0.294408 0.425254 0
0.338766 0.424536 0
0.382116 0.424063 0
0.423926 0.423926 0
0.464195 0.424445 0
0.502007 0.425025 0
0.538247 0.42594 0
0.573556 0.427054 0
0.608057 0.428275 0
0.642008 0.429816 0
0.674907 0.431037 0
0.707179 0.432334 0
0.739055 0.433692 0
0.770382 0.435065 0
0.801083 0.436423 0
0.83154 0.437934 0
0.861372 0.4392 0
0.890913 0.440528 0
0.919814 0.441947 0
0.947005 0.443717 0.00151064
0.972656 0.445884 0.00361639
0.99733 0.448447 0.00611887
1 0.45098 0.00859083
1 0.453498 0.0110628
1 0.456001 0.0135042
0 0.459602 0
0.0136721 0.462577 0
0.0461433 0.465446 0
0.0809491 0.467613 0
0.12079 0.468574 0
0.163058 0.46862 0
0.206561 0.468116 0
0.25098 0.467338 0
0.295613 0.466392 0
0.339727 0.465385 0
0.383017 0.46479 0
0.424536 0.464317 0
0.464225 0.464225 0
0.501808 0.464546 0
0.537682 0.465095 0
0.572549 0.465736 0
0.606928 0.466835 0
0.640269 0.46775 0
0.672892 0.468696 0
0.704799 0.469612 0
0.736202 0.470497 0
0.767132 0.471473 0
0.797833 0.472816 0
0.827832 0.473899 0
0.85745 0.474968 0
0.886748 0.476051 0
0.91545 0.477272 0
0.94255 0.47895 0
0.968215 0.481132 0
0.992523 0.483345 0.000900282
1 0.485679 0.00318914
1 0.48806 0.00552377
1 0.49044 0.0078584
0 0.501259 0
0.0170748 0.503975 0
0.0493324 0.506554 0
0.0841535 0.508644 0
0.123796 0.5093 0
0.165789 0.508995 0
0.209033 0.508156 0
0.253101 0.506966 0
0.297444 0.505669 0
0.341588 0.504631 0
0.384421 0.503548 0
0.425513 0.502617 0
0.464759 0.502037 0
0.501976 0.501976 0
0.537591 0.502235 0
0.572457 0.502861 0
0.606119 0.503227 0
0.639002 0.503685 0
0.67129 0.504295 0
0.702983 0.504982 0
0.734447 0.505943 0
0.765179 0.506706 0
0.795361 0.507546 0
0.825193 0.508446 0
0.854688 0.509392 0
0.883848 0.510338 0
0.912627 0.511635 0
0.939483 0.513085 0
0.964797 0.514931 0
0.988998 0.517037 0
1 0.519249 0
1 0.521477 0.00141909
1 0.523949 0.00384527
0 0.541527 0
0.0211032 0.54403 0
0.0535134 0.54667 0
0.0878157 0.54818 0
0.127001 0.548287 0
0.16875 0.547677 0
0.211795 0.546563 0
0.255741 0.54519 0
0.299825 0.543587 0
0.343297 0.541848 0
0.385763 0.540352 0
0.426612 0.539132 0
0.465537 0.538216 0
0.502495 0.537865 0
0.537789 0.537789 0
0.572076 0.537835 0
0.605554 0.538003 0
0.638254 0.538262 0
0.670298 0.538628 0
0.702007 0.53933 0
0.73312 0.539925 0
0.763699 0.540551 0
0.793744 0.541222 0
0.823377 0.541939 0
0.85272 0.542718 0
0.882017 0.543801 0
0.910414 0.544732 0
0.937133 0.546044 0
0.96228 0.547723 0
0.986328 0.549691 0
1 0.551812 0
1 0.554177 0
1 0.556268 0.000610361
0 0.58056 0
0.0252079 0.58294 0
0.0570687 0.584955 0
0.0911574 0.586191 0
0.130007 0.585931 0
0.171344 0.584817 0
0.214115 0.583413 0
0.257832 0.58175 0
0.301518 0.57969 0
0.34464 0.577569 0
0.386648 0.575586 0
0.427131 0.573968 0
0.46598 0.572961 0
0.502708 0.572366 0
0.537713 0.571969 0
0.571771 0.571771 0
0.605051 0.57174 0
0.637644 0.571878 0
0.669825 0.572366 0
0.701137 0.572671 0
0.732021 0.573037 0
0.762463 0.57351 0
0.792401 0.574075 0
0.82211 0.574868 0
0.851347 0.575555 0
0.880232 0.576226 0
0.908507 0.577035 0
0.935134 0.578256 0
0.960159 0.579828 0
0.984283 0.581872 0
1 0.583856 0
1 0.58587 0
1 0.5879 0
0 0.618463 0
0.0286412 0.620157 0
0.0600595 0.621698 0.000289921
0.0938277 0.622553 0.000991836
0.132448 0.621988 0.000289921
0.173785 0.620859 0
0.216052 0.618875 0
0.259159 0.616587 0
0.302541 0.614176 0
0.34548 0.611826 0
0.387411 0.609735 0
0.427863 0.608087 0
0.466346 0.606668 0
0.5028 0.605798 0
0.537682 0.605264 0
0.571603 0.604929 0
0.604837 0.604837 0
0.6374 0.604929 0
0.669184 0.605035 0
0.700404 0.605219 0
0.731167 0.605463 0
0.76144 0.605768 0
0.791379 0.606348 0
0.82089 0.606928 0
0.849973 0.607462 0
0.878721 0.607996 0
0.906844 0.608652 0
0.933349 0.609751 0
0.95848 0.611444 0
0.98233 0.613199 0
1 0.615061 0
1 0.616953 0
1 0.61886 0
0.00047303 0.65449 0.00047303
0.0314946 0.655894 0.00173953
0.0626078 0.657069 0.0027924
0.095964 0.657465 0.0030518
0.134447 0.656748 0.00221256
0.17525 0.655024 0.000381476
0.217365 0.652857 0
0.260304 0.650355 0
0.303456 0.6477 0
0.346258 0.645197 0
0.388205 0.643076 0
0.428351 0.641108 0
0.466682 0.639536 0
0.502968 0.638453 0
0.537697 0.637781 0
0.571618 0.637415 0
0.604791 0.637263 0
0.637049 0.637049 0
0.668681 0.636988 0
0.699763 0.637049 0
0.730434 0.637186 0
0.760861 0.637644 0
0.790509 0.637919 0
0.819776 0.638254 0
0.848753 0.638682 0
0.877409 0.639139 0
0.905577 0.639841 0
0.932052 0.640909 0
0.956847 0.642267 0
0.980575 0.6439 0
1 0.645685 0
1 0.647471 0
1 0.649454 0
0.00291447 0.689021 0.00291447
0.0336004 0.690044 0.00381476
0.0644999 0.690974 0.00463874
0.0979477 0.691447 0.0049897
0.135988 0.690227 0.00367742
0.176577 0.688258 0.0016022
0.218524 0.685908 0
0.261357 0.683253 0
0.304662 0.680735 0
0.34725 0.677989 0
0.3888 0.675471 0
0.42884 0.673365 0
0.467079 0.671687 0
0.503273 0.670512 0
0.538079 0.669886 0
0.57174 0.669261 0
0.604639 0.668833 0
0.63682 0.668528 0
0.668345 0.668345 0
0.699351 0.66833 0
0.730068 0.668513 0
0.760143 0.66862 0
0.7897 0.668818 0
0.818875 0.669047 0
0.8477 0.669322 0
0.876371 0.669779 0
0.904433 0.67039 0
0.930724 0.671275 0
0.955428 0.672526 0
0.979019 0.674052 0
1 0.675731 0
1 0.677607 0
1 0.679438 0
0.00500496 0.722469 0.00500496
0.0357061 0.723491 0.0059205
0.066453 0.724224 0.00656138
0.0994888 0.724254 0.00650034
0.137423 0.722911 0.005066
0.17789 0.72079 0.00285344
0.219669 0.718242 0.000228885
0.262608 0.715679 0
0.305547 0.712764 0
0.348043 0.709911 0
0.389487 0.707256 0
0.429358 0.704967 0
0.467475 0.703151 0
0.503792 0.702083 0
0.538277 0.701137 0
0.571817 0.700389 0
0.604578 0.699794 0
0.636637 0.699382 0
0.668132 0.699153 0
0.699168 0.699168 0
0.72958 0.699046 0
0.759533 0.699016 0
0.788983 0.699107 0
0.818082 0.699275 0
0.847074 0.699702 0
0.875502 0.699931 0
0.903334 0.700298 0
0.929519 0.701106 0
0.954131 0.702296 0
0.977523 0.703822 0
1 0.705577 0
1 0.707256 0
1 0.708995 0
0.00701915 0.755322 0.00701915
0.0374456 0.756039 0.00764477
0.0680095 0.756558 0.00808728
0.100877 0.75639 0.00784314
0.138674 0.754894 0.00627146
0.179065 0.752651 0.00395209
0.220996 0.75024 0.00148013
0.263539 0.747265 0
0.306325 0.744183 0
0.348714 0.741192 0
0.390066 0.738445 0
0.430091 0.736278 0
0.468071 0.734325 0
0.504005 0.73286 0
0.538399 0.731807 0
0.571862 0.730968 0
0.604517 0.730282 0
0.636698 0.729976 0
0.668009 0.72958 0
0.698772 0.729305 0
0.729107 0.729107 0
0.758968 0.728985 0
0.788327 0.728985 0
0.817517 0.729244 0
0.846189 0.729366 0
0.874525 0.729519 0
0.902052 0.729793 0
0.927703 0.730465 0
0.951583 0.731624 0
0.974166 0.733181 0
0.995544 0.734768 0
1 0.7364 0.00209049
1 0.738125 0.00856031
0.00877394 0.787305 0.00877394
0.0390326 0.787823 0.00921645
0.0695048 0.788235 0.00956741
0.102266 0.787945 0.00920119
0.140093 0.78645 0.00764477
0.180407 0.784131 0.00526436
0.221988 0.781338 0.00242618
0.264469 0.778271 0
0.307149 0.775067 0
0.349386 0.771908 0
0.390829 0.769238 0
0.430564 0.766781 0
0.468452 0.764721 0
0.50428 0.763149 0
0.538552 0.761959 0
0.571893 0.760998 0
0.604715 0.760479 0
0.636576 0.759854 0
0.667796 0.759335 0
0.698436 0.758953 0
0.728679 0.758663 0
0.758465 0.758465 0
0.78793 0.758572 0
0.816648 0.758465 0
0.844892 0.758419 0
0.872618 0.758419 0
0.899458 0.758572 0
0.924529 0.759396 0
0.947478 0.760388 0
0.968948 0.7617 0.00500496
0.989303 0.763241 0.0124666
1 0.764889 0.0207218
1 0.766644 0.0298466
0.0105135 0.818631 0.0105135
0.0406195 0.818967 0.0108034
0.0709544 0.819242 0.0110018
0.103792 0.818998 0.0107118
0.141466 0.817319 0.00898756
0.181582 0.814786 0.00639353
0.223026 0.811841 0.00341802
0.265385 0.808637 0.000183108
0.308003 0.805356 0
0.350408 0.80235 0
0.391531 0.799344 0
0.431098 0.796704 0
0.468894 0.794553 0
0.504646 0.792905 0
0.53901 0.791806 0
0.57232 0.790799 0
0.604776 0.789914 0
0.636561 0.789197 0
0.66772 0.788617 0
0.698283 0.788083 0
0.728603 0.787778 0
0.758144 0.78735 0
0.787015 0.787015 0
0.81529 0.78674 0
0.842939 0.786511 0
0.869963 0.786374 0
0.896178 0.786633 0.00364691
0.92018 0.787137 0.0105745
0.942199 0.788083 0.0186618
0.962676 0.789334 0.0277714
0.981964 0.790814 0.0378271
1 0.792447 0.0488289
1 0.794369 0.0612039
0.0121462 0.849378 0.0121462
0.042237 0.849683 0.0124056
0.0726177 0.849973 0.0126497
0.10518 0.849424 0.0120699
0.142657 0.847547 0.0101472
0.182696 0.844923 0.00749218
0.224063 0.841871 0.00440986
0.266423 0.838666 0.00117494
0.309026 0.83537 0
0.35111 0.832029 0
0.392172 0.828946 0
0.431647 0.826215 0
0.469322 0.823926 0
0.50515 0.822339 0
0.53933 0.821073 0
0.572549 0.819883 0
0.605051 0.818799 0
0.636851 0.817777 0
0.667994 0.816876 0
0.698665 0.816251 0
0.728573 0.815518 0
0.757733 0.814832 0
0.786114 0.814267 0
0.813809 0.813809 0.0049897
0.840803 0.813458 0.0115511
0.867216 0.813413 0.0194553
0.892332 0.813352 0.0278019
0.915358 0.813764 0.0373999
0.936385 0.814633 0.048249
0.95581 0.815854 0.0601816
0.974105 0.817517 0.0737774
0.991424 0.819089 0.0876173
1 0.820813 0.102373
0.0137026 0.879622 0.0137026
0.0438239 0.879942 0.0139925
0.0739605 0.879973 0.0139773
0.106416 0.879316 0.0132906
0.143771 0.877287 0.0112459
0.183719 0.874556 0.00848402
0.225101 0.871519 0.00543221
0.267414 0.868254 0.00215152
0.309804 0.864713 0
0.351781 0.861265 0
0.392737 0.858076 0
0.432166 0.855283 0
0.470161 0.853071 0
0.506004 0.851026 0
0.540383 0.849287 0
0.573861 0.8477 0
0.606516 0.84625 0
0.638468 0.845029 0
0.669581 0.843885 0
0.699794 0.842786 0.00234989
0.72932 0.841779 0.00799573
0.758038 0.840894 0.0145418
0.785855 0.840146 0.0220035
0.813001 0.839673 0.0307469
0.839216 0.839216 0.0401923
0.864546 0.83888 0.0504463
0.888685 0.838743 0.0617075
0.910674 0.839094 0.0742199
0.930617 0.839887 0.0879835
0.949035 0.84123 0.103578
0.966049 0.842664 0.119646
0.982132 0.844251 0.136614
0.997314 0.84596 0.154452
0.0153201 0.909545 0.0153201
0.0451209 0.909545 0.0152895
0.0751812 0.909483 0.015198
0.107576 0.908736 0.014435
0.144869 0.906661 0.0123445
0.184924 0.904005 0.00968948
0.226108 0.900755 0.00643931
0.268208 0.897261 0.00292973
0.310597 0.893629 0
0.352819 0.889937 0
0.394293 0.886427 0
0.434485 0.883268 0
0.47277 0.880354 0
0.50901 0.877882 0
0.543648 0.875731 0
0.577218 0.873747 0.0018616
0.609979 0.872038 0.00662242
0.641825 0.870497 0.0123751
0.672602 0.869001 0.0188449
0.702449 0.867628 0.0262455
0.731487 0.866392 0.0345617
0.759625 0.865309 0.0438849
0.786923 0.864515 0.0546273
0.813199 0.863813 0.0661326
0.838453 0.863203 0.0783856
0.86276 0.86276 0.0916304
0.885801 0.862562 0.105943
0.906676 0.862867 0.121614
0.925612 0.863813 0.139345
0.942748 0.864912 0.157397
0.958541 0.8663 0.176532
0.973358 0.867872 0.196689
0.987213 0.869596 0.217762
0.016968 0.938735 0.016968
0.0466926 0.938628 0.0168612
0.0766308 0.93843 0.0166629
0.108949 0.937606 0.0158083
0.14638 0.935637 0.0138399
0.186374 0.932616 0.0112001
0.228061 0.929015 0.00874342
0.270924 0.925002 0.00663767
0.31429 0.92076 0.00518807
0.357412 0.916548 0.00456245
0.39968 0.912612 0.00512703
0.440162 0.908827 0.00653086
0.478752 0.90544 0.00915541
0.515221 0.902556 0.0131075
0.549966 0.900038 0.018265
0.583825 0.897887 0.0249485
0.616312 0.89575 0.0321508
0.64773 0.893797 0.0403906
0.678141 0.892042 0.0496681
0.707546 0.890455 0.0599832
0.736095 0.889082 0.071519
0.763668 0.887922 0.0842298
0.789975 0.886854 0.0975967
0.815259 0.885969 0.112016
0.839521 0.885283 0.127474
0.862715 0.884779 0.143908
0.884627 0.884627 0.161913
0.904356 0.884962 0.181155
0.92195 0.885695 0.201343
0.937865 0.886778 0.22266
0.952422 0.888136 0.244968
0.965942 0.889693 0.268208
0.9785 0.891569 0.293141
0.0197757 0.966964 0.0197757
0.0494698 0.966781 0.0196384
0.0800336 0.966552 0.0200961
0.113161 0.965225 0.0202487
0.151598 0.962371 0.0196994
0.192935 0.958633 0.0191196
0.235798 0.954376 0.0188296
0.279652 0.949752 0.0189822
0.324086 0.945113 0.0201877
