lut/ground-control/GroundControl_Warm1.cube
TITLE "Generate by Resolve"
LUT_3D_SIZE 33
0 0 0
0.00402838 0.00729381 0.00781262
0.0112001 0.0137331 0.0149233
0.0237736 0.0187076 0.0206149
0.0397498 0.0227665 0.0254368
0.0594339 0.0258183 0.0292515
0.0826581 0.027924 0.0321202
0.109133 0.0291447 0.0340887
0.138567 0.029572 0.0352331
0.170657 0.0292668 0.0356451
0.205097 0.0283513 0.0354009
0.241566 0.0268864 0.0345617
0.279759 0.0249485 0.0332341
0.319387 0.0226444 0.0314946
0.360128 0.0200351 0.0294194
0.401709 0.0171969 0.0270695
0.443854 0.0142061 0.0245365
0.48629 0.0111543 0.0218967
0.528756 0.00808728 0.0191958
0.570962 0.00509651 0.0165408
0.61268 0.00224308 0.0139773
0.653666 0 0.0115816
0.693675 0 0.00941482
0.732479 0 0.0075227
0.769924 0 0.00598154
0.80557 0 0.00486763
0.839399 0 0.00422675
0.871351 0 0.00404364
0.902892 0 0.0039826
0.93434 0 0.00393683
0.965713 0 0.00390631
0.996994 0 0.00390631
1 0 0.00393683
0.00199893 0.0280461 0.0256352
0.00979629 0.0344549 0.0311894
0.0234531 0.039292 0.035172
0.0445563 0.0420996 0.0371405
0.0668345 0.0446021 0.038819
0.0919356 0.0463417 0.0397498
0.119753 0.0473335 0.0399786
0.150088 0.0476539 0.0395514
0.182635 0.047364 0.0385748
0.217121 0.0465553 0.0371099
0.253254 0.0452888 0.0352331
0.290745 0.0436561 0.0330205
0.32932 0.0417334 0.0305638
0.368673 0.0395819 0.0279393
0.40856 0.0372931 0.0252079
0.448692 0.0349279 0.022446
0.488838 0.0325628 0.0197147
0.52871 0.0302586 0.0171054
0.568078 0.0280919 0.0146792
0.606699 0.0261234 0.0124971
0.644327 0.0244144 0.010605
0.680797 0.0230259 0.00907912
0.715755 0.022034 0.00801099
0.749081 0.0214694 0.00740063
0.78114 0.0212558 0.00717174
0.813031 0.0210727 0.00698863
0.844831 0.0209354 0.00683604
0.876524 0.0208133 0.00669871
0.908125 0.0207218 0.0065919
0.939635 0.0206455 0.0065156
0.971054 0.0206149 0.00645457
1 0.0205844 0.00642405
1 0.0205844 0.00640879
0 0.0600443 0.0445563
0.00715648 0.0648966 0.047013
0.0281224 0.0678874 0.0476844
0.0575418 0.0685893 0.0461585
0.0855268 0.0696574 0.0451057
0.115236 0.0702678 0.0437018
0.146792 0.0703441 0.0419013
0.180087 0.0699626 0.0397498
0.214862 0.0691539 0.0373083
0.250889 0.0680095 0.0346532
0.287907 0.0665751 0.0318456
0.325643 0.0649424 0.0289464
0.363851 0.0631723 0.0260624
0.402258 0.061326 0.0232242
0.44062 0.0594797 0.0205234
0.478706 0.0577096 0.0180209
0.516258 0.0560616 0.0157778
0.553033 0.054612 0.0138552
0.58883 0.0534066 0.0123293
0.623377 0.0525368 0.0112459
0.656519 0.0520333 0.0106661
0.689006 0.0517128 0.0102998
0.72134 0.0514229 0.0099794
0.753552 0.0511635 0.00968948
0.785641 0.0509346 0.00943008
0.817594 0.0507515 0.00920119
0.849454 0.0505837 0.00900282
0.881209 0.0504616 0.00883497
0.912856 0.0503548 0.00869764
0.944411 0.0502785 0.00857557
0.975891 0.0502174 0.00848402
1 0.0501869 0.00842298
1 0.0501717 0.00836194
0 0.0944686 0.0557412
0 0.097673 0.0554818
0.0270542 0.0988785 0.0534218
0.0638895 0.0976425 0.0491188
0.096788 0.0974594 0.046067
0.130327 0.0970932 0.0430304
0.164858 0.096437 0.0399329
0.200336 0.095491 0.0367742
0.236606 0.094316 0.0335851
0.273457 0.0929732 0.030457
0.310674 0.0915084 0.0274205
0.348013 0.0899825 0.0245518
0.385229 0.0884871 0.021912
0.42211 0.0870375 0.0195621
0.458442 0.0857404 0.0175479
0.493919 0.0846418 0.0159762
0.528389 0.0837873 0.0148623
0.561791 0.0832227 0.0142061
0.594858 0.0827344 0.0136721
0.627726 0.0823072 0.0131685
0.660441 0.0819104 0.012726
0.692988 0.0815747 0.012314
0.725399 0.0812695 0.0119478
0.757656 0.0809949 0.0116274
0.789792 0.080766 0.0113222
0.82182 0.0805524 0.0110628
0.853727 0.0803845 0.0108339
0.885527 0.0802472 0.0106355
0.917235 0.0801251 0.0104524
0.948852 0.0800336 0.0102998
0.980377 0.0799573 0.0101625
1 0.0799115 0.0100557
1 0.079881 0.0099794
0 0.13022 0.0605936
0 0.131853 0.0583047
0.022385 0.131426 0.0542611
0.065507 0.128527 0.0480507
0.102464 0.12726 0.0437629
0.13904 0.12607 0.0398718
0.175769 0.124819 0.0362097
0.212726 0.123461 0.0327764
0.249805 0.122057 0.0295872
0.286824 0.120638 0.0266728
0.323613 0.119249 0.0241245
0.359976 0.117952 0.0219425
0.395651 0.116808 0.0202487
0.430472 0.115862 0.0190433
0.464561 0.115099 0.0181888
0.49836 0.114427 0.0174258
0.531929 0.113802 0.0167239
0.565255 0.113252 0.0160983
0.598383 0.112749 0.0155032
0.631327 0.112306 0.0149691
0.664088 0.111894 0.0144961
0.696696 0.111543 0.0140536
0.729152 0.111223 0.0136416
0.761486 0.110948 0.0132753
0.793683 0.110689 0.0129397
0.825757 0.110475 0.0126497
0.85771 0.110292 0.0123751
0.88957 0.11014 0.0121309
0.92134 0.110002 0.0119173
0.953002 0.109911 0.0117342
0.984573 0.109819 0.0115663
1 0.109773 0.011429
1 0.109728 0.0113069
0 0.166339 0.0610971
0 0.166522 0.0575418
0.0163424 0.164675 0.0523384
0.0644846 0.160372 0.0451057
0.104631 0.158206 0.0403906
0.143435 0.156374 0.0363928
0.181628 0.15465 0.0329137
0.219364 0.153033 0.0299077
0.256596 0.151507 0.0274052
0.293172 0.150118 0.0254368
0.328969 0.148913 0.0240177
0.364187 0.14786 0.022858
0.398993 0.146899 0.0217899
0.433463 0.146044 0.0208286
0.467613 0.145266 0.0199435
0.501472 0.144579 0.0191348
0.535103 0.143938 0.0184024
0.56849 0.143374 0.017731
0.601678 0.142855 0.0171054
0.634684 0.142397 0.0165408
0.667506 0.141985 0.0160067
0.70016 0.141619 0.0155337
0.732677 0.141283 0.0150912
0.765057 0.140993 0.0146792
0.797314 0.140734 0.014313
0.829435 0.140505 0.0139773
0.861448 0.140307 0.0136721
0.893355 0.140139 0.0133974
0.92517 0.140002 0.0131533
0.956878 0.139879 0.0129397
0.98851 0.139788 0.0127413
1 0.139727 0.0125582
1 0.139681 0.0124208
0 0.201862 0.0593729
0 0.200763 0.0553292
0.0111391 0.197726 0.0498207
0.0630045 0.19234 0.0424506
0.105409 0.189471 0.038056
0.145647 0.187137 0.0347143
0.184588 0.185107 0.0321508
0.222461 0.183337 0.0302129
0.259449 0.181796 0.0285344
0.295781 0.180438 0.027039
0.331533 0.179232 0.0257115
0.366827 0.178149 0.0244907
0.401694 0.177188 0.0233921
0.436225 0.176318 0.022385
0.470436 0.175525 0.0214694
0.504372 0.174823 0.0206302
0.538048 0.174166 0.019852
0.571496 0.173587 0.0191348
0.604746 0.173068 0.0184787
0.637797 0.17258 0.0178683
0.67068 0.172152 0.0173037
0.70341 0.171771 0.0167849
0.735973 0.171435 0.0163119
0.768414 0.17113 0.0158694
0.800702 0.170855 0.0154726
0.832883 0.170611 0.0150912
0.864958 0.170413 0.0147555
0.89691 0.17023 0.0144503
0.928756 0.170077 0.0141756
0.96051 0.169955 0.0139162
0.992172 0.169848 0.0136873
1 0.169787 0.013489
1 0.169726 0.0133211
0 0.23595 0.0576181
0 0.233753 0.0538491
0.00891127 0.22974 0.0488289
0.0632029 0.22356 0.0422065
0.106859 0.220218 0.0387121
0.147601 0.21767 0.0360113
0.186679 0.215579 0.033753
0.224613 0.213779 0.0317998
0.261692 0.212222 0.0300908
0.29807 0.210849 0.0285649
0.333898 0.209628 0.0271763
0.369253 0.20853 0.0259251
0.404196 0.207553 0.0247959
0.438788 0.206668 0.023743
0.47306 0.205859 0.0227817
0.507057 0.205142 0.0218967
0.540795 0.204486 0.021088
0.574304 0.203891 0.0203403
0.607599 0.203342 0.0196384
0.640711 0.202853 0.0189975
0.673655 0.202411 0.0183871
0.706432 0.202014 0.0178378
0.739055 0.201663 0.0173342
0.771527 0.201343 0.0168612
0.803876 0.201068 0.0164187
0.836103 0.200809 0.016022
0.868208 0.200595 0.0156558
0.900206 0.200412 0.0153048
0.932097 0.200244 0.0149996
0.963882 0.200122 0.014725
0.99556 0.200015 0.0144808
1 0.199939 0.0142519
1 0.199878 0.0140688
0 0.267765 0.0579385
0 0.264851 0.0548409
0.0101778 0.260456 0.0502785
0.0648356 0.254154 0.0437781
0.108583 0.250797 0.040238
0.149401 0.248234 0.0374914
0.188571 0.246113 0.0352026
0.226566 0.244312 0.0332036
0.263722 0.242741 0.0314488
0.300175 0.241337 0.0298772
0.336065 0.240101 0.0284581
0.371481 0.239002 0.0271611
0.4065 0.237995 0.0259861
0.441138 0.237095 0.0249027
0.475471 0.236286 0.0239109
0.509529 0.235538 0.0229801
0.543328 0.234867 0.0221256
0.576898 0.234257 0.0213321
0.610254 0.233707 0.0205997
0.643427 0.233204 0.0199283
0.676417 0.232761 0.0192874
0.709239 0.232349 0.0187076
0.741909 0.231983 0.0181582
0.774441 0.231647 0.0176547
0.806821 0.231357 0.0171969
0.839094 0.231098 0.0167697
0.871229 0.230884 0.0163729
0.903258 0.230686 0.0160067
0.935164 0.230518 0.0156863
0.96698 0.230381 0.0153964
0.998688 0.230274 0.0151217
1 0.230198 0.0148928
1 0.230137 0.0146792
0 0.298528 0.0594797
0 0.295583 0.0563363
0.0115053 0.291173 0.0517128
0.0662852 0.28484 0.0451667
0.110124 0.281453 0.0415808
0.151034 0.278874 0.0387884
0.190265 0.276738 0.0364538
0.228351 0.274907 0.0344091
0.265553 0.27332 0.0326085
0.302083 0.271916 0.0310063
0.338048 0.270665 0.0295415
0.373526 0.269535 0.0282139
0.408606 0.268528 0.0269932
0.44332 0.267613 0.0258793
0.477714 0.266773 0.0248417
0.511818 0.266026 0.0238804
0.545678 0.265339 0.0229953
0.579293 0.264714 0.0221714
0.612711 0.264149 0.0213931
0.64593 0.263645 0.0206912
0.678965 0.263172 0.0200198
0.711833 0.26276 0.0194095
0.744549 0.262379 0.0188449
0.777111 0.262043 0.0183108
0.809537 0.261738 0.0178225
0.84184 0.261479 0.01738
0.874006 0.26125 0.016968
0.90605 0.261051 0.0165866
0.937972 0.260884 0.0162509
0.969787 0.260746 0.0159457
1 0.260624 0.015671
1 0.260548 0.0154269
1 0.260502 0.0152285
0 0.329351 0.0608377
0 0.32639 0.0576486
0.0126497 0.32195 0.0529793
0.0675517 0.315587 0.0463722
0.111482 0.312184 0.0427405
0.152468 0.309575 0.0399023
0.191775 0.307424 0.0375219
0.229938 0.305577 0.0354467
0.267216 0.303975 0.0336004
0.303807 0.302556 0.0319524
0.339849 0.301289 0.030457
0.375387 0.300145 0.0290837
0.410529 0.299123 0.0278325
0.445289 0.298192 0.0266728
0.479744 0.297337 0.0256046
0.513924 0.296574 0.0246128
0.547829 0.295872 0.023682
0.581506 0.295247 0.0228275
0.614969 0.294667 0.022034
0.648234 0.294148 0.0213016
0.681315 0.293675 0.0206149
0.714214 0.293248 0.0199741
0.74696 0.292851 0.019379
0.779568 0.292515 0.0188296
0.812009 0.29221 0.0183261
0.844327 0.291936 0.0178683
0.876509 0.291707 0.0174563
0.908568 0.291493 0.0170748
0.940505 0.291325 0.0167239
0.97232 0.291188 0.0164187
1 0.291081 0.0161593
1 0.291005 0.0159304
1 0.290959 0.0157321
0 0.36025 0.0620127
0 0.357275 0.0587778
0.013611 0.352804 0.0540627
0.0686503 0.34641 0.0474098
0.112657 0.342992 0.0437324
0.153735 0.340368 0.0408484
0.193118 0.338186 0.038407
0.231342 0.336324 0.0363012
0.268696 0.334707 0.0344244
0.305364 0.333257 0.0327306
0.341466 0.331975 0.0311894
0.377066 0.330831 0.0297856
0.412268 0.329778 0.0284886
0.447089 0.328832 0.0272984
0.481605 0.327977 0.0261997
0.515831 0.327199 0.0251774
0.549783 0.326497 0.0242313
0.583505 0.325841 0.0233616
0.617014 0.325261 0.0225376
0.650324 0.324727 0.0217746
0.683436 0.324239 0.0210727
0.716381 0.323796 0.0204166
0.749157 0.323415 0.0198215
0.781765 0.323064 0.0192721
0.814237 0.322744 0.0187686
0.846555 0.322484 0.0182956
0.878752 0.32224 0.0178836
0.910811 0.322042 0.0175021
0.942733 0.321874 0.0171664
0.974533 0.321736 0.0168765
1 0.32163 0.0166323
1 0.321569 0.0164187
1 0.321523 0.0162509
0 0.391226 0.0630198
0 0.38822 0.0597391
0.0144045 0.383734 0.0549783
0.0695659 0.37731 0.0482643
0.113664 0.373861 0.0445411
0.154818 0.371206 0.0416114
0.194293 0.369024 0.0391394
0.232593 0.367132 0.0369879
0.270024 0.365499 0.0350652
0.306752 0.364034 0.033341
0.342901 0.362737 0.0317845
0.378576 0.361578 0.0303349
0.413825 0.36051 0.0290227
0.448722 0.359564 0.0278019
0.483284 0.358679 0.0266728
0.517555 0.3579 0.0256352
0.551553 0.357168 0.0246738
0.585321 0.356512 0.0237736
0.618875 0.355917 0.0229343
0.652201 0.355367 0.0221714
0.685344 0.354879 0.0214542
0.718318 0.354437 0.020798
0.75111 0.35404 0.0202029
0.783734 0.353689 0.0196536
0.816205 0.353368 0.0191501
0.848539 0.353094 0.0186923
0.88072 0.352865 0.0182956
0.912764 0.352667 0.0179294
0.944686 0.352499 0.0176242
0.976471 0.352361 0.0173495
1 0.35227 0.0171206
1 0.352209 0.0169375
1 0.352163 0.0167849
0 0.422263 0.0638743
0 0.419242 0.0605478
0.0150454 0.414725 0.0557259
0.0703288 0.408255 0.0489662
0.114519 0.404791 0.0451972
0.155764 0.402121 0.0422217
0.1953 0.399908 0.0397192
0.233677 0.398016 0.0375372
0.271168 0.396353 0.035584
0.307973 0.394873 0.0338293
0.344182 0.393561 0.0322271
0.379919 0.392386 0.0307774
0.415229 0.391302 0.0294347
0.450172 0.390341 0.0281987
0.484779 0.389456 0.0270542
0.519097 0.388647 0.0259861
0.55314 0.387915 0.0250248
0.586954 0.387243 0.0241093
0.620523 0.386648 0.02327
0.65388 0.386099 0.0225071
0.687053 0.385595 0.0218051
0.720027 0.385153 0.021149
0.752834 0.384741 0.0205539
0.785458 0.38439 0.0200198
0.817945 0.38407 0.0195315
0.850263 0.383795 0.0191043
0.882429 0.383566 0.0187228
0.914458 0.383368 0.0183871
0.946365 0.3832 0.0180972
0.978119 0.383078 0.0178531
1 0.382986 0.0176394
1 0.382925 0.0174868
1 0.382895 0.0173648
0 0.453346 0.0645609
0 0.450309 0.0611887
0.0155337 0.445762 0.0563211
0.0709392 0.439277 0.0495155
0.115221 0.435782 0.0457008
0.156542 0.433097 0.04271
0.19617 0.430854 0.0401617
0.234607 0.428946 0.0379492
0.272175 0.427268 0.0359808
0.309041 0.425772 0.0341955
0.345312 0.424445 0.032578
0.381109 0.423239 0.0310979
0.416464 0.422156 0.0297398
0.451453 0.42118 0.0285039
0.486122 0.420279 0.0273442
0.52047 0.419455 0.0262913
0.554559 0.418723 0.0253147
0.588388 0.418036 0.0244144
0.621988 0.417426 0.0235904
0.65536 0.416876 0.0228275
0.688548 0.416373 0.0221408
0.721523 0.415915 0.0215
0.75433 0.415503 0.0209354
0.786969 0.415152 0.0204166
0.81944 0.414832 0.0199588
0.851743 0.414557 0.0195468
0.883909 0.414328 0.0191806
0.915923 0.41413 0.0188754
0.947799 0.413977 0.0186007
0.979538 0.413855 0.0183871
1 0.413764 0.018204
1 0.413703 0.0180667
1 0.413672 0.0179751
0 0.484504 0.065095
0 0.481437 0.0616922
0.0158846 0.47686 0.0567788
0.0714122 0.470344 0.0499275
0.115801 0.466819 0.0460975
0.157198 0.464103 0.043061
0.196887 0.46186 0.0404974
0.235416 0.459922 0.0382696
0.273045 0.458228 0.0362707
0.309972 0.456718 0.0344854
0.346303 0.455375 0.0328527
0.382147 0.454154 0.0313726
0.417563 0.453056 0.0300145
0.452598 0.452064 0.0287633
0.487297 0.451148 0.0276188
0.521691 0.450324 0.026566
0.555795 0.449577 0.0256046
0.589654 0.44889 0.0247196
0.62327 0.448264 0.0239109
0.656657 0.4477 0.0231632
0.689845 0.447196 0.0224918
0.722835 0.446738 0.0218814
0.755642 0.446326 0.0213321
0.788266 0.445975 0.0208438
0.820737 0.445655 0.0204166
0.85304 0.44538 0.0200198
0.885191 0.445151 0.0196841
0.917189 0.444953 0.0194095
0.94905 0.4448 0.0191653
0.980774 0.444678 0.018967
1 0.444587 0.0188144
1 0.444541 0.0186923
1 0.444511 0.018616
0 0.515694 0.065507
0 0.512612 0.0620737
0.0161288 0.508003 0.0571298
0.0717784 0.501442 0.050248
0.116258 0.497902 0.0463874
0.157748 0.495171 0.0433356
0.197513 0.492897 0.0407568
0.236103 0.490944 0.0385138
0.273808 0.489219 0.0365148
0.310796 0.487709 0.0347143
0.347189 0.486336 0.0330816
0.383078 0.485115 0.0316014
0.41854 0.484001 0.0302586
0.453605 0.482979 0.0290227
0.488334 0.482063 0.0278935
0.522759 0.481224 0.0268559
0.556893 0.480461 0.0259098
0.590768 0.479774 0.0250553
0.624399 0.479149 0.0242618
0.657801 0.478569 0.0235447
0.69099 0.478065 0.0229038
0.72398 0.477607 0.0223087
0.756786 0.477195 0.0217899
0.78941 0.476829 0.0213169
0.821866 0.476524 0.0209049
0.85417 0.476249 0.0205539
0.886305 0.476005 0.0202335
0.918288 0.475822 0.0199741
0.950149 0.475654 0.0197452
0.981857 0.475547 0.0195773
1 0.475456 0.01944
1 0.47541 0.0193332
1 0.475395 0.0192721
0 0.546929 0.0658122
0 0.543816 0.0623636
0.0162966 0.539178 0.0573892
0.0720684 0.532586 0.0504768
0.11664 0.529015 0.0466011
0.158206 0.526268 0.0435492
0.198062 0.523964 0.0409705
0.236713 0.521996 0.0387121
0.274479 0.520256 0.0367285
0.311513 0.518715 0.0349432
0.347967 0.517327 0.0333257
0.383902 0.516091 0.0318608
0.419394 0.514961 0.030518
0.454505 0.513939 0.0293126
0.489265 0.513008 0.0281987
0.523705 0.512154 0.0271916
0.557855 0.511391 0.0262608
0.591745 0.510689 0.0254215
0.625391 0.510063 0.0246586
0.658808 0.509483 0.0239719
0.691997 0.508965 0.0233463
0.724987 0.508507 0.0227817
0.757794 0.508095 0.0222934
0.790417 0.507729 0.0218357
0.822873 0.507408 0.0214542
0.855161 0.507134 0.0211032
0.887297 0.506905 0.0208133
0.91928 0.506722 0.0205692
0.95111 0.506554 0.0203708
0.982818 0.506447 0.0202029
1 0.506355 0.0200809
1 0.50631 0.0200046
1 0.506294 0.0199435
0 0.57818 0.0660563
0 0.575036 0.0625772
0.0164034 0.570367 0.0576028
0.0723125 0.563745 0.0506752
0.116976 0.560159 0.0467994
0.158618 0.557366 0.0437476
0.198535 0.555047 0.0411688
0.237263 0.553048 0.038941
0.27509 0.551308 0.0369573
0.312184 0.549737 0.0351873
0.348669 0.548348 0.0335851
0.384649 0.547082 0.0321508
0.420188 0.545953 0.0308385
0.455314 0.544915 0.0296483
0.490105 0.543969 0.0285496
0.524559 0.543114 0.0275731
0.55874 0.542336 0.0266728
0.59263 0.541634 0.0258488
0.626291 0.540993 0.0251164
0.659709 0.540413 0.024445
0.692897 0.539895 0.0238346
0.725902 0.539437 0.0233005
0.758709 0.539025 0.0228275
0.791318 0.538659 0.0224002
0.823774 0.538338 0.0220188
0.856062 0.538064 0.0216983
0.888182 0.537835 0.0214237
0.920165 0.537636 0.0211795
0.951995 0.537484 0.0209964
0.983688 0.537362 0.0208438
1 0.537285 0.020737
1 0.53724 0.0206607
1 0.537224 0.0206302
0 0.609445 0.0662547
0 0.606271 0.0627756
0.0165255 0.601572 0.0578012
0.0725414 0.594903 0.0508736
0.117281 0.591287 0.0469978
0.159014 0.588479 0.0439612
0.199008 0.586145 0.0413977
0.237781 0.584131 0.0391852
0.275654 0.582361 0.0372168
0.312795 0.580774 0.0354772
0.349325 0.57937 0.0339055
0.385351 0.578103 0.0324865
0.420905 0.576944 0.0311894
0.456062 0.575906 0.0300145
0.490867 0.57496 0.0289616
0.525353 0.57409 0.0280003
0.559533 0.573312 0.0271153
0.593439 0.572595 0.0263218
0.6271 0.571954 0.0256046
0.660517 0.571374 0.0249485
0.693721 0.570855 0.0243687
0.726726 0.570382 0.0238499
0.759518 0.56997 0.0233768
0.792142 0.569604 0.0229648
0.824582 0.569284 0.0226139
0.85687 0.569009 0.0222934
0.888991 0.56878 0.022034
0.920958 0.568582 0.0218051
0.952789 0.568429 0.0216373
0.984482 0.568322 0.0215
1 0.568231 0.0213931
1 0.568185 0.0213321
1 0.56817 0.0213016
0 0.640681 0.0664378
0 0.637476 0.062974
0.0166781 0.632761 0.0580148
0.0727855 0.626062 0.0510872
0.117617 0.622415 0.0472419
0.159411 0.619593 0.0442054
0.199451 0.617227 0.0416724
0.2383 0.615198 0.0394751
0.276204 0.613413 0.0375372
0.31339 0.611826 0.0358129
0.34995 0.610407 0.0342565
0.385992 0.60911 0.0328679
0.421576 0.60795 0.0316014
0.456764 0.606897 0.0304417
0.491585 0.605951 0.0294041
0.52607 0.605081 0.0284581
0.560265 0.604288 0.0276036
0.594171 0.603586 0.0268254
0.627848 0.60293 0.0261234
0.661265 0.60235 0.0254826
0.694469 0.601831 0.024918
0.727474 0.601358 0.0243992
0.760281 0.600946 0.0239567
0.792889 0.60058 0.0235599
0.825345 0.600259 0.023209
0.857618 0.599985 0.0229038
0.889738 0.599741 0.0226444
0.921706 0.599557 0.0224308
0.953536 0.599405 0.0222629
0.985229 0.599283 0.0221408
1 0.599207 0.0220493
1 0.599161 0.0219883
1 0.599145 0.0219577
0 0.671916 0.0666667
0 0.668681 0.0632029
0.0168765 0.66392 0.0582589
0.0730755 0.657206 0.0513466
0.117968 0.653529 0.0475166
0.159823 0.65069 0.0445106
0.199924 0.64831 0.0419928
0.238804 0.646265 0.039826
0.276753 0.644465 0.0379034
0.313954 0.642863 0.0361944
0.350545 0.641428 0.0346685
0.386618 0.640146 0.0332799
0.422217 0.638972 0.0320439
0.457404 0.637919 0.0308995
0.492241 0.636957 0.0298772
0.526741 0.636088 0.0289464
0.560937 0.635294 0.0281071
0.594873 0.634577 0.0273442
0.628534 0.633921 0.0266575
0.661967 0.633341 0.0260319
0.695171 0.632807 0.0254673
0.728176 0.632349 0.024979
0.760983 0.631922 0.0245365
0.793591 0.631556 0.0241398
0.826032 0.631235 0.0238041
0.85832 0.630961 0.0235142
0.89044 0.630732 0.02327
0.922408 0.630533 0.0230564
0.954223 0.630381 0.0229038
0.985916 0.630259 0.0227665
1 0.630182 0.0226902
1 0.630137 0.0226291
1 0.630121 0.0226139
0 0.703105 0.0669261
0 0.69984 0.0634928
0.0171359 0.695064 0.0585489
0.0734112 0.688319 0.051667
0.118349 0.684642 0.0478523
0.16025 0.681773 0.0448615
0.200381 0.679377 0.042359
0.239307 0.677317 0.0402075
0.277287 0.675517 0.0383001
0.314519 0.673915 0.0366217
0.351125 0.672465 0.035111
0.387213 0.671168 0.0337377
0.422827 0.669993 0.0325017
0.45803 0.668925 0.0313878
0.492866 0.667964 0.0303807
0.527382 0.667094 0.0294652
0.561593 0.6663 0.0286259
0.595514 0.665568 0.0278782
0.629191 0.664927 0.0271916
0.662623 0.664332 0.0265812
0.695827 0.663813 0.0260319
0.728832 0.66334 0.0255436
0.761639 0.662928 0.0251164
0.794247 0.662547 0.0247349
0.826688 0.662226 0.0243992
0.858976 0.661952 0.0241093
0.891096 0.661723 0.0238804
0.923049 0.661524 0.023682
0.954879 0.661372 0.0235142
0.986557 0.661265 0.0233921
1 0.661173 0.0233158
1 0.661128 0.02327
1 0.661128 0.0234989
0 0.734264 0.067216
0 0.730983 0.0638132
0.0174411 0.726192 0.0588846
0.0737774 0.719432 0.052018
0.118761 0.715724 0.0482185
0.160693 0.712856 0.045243
0.20087 0.710445 0.042771
0.239796 0.708385 0.0406195
0.277806 0.706569 0.0387427
0.315053 0.704952 0.0370642
0.35169 0.703502 0.0355688
0.387778 0.702205 0.0342107
0.423407 0.701015 0.03299
0.458625 0.699962 0.0318914
0.493477 0.698985 0.0308995
0.527993 0.6981 0.029984
0.562203 0.697307 0.02916
0.596124 0.69659 0.0284123
0.629801 0.695933 0.0277409
0.663233 0.695354 0.0271458
0.696452 0.69482 0.0265965
0.729458 0.694347 0.0261234
0.762249 0.693935 0.0256962
0.794873 0.693553 0.0253147
0.827314 0.693233 0.0249943
0.859586 0.692958 0.0247044
0.891707 0.692729 0.0244755
0.923674 0.692531 0.0242771
0.955489 0.692378 0.0241398
0.986984 0.692271 0.0244907
1 0.692241 0.0255589
1 0.692271 0.0274052
1 0.692424 0.0300298
0 0.765408 0.0675669
0 0.762112 0.0641642
0.017792 0.757305 0.059266
0.0741741 0.75053 0.0523995
0.119188 0.746807 0.0486152
0.161151 0.743923 0.0456703
0.201343 0.741512 0.0431983
0.240299 0.739437 0.041062
0.278325 0.737621 0.0392004
0.315587 0.735988 0.0375372
0.352224 0.734539 0.0360418
0.388342 0.733242 0.0347143
0.423972 0.732052 0.0334936
0.45919 0.730983 0.0323949
0.494041 0.730007 0.0314031
0.528572 0.729137 0.0305028
0.562783 0.728328 0.0296941
0.596719 0.727611 0.0289616
0.630396 0.726955 0.0282902
0.663828 0.726375 0.0276951
0.697032 0.725841 0.0271611
0.730037 0.725368 0.026688
0.762844 0.724941 0.0262608
0.795468 0.724575 0.0258946
0.827909 0.724254 0.0255741
0.860151 0.72398 0.0254063
0.892073 0.723735 0.0258793
0.923583 0.723522 0.0270848
0.954604 0.7234 0.029099
0.985077 0.723339 0.0318914
1 0.7234 0.0355383
1 0.723568 0.0400397
1 0.723888 0.0454566
0 0.796536 0.0679332
0 0.793225 0.0645457
0.0181735 0.788388 0.0596628
0.0745861 0.781613 0.0528115
0.119631 0.77789 0.0490425
0.161624 0.77499 0.0460975
0.201831 0.77258 0.0436408
0.240803 0.770489 0.0415198
0.278828 0.768673 0.0396582
0.316106 0.76704 0.0380102
0.352758 0.765591 0.0365301
0.388876 0.764279 0.0352026
0.424506 0.763088 0.0339971
0.459739 0.76202 0.0329137
0.494591 0.761044 0.0319219
0.529122 0.760159 0.0310369
0.563333 0.759365 0.0302281
0.597269 0.758648 0.0294957
0.630945 0.757992 0.0288396
0.664393 0.757397 0.0282444
0.697597 0.756863 0.0277104
0.730602 0.75639 0.0272374
0.763378 0.755947 0.0271153
0.795865 0.75552 0.0276951
0.828 0.755123 0.0290227
0.859693 0.754772 0.0312047
0.890898 0.754498 0.034165
0.921523 0.754284 0.037995
0.951507 0.754192 0.04271
0.980758 0.754223 0.0483406
1 0.754391 0.0549477
1 0.754711 0.0625467
1 0.75523 0.0711833
0 0.827634 0.0683299
0 0.824308 0.0649577
0.0185855 0.819486 0.06009
0.0750286 0.81268 0.0532387
0.120089 0.808957 0.049485
0.162081 0.806058 0.0465553
0.202304 0.803632 0.0440986
0.241291 0.801556 0.0419928
0.279332 0.799725 0.0401465
0.316625 0.798093 0.0384985
0.353277 0.796643 0.0370184
0.389395 0.795331 0.0356909
0.42504 0.794141 0.0345006
0.460273 0.793057 0.0334173
0.495125 0.792096 0.0324407
0.529656 0.791211 0.0315557
0.563867 0.790402 0.0307469
0.597803 0.789685 0.0300145
0.631495 0.789014 0.0293889
0.664958 0.788373 0.0293278
0.698177 0.787717 0.0300145
0.731075 0.787076 0.0314946
0.763607 0.786465 0.0337682
0.795682 0.785901 0.0368811
0.827237 0.785412 0.0408789
0.858198 0.785 0.0457771
0.888502 0.784695 0.0516365
0.918059 0.784512 0.0584726
0.946792 0.784466 0.0663157
0.974609 0.784588 0.0752117
1 0.784878 0.0852064
1 0.785397 0.0963302
1 0.78613 0.108583
0 0.858732 0.0687419
