lut/ground-control/GroundControl_Grunge.cube
TITLE "Generate by Resolve"
LUT_3D_SIZE 5
0 0 0
0.172869 0 0
0.404105 0 0
0.65687 0 0
0.932845 0 0
0 0.159655 0
0.187518 0.187518 0
0.466148 0.199878 0.00363165
0.741268 0.207141 0.0108949
1 0.215381 0.0191501
0 0.461952 0
0.219043 0.485313 0.0228122
0.493996 0.493996 0.0314946
0.76968 0.501823 0.0393072
1 0.508385 0.0458839
0.0261845 0.756558 0.0261845
0.243824 0.777951 0.0475776
0.514504 0.782361 0.0519875
0.78439 0.78439 0.0540169
1 0.783383 0.0530098
0.0386816 1 0.0386816
0.247562 1 0.0513161
0.504189 1 0.0416724
0.757397 1 0.0270237
1 1 0.0099794
0 0 0.188525
0.164935 0 0.164935
0.400824 0 0.134554
0.663111 0 0.128985
0.943114 0 0.141573
0 0.167727 0.167727
0.198032 0.198032 0.198032
0.473625 0.207355 0.207355
0.749157 0.21503 0.21503
1 0.223255 0.223255
0.00714122 0.469657 0.203387
0.227146 0.493416 0.227146
0.501839 0.501839 0.235569
0.77731 0.509453 0.243183
1 0.515526 0.249256
0.0336156 0.763989 0.229847
0.250721 0.784848 0.250721
0.520623 0.788479 0.254353
0.789563 0.789563 0.255436
1 0.787076 0.252949
0.0436255 1 0.239857
0.249989 1 0.249989
0.504845 1 0.238575
0.756786 1 0.22266
1 1 0.205509
0 0 0.441978
0.152682 0 0.418952
0.396216 0 0.396216
0.66598 0 0.398123
0.948501 0 0.41323
0 0.172549 0.438819
0.202182 0.202182 0.468452
0.476219 0.209949 0.476219
0.752117 0.21799 0.484245
1 0.226291 0.492561
0.0101472 0.472648 0.472648
0.230152 0.496422 0.496422
0.504662 0.504662 0.504662
0.779477 0.51162 0.51162
1 0.517372 0.517372
0.0358587 0.766217 0.49836
0.252018 0.786145 0.518288
0.521477 0.789334 0.521477
0.789334 0.789334 0.521477
1 0.78471 0.516838
0.0428473 1 0.505364
0.246754 1 0.513024
0.499901 1 0.499901
0.751125 1 0.483268
1 1 0.465843
0 0 0.696315
0.14229 0 0.676417
0.394293 0 0.66215
0.670878 0 0.670878
0.952697 0 0.685267
0 0.177905 0.712032
0.204868 0.204868 0.738994
0.478874 0.212604 0.746731
0.754681 0.220554 0.754681
1 0.229206 0.763333
0.0130617 0.475578 0.743435
0.232731 0.498985 0.766857
0.507271 0.507271 0.775143
0.781582 0.513726 0.781582
1 0.518868 0.786725
0.0377661 0.768139 0.768139
0.253285 0.787411 0.787411
0.521843 0.7897 0.7897
0.788525 0.788525 0.788525
1 0.781231 0.781231
0.0412299 1 0.771603
0.242649 1 0.776776
0.494377 1 0.762234
0.745235 1 0.745235
0.995422 0.995422 0.728008
0 0 0.950729
0.133852 0 0.935393
0.39556 0 0.930831
0.67599 0 0.943404
0.955566 0 0.955566
0 0.183276 0.984833
0.207309 0.207309 1
0.481636 0.215366 1
0.757641 0.223514 1
1 0.232044 1
0.016022 0.478523 1
0.235569 0.501839 1
0.509621 0.509621 1
0.783566 0.515709 1
1 0.51989 1
0.0393225 0.769696 1
0.254246 0.788373 1
0.521752 0.789609 1
0.787045 0.787045 1
1 0.777203 1
0.038468 1 1
0.238148 1 1
0.488777 1 1
0.739376 1 1
0.989456 0.989456 0.989456
