lut/ground-control/GroundControl_Punch1.cube
TITLE "Generate by Resolve"
LUT_3D_SIZE 5
0 0 0
0.107836 0.0326848 0.0326848
0.363424 0.0337377 0.0337377
0.729213 0.0213474 0.0213474
1 0.0255436 0.0255436
0 0.277928 0
0.294514 0.294514 0
0.613016 0.303319 0
0.874388 0.322133 0.0124208
1 0.346059 0.0356909
0 0.618463 0
0.302541 0.614176 0
0.604837 0.604837 0
0.849973 0.607462 0
1 0.61886 0
0.0137026 0.879622 0.0137026
0.309804 0.864713 0
0.606516 0.84625 0
0.839216 0.839216 0.0401923
0.997314 0.84596 0.154452
0.1308 1 0.1308
0.468559 1 0.238804
0.74609 0.980926 0.407279
0.904219 0.968429 0.610849
0.976013 0.976013 0.813535
0.0147555 0.0147555 0.0374762
0.140322 0.0363622 0.140322
0.423285 0.0278782 0.225238
0.785718 0.0118715 0.289921
1 0.0275425 0.333913
0 0.286503 0.286503
0.297902 0.297902 0.297902
0.61532 0.30518 0.30518
0.875151 0.322423 0.322423
1 0.343587 0.343587
0 0.617578 0.306279
0.299763 0.611536 0.299763
0.601022 0.601022 0.288945
0.845411 0.602853 0.290623
1 0.613611 0.301305
0.00875868 0.874769 0.319921
0.304341 0.859251 0.304341
0.603143 0.839063 0.299443
0.833021 0.833021 0.340764
0.984543 0.843748 0.431632
0.160311 1 0.422141
0.500298 1 0.500298
0.768277 0.972473 0.620722
0.914992 0.966842 0.763195
0.981247 0.981247 0.908217
0.0260319 0.0260319 0.125216
0.170733 0.0365301 0.305409
0.475883 0.0191501 0.475883
0.827619 0.00337224 0.59675
1 0.0299229 0.645685
0 0.291112 0.597269
0.300893 0.300893 0.610071
0.617288 0.306767 0.617288
0.874723 0.321599 0.632898
1 0.340795 0.652552
0 0.616205 0.616205
0.296498 0.608392 0.608392
0.596872 0.596872 0.596872
0.84033 0.597757 0.597757
1 0.608072 0.608072
0.00357061 0.869642 0.627039
0.299611 0.852857 0.610986
0.601465 0.831922 0.601465
0.828092 0.828092 0.623133
0.973022 0.844007 0.678874
0.19707 1 0.690547
0.537942 0.99118 0.728069
0.792264 0.966522 0.792264
0.928359 0.968185 0.877379
0.988952 0.988952 0.968002
0.0341955 0.0341955 0.247669
0.202701 0.0362554 0.499504
0.525383 0.0128481 0.724804
0.853758 0.00505074 0.853758
1 0.0373236 0.894621
0 0.299535 0.846113
0.3084 0.3084 0.858717
0.623362 0.312535 0.86482
0.878294 0.324849 0.878294
1 0.342596 0.896757
0 0.618952 0.861036
0.297658 0.609644 0.852003
0.597528 0.597528 0.840055
0.840208 0.59762 0.840208
1 0.60766 0.849638
0.00320439 0.869322 0.869322
0.302968 0.850919 0.850919
0.606546 0.829923 0.829923
0.829114 0.829114 0.829114
0.966354 0.849973 0.849973
0.244877 1 0.881605
0.581598 0.983154 0.880903
0.819883 0.96495 0.90132
0.944533 0.973083 0.944533
0.999222 0.999222 0.998367
0.0411231 0.0411231 0.399588
0.23505 0.0362707 0.710597
0.570016 0.0105592 0.957809
0.868452 0.0155795 1
1 0.0483253 1
0.00418097 0.31162 1
0.319081 0.319081 1
0.632593 0.321508 1
0.885023 0.331304 1
1 0.347814 1
0.00257877 0.62504 1
0.302632 0.61471 1
0.601587 0.601587 1
0.843748 0.601144 1
1 0.611551 1
0.00634775 0.872465 1
0.313161 0.852171 1
0.61709 0.831815 0.999603
0.834699 0.834699 0.974853
0.963165 0.859937 0.963165
0.301946 1 1
0.629816 0.978592 0.978592
0.849989 0.966598 0.966598
0.962417 0.980453 0.980453
1 1 1
