lut/ground-control/GroundControl_Grunge2.cube
TITLE "Generate by Resolve"
LUT_3D_SIZE 5
0 0 0
0.0673991 0.0493019 0.0493019
0.157076 0.0925917 0.0925917
0.266087 0.130663 0.130663
0.393042 0.163882 0.163882
0.145998 0.191852 0.145998
0.252033 0.231968 0.172442
0.369329 0.269062 0.195865
0.502678 0.301808 0.214954
0.651972 0.330251 0.22974
0.222965 0.4112 0.222965
0.367163 0.442329 0.226108
0.511589 0.473411 0.229145
0.668818 0.50103 0.228748
0.84007 0.524865 0.224552
0.228977 0.658808 0.228977
0.411109 0.681041 0.208545
0.582513 0.706172 0.191089
0.763409 0.72874 0.171023
0.956359 0.748058 0.147707
0.162966 0.935103 0.162966
0.38294 0.94847 0.118914
0.58114 0.967727 0.0807355
0.785595 0.98529 0.0408789
1 1 0
0.017792 0.017792 0.0213016
0.0893263 0.0650034 0.0791333
0.18201 0.106508 0.131243
0.29369 0.142885 0.178241
0.423117 0.174472 0.220432
0.1579 0.208392 0.197101
0.268055 0.246433 0.23209
0.388357 0.281727 0.264332
0.524392 0.312779 0.292332
0.676188 0.339574 0.316075
0.228809 0.426551 0.303716
0.377127 0.455604 0.315373
0.524559 0.484886 0.32726
0.684459 0.510811 0.335775
0.858198 0.532998 0.340536
0.228687 0.672999 0.3393
0.414939 0.693156 0.327398
0.589349 0.716487 0.318761
0.772915 0.737362 0.307622
0.968353 0.755032 0.293263
0.156497 0.94815 0.302815
0.380606 0.959426 0.267292
0.581811 0.976898 0.237949
0.788937 0.992767 0.207019
1 1 0.173404
0.0349126 0.0349126 0.0514229
0.110307 0.0797742 0.121004
0.205737 0.119249 0.185168
0.31986 0.153674 0.244282
0.451514 0.183368 0.29865
0.168261 0.223407 0.267857
0.282292 0.259098 0.314565
0.405356 0.292363 0.358846
0.543816 0.321477 0.398978
0.697856 0.34638 0.434882
0.232303 0.439521 0.414908
0.384451 0.466255 0.4383
0.534661 0.493507 0.462211
0.696986 0.517479 0.482872
0.872969 0.537774 0.499825
0.225177 0.683986 0.490867
0.41532 0.701778 0.49073
0.592477 0.723095 0.494102
0.778485 0.742031 0.495079
0.97615 0.757794 0.492912
0.145983 0.957137 0.494713
0.373968 0.966079 0.470939
0.577935 0.981506 0.453635
0.787488 0.995438 0.434821
1 1 0.413352
0.051194 0.051194 0.0920424
0.130343 0.0936141 0.174899
0.228428 0.130938 0.252674
0.344839 0.163287 0.325475
0.478614 0.190967 0.393606
0.177417 0.237201 0.354314
0.295201 0.270436 0.414343
0.42089 0.301549 0.472236
0.561624 0.328588 0.526024
0.717815 0.351461 0.575708
0.234134 0.450874 0.547082
0.390036 0.475135 0.58378
0.542885 0.500237 0.621317
0.707515 0.522148 0.655665
0.885573 0.540429 0.686381
0.219608 0.692912 0.668711
0.413535 0.708263 0.68188
0.593317 0.727413 0.698848
0.781628 0.744274 0.713527
0.981399 0.758038 0.725109
0.133028 0.963668 0.718166
0.364752 0.970153 0.707683
0.571359 0.983429 0.70399
0.783215 0.995285 0.698863
1 1 0.691188
0.0666056 0.0666056 0.144076
0.149416 0.106477 0.241367
0.25005 0.141543 0.333867
0.368673 0.171756 0.421485
0.504479 0.197314 0.504479
0.185382 0.249805 0.456016
0.306813 0.280491 0.530465
0.435065 0.309361 0.603067
0.578042 0.334249 0.671687
0.736248 0.355016 0.736248
0.234485 0.460746 0.698253
0.394064 0.48246 0.749386
0.549447 0.505318 0.801648
0.716304 0.525063 0.850828
0.896391 0.541253 0.896391
0.212284 0.700084 0.869337
0.409873 0.712871 0.896895
0.592218 0.729793 0.928603
0.782742 0.744488 0.958099
0.984543 0.756146 0.984543
0.117998 0.968139 0.968139
0.353384 0.972091 0.972091
0.562539 0.983108 0.983108
0.776623 0.992813 0.992813
1 1 1
