lut/ground-control/GroundControl_Punch2.cube
TITLE "Generate by Resolve"
LUT_3D_SIZE 5
0 0 0
0.12903 0.0169528 0.0169528
0.298161 0.0233463 0.0233463
0.475257 0.0322576 0.0322576
0.651621 0.0543832 0.0543832
0 0.208484 0
0.21648 0.21648 0.0327611
0.431937 0.235096 0.0726177
0.622843 0.26421 0.101122
0.793118 0.300954 0.132723
0 0.501244 0
0.233433 0.511406 0.0202182
0.513756 0.513756 0.0677195
0.729366 0.534157 0.117418
0.891463 0.567498 0.167636
0.000183108 0.794369 0.000183108
0.257939 0.800549 0.0334325
0.554665 0.790204 0.0657816
0.791638 0.791638 0.11104
0.954498 0.808621 0.167041
0.055848 1 0.055848
0.304326 1 0.0729381
0.593317 1 0.0847944
0.830961 0.995102 0.111833
0.996262 0.996262 0.157504
0 0 0.201862
0.131777 0.0239414 0.131777
0.29131 0.0335699 0.143725
0.467308 0.0453498 0.166247
0.644495 0.0700236 0.202792
0 0.211566 0.211566
0.223835 0.223835 0.223835
0.418097 0.250645 0.250645
0.607034 0.281209 0.281209
0.777295 0.317372 0.317372
0 0.507515 0.20647
0.224918 0.524315 0.224918
0.521004 0.521004 0.277195
0.72433 0.542916 0.339391
0.880308 0.577691 0.38674
0.00273136 0.799863 0.231632
0.245075 0.811063 0.245075
0.551141 0.796918 0.272801
0.793347 0.793347 0.333516
0.95024 0.809232 0.39971
0.054078 1 0.28806
0.286397 1 0.286397
0.579446 1 0.291524
0.825528 0.993698 0.326421
0.992767 0.992767 0.386877
0 0 0.472221
0.158221 0.0124666 0.357763
0.303853 0.0345159 0.303853
0.471717 0.0540169 0.326787
0.645655 0.0816052 0.368765
0 0.209598 0.510842
0.224964 0.224964 0.502785
0.42298 0.262272 0.42298
0.600534 0.296605 0.45449
0.768383 0.333196 0.494469
0 0.50779 0.50779
0.223606 0.525048 0.525048
0.525216 0.525216 0.525216
0.708064 0.555306 0.555306
0.864424 0.590326 0.590326
0.00132753 0.799207 0.532448
0.240589 0.809796 0.542367
0.534554 0.801434 0.534554
0.792813 0.792813 0.578912
0.940536 0.810132 0.63595
0.0485389 1 0.584527
0.276295 1 0.5785
0.555886 1 0.555886
0.814374 0.991058 0.57113
0.988144 0.988144 0.62829
0 0 0.72253
0.171359 0.00215152 0.618311
0.337331 0.0267338 0.506874
0.494697 0.0581521 0.494697
0.658152 0.0914168 0.528069
0 0.210727 0.775845
0.227817 0.227817 0.757397
0.462547 0.257816 0.651789
0.618112 0.30518 0.618112
0.77406 0.346853 0.64976
0 0.510765 0.779583
0.226047 0.527321 0.796323
0.528572 0.528572 0.778393
0.713451 0.567025 0.713451
0.858625 0.604028 0.744183
0.00230411 0.800641 0.800641
0.24033 0.810086 0.810086
0.531823 0.800702 0.800702
0.794293 0.794293 0.794293
0.92665 0.816907 0.816907
0.0452735 1 0.845808
0.270588 1 0.839628
0.547585 1 0.81561
0.798535 0.991424 0.798535
0.986587 0.986587 0.834302
0 0 0.914641
0.17937 0 0.836286
0.370077 0.0195163 0.722927
0.531197 0.0576333 0.674586
0.684642 0.097673 0.684642
0 0.218051 0.969619
0.235798 0.235798 0.951675
0.490105 0.258122 0.871962
0.656992 0.306294 0.799298
0.795743 0.356023 0.795743
0 0.519402 0.980728
0.235752 0.53521 0.994125
0.536721 0.536721 0.968704
0.750454 0.566735 0.894209
0.87306 0.613581 0.87306
0.00798047 0.806836 0.998718
0.245396 0.815137 1
0.535409 0.804227 0.998016
0.797574 0.797574 0.977539
0.929534 0.825101 0.929534
0.0467994 1 1
0.270756 1 1
0.5467 1 1
0.796719 0.991119 0.991119
0.988769 0.988769 0.988769
