lut/ground-control/GroundControl_Warm1.cube
TITLE "Generate by Resolve"
LUT_3D_SIZE 5
0 0 0
0.138567 0.029572 0.0352331
0.443854 0.0142061 0.0245365
0.769924 0 0.00598154
1 0 0.00393683
0 0.267765 0.0579385
0.263722 0.242741 0.0314488
0.543328 0.234867 0.0221256
0.806821 0.231357 0.0171969
1 0.230137 0.0146792
0 0.515694 0.065507
0.273808 0.489219 0.0365148
0.556893 0.480461 0.0259098
0.821866 0.476524 0.0209049
1 0.475395 0.0192721
0 0.765408 0.0675669
0.278325 0.737621 0.0392004
0.562783 0.728328 0.0296941
0.827909 0.724254 0.0255741
1 0.723888 0.0454566
0 1 0.072755
0.309606 0.9738 0.0839551
0.613809 0.948058 0.1794
0.8486 0.934203 0.361501
0.981247 0.942611 0.623697
0.00311284 0.0198062 0.0446784
0.176837 0.0325628 0.142779
0.48423 0.011902 0.178576
0.783123 0 0.182773
1 0 0.183291
0 0.273487 0.236789
0.269215 0.248188 0.211231
0.549264 0.240101 0.202884
0.813092 0.236393 0.198932
1 0.235035 0.197375
0 0.521248 0.2477
0.278752 0.494514 0.219547
0.562097 0.485603 0.209689
0.827115 0.48159 0.205188
1 0.480446 0.203815
0 0.770581 0.251972
0.28336 0.742718 0.223789
0.567864 0.733425 0.214374
0.832685 0.72929 0.211566
1 0.730343 0.239582
0 1 0.261982
0.332799 0.972488 0.27866
0.637858 0.946731 0.371679
0.863615 0.936996 0.539483
0.981155 0.953353 0.767559
0 0.0356451 0.151125
0.206653 0.0319677 0.310964
0.511437 0.00874342 0.379629
0.787915 0 0.389349
1 0 0.391043
0 0.277012 0.443915
0.272511 0.251423 0.419486
0.552972 0.243091 0.412299
0.817075 0.239185 0.409445
1 0.237736 0.408881
0 0.524544 0.458686
0.281498 0.497551 0.431388
0.565072 0.488502 0.422156
0.830106 0.484459 0.418021
1 0.483314 0.416831
0 0.773526 0.464897
0.286198 0.745602 0.436851
0.570718 0.736294 0.427497
0.834562 0.732204 0.427253
1 0.735882 0.454459
0 1 0.477653
0.359594 0.968444 0.489876
0.664561 0.944335 0.566873
0.880323 0.940703 0.7037
0.983658 0.966278 0.882124
0 0.0462348 0.323629
0.22855 0.0288243 0.527642
0.527138 0.00634775 0.607233
0.79147 0.00158694 0.612085
1 0.000350958 0.615061
0 0.279286 0.667247
0.274525 0.253391 0.644038
0.555383 0.244816 0.638071
0.81973 0.240742 0.636347
1 0.2392 0.636637
0 0.526543 0.686015
0.283009 0.499321 0.659434
0.566781 0.490166 0.650645
0.83183 0.486091 0.646738
1 0.484947 0.64567
0 0.775204 0.69369
0.287816 0.747265 0.665705
0.572366 0.737926 0.656382
0.834852 0.73434 0.655253
1 0.742016 0.671214
0 1 0.701747
0.391623 0.963104 0.69836
0.695232 0.942382 0.745846
0.899687 0.946609 0.838056
0.989899 0.981903 0.959045
0 0.0517739 0.555322
0.243351 0.0242313 0.779492
0.532677 0.00596628 0.844633
0.794095 0.00234989 0.84683
1 0.000869764 0.851164
0 0.280613 0.902617
0.275593 0.254414 0.88069
0.556832 0.245609 0.875959
0.821378 0.241367 0.875242
1 0.23978 0.876234
0 0.527596 0.925292
0.28365 0.50016 0.899214
0.567575 0.490929 0.890715
0.832654 0.486839 0.886946
1 0.485695 0.885924
0 0.775998 0.933913
0.288563 0.748028 0.905974
0.573541 0.738628 0.896117
0.834302 0.736492 0.885573
1 0.749645 0.878508
0.0181582 1 0.923735
0.429831 0.957397 0.892439
0.730404 0.941878 0.8972
0.921904 0.955474 0.934844
1 0.999939 0.999664
