lut/ground-control/GroundControl_Blue_Undertones.cube
TITLE "Generate by Resolve"
LUT_3D_SIZE 9
0 0 0
0.0189517 0.0267643 0.0471046
0.0675059 0.0459602 0.0820172
0.143252 0.0578164 0.109651
0.249851 0.0611887 0.130449
0.379522 0.0585641 0.142702
0.52253 0.0526589 0.148196
0.669429 0.0460212 0.149416
0.811261 0.0410773 0.148806
0 0.128771 0.136126
0.0113222 0.143374 0.152605
0.112688 0.149615 0.160327
0.226947 0.152667 0.161761
0.349874 0.153155 0.162966
0.476646 0.152651 0.162753
0.601083 0.152804 0.162921
0.725124 0.153063 0.16318
0.848203 0.153597 0.163668
0 0.276341 0.169711
0 0.276341 0.166842
0.115709 0.272953 0.16791
0.249287 0.270985 0.162127
0.385443 0.267582 0.163119
0.511742 0.266728 0.167742
0.634104 0.267124 0.171481
0.753887 0.268315 0.175113
0.870542 0.270375 0.179324
0 0.403021 0.172122
0 0.397147 0.173297
0.126772 0.393683 0.177722
0.258061 0.391989 0.175937
0.392432 0.390082 0.167193
0.52694 0.386831 0.171359
0.65185 0.385916 0.180819
0.768185 0.387366 0.191943
0.876967 0.390936 0.204364
0 0.519554 0.182956
0.0153201 0.513558 0.18851
0.147311 0.510719 0.196048
0.276921 0.50898 0.199771
0.403326 0.509041 0.195026
0.532967 0.507286 0.198795
0.655879 0.506539 0.212345
0.76733 0.508568 0.232029
0.866636 0.513832 0.255665
0 0.628443 0.207507
0.058854 0.622538 0.218997
0.188067 0.619913 0.232731
0.314336 0.618296 0.244953
0.433967 0.619058 0.253208
0.551354 0.620295 0.263401
0.663401 0.621973 0.284947
0.763897 0.626261 0.314611
0.85037 0.634089 0.3505
0 0.724681 0.255589
0.136309 0.718746 0.276265
0.261784 0.716197 0.300053
0.382223 0.715114 0.324331
0.493492 0.716747 0.34847
0.596521 0.720851 0.372519
0.692485 0.726177 0.405325
0.777096 0.734112 0.445701
0.848295 0.74548 0.491524
0.127398 0.802915 0.338933
0.259464 0.797513 0.371511
0.377768 0.79588 0.407462
0.487968 0.796536 0.444617
0.586908 0.800412 0.482948
0.674449 0.80766 0.521355
0.752483 0.817349 0.56379
0.819913 0.829602 0.611963
0.875563 0.845014 0.663432
0.30695 0.862043 0.462776
0.426673 0.85922 0.506157
0.531624 0.860578 0.551827
0.626368 0.864881 0.59826
0.709224 0.872633 0.645579
0.780377 0.883848 0.693049
0.841352 0.897932 0.742016
0.892653 0.914595 0.794095
0.933989 0.933989 0.848295
0.00180056 0.0100252 0.0204166
0.0234684 0.0343023 0.084184
0.0780041 0.0504005 0.132204
0.156924 0.0608835 0.16408
0.261006 0.0642557 0.192203
0.386343 0.062089 0.212634
0.524361 0.0569467 0.225299
0.665629 0.0514534 0.231861
0.801144 0.0480507 0.234623
0 0.136416 0.212787
0.00900282 0.147829 0.240269
0.11545 0.152041 0.253147
0.228534 0.156863 0.240436
0.341634 0.159823 0.246189
0.463508 0.160342 0.250263
0.586313 0.160784 0.252277
0.709499 0.161212 0.253483
0.831846 0.161898 0.254429
0 0.28101 0.275746
0 0.280293 0.274861
0.106767 0.277699 0.272251
0.250248 0.272694 0.267323
0.375937 0.272419 0.26804
0.497581 0.27332 0.269001
0.618341 0.274464 0.270191
0.737194 0.276112 0.271901
0.853056 0.278584 0.274418
0 0.40795 0.278035
0 0.403159 0.274983
0.118746 0.398886 0.274708
0.261555 0.393378 0.276875
0.394141 0.391791 0.270253
0.525231 0.389487 0.27512
0.644572 0.390372 0.282979
0.756878 0.393332 0.291127
0.862867 0.398062 0.300313
0 0.52546 0.282506
0.00631724 0.519219 0.283925
0.145266 0.514488 0.289677
0.281331 0.510597 0.295766
0.407263 0.510399 0.294957
0.534966 0.509575 0.295171
0.655558 0.509636 0.307515
0.763119 0.513054 0.325109
0.858564 0.519783 0.345449
0 0.633646 0.300328
0.0564736 0.62681 0.308766
0.191043 0.622705 0.321248
0.320928 0.619974 0.333852
0.441062 0.620371 0.344305
0.555413 0.622873 0.350896
0.665873 0.625391 0.368841
0.76408 0.630671 0.395392
0.847562 0.639765 0.427527
0 0.728389 0.340551
0.141146 0.72163 0.358328
0.269993 0.718303 0.380072
0.392142 0.716854 0.402838
0.503395 0.718578 0.426154
0.604059 0.723644 0.447639
0.697688 0.730205 0.475059
0.780453 0.739147 0.510826
0.849622 0.751583 0.552087
0.136904 0.805188 0.413428
0.271305 0.799451 0.442542
0.390982 0.797726 0.475227
0.501335 0.798642 0.509255
0.59939 0.803098 0.544594
0.685161 0.81117 0.580026
0.760708 0.822126 0.617197
0.826291 0.835431 0.660288
0.880339 0.851804 0.707027
0.323507 0.863569 0.523827
0.44358 0.861067 0.563043
0.548287 0.862898 0.604654
0.642069 0.867903 0.64712
0.723476 0.876478 0.690562
0.792981 0.888533 0.734432
0.851957 0.903655 0.77908
0.901564 0.921279 0.826596
0.941512 0.941512 0.8766
0.00129702 0.0195315 0.0526436
0.0270085 0.04094 0.132967
0.0869917 0.0541085 0.194003
0.171695 0.0623636 0.23093
0.275425 0.0655985 0.261387
0.396994 0.0641489 0.285893
0.52932 0.0602731 0.302678
0.664118 0.0563668 0.312535
0.792645 0.0548562 0.317113
0 0.142901 0.297932
0.00756847 0.151507 0.333028
0.117418 0.154467 0.348318
0.237049 0.157595 0.333074
0.345235 0.16321 0.326955
0.458915 0.166217 0.330632
0.577234 0.167803 0.334508
0.697734 0.168856 0.337423
0.818235 0.169986 0.339513
0 0.283787 0.384802
0 0.281712 0.384802
0.108721 0.278721 0.381308
0.252781 0.274128 0.370779
0.369619 0.278508 0.351446
0.484596 0.281086 0.355337
0.603357 0.282658 0.358144
0.721141 0.284596 0.360265
0.836118 0.287343 0.362524
0 0.410422 0.38735
0 0.406134 0.383215
0.111467 0.403006 0.380285
0.254124 0.398215 0.37583
0.395911 0.393576 0.372335
0.516732 0.394415 0.376303
0.631373 0.397147 0.379751
0.741695 0.401068 0.384222
0.846357 0.4065 0.390234
0 0.529473 0.386709
0 0.52433 0.384497
0.135576 0.520394 0.384848
0.279118 0.514656 0.386984
0.412406 0.511727 0.391699
0.537072 0.512032 0.389654
0.653696 0.513375 0.400946
0.756222 0.518608 0.415305
0.847913 0.526894 0.431342
0 0.638468 0.395956
0.0500496 0.632166 0.399558
0.187884 0.627558 0.407523
0.324346 0.623056 0.418265
0.447974 0.622293 0.429969
0.55993 0.625559 0.43592
0.668528 0.629053 0.449729
0.763943 0.635477 0.473121
0.843961 0.646021 0.501152
0 0.732647 0.425559
0.142275 0.725811 0.438605
0.274662 0.721813 0.456519
0.400427 0.719539 0.476844
0.512963 0.721035 0.498665
0.612375 0.726558 0.519326
0.703182 0.734524 0.541192
0.7841 0.744488 0.57229
0.851118 0.758007 0.609033
0.144701 0.808164 0.485908
0.280842 0.80238 0.510369
0.402396 0.800519 0.538964
0.513924 0.801434 0.569543
0.611673 0.806302 0.601648
0.696208 0.815015 0.63444
0.769268 0.827161 0.667094
0.832959 0.84155 0.705089
0.88542 0.858869 0.747234
0.338781 0.865797 0.58175
0.45922 0.863661 0.616297
0.56405 0.865904 0.653605
0.657359 0.871427 0.692119
0.73753 0.880766 0.731624
0.805661 0.893599 0.772076
0.862821 0.909621 0.812985
0.910689 0.928206 0.856123
0.949248 0.949248 0.902129
0 0.0282902 0.0973678
0.0296483 0.0466773 0.193332
0.0948348 0.0570993 0.266163
0.18558 0.0629435 0.30927
0.290944 0.0657206 0.339498
0.409949 0.0650034 0.36437
0.53724 0.0625162 0.382132
0.665309 0.0605478 0.392615
0.78735 0.0609598 0.39733
0 0.148455 0.390265
0.00619516 0.154711 0.43032
0.118944 0.156664 0.447089
0.242878 0.158419 0.432868
0.353216 0.16466 0.414237
0.46183 0.169833 0.41117
0.574975 0.173083 0.41387
0.691325 0.175311 0.417319
0.808759 0.177264 0.420279
0 0.285725 0.494499
0 0.282597 0.492805
0.112245 0.279637 0.48687
0.255039 0.27599 0.47068
0.376944 0.280095 0.439155
0.483742 0.286015 0.434028
0.595758 0.28954 0.43743
0.709773 0.292454 0.440879
0.822354 0.295842 0.443839
0 0.411673 0.49662
0 0.40737 0.491753
0.113115 0.404288 0.487846
0.255985 0.399588 0.481758
0.398001 0.395834 0.468879
0.506386 0.401785 0.458839
0.617411 0.405478 0.463447
0.72639 0.409827 0.46746
0.830045 0.415702 0.472114
0 0.531594 0.492576
0 0.526909 0.488548
0.132097 0.523812 0.486259
0.272007 0.519692 0.483146
0.410132 0.515984 0.481178
0.538933 0.514717 0.482536
0.646754 0.518959 0.491096
0.744945 0.526024 0.500114
0.834501 0.535439 0.511208
0 0.641535 0.49398
0.0470741 0.636164 0.493767
0.18294 0.632654 0.496513
0.320363 0.628534 0.500725
0.451865 0.625696 0.509682
0.56553 0.628168 0.5187
0.671336 0.632975 0.527581
0.762783 0.640909 0.547738
0.838819 0.653132 0.570916
0.000366217 0.73608 0.511757
0.14287 0.730098 0.519478
0.275685 0.726543 0.531624
0.404685 0.723812 0.54696
0.521202 0.724392 0.566155
0.621195 0.729809 0.58616
0.70898 0.739101 0.603738
0.787991 0.750103 0.630137
0.852583 0.764797 0.66244
0.152712 0.811185 0.557443
0.288731 0.806012 0.576226
0.411307 0.804379 0.599512
0.524559 0.805234 0.62565
0.623346 0.810132 0.654322
0.707256 0.819333 0.684184
0.778241 0.832425 0.713603
0.839887 0.847944 0.74638
0.890761 0.866163 0.784161
0.353475 0.868452 0.637232
0.473625 0.866941 0.666529
0.578531 0.869627 0.699077
0.671809 0.875593 0.733394
0.751385 0.885481 0.769162
0.818265 0.899031 0.806058
0.873899 0.915846 0.843702
0.920012 0.935363 0.882719
0.957214 0.957214 0.924804
0 0.0361944 0.154681
0.0314488 0.051545 0.26479
0.101686 0.0594492 0.347799
0.19794 0.063035 0.396902
0.30634 0.0649882 0.426459
0.423728 0.0650187 0.448615
0.546792 0.0639963 0.4645
0.668635 0.0640574 0.473091
0.785718 0.0660563 0.476677
0 0.153231 0.488746
0.00479133 0.157519 0.53167
0.120241 0.158633 0.548745
0.246983 0.159533 0.534722
0.361349 0.165423 0.507759
0.468162 0.172091 0.49514
0.577737 0.176806 0.493904
0.689982 0.180407 0.495888
0.803693 0.18349 0.498558
0 0.287175 0.60351
0 0.283497 0.598657
0.115724 0.280827 0.589883
0.257176 0.277943 0.569955
0.383444 0.281071 0.535317
0.489525 0.28864 0.516045
0.596078 0.294255 0.514687
0.704753 0.298863 0.517174
0.813382 0.303426 0.52018
0 0.412528 0.6047
0 0.408194 0.598657
0.116991 0.405142 0.59292
0.260197 0.400702 0.583261
0.400351 0.398184 0.563699
0.51136 0.405066 0.536721
0.613214 0.411917 0.536934
0.716731 0.417853 0.541375
0.817304 0.424643 0.546029
0 0.532708 0.597742
0 0.528161 0.592065
0.135149 0.525261 0.587793
0.274693 0.521492 0.582361
0.411704 0.518441 0.577142
0.539254 0.51902 0.564004
0.635966 0.527138 0.566827
0.73225 0.534951 0.573983
0.820752 0.544961 0.582315
0 0.643183 0.59205
0.0499733 0.638315 0.588891
0.184512 0.635569 0.588113
0.319188 0.632746 0.587549
0.448203 0.631418 0.588922
0.570169 0.631769 0.594354
0.673564 0.637339 0.602762
0.758495 0.647684 0.61825
0.831189 0.661509 0.635401
0.00646983 0.73817 0.598062
0.147616 0.733059 0.60119
0.278584 0.730602 0.607874
0.405921 0.72903 0.616571
0.524575 0.729625 0.629343
0.62916 0.733928 0.646906
0.715206 0.743893 0.662882
0.792035 0.756039 0.684459
0.853651 0.772061 0.712322
0.16347 0.813458 0.628183
0.297932 0.809323 0.641291
0.419333 0.808652 0.658564
0.532601 0.810101 0.678752
0.633036 0.814984 0.702708
0.717876 0.824231 0.729366
0.787732 0.837888 0.756512
0.847059 0.854597 0.784405
0.896345 0.873716 0.817914
0.369116 0.871015 0.690791
0.487861 0.870481 0.714549
0.591959 0.87393 0.741802
0.685023 0.880446 0.771389
0.764508 0.890761 0.803174
0.830732 0.90486 0.836622
0.885115 0.922377 0.871107
0.929534 0.942748 0.906538
0.965377 0.965377 0.944823
0 0.0431678 0.224247
0.0325017 0.0555886 0.346639
0.107637 0.0612039 0.437949
0.208774 0.0628214 0.492042
0.320653 0.0638132 0.520912
0.437583 0.0644388 0.538598
0.556817 0.0650187 0.549813
0.673091 0.067155 0.554299
0.787076 0.0702373 0.556268
0 0.157351 0.592477
0.00343328 0.159976 0.636378
0.121462 0.160418 0.652415
0.250202 0.160861 0.637049
0.368261 0.166186 0.604822
0.475975 0.173465 0.58352
0.583093 0.179538 0.576043
0.692317 0.184329 0.575036
0.802518 0.188632 0.576059
0 0.288334 0.710887
0 0.284535 0.702831
0.118959 0.282246 0.691356
0.259297 0.279957 0.668742
0.387976 0.282445 0.633249
0.497139 0.290135 0.603769
0.600565 0.297566 0.593744
0.705074 0.303761 0.59266
0.809262 0.309819 0.593957
0 0.413245 0.711254
0 0.408957 0.703456
0.121553 0.406088 0.695155
0.264363 0.402182 0.681361
0.402777 0.400626 0.657328
0.518715 0.40679 0.622934
0.616846 0.416037 0.610483
0.714366 0.42414 0.611154
0.81001 0.432532 0.614466
0 0.53341 0.701289
0.00415045 0.528984 0.693584
0.140536 0.526284 0.686854
0.280156 0.522805 0.678233
0.416983 0.520333 0.667933
0.543664 0.521889 0.647623
0.637659 0.532677 0.63209
0.726284 0.542977 0.637156
0.81091 0.554223 0.644526
0 0.644038 0.688502
0.056733 0.63949 0.682399
0.190967 0.637156 0.678309
0.32491 0.634928 0.674083
0.452583 0.634409 0.671366
0.571618 0.636255 0.670665
0.671397 0.644129 0.666941
0.750957 0.656474 0.678477
0.822583 0.671031 0.691463
0.0164492 0.739269 0.68278
0.156817 0.734813 0.681682
0.286473 0.733227 0.683726
0.411734 0.732799 0.68719
0.527291 0.734966 0.693507
0.631617 0.740124 0.703334
0.722377 0.748775 0.718349
0.795651 0.762432 0.73547
0.853361 0.780133 0.758251
0.17763 0.814908 0.697139
0.31046 0.811795 0.704982
0.429938 0.812253 0.716686
0.540963 0.814969 0.730877
0.640162 0.820859 0.748562
0.726543 0.830152 0.77023
0.797284 0.843793 0.794873
0.85449 0.861494 0.819181
0.902113 0.881529 0.8486
0.386847 0.873167 0.742229
0.503563 0.873777 0.760662
0.605844 0.878309 0.782589
0.697368 0.885801 0.806958
0.776471 0.896696 0.834165
0.842664 0.911177 0.86389
0.896284 0.929229 0.895247
0.9393 0.950332 0.927657
0.973754 0.973754 0.962264
0 0.0492256 0.30547
0.0329137 0.0588693 0.437995
0.112779 0.0624247 0.535683
0.21825 0.0624094 0.593271
0.333471 0.0625162 0.621118
0.450736 0.0635691 0.633463
0.566873 0.0657511 0.637964
0.67863 0.06981 0.63679
0.790509 0.0737163 0.636698
0 0.160891 0.700496
0.00222782 0.162127 0.743603
0.122667 0.162112 0.757183
0.252918 0.162402 0.738811
0.373938 0.167147 0.703487
0.483879 0.174441 0.675639
0.58996 0.181537 0.661067
0.696696 0.187533 0.655482
0.804196 0.192889 0.653895
0 0.289372 0.816022
0 0.28571 0.805676
0.121996 0.283818 0.791745
0.261448 0.282032 0.766979
0.391455 0.284169 0.730922
0.50428 0.291371 0.695476
0.607019 0.299962 0.675959
0.708354 0.307698 0.669001
0.808988 0.315145 0.667079
0 0.413962 0.816129
0 0.409796 0.806149
0.126299 0.407218 0.794934
0.26833 0.403952 0.777157
0.40531 0.403174 0.749676
0.524392 0.408713 0.712169
0.623209 0.418982 0.687617
0.716686 0.429038 0.680827
0.807675 0.439185 0.680446
0 0.534005 0.802869
0.0104524 0.529732 0.792676
0.14699 0.527291 0.782895
0.286442 0.524269 0.770245
0.422232 0.522683 0.754269
0.547112 0.525261 0.729
0.644419 0.536263 0.701625
0.727718 0.549096 0.697276
0.806867 0.562325 0.701213
0 0.644556 0.782544
0.0655833 0.640314 0.773175
0.199695 0.638392 0.765393
0.333181 0.636698 0.757076
0.460197 0.636866 0.74963
0.578195 0.639673 0.742428
0.678584 0.648493 0.727565
0.750927 0.664134 0.727581
0.817868 0.680293 0.738537
0.02916 0.739834 0.764797
0.16907 0.735943 0.759365
0.297993 0.735042 0.756802
0.421958 0.735485 0.755489
0.53579 0.738659 0.756863
0.637751 0.745052 0.76141
0.727031 0.754879 0.769299
0.795834 0.77052 0.779751
0.851484 0.789334 0.797681
0.194553 0.815824 0.763241
0.325978 0.813626 0.766049
0.443793 0.815106 0.772595
0.552636 0.818998 0.781567
0.649302 0.8262 0.793774
0.733288 0.836805 0.809384
0.804959 0.850721 0.828672
0.862196 0.86862 0.850858
0.907805 0.889647 0.876356
0.406653 0.874983 0.790936
0.521294 0.876707 0.804334
0.621561 0.882353 0.821286
0.710903 0.89099 0.840757
0.788205 0.902907 0.863142
0.853574 0.918074 0.888395
0.907149 0.936492 0.91632
0.949264 0.958144 0.945968
0.982315 0.982315 0.977218
0 0.0543984 0.397467
0.0327459 0.0614481 0.537881
0.117205 0.0632029 0.639963
0.226505 0.0618753 0.699336
0.344701 0.061265 0.72546
0.462684 0.0626993 0.731914
0.576349 0.0664225 0.728267
0.685298 0.0719158 0.721202
0.795254 0.0766918 0.718166
0 0.163912 0.811887
0.0012665 0.164034 0.852506
0.123949 0.16376 0.862119
0.255314 0.164172 0.839277
0.378653 0.168338 0.802808
0.491157 0.175341 0.770275
0.597482 0.183047 0.748959
0.702464 0.190127 0.737774
0.807507 0.196597 0.732418
0 0.290455 0.919814
0 0.287037 0.907454
0.124926 0.285527 0.891264
0.26363 0.284138 0.864622
0.3944 0.286137 0.827893
0.510307 0.292775 0.788907
0.614069 0.301885 0.761242
0.713329 0.310979 0.746975
0.810941 0.319783 0.740398
0 0.414725 0.919295
0 0.410758 0.906874
0.131044 0.408576 0.892592
0.272175 0.405951 0.871122
0.40795 0.405814 0.840635
0.528725 0.411063 0.801129
0.629908 0.4215 0.767956
0.721157 0.433158 0.751736
0.80853 0.444953 0.745785
0 0.534569 0.902251
0.0174868 0.530526 0.889143
0.154009 0.528435 0.875822
0.292973 0.526009 0.858747
0.427359 0.525383 0.837369
0.550576 0.528893 0.807858
0.650813 0.539635 0.774289
0.732311 0.554208 0.758175
0.807279 0.569299 0.755886
0 0.644968 0.873884
0.0756542 0.641093 0.860822
0.209598 0.639628 0.84892
0.342565 0.638575 0.835935
0.46862 0.639567 0.822995
0.584772 0.64361 0.808972
0.684016 0.6533 0.788937
0.756466 0.670207 0.776226
0.818601 0.688396 0.781079
0.0437324 0.740185 0.843488
0.1832 0.736873 0.833494
0.311421 0.736675 0.826123
0.434226 0.737957 0.819852
0.546639 0.742077 0.816129
0.647074 0.749462 0.815335
0.734707 0.760433 0.816709
0.802365 0.777569 0.815778
0.852888 0.798337 0.829282
0.213474 0.81651 0.825833
0.343557 0.815213 0.823621
0.459831 0.817655 0.825132
0.566842 0.822599 0.82916
0.661509 0.830869 0.83653
0.743389 0.842588 0.847395
0.812619 0.857725 0.861692
0.869841 0.876097 0.879271
0.912413 0.898482 0.900343
0.428061 0.876646 0.836408
0.540673 0.879469 0.844984
0.638941 0.886168 0.857237
0.726192 0.895888 0.872221
0.80145 0.908843 0.890242
0.864927 0.925017 0.911208
0.917281 0.944228 0.934966
0.959167 0.966262 0.96141
0.991073 0.991073 0.989776
0 0.058732 0.49929
0.0321202 0.0634165 0.645304
0.120958 0.0636149 0.749752
0.233692 0.061265 0.809155
0.354391 0.0601968 0.832425
0.473152 0.0620432 0.832532
0.584894 0.0672618 0.819837
0.692699 0.0736095 0.807675
0.800992 0.0792401 0.800992
0 0.166522 0.925673
0.000640879 0.165774 0.962142
0.125383 0.165423 0.966339
0.257572 0.166033 0.939147
0.382681 0.169741 0.902159
0.497612 0.176349 0.866361
0.604959 0.184329 0.8392
0.709026 0.192279 0.822049
0.812024 0.199847 0.812024
0 0.291646 1
0 0.288487 1
0.127779 0.287327 0.990005
0.265873 0.286305 0.961608
0.397055 0.288258 0.923995
0.515282 0.294453 0.882597
0.620798 0.303685 0.848569
0.719188 0.313787 0.82678
0.814298 0.323934 0.814298
0 0.415579 1
0 0.411887 1
0.135775 0.410117 0.988373
0.27599 0.408118 0.963424
0.410697 0.408591 0.930083
0.532311 0.413779 0.88867
0.635874 0.424094 0.849577
0.726604 0.436851 0.824231
0.811048 0.450233 0.811048
0 0.53518 0.999313
0.0250248 0.531426 0.98294
0.161364 0.529793 0.965759
0.299596 0.528054 0.944091
0.432486 0.528374 0.917632
0.554162 0.532738 0.884153
0.656001 0.543435 0.846448
0.737911 0.558877 0.820371
0.809766 0.575738 0.809766
0 0.645411 0.962264
0.0866255 0.641932 0.945129
0.220325 0.641016 0.928679
0.35256 0.640681 0.910597
0.477317 0.642649 0.891875
0.591333 0.647974 0.871534
0.68896 0.658579 0.847028
0.762905 0.675868 0.826169
0.822248 0.695781 0.822248
0.0595102 0.74052 0.918608
0.198383 0.737881 0.903838
0.325887 0.738399 0.891356
0.447456 0.740581 0.879911
0.558343 0.745693 0.870832
0.657023 0.754162 0.864363
0.742351 0.766461 0.859419
0.809674 0.784222 0.853346
0.858213 0.806455 0.858213
0.233753 0.817166 0.884565
0.362432 0.8168 0.877317
0.47715 0.820218 0.873823
0.58233 0.826185 0.872969
0.675105 0.835508 0.875624
0.755138 0.848234 0.881895
0.82266 0.864332 0.891737
0.878248 0.883696 0.904265
0.918959 0.907271 0.918959
0.450568 0.87834 0.87834
0.561135 0.882231 0.882231
0.657282 0.890028 0.890028
0.742657 0.900725 0.900725
0.816007 0.914672 0.914672
0.877699 0.931777 0.931777
0.928435 0.951827 0.951827
0.968917 0.97464 0.97464
1 1 1
