lut/ground-control/GroundControl_Bright_Warm.cube
TITLE "Generate by Resolve"
LUT_3D_SIZE 33
0 0 0
0.00869764 0.0059968 0.0059968
0.0193179 0.01149 0.01149
0.0312657 0.0166171 0.0166171
0.0442054 0.0214694 0.0214694
0.0582742 0.0260319 0.0260319
0.0732738 0.0303349 0.0303349
0.089189 0.0343938 0.0343938
0.105989 0.0382086 0.0382086
0.123674 0.0417792 0.0417792
0.142229 0.0451209 0.0451209
0.161624 0.048249 0.048249
0.181827 0.0511482 0.0511482
0.202838 0.0538186 0.0538186
0.224628 0.0562905 0.0562905
0.247181 0.0585489 0.0585489
0.270466 0.0606241 0.0606241
0.294438 0.062501 0.062501
0.319097 0.0641947 0.0641947
0.344396 0.0657206 0.0657206
0.370291 0.0670787 0.0670787
0.396735 0.0682994 0.0682994
0.423697 0.0693675 0.0693675
0.451133 0.0703136 0.0703136
0.479011 0.0711376 0.0711376
0.50724 0.07187 0.07187
0.535805 0.0725109 0.0725109
0.564645 0.0730755 0.0730755
0.593439 0.0736553 0.0736553
0.622568 0.0741436 0.0741436
0.651804 0.0746014 0.0746014
0.681086 0.0750591 0.0750591
0.710399 0.0754864 0.0754864
0.0213779 0.0224155 0.0213779
0.0381628 0.0262608 0.0248875
0.052079 0.0308843 0.0291752
0.0666361 0.0353399 0.0332647
0.0820325 0.0395666 0.0371252
0.0982528 0.0435798 0.0407568
0.115328 0.047364 0.0441444
0.133242 0.0509041 0.0472877
0.151995 0.0542458 0.0502174
0.171542 0.0573587 0.052903
0.191897 0.0602579 0.055375
0.213016 0.0629435 0.0576333
0.234897 0.0654307 0.059678
0.257496 0.0677195 0.0615091
0.280781 0.0698253 0.0631571
0.304753 0.0717479 0.064622
0.329335 0.0735027 0.065919
0.354543 0.0751049 0.0670481
0.380285 0.0765393 0.0680247
0.406561 0.0778515 0.068864
0.433295 0.0790265 0.0695659
0.460472 0.0800793 0.070161
0.488014 0.0810407 0.0706493
0.515877 0.0819104 0.0710613
0.54403 0.0827039 0.071397
0.572122 0.0835126 0.0717632
0.600595 0.0842298 0.0720378
0.629175 0.0849012 0.072282
0.657816 0.0855573 0.0725109
0.686473 0.0862135 0.072755
0.715129 0.0868696 0.0729992
0.743709 0.087541 0.0732738
0.772198 0.0882429 0.0735943
0.0408331 0.045594 0.0408331
0.0666209 0.0470588 0.0414893
0.084062 0.050782 0.0443732
0.101427 0.0545205 0.0472572
0.119249 0.0581521 0.0500038
0.137713 0.0616007 0.0525521
0.156878 0.0648661 0.054902
0.176745 0.0679332 0.0570382
0.19733 0.0708171 0.0589761
0.218631 0.0735027 0.0607004
0.240635 0.0760052 0.0622263
0.263294 0.0783398 0.0635538
0.286625 0.0804761 0.0646983
0.310552 0.0824598 0.0656748
0.335073 0.0842908 0.0664988
0.360159 0.0859693 0.067155
0.385748 0.0875105 0.0676738
0.411795 0.0889143 0.0680858
0.43827 0.0902113 0.0683757
0.465126 0.0914015 0.0685588
0.492317 0.0925154 0.0686656
0.51957 0.0935988 0.0687877
0.547189 0.0945754 0.0688029
0.57499 0.0955062 0.0687877
0.602914 0.0964065 0.0687572
0.630915 0.0972915 0.0687266
0.658946 0.0981613 0.0686961
0.686976 0.0990158 0.0686961
0.714961 0.0999008 0.0687266
0.742855 0.100786 0.0687877
0.770626 0.101717 0.068925
0.798245 0.102693 0.0691234
0.825681 0.1037 0.0693828
0.057847 0.0697642 0.057847
0.0934768 0.0686198 0.055314
0.114687 0.0713817 0.0566567
0.134966 0.0743877 0.0582132
0.155306 0.0773785 0.0597391
0.175998 0.080293 0.0611276
0.197192 0.0830549 0.0623789
0.218921 0.0856794 0.0634623
0.241245 0.0881514 0.0643778
0.264149 0.0904707 0.0651102
0.287602 0.0926375 0.0656901
0.311604 0.0946517 0.0661173
0.336126 0.0965286 0.0664073
0.361151 0.0982681 0.0665599
0.386618 0.0999008 0.0665904
0.412482 0.101411 0.0665293
0.438727 0.102815 0.0663767
0.465309 0.104143 0.0661326
0.491951 0.10544 0.065919
0.518975 0.106645 0.0656138
0.546151 0.10779 0.0652934
0.57348 0.108888 0.0649424
0.6009 0.109972 0.0646067
0.628351 0.11104 0.0642863
0.655818 0.112108 0.0639963
0.683253 0.113176 0.0637369
0.710613 0.11426 0.0635386
0.737865 0.115358 0.0634165
0.764981 0.116503 0.0633555
0.791913 0.117693 0.063386
0.818662 0.118929 0.063508
0.845167 0.120226 0.0637217
0.871427 0.121584 0.0640421
0.0720378 0.0950484 0.0720378
0.118242 0.0911116 0.066041
0.143389 0.0928664 0.0657206
0.166659 0.0951247 0.0658732
0.189502 0.0975204 0.0661173
0.212375 0.0998856 0.0663462
0.235508 0.10219 0.0664683
0.259007 0.104402 0.0664988
0.282887 0.106508 0.0664073
0.307195 0.108507 0.0662089
0.331899 0.110384 0.0659037
0.357 0.112154 0.0654917
0.382467 0.113832 0.0650034
0.408286 0.115419 0.0644236
0.434394 0.116915 0.063798
0.460563 0.118395 0.0632029
0.487098 0.119768 0.0625162
0.513787 0.121096 0.0618296
0.540627 0.122393 0.0611429
0.567544 0.123659 0.0604562
0.594522 0.124895 0.0598001
0.621515 0.126131 0.0591897
0.648478 0.127367 0.0586404
0.67538 0.128618 0.0581369
0.70219 0.129885 0.0577249
0.728862 0.131197 0.0573892
0.755398 0.132525 0.057145
0.781735 0.133913 0.0570077
0.807874 0.135332 0.0569772
0.833768 0.136828 0.0570687
0.859403 0.138384 0.0572824
0.884779 0.140002 0.0576181
0.90985 0.141695 0.0580911
0.0830854 0.121584 0.0830854
0.140459 0.114702 0.0734569
0.16965 0.115419 0.0714122
0.195926 0.116945 0.0701305
0.22121 0.118715 0.0691081
0.246189 0.120592 0.0681621
0.271138 0.122469 0.0672313
0.296208 0.1243 0.0662547
0.321477 0.126101 0.0652628
0.34696 0.127825 0.06421
0.372686 0.129473 0.0631113
0.398505 0.131106 0.0620584
0.424598 0.132662 0.0609445
0.450874 0.134157 0.0598154
0.477287 0.135622 0.0587015
0.503807 0.137041 0.0576028
0.530404 0.138445 0.0565347
0.557031 0.139818 0.0555123
0.583688 0.141192 0.0545357
0.610315 0.142565 0.0536355
0.636866 0.143954 0.0528115
0.66334 0.145357 0.0520638
0.689693 0.146792 0.0514229
0.715908 0.148241 0.0508888
0.741939 0.149737 0.0504768
0.767788 0.151293 0.0501717
0.793408 0.152895 0.0500038
0.818784 0.154543 0.0499733
0.8439 0.156268 0.0500649
0.868727 0.158053 0.050309
0.893278 0.159915 0.0507057
0.91751 0.161852 0.0512551
0.941421 0.163867 0.0519417
0.090837 0.149432 0.090837
0.159731 0.139498 0.0774701
0.192996 0.139193 0.0737163
0.222232 0.139971 0.071046
0.249897 0.141161 0.0688182
0.276829 0.142565 0.0667887
0.303426 0.144045 0.0648814
0.3299 0.145556 0.063035
0.356222 0.147097 0.061326
0.382635 0.148623 0.0595865
0.409079 0.150134 0.057908
0.435569 0.151614 0.05626
0.462104 0.153079 0.0546578
0.488655 0.154543 0.0531167
0.51519 0.155993 0.0516518
0.541726 0.157458 0.0502632
0.5682 0.158907 0.0489509
0.594598 0.160372 0.0477455
0.620905 0.161868 0.0466621
0.647089 0.163378 0.0456703
0.673121 0.16492 0.0448005
0.698985 0.166506 0.0440681
0.724636 0.168139 0.043473
0.750088 0.169818 0.0430152
0.775311 0.171542 0.04271
0.800275 0.173342 0.0425574
0.824964 0.175189 0.0425422
0.849378 0.177127 0.04271
0.873487 0.17911 0.0430304
0.897292 0.181186 0.0435035
0.920775 0.183337 0.0441444
0.943923 0.18558 0.0449683
0.966735 0.187884 0.0459449
0.0952926 0.178607 0.0952926
0.175814 0.165591 0.0782177
0.213107 0.164233 0.0728161
0.245197 0.164294 0.068864
0.27509 0.16495 0.0655375
0.303746 0.165911 0.0626688
0.331777 0.167056 0.059968
0.359396 0.168292 0.057435
0.386755 0.169589 0.0550546
0.413916 0.170947 0.0527962
0.44094 0.17232 0.0506447
0.467842 0.173739 0.0486152
0.494621 0.175158 0.0467079
0.521279 0.176608 0.0449226
0.547799 0.178088 0.0432593
0.574197 0.179599 0.0417334
0.600427 0.18114 0.0403449
0.626474 0.182712 0.0390936
0.652354 0.184329 0.037995
0.678019 0.185992 0.0370642
0.703456 0.187701 0.036286
0.728649 0.189471 0.0356603
0.753597 0.191302 0.0352178
0.778286 0.193194 0.0349432
0.802686 0.195148 0.0348363
0.82678 0.197177 0.0348974
0.850584 0.199268 0.0351568
0.874052 0.201434 0.0355688
0.897215 0.203693 0.0361791
0.920043 0.206027 0.0369573
0.942519 0.208438 0.0379339
0.96466 0.210941 0.0390784
0.986435 0.213535 0.0404059
0.0966049 0.209018 0.0966049
0.188586 0.19295 0.0760204
0.22977 0.1906 0.0691691
0.26453 0.18996 0.0641184
0.296452 0.190097 0.0599069
0.326772 0.190661 0.0562142
0.356085 0.19147 0.0528878
0.384726 0.192462 0.0498207
0.412863 0.193591 0.0469978
0.44062 0.194797 0.0443732
0.468055 0.196078 0.0419318
0.495216 0.197436 0.0396887
0.522118 0.19884 0.0376287
0.548775 0.200305 0.0357366
0.575174 0.201831 0.0340276
0.601343 0.203403 0.0325017
0.627253 0.20502 0.0311589
0.652918 0.206714 0.0299992
0.678309 0.208453 0.0290227
0.703426 0.210269 0.0282444
0.728252 0.212146 0.0276493
0.752789 0.214084 0.0272526
0.777035 0.216098 0.027039
0.800961 0.218189 0.0270237
0.824567 0.22034 0.0271916
0.847852 0.222583 0.0275578
0.870802 0.224903 0.0281224
0.8934 0.227298 0.0288853
0.915663 0.229786 0.0298314
0.937575 0.232349 0.0309758
0.959136 0.235004 0.0323033
0.980331 0.237751 0.0338293
1 0.240589 0.0355535
0.0952163 0.240513 0.0952163
0.198154 0.221515 0.0713207
0.243015 0.218204 0.0631876
0.280308 0.216907 0.0572061
0.314092 0.216556 0.0522774
0.345861 0.216754 0.0480201
0.376303 0.217273 0.0442206
0.405814 0.218051 0.0408026
0.434592 0.218997 0.037705
0.462821 0.220096 0.0348821
0.490547 0.221302 0.0323339
0.517876 0.222614 0.0300145
0.544808 0.224018 0.0279393
0.571374 0.225498 0.0260777
0.597604 0.22707 0.0244602
0.623499 0.228702 0.0230411
0.649058 0.230426 0.0218509
0.674296 0.232212 0.0208896
0.699199 0.234089 0.0201267
0.723781 0.236027 0.0195926
0.748012 0.238056 0.0192721
0.771923 0.240162 0.0191501
0.795483 0.242344 0.0192569
0.818692 0.244602 0.0195621
0.841566 0.246952 0.0200809
0.864073 0.249378 0.0208133
0.886229 0.251896 0.0217441
0.908034 0.254505 0.0228885
0.929473 0.257191 0.0242313
0.95053 0.259968 0.0257725
0.971237 0.262837 0.0275273
0.991577 0.265782 0.0294652
1 0.268833 0.0316167
0.0914778 0.272938 0.0914778
0.20473 0.251179 0.064622
0.253025 0.246952 0.055436
0.292622 0.245045 0.0487221
0.328115 0.244251 0.0432746
0.361166 0.244083 0.0386053
0.392599 0.244343 0.0345312
0.422843 0.244923 0.03093
0.452171 0.245731 0.0277104
0.480751 0.246708 0.0248417
0.508705 0.247852 0.0222934
0.53611 0.249134 0.0200504
0.563027 0.250538 0.0180819
0.589471 0.252033 0.0163729
0.615488 0.253651 0.0149233
0.641093 0.255344 0.0137331
0.6663 0.257145 0.0128023
0.691112 0.259037 0.0121004
0.715557 0.261021 0.0116426
0.739605 0.263081 0.011429
0.763287 0.265248 0.0114443
0.786587 0.267491 0.0116884
0.809506 0.269825 0.0121462
0.832059 0.272251 0.0128481
0.854246 0.274754 0.0137636
0.876036 0.277363 0.0148928
0.897475 0.280049 0.0162509
0.918532 0.282826 0.0178225
0.939208 0.285695 0.0195926
0.959518 0.288655 0.0215763
0.979446 0.291707 0.0237736
0.998993 0.29485 0.0261692
1 0.298085 0.0287785
0.085893 0.306096 0.085893
0.208637 0.281773 0.0564584
0.26009 0.276692 0.0464485
0.301778 0.27422 0.0392157
0.338811 0.272999 0.0334173
0.373007 0.272526 0.0285344
0.405295 0.272541 0.0243381
0.436164 0.272938 0.020676
0.465934 0.273594 0.0174868
0.494804 0.274495 0.0147097
0.522927 0.275578 0.0122835
0.550378 0.276829 0.0102083
0.577218 0.278218 0.00843824
0.603525 0.279744 0.00697337
0.629328 0.281392 0.00581369
0.654643 0.283146 0.00492866
0.6795 0.285023 0.00430304
0.703914 0.286992 0.00395209
0.727901 0.289067 0.00386053
0.751461 0.291249 0.00401312
0.774609 0.293523 0.00442512
0.797345 0.295888 0.00508125
0.819684 0.29836 0.00596628
0.841627 0.300923 0.00709545
0.863172 0.303578 0.0084535
0.884337 0.306325 0.0100252
0.905104 0.309163 0.011841
0.925475 0.312108 0.0138705
0.945464 0.315129 0.0161135
0.965072 0.318257 0.0185702
0.984283 0.321462 0.0212406
1 0.324773 0.0241245
1 0.328161 0.0272068
0.0790112 0.339773 0.0790112
0.210315 0.31313 0.0473945
0.264591 0.307271 0.0367437
0.308171 0.30428 0.0291752
0.346548 0.302663 0.0231937
0.38175 0.3019 0.0182345
0.414786 0.301701 0.0140536
0.446189 0.301915 0.0104829
0.476341 0.302464 0.00743114
0.50544 0.303273 0.00483711
0.533669 0.304295 0.00263981
0.561135 0.305516 0.000823987
0.5879 0.306905 0
0.614054 0.308431 0
0.639628 0.310109 0
0.664668 0.311925 0
0.689189 0.313848 0
0.713222 0.315908 0
0.736782 0.318059 0
0.759884 0.320333 0
0.782544 0.322698 0
0.804776 0.325185 0
0.826581 0.327764 0.000900282
0.847959 0.330449 0.00250248
0.868925 0.333227 0.0043183
0.889479 0.336095 0.00639353
0.909636 0.339071 0.00868238
0.929397 0.342138 0.0112001
0.94876 0.345312 0.0139315
0.967727 0.348562 0.0168917
0.986297 0.351919 0.0200809
1 0.355367 0.0234531
1 0.358907 0.027039
0.0712902 0.373785 0.0712902
0.210163 0.345083 0.0378729
0.266957 0.338506 0.0268101
0.3122 0.335042 0.0190585
0.351766 0.333074 0.0130312
0.387839 0.332036 0.00814832
0.421515 0.33164 0.00408942
0.453391 0.331701 0.000717174
0.483833 0.332128 0
0.51313 0.33286 0
0.541436 0.333837 0
0.568872 0.335012 0
0.59556 0.3364 0
0.621561 0.337942 0
0.646906 0.339635 0
0.671672 0.341482 0
0.695888 0.343465 0
0.719554 0.345571 0
0.742733 0.347799 0
0.765408 0.350149 0
0.787625 0.352605 0
0.809369 0.355184 0
0.830686 0.357855 0
0.851545 0.360647 0
0.871977 0.363531 0.00157168
0.891997 0.366522 0.0041352
0.911604 0.369604 0.00694286
0.930785 0.372793 0.0099794
0.949584 0.376074 0.0132448
0.968002 0.379446 0.0166934
0.986053 0.38291 0.020325
1 0.38645 0.0241398
1 0.390097 0.0281682
0.0631723 0.407965 0.0631723
0.208606 0.377432 0.0283207
0.267613 0.370245 0.0170138
0.31429 0.366339 0.00924697
0.354894 0.364065 0.00331121
0.39173 0.362799 0
0.425956 0.362203 0
0.458198 0.362127 0
0.488899 0.362448 0
0.518334 0.363088 0
0.546685 0.364019 0
0.574105 0.365179 0
0.600687 0.366537 0
0.62652 0.368078 0
0.651667 0.369802 0
0.676173 0.371679 0
0.700069 0.373693 0
0.723415 0.37586 0
0.746227 0.378149 0
0.768521 0.38056 0
0.790311 0.383093 0
0.811627 0.385733 0
0.832471 0.388495 0
0.852872 0.391363 0
0.872816 0.394339 0.000320439
0.892348 0.397421 0.00341802
0.911482 0.400595 0.00671397
0.93022 0.403876 0.0102083
0.948577 0.407233 0.0139162
0.966537 0.410697 0.0178378
0.984115 0.414252 0.0219577
1 0.417899 0.0262913
1 0.421653 0.0308385
0.0550546 0.44213 0.0550546
0.206088 0.410056 0.0191196
0.266972 0.402304 0.00773632
0.3149 0.398032 4.57771e-05
0.356374 0.395468 0
0.393851 0.393988 0
0.428519 0.393225 0
0.461082 0.393027 0
0.491981 0.39324 0
0.521523 0.39382 0
0.549889 0.39469 0
0.577264 0.395819 0
0.603738 0.397162 0
0.629404 0.398718 0
0.654337 0.400443 0
0.678599 0.402335 0
0.70222 0.404395 0
0.725261 0.406592 0
0.747723 0.408927 0
0.76965 0.411399 0
0.791058 0.413993 0
0.811963 0.416693 0
0.83241 0.419532 0
0.852415 0.422461 0
0.871992 0.425513 0.000534066
0.891142 0.428656 0.00410468
0.909865 0.431907 0.00788891
0.928176 0.435248 0.0118868
0.946075 0.438697 0.0161288
0.963546 0.442252 0.0205997
0.980621 0.445899 0.0252995
0.997269 0.449653 0.0302434
1 0.453498 0.0354162
0.0472725 0.476173 0.0472725
0.202945 0.442786 0.0105592
0.265415 0.434562 0
0.314382 0.429953 0
0.356603 0.427146 0
0.394614 0.425467 0
0.429648 0.424567 0
0.46247 0.424247 0
0.493523 0.424384 0
0.52311 0.424887 0
0.551476 0.425711 0
0.578775 0.42681 0
0.605142 0.428138 0
0.63064 0.429679 0
0.655375 0.431418 0
0.679393 0.433326 0
0.702754 0.435416 0
0.72549 0.437644 0
0.747646 0.440009 0
0.769253 0.442527 0
0.790341 0.445167 0
0.810941 0.447913 0
0.831052 0.450797 0
0.850706 0.453788 0
0.869902 0.456886 0.00228885
0.88864 0.460105 0.00639353
0.90692 0.463416 0.0107576
0.924773 0.46685 0.0153658
0.942184 0.470375 0.0202335
0.959152 0.474022 0.0253605
0.975662 0.47776 0.0307469
0.991745 0.481605 0.0363928
1 0.485557 0.0423285
0.0401007 0.509957 0.0401007
0.199542 0.475517 0.00291447
0.263325 0.46688 0
0.313146 0.461982 0
0.355962 0.458976 0
0.394385 0.457115 0
0.429725 0.456077 0
0.46273 0.45565 0
0.493874 0.455711 0
0.523507 0.456168 0
0.551843 0.456947 0
0.579065 0.458 0
0.60528 0.459327 0
0.630625 0.460853 0
0.655161 0.462608 0
0.67895 0.46453 0
0.702068 0.466621 0
0.724575 0.468879 0
0.746471 0.471275 0
0.767803 0.473823 0
0.788586 0.476493 0
0.808865 0.479286 0
0.828626 0.482216 0
0.847898 0.485252 0.00143435
0.866682 0.488411 0.0059205
0.884978 0.491691 0.0106813
0.902815 0.495079 0.0157321
0.920165 0.498573 0.0210575
0.937057 0.50219 0.0266575
0.953475 0.505913 0.0325475
0.969421 0.509743 0.0387427
0.984878 0.513695 0.0452277
0.999878 0.517739 0.052018
0.0337987 0.543404 0.0337987
0.19617 0.50811 0
0.26099 0.499138 0
0.311498 0.494011 0
0.354788 0.490806 0
0.39353 0.488807 0
0.429084 0.487663 0
0.462211 0.487144 0
0.493431 0.487129 0
0.523049 0.487526 0
0.551324 0.488258 0
0.578439 0.489296 0
0.604547 0.490593 0
0.629725 0.492134 0
0.654093 0.493874 0
0.677699 0.495811 0
0.700603 0.497917 0
0.72285 0.500175 0
0.744488 0.502602 0
0.765515 0.50518 0
0.785992 0.507881 0
0.805905 0.510719 0
0.825284 0.513695 0.00170901
0.844144 0.516793 0.00663767
0.862501 0.519997 0.0118563
0.880339 0.523339 0.0173953
0.897673 0.526787 0.0232242
0.914504 0.530358 0.0293889
0.930846 0.534051 0.0358587
0.946685 0.53785 0.042649
0.96202 0.541772 0.0497597
0.976852 0.5458 0.0572061
0.991165 0.549966 0.0650034
0.0285801 0.576425 0.0285801
0.193118 0.54049 0
0.258732 0.531228 0
0.309743 0.525902 0
0.353384 0.522545 0
0.39237 0.520424 0
0.428061 0.519188 0
0.461265 0.518593 0
0.492485 0.518517 0
0.522072 0.518868 0
0.550286 0.51957 0
0.57731 0.520592 0
0.603281 0.521874 0
0.628321 0.5234 0
0.652491 0.525139 0
0.675898 0.527077 0
0.698558 0.529183 0
0.720531 0.531472 0
0.741863 0.533913 0
0.762585 0.536507 0
0.782696 0.539254 0
0.802243 0.542123 0.00329595
0.82121 0.545129 0.00869764
0.839643 0.548272 0.0144503
0.857527 0.551537 0.0205386
0.874876 0.554925 0.0269627
0.891691 0.55845 0.0337377
0.907973 0.562081 0.0408484
0.923735 0.565835 0.0483253
0.938964 0.569726 0.0561379
0.953658 0.573724 0.0643168
0.967834 0.577844 0.0728618
0.98146 0.582086 0.0817884
0.0246433 0.608927 0.0246433
0.190616 0.572534 0
0.256794 0.563073 0
0.308171 0.55758 0
0.352056 0.554101 0
0.39118 0.551888 0
0.426947 0.550561 0
0.460166 0.54992 0
0.491371 0.549798 0
0.520897 0.550103 0
0.54902 0.55079 0
0.575921 0.551781 0
0.60174 0.553048 0
0.626596 0.554559 0
0.650568 0.556298 0
0.673716 0.558236 0
0.696117 0.560357 0
0.717815 0.562646 0
0.738827 0.565103 0
0.759182 0.567727 0.000762951
0.778927 0.570489 0.00636301
0.798062 0.573388 0.0123445
0.816602 0.57644 0.018677
0.834577 0.579614 0.025391
0.851972 0.582925 0.0324712
0.868803 0.586358 0.0399176
0.885069 0.589929 0.0477607
0.900786 0.593637 0.0559701
0.915938 0.597452 0.0645762
0.930541 0.601404 0.0735637
0.944579 0.605478 0.082948
0.958068 0.609674 0.0927291
0.970977 0.614008 0.102907
0.0221561 0.640864 0.0221561
0.188907 0.604196 0
0.255421 0.594583 0
0.306996 0.588983 0
0.350988 0.585412 0
0.390173 0.583124 0
0.42594 0.58175 0
0.459144 0.581048 0
0.490288 0.58088 0
0.519738 0.581155 0
0.547738 0.581811 0
0.574487 0.582773 0
0.600137 0.584024 0
0.624781 0.585519 0
0.648524 0.587243 0
0.671412 0.589181 0
0.693523 0.591302 0
0.7149 0.593591 0
0.735561 0.596063 0.00494392
0.755566 0.598688 0.0111391
0.774899 0.601465 0.017731
0.793606 0.604395 0.0247349
0.811704 0.607477 0.0321508
0.82919 0.610681 0.0399481
0.846067 0.614023 0.0481727
0.862364 0.617517 0.0567941
0.87808 0.621134 0.0658427
0.893202 0.624872 0.075288
0.907729 0.628748 0.0851759
0.921691 0.632761 0.0954604
0.935058 0.636896 0.106188
0.947845 0.641169 0.117342
0.960037 0.645579 0.128923
0.0211337 0.672206 0.0211337
0.188037 0.635447 0
0.254688 0.625727 0
0.30634 0.62005 0
0.350378 0.616419 0
0.389563 0.614069 0
0.425315 0.612634 0
0.458457 0.611872 0
0.489509 0.611658 0
0.518837 0.611902 0
0.5467 0.612512 0
0.573266 0.613458 0
0.598718 0.614679 0
0.623133 0.616144 0
0.646616 0.617853 0
0.66923 0.619776 0
0.69102 0.621881 0.00454719
0.712062 0.624186 0.010956
0.732372 0.626657 0.0178225
0.751965 0.629282 0.0251164
0.770886 0.632074 0.0328527
0.789151 0.635019 0.0410315
0.806775 0.638102 0.0496529
0.823758 0.641337 0.0587015
0.840116 0.644724 0.0681926
0.855863 0.648234 0.0781415
0.870985 0.651881 0.0885328
0.885496 0.655665 0.0993668
0.899413 0.659586 0.110643
0.912718 0.663645 0.122393
0.925414 0.667842 0.134569
0.937499 0.672175 0.147234
0.948974 0.676631 0.160327
0.0215763 0.702968 0.0215763
0.188205 0.666209 0
0.254841 0.656443 0
0.306508 0.65069 0
0.350515 0.646983 0
0.389654 0.644572 0
0.42533 0.643076 0
0.458381 0.642267 0
0.489311 0.642008 0
0.518486 0.642206 0
0.546166 0.642786 0
0.572549 0.643687 0
0.597757 0.644877 0
0.621927 0.646311 0
0.645121 0.648005 0.00531014
0.66743 0.649897 0.0119326
0.688899 0.651987 0.0190433
0.709575 0.654276 0.026627
0.729503 0.656733 0.034699
0.748699 0.659373 0.0432441
0.767178 0.66215 0.0522621
0.784985 0.66511 0.0617685
0.802106 0.668208 0.0717327
0.818586 0.671443 0.0821698
0.834409 0.674846 0.0930953
0.849592 0.67837 0.104479
0.864134 0.682048 0.11635
0.87805 0.685863 0.128695
0.891325 0.689815 0.141512
0.903975 0.693904 0.154803
0.916014 0.698146 0.168566
0.927428 0.70251 0.182803
0.938216 0.707012 0.197498
0.0238499 0.732998 0.0238499
0.189715 0.696376 0
0.256214 0.686564 0
0.30779 0.680751 0
0.351705 0.676997 0
0.390753 0.674525 0
0.426322 0.672969 0
0.45922 0.672099 0
0.489998 0.671794 0
0.51899 0.671931 0
0.546471 0.672465 0
0.572625 0.67332 0.00122072
0.597589 0.674464 0.00743114
0.621469 0.675868 0.0142061
0.644373 0.677531 0.0215305
0.666362 0.679393 0.0294041
0.68748 0.681468 0.0377966
0.70779 0.683726 0.0467079
0.727306 0.686168 0.0561379
0.746075 0.688777 0.0660868
0.764111 0.691554 0.076524
0.781445 0.694499 0.0874952
0.798077 0.697597 0.0989548
0.814023 0.700832 0.110918
0.829313 0.704234 0.123384
0.843931 0.707774 0.136339
0.857893 0.711467 0.149813
0.871214 0.715297 0.16376
0.883879 0.719265 0.178195
0.895918 0.723384 0.193118
0.907317 0.727642 0.208515
0.918074 0.732036 0.224369
0.928222 0.736568 0.240681
0.0283513 0.762142 0.0283513
0.192935 0.72578 0
0.259174 0.715938 0
0.310552 0.710094 0
0.354314 0.706279 0
0.393194 0.703746 0
0.428595 0.702129 0
0.461326 0.701213 0
0.491905 0.700832 0
0.520699 0.700923 0.00488289
0.547951 0.701396 0.0110933
0.573846 0.702205 0.0179599
0.598535 0.703304 0.0254673
0.622126 0.704662 0.0335699
0.644709 0.706264 0.0422675
0.666346 0.708095 0.0515297
0.687114 0.710124 0.0613718
0.707027 0.712352 0.0717632
0.726131 0.714763 0.0826886
0.744472 0.717357 0.0941634
0.762051 0.720119 0.106188
0.778897 0.723033 0.11873
0.795041 0.726116 0.131807
0.810483 0.729351 0.145403
0.825223 0.732738 0.159518
0.839292 0.736278 0.174136
0.852705 0.739956 0.189258
0.865446 0.743801 0.204868
0.877531 0.747768 0.220966
0.888975 0.751904 0.237522
0.899779 0.756161 0.254551
0.909972 0.760571 0.272007
0.919524 0.765118 0.289891
0.035523 0.790219 0.035523
0.198306 0.754238 0.00370794
0.264103 0.744427 0
0.31519 0.738537 0
0.358724 0.734676 0
0.397391 0.732082 0.00135805
0.432578 0.730404 0.00546273
0.465095 0.729427 0.0105898
0.495445 0.728985 0.0166171
0.52398 0.729015 0.0234531
0.550973 0.729412 0.0310369
0.576593 0.730159 0.0393225
0.600992 0.731212 0.0482643
0.624262 0.732509 0.0578622
0.64651 0.734066 0.0680705
0.667796 0.735836 0.0789044
0.688182 0.737835 0.0903182
0.707698 0.740017 0.102312
0.726375 0.742382 0.11487
0.744274 0.74493 0.128008
0.761395 0.747662 0.141695
0.777783 0.750561 0.155917
0.793423 0.753613 0.170687
0.808362 0.756817 0.185977
0.822583 0.760189 0.201785
0.836133 0.763714 0.218097
0.848997 0.767391 0.234882
0.861204 0.771221 0.25214
0.872755 0.775189 0.269871
0.883665 0.779309 0.288014
0.89395 0.783581 0.306584
0.90367 0.787991 0.325322
0.912703 0.792554 0.344717
0.0458686 0.817044 0.0458686
0.206241 0.781598 0.0158694
0.271427 0.771817 0.0118868
0.322133 0.765911 0.0121309
0.365347 0.762005 0.0147402
0.403723 0.759365 0.018967
0.438651 0.757626 0.0244755
0.470909 0.756573 0.0310369
0.500984 0.756069 0.038529
