lut/ground-control/GroundControl_LoCon.cube
TITLE "Generate by Resolve"
LUT_3D_SIZE 33
0.0792248 0.0988022 0.105394
0.104326 0.0984512 0.105058
0.131762 0.0975662 0.104158
0.161929 0.095964 0.102556
0.193454 0.0944228 0.10103
0.224552 0.0930495 0.0996414
0.254459 0.0923781 0.09897
0.284215 0.092134 0.0987259
0.314122 0.092134 0.0987259
0.343496 0.0920577 0.0986648
0.372946 0.0920882 0.0986954
0.403006 0.0924086 0.0990005
0.433051 0.0926986 0.0993057
0.463584 0.0928664 0.0994736
0.494362 0.0929885 0.0995804
0.526009 0.0929274 0.0995346
0.558267 0.0928511 0.0994583
0.590814 0.0923934 0.0989853
0.623865 0.0917678 0.0983597
0.656916 0.0914015 0.0980087
0.689815 0.0908522 0.0974441
0.721904 0.0903334 0.0969406
0.753445 0.0898146 0.0964218
0.783963 0.0898146 0.0964065
0.812421 0.0899672 0.0965591
0.836744 0.0912337 0.0978256
0.859236 0.092958 0.0995499
0.88159 0.0950332 0.101625
0.903395 0.0968795 0.103471
0.923354 0.0992142 0.105806
0.940459 0.102312 0.108904
0.954513 0.106554 0.113146
0.966461 0.111009 0.117617
0.0787823 0.123186 0.104952
0.104158 0.123125 0.104875
0.132326 0.122972 0.104723
0.163287 0.122164 0.103914
0.195422 0.121248 0.102998
0.227176 0.120516 0.102266
0.25774 0.1205 0.102251
0.287694 0.120455 0.102205
0.317723 0.120577 0.102327
0.347616 0.121019 0.10277
0.377569 0.121553 0.103319
0.407614 0.121859 0.103609
0.437644 0.122148 0.103899
0.468391 0.122515 0.10428
0.499107 0.122576 0.104326
0.530602 0.122362 0.104112
0.562585 0.122011 0.103761
0.595163 0.121584 0.103334
0.628199 0.120958 0.102708
0.660777 0.120119 0.101869
0.693309 0.119188 0.100938
0.725399 0.118669 0.10042
0.756817 0.118029 0.099794
0.786999 0.117678 0.0994278
0.815396 0.117784 0.0995346
0.839887 0.119219 0.100969
0.862318 0.120882 0.102647
0.884367 0.122652 0.104402
0.906142 0.124468 0.106218
0.926329 0.127031 0.108782
0.943389 0.130098 0.111849
0.957153 0.134035 0.115785
0.96907 0.13846 0.120211
0.07776 0.150805 0.103929
0.103944 0.151553 0.104677
0.132418 0.151705 0.104829
0.163699 0.151202 0.104326
0.196384 0.150835 0.10396
0.228489 0.150454 0.103578
0.259174 0.150561 0.103685
0.289448 0.150835 0.10396
0.31989 0.151369 0.104494
0.349676 0.151705 0.104829
0.379385 0.15201 0.105135
0.409522 0.152392 0.105516
0.439582 0.152712 0.105837
0.470008 0.152773 0.105898
0.500587 0.152682 0.105806
0.532158 0.152544 0.105669
0.563851 0.151904 0.105028
0.596017 0.151064 0.104189
0.628687 0.150072 0.103197
0.661311 0.149264 0.102388
0.693889 0.148394 0.101518
0.725658 0.14757 0.100694
0.756985 0.146838 0.0999619
0.787366 0.14667 0.099794
0.815717 0.146731 0.099855
0.839933 0.14789 0.101015
0.862318 0.149523 0.102647
0.884581 0.151492 0.104616
0.906325 0.153277 0.106401
0.926223 0.15555 0.108675
0.943267 0.158602 0.111727
0.957275 0.162783 0.115908
0.969177 0.167208 0.120333
0.0766003 0.180621 0.10277
0.10312 0.181704 0.103853
0.132204 0.182467 0.104616
0.163851 0.182345 0.104494
0.196521 0.181933 0.104097
0.228702 0.181659 0.103807
0.259648 0.18201 0.104158
0.28983 0.182193 0.104341
0.319905 0.182361 0.104509
0.349691 0.182696 0.104845
0.379553 0.183139 0.105303
0.409384 0.18323 0.105379
0.439078 0.1832 0.105348
0.469398 0.183139 0.105287
0.499779 0.182864 0.105013
0.530922 0.182284 0.104433
0.562524 0.181552 0.1037
0.594888 0.180911 0.103059
0.627497 0.179843 0.101991
0.659892 0.17882 0.100969
0.692302 0.177783 0.0999313
0.724224 0.177111 0.0992599
0.755596 0.176425 0.0985733
0.785672 0.175967 0.0981155
0.813993 0.175982 0.0981308
0.838422 0.177356 0.0995041
0.860792 0.178973 0.101122
0.88278 0.180667 0.102815
0.904509 0.182452 0.104601
0.924666 0.184955 0.107118
0.941695 0.187991 0.11014
0.955428 0.191913 0.114061
0.96733 0.196338 0.118486
0.0770733 0.21178 0.103243
0.103731 0.213001 0.104448
0.132631 0.213581 0.105043
0.164324 0.213504 0.104952
0.197086 0.213199 0.104646
0.229191 0.212818 0.10428
0.259785 0.212848 0.104295
0.289876 0.212924 0.104387
0.320058 0.213199 0.104662
0.349493 0.213199 0.104662
0.378836 0.213138 0.104585
0.40853 0.213077 0.104524
0.43827 0.213077 0.104524
0.46833 0.212757 0.104204
0.498573 0.212345 0.103792
0.529854 0.211917 0.103365
0.561425 0.211154 0.102602
0.593484 0.210208 0.101656
0.626062 0.20911 0.100572
0.658686 0.208316 0.0997635
0.691051 0.207233 0.0986954
0.722759 0.206332 0.0977798
0.754025 0.205539 0.0969863
0.784314 0.205295 0.0967575
0.812634 0.205325 0.096788
0.836805 0.206439 0.0979019
0.859159 0.208026 0.0994888
0.881407 0.209979 0.101442
0.90312 0.211749 0.103197
0.923018 0.214008 0.10547
0.940063 0.21706 0.108522
0.95407 0.221241 0.112703
0.965988 0.225681 0.117128
0.0780041 0.242588 0.104173
0.104585 0.243702 0.105303
0.133684 0.244495 0.106096
0.165209 0.244251 0.105837
0.197665 0.243656 0.105241
0.229694 0.243198 0.104799
0.260136 0.243046 0.104646
0.289937 0.242847 0.104448
0.319646 0.242649 0.10425
0.348989 0.242557 0.104143
0.378531 0.242679 0.10428
0.408057 0.242451 0.104051
0.437552 0.242222 0.103807
0.467674 0.241978 0.103563
0.498009 0.241642 0.103243
0.529046 0.24097 0.102556
0.56054 0.240131 0.101732
0.592828 0.239399 0.100999
0.62536 0.23827 0.099855
0.657694 0.237186 0.0987869
0.690059 0.236103 0.0976883
0.721996 0.235447 0.0970321
0.753262 0.234638 0.0962234
0.783307 0.23415 0.0957504
0.811597 0.234134 0.0957351
0.836011 0.235508 0.0970932
0.858381 0.23711 0.0986954
0.880369 0.238819 0.100404
0.902098 0.240589 0.10219
0.922271 0.243122 0.104723
0.939315 0.246174 0.107774
0.953094 0.250141 0.111727
0.965087 0.254643 0.116243
0.0796979 0.273091 0.105867
0.106126 0.274067 0.106844
0.134707 0.274342 0.107103
0.165957 0.273823 0.106584
0.198383 0.273182 0.105959
0.230121 0.272435 0.105211
0.260334 0.272084 0.10486
0.290257 0.271992 0.104768
0.319982 0.271824 0.104585
0.349248 0.271626 0.104402
0.37847 0.271458 0.104219
0.408011 0.271244 0.104005
0.43769 0.271183 0.10396
0.467643 0.270771 0.103532
0.497826 0.270268 0.103044
0.528984 0.269734 0.102495
0.560555 0.268956 0.101732
0.592569 0.267964 0.10074
0.625086 0.266819 0.0995804
0.657664 0.26598 0.0987564
0.690013 0.264881 0.0976425
0.721691 0.263951 0.0967269
0.752941 0.263142 0.0959182
0.783261 0.262928 0.0957046
0.811566 0.262943 0.0957046
0.835737 0.264057 0.0968338
0.858106 0.265675 0.098436
0.880385 0.267643 0.10042
0.902144 0.269444 0.10222
0.922087 0.271763 0.10454
0.939178 0.274861 0.107622
0.953246 0.279103 0.111879
0.965225 0.283604 0.116365
0.0804456 0.302464 0.106615
0.106645 0.303212 0.107362
0.135348 0.303624 0.107759
0.166506 0.302998 0.107134
0.198642 0.302083 0.106218
0.230381 0.301335 0.10547
0.260716 0.301091 0.105226
0.29041 0.300786 0.104921
0.320027 0.300496 0.104631
0.349477 0.300481 0.104631
0.378698 0.300313 0.104463
0.408164 0.300008 0.104158
0.437598 0.299718 0.103853
0.467613 0.299367 0.103502
0.497948 0.299031 0.103182
0.528923 0.298299 0.102449
0.560403 0.297444 0.101579
0.592615 0.296651 0.100786
0.625177 0.295537 0.0996719
0.657496 0.294438 0.0985885
0.68986 0.293355 0.0974899
0.721813 0.292699 0.0968338
0.753079 0.291905 0.0960403
0.783139 0.291447 0.0955825
0.81146 0.291463 0.0955978
0.83592 0.292866 0.0970169
0.858335 0.29453 0.0986648
0.8804 0.296284 0.10042
0.902174 0.298116 0.102266
0.922408 0.300725 0.10486
0.939544 0.303853 0.107988
0.953414 0.307912 0.112047
0.965469 0.312474 0.116609
0.0810559 0.33164 0.107225
0.107195 0.332326 0.107912
0.135561 0.332387 0.107973
0.166659 0.331701 0.107286
0.199023 0.330999 0.1066
0.230655 0.330159 0.105745
0.260777 0.329702 0.105287
0.290547 0.329473 0.105058
0.320256 0.329274 0.10486
0.349462 0.32903 0.104616
0.378637 0.328801 0.104387
0.408331 0.32874 0.104326
0.437766 0.328435 0.104021
0.467689 0.327977 0.103578
0.497841 0.327474 0.103059
0.528939 0.326863 0.102464
0.560555 0.326146 0.101732
0.592569 0.325139 0.10074
0.625101 0.32401 0.0995956
0.657694 0.323186 0.0987716
0.690059 0.322103 0.0976883
0.721767 0.321218 0.0968032
0.753079 0.320455 0.0960403
0.783444 0.320287 0.0958877
0.811795 0.320348 0.0959335
0.836042 0.321538 0.0971237
0.858473 0.323217 0.0988022
0.880842 0.325277 0.100877
0.902693 0.327184 0.10277
0.922744 0.329595 0.105196
0.939925 0.332784 0.108385
0.954101 0.337148 0.112734
0.966217 0.341772 0.117357
0.0814221 0.360235 0.107576
0.107515 0.360891 0.108232
0.136126 0.361181 0.108522
0.167178 0.360464 0.107805
0.199237 0.359457 0.106798
0.230854 0.358618 0.105959
0.261189 0.358358 0.105699
0.290837 0.357992 0.105333
0.320394 0.357656 0.104997
0.349752 0.357565 0.104906
0.379004 0.357412 0.104753
0.408438 0.357092 0.104433
0.437873 0.356786 0.104128
0.468055 0.356603 0.103944
0.498222 0.356115 0.103456
0.529213 0.355383 0.102724
0.560708 0.354543 0.101884
0.592889 0.353719 0.101061
0.625544 0.352697 0.100038
0.657923 0.351659 0.0990005
0.690333 0.350622 0.0979629
0.722332 0.350027 0.0973678
0.753674 0.349294 0.0966354
0.78381 0.348913 0.0962539
0.812222 0.34902 0.0963607
0.836789 0.35053 0.0978714
0.859312 0.352285 0.0996262
0.881453 0.354147 0.101488
0.903349 0.356085 0.103426
0.92372 0.358831 0.106172
0.941009 0.362127 0.109468
0.955032 0.366323 0.113664
0.967224 0.371023 0.118364
0.0816815 0.389075 0.107851
0.107744 0.3897 0.108461
0.136049 0.3897 0.108461
0.167102 0.388968 0.107729
0.199405 0.388205 0.106966
0.230991 0.38732 0.106081
0.261067 0.386816 0.105592
0.290776 0.386526 0.105287
0.320516 0.386358 0.105119
0.349722 0.386114 0.104875
0.378897 0.38587 0.104646
0.408545 0.385779 0.10454
0.438041 0.385534 0.104295
0.467979 0.385107 0.103868
0.498161 0.384619 0.103395
0.529442 0.384192 0.102953
0.560967 0.383383 0.102144
0.593042 0.382437 0.101213
0.625635 0.381369 0.10013
0.658244 0.38056 0.099321
0.690745 0.379614 0.0983749
0.722545 0.37882 0.0975814
0.753964 0.378164 0.0969253
0.784421 0.378103 0.0968643
0.812879 0.378256 0.0970321
0.837232 0.379553 0.0983291
0.859831 0.381384 0.10016
0.882353 0.383612 0.102388
0.904356 0.385672 0.104433
0.924529 0.38822 0.106981
0.941878 0.391577 0.110338
0.956268 0.396139 0.1149
0.968597 0.400977 0.119738
0.08159 0.417578 0.107759
0.107744 0.41828 0.108476
0.136202 0.418418 0.108614
0.167239 0.41767 0.107866
0.199268 0.416648 0.106844
0.230854 0.415763 0.105959
0.261204 0.415534 0.105715
0.290852 0.415167 0.105364
0.320424 0.414832 0.105028
0.349752 0.41471 0.104906
0.37908 0.414633 0.104829
0.408545 0.414359 0.10454
0.438025 0.414084 0.10428
0.468254 0.413947 0.104143
0.498482 0.41352 0.103716
0.529534 0.412863 0.103044
0.56109 0.412085 0.102281
0.593469 0.411444 0.10164
0.626139 0.410437 0.100633
0.65861 0.409491 0.0996872
0.691112 0.40856 0.0987411
0.723217 0.408057 0.0982528
0.754696 0.407477 0.0976577
0.784985 0.407233 0.0974289
0.81355 0.407507 0.0976883
0.83827 0.409155 0.0993515
0.860914 0.411063 0.101244
0.883238 0.413092 0.103273
0.905379 0.415274 0.10547
0.925963 0.418219 0.108415
0.943465 0.421729 0.11191
0.957671 0.426123 0.116304
0.970092 0.431052 0.121248
0.0813153 0.446448 0.107485
0.107362 0.447044 0.10808
0.135668 0.447028 0.108064
0.166842 0.446448 0.107485
0.199008 0.445548 0.106584
0.23061 0.444663 0.105699
0.260716 0.44419 0.105226
0.290394 0.44387 0.104906
0.320226 0.443793 0.104829
0.349477 0.443595 0.104631
0.378698 0.443412 0.104448
0.408362 0.44332 0.104356
0.437964 0.443198 0.104234
0.467994 0.442847 0.103883
0.498268 0.442451 0.103487
0.529656 0.44213 0.103166
0.561273 0.441428 0.102464
0.593439 0.440574 0.10161
0.626154 0.439612 0.100649
0.658961 0.439002 0.100038
0.691569 0.438163 0.0991989
0.723522 0.437522 0.098558
0.755062 0.436988 0.0980392
0.785687 0.437095 0.0981308
0.814343 0.437446 0.0984817
0.838911 0.438956 0.0999924
0.861723 0.441016 0.102052
0.884459 0.443442 0.104494
0.906661 0.445701 0.106737
0.927077 0.448493 0.109529
0.944793 0.452201 0.113237
0.959411 0.457008 0.118044
0.972015 0.462119 0.123156
0.0806439 0.475135 0.106813
0.106752 0.475792 0.107469
0.135271 0.476005 0.107683
0.166323 0.475273 0.10695
0.198383 0.474281 0.105959
0.230213 0.473625 0.105303
0.260426 0.473259 0.104936
0.29012 0.472953 0.104631
0.319753 0.472679 0.104356
0.349096 0.472572 0.10425
0.378561 0.472633 0.104311
0.408133 0.47245 0.104128
0.437705 0.472282 0.10396
0.467979 0.47219 0.103868
0.498375 0.471916 0.103593
0.529549 0.471382 0.103059
0.561242 0.470756 0.102434
0.59379 0.470283 0.101961
0.626596 0.469413 0.101091
0.659205 0.468605 0.100282
0.691875 0.467826 0.0995041
0.724208 0.467567 0.0992447
0.755886 0.467185 0.0988632
0.786404 0.46717 0.0988479
0.815167 0.467628 0.0993057
0.840101 0.469505 0.101183
0.86302 0.471672 0.103349
0.885634 0.473991 0.105669
0.908034 0.476432 0.10811
0.928908 0.479683 0.11136
0.946654 0.483421 0.115099
0.961151 0.48809 0.119768
0.973953 0.493431 0.125109
0.0796216 0.504372 0.105791
0.105699 0.504997 0.106416
0.134051 0.505043 0.106462
0.16524 0.504448 0.105867
0.197513 0.50367 0.105089
0.229175 0.502846 0.104265
0.259342 0.502434 0.103853
0.289326 0.502419 0.103838
0.319051 0.502235 0.103655
0.348409 0.502144 0.103563
0.377722 0.502052 0.103471
0.407446 0.502022 0.103441
0.437247 0.502083 0.103502
0.467414 0.501884 0.103304
0.497841 0.501656 0.103075
0.529351 0.501442 0.102861
0.561135 0.500908 0.102327
0.593484 0.500237 0.101656
0.626413 0.499489 0.100908
0.659449 0.499107 0.100526
0.692256 0.498482 0.0999008
0.724422 0.498039 0.0994583
0.756191 0.497734 0.0991531
0.787106 0.498131 0.0995499
0.816052 0.498772 0.100191
0.840909 0.500572 0.101991
0.863966 0.502861 0.10428
0.886961 0.505577 0.106996
0.909438 0.50811 0.109529
0.930159 0.511193 0.112612
0.948058 0.515084 0.116503
0.962951 0.52015 0.121569
0.975723 0.52546 0.126879
0.0780652 0.533623 0.104234
0.104189 0.534295 0.104906
0.13283 0.534615 0.105226
0.163958 0.533974 0.104585
0.196124 0.533074 0.1037
0.227985 0.532464 0.103075
0.25835 0.532265 0.102876
0.288151 0.532052 0.102663
0.317891 0.531884 0.10251
0.347585 0.532128 0.102739
0.377005 0.532143 0.102754
0.406729 0.532113 0.102724
0.436439 0.532082 0.102693
0.466819 0.532097 0.102708
0.497459 0.532067 0.102678
0.528862 0.531762 0.102373
0.560784 0.53135 0.101961
0.59353 0.53109 0.101701
0.626535 0.530419 0.10103
0.659403 0.52987 0.100481
0.692348 0.529381 0.0999924
0.724987 0.529412 0.100023
0.756939 0.52929 0.0999161
0.787701 0.529519 0.100145
0.816724 0.530251 0.100862
0.841962 0.532433 0.103044
0.865156 0.534859 0.10547
0.887999 0.537423 0.108034
0.910597 0.540063 0.110674
0.93167 0.543496 0.114122
0.949599 0.547433 0.118059
0.964279 0.5523 0.122911
0.977188 0.557733 0.128344
0.0760357 0.563607 0.102205
0.102205 0.56434 0.102922
0.130663 0.564477 0.103075
0.161898 0.563928 0.102525
0.194324 0.563302 0.1019
0.226108 0.5626 0.101198
0.256443 0.562356 0.100954
0.286519 0.562432 0.10103
0.316442 0.562463 0.101045
0.345937 0.562493 0.101091
0.375433 0.562585 0.101183
0.405524 0.562921 0.101518
0.435386 0.563043 0.10164
0.465766 0.563058 0.101656
0.496391 0.563027 0.101625
0.528069 0.562982 0.101579
0.560174 0.562768 0.101366
0.592828 0.562402 0.100999
0.626032 0.561929 0.100526
0.659342 0.561822 0.10042
0.692393 0.56144 0.100023
0.724834 0.561273 0.099855
0.756893 0.561257 0.099855
0.788067 0.561929 0.100511
0.817227 0.562783 0.101381
0.842268 0.564767 0.103365
0.865522 0.567254 0.105837
0.888716 0.570153 0.108751
0.911376 0.572869 0.111467
0.932235 0.576089 0.114687
0.950225 0.580087 0.118685
0.96524 0.585275 0.123857
0.978103 0.590646 0.129244
0.07364 0.593668 0.0998093
0.099855 0.59443 0.100587
0.128649 0.594903 0.101045
0.15993 0.594415 0.100557
0.192248 0.593668 0.0998245
0.224201 0.593149 0.0992905
0.25478 0.593133 0.0992905
0.284749 0.593118 0.0992599
0.314717 0.593164 0.099321
0.344594 0.593591 0.0997482
0.374258 0.593866 0.100008
0.404181 0.594018 0.100175
0.434134 0.594232 0.100389
0.464927 0.594659 0.100801
0.495735 0.594812 0.100954
0.527398 0.594766 0.100923
0.559579 0.594614 0.100755
0.592554 0.594568 0.100725
0.625879 0.594232 0.100389
0.659022 0.593957 0.100114
0.692241 0.593713 0.0998703
0.725078 0.593957 0.100114
0.757214 0.594034 0.100175
0.788159 0.594446 0.100603
0.817365 0.595361 0.101518
0.842786 0.597726 0.103868
0.866102 0.600275 0.106432
0.889052 0.602945 0.109087
0.911742 0.605676 0.111818
0.932891 0.609201 0.115343
0.950896 0.613199 0.119341
0.965606 0.618097 0.124239
0.978485 0.623484 0.129625
0.0712596 0.62443 0.0974289
0.0975814 0.625299 0.0982986
0.126177 0.625574 0.0985733
0.157519 0.625147 0.098146
0.190204 0.624765 0.0977646
0.222202 0.624292 0.0972915
0.25275 0.624262 0.097261
0.282979 0.624491 0.0974899
0.313176 0.624781 0.0977798
0.342916 0.625071 0.0980697
0.372702 0.625452 0.0984512
0.403098 0.626093 0.0990921
0.433219 0.626474 0.0994736
0.463844 0.626734 0.099733
0.494743 0.626963 0.0999619
0.526802 0.627314 0.100313
0.559106 0.627283 0.100282
0.591974 0.627146 0.100145
0.625376 0.626871 0.0998703
0.658869 0.626947 0.0999466
0.692119 0.626764 0.0997635
0.724743 0.626764 0.0997635
0.756954 0.626917 0.0999161
0.788266 0.627695 0.100694
0.817517 0.628656 0.101656
0.842649 0.630732 0.103731
0.866011 0.633341 0.10634
0.88922 0.636255 0.109255
0.91191 0.638987 0.112001
0.932769 0.642222 0.115221
0.950759 0.64622 0.119219
0.965743 0.651362 0.124361
0.978546 0.656687 0.129702
0.0690166 0.655131 0.0951858
0.095613 0.656291 0.0963302
0.124453 0.656825 0.0968643
0.155947 0.656535 0.0965896
0.188464 0.655985 0.0960403
0.2206 0.655634 0.0956893
0.251499 0.655955 0.0960098
0.281773 0.656229 0.0962844
0.312016 0.656565 0.0966201
0.342092 0.657206 0.0972457
0.372076 0.657786 0.0978256
0.402274 0.658213 0.0982681
0.432502 0.658717 0.0987716
0.463569 0.659403 0.0994583
0.494591 0.65977 0.0998245
0.526452 0.659907 0.0999619
0.558816 0.659937 0.0999924
0.59202 0.660151 0.100191
0.625498 0.659953 0.0999924
0.658778 0.659815 0.099855
0.692088 0.659678 0.0997177
0.725032 0.660014 0.100053
0.757244 0.660166 0.100221
0.788266 0.660655 0.10071
0.817533 0.661631 0.101671
0.842954 0.663996 0.104051
0.866285 0.66656 0.106615
0.88922 0.6692 0.109255
0.911955 0.671992 0.112032
0.932952 0.675364 0.115404
0.950881 0.679286 0.119341
0.965515 0.684092 0.124147
0.978271 0.689387 0.129427
0.0674449 0.686595 0.0935988
0.0939651 0.687678 0.0946822
0.122789 0.688182 0.095201
0.15465 0.688258 0.0952773
0.187411 0.687968 0.0949722
0.219684 0.68777 0.0947738
0.250477 0.687968 0.0949874
0.280919 0.688426 0.0954299
0.311452 0.689052 0.0960555
0.341482 0.689632 0.0966354
0.371511 0.690242 0.097261
0.402045 0.691035 0.0980392
0.43241 0.691661 0.0986648
0.463233 0.692103 0.0991226
0.494316 0.692531 0.0995499
0.526543 0.693049 0.100053
0.558984 0.693141 0.10016
0.591943 0.693095 0.100114
0.625437 0.692912 0.0999313
0.659022 0.69308 0.100099
0.692332 0.692958 0.0999619
0.724987 0.693004 0.100023
0.757214 0.693172 0.100175
0.78851 0.693935 0.100954
0.817746 0.694881 0.101884
0.842832 0.696895 0.103914
0.866087 0.699397 0.106416
0.88925 0.702281 0.109285
0.911864 0.704936 0.11194
0.932601 0.708034 0.115053
0.950576 0.712001 0.11902
0.965225 0.716838 0.123857
0.977859 0.721996 0.129015
0.0665293 0.717937 0.0926986
0.09337 0.719341 0.0940871
0.12253 0.72018 0.0949416
0.154284 0.72015 0.0949111
0.18706 0.719875 0.0946365
0.219715 0.720043 0.0948043
0.25066 0.720409 0.0951705
0.281163 0.720913 0.0956741
0.311589 0.721431 0.0961929
0.341802 0.72221 0.0969558
0.372045 0.723033 0.0977951
0.402426 0.723659 0.0984207
0.432807 0.7243 0.0990616
0.463981 0.725093 0.099855
0.495109 0.725567 0.100328
0.527047 0.725811 0.100557
0.559487 0.725902 0.100664
0.592752 0.726162 0.100923
0.626245 0.725994 0.10074
0.659541 0.725856 0.100618
0.692836 0.725719 0.100465
0.72575 0.726009 0.100771
0.757916 0.726116 0.100877
0.788846 0.726528 0.101289
0.818036 0.727413 0.102174
0.843366 0.729686 0.104448
0.86656 0.732128 0.106874
0.889326 0.7346 0.109361
0.911833 0.737148 0.11191
0.932708 0.740398 0.11516
0.950454 0.744152 0.118914
0.964874 0.748745 0.123507
0.977554 0.753948 0.12871
0.066743 0.74995 0.0929122
0.0935531 0.751308 0.0942702
0.122667 0.752102 0.095079
0.154726 0.752392 0.0953536
0.187762 0.752361 0.0953231
0.220218 0.752346 0.0953078
0.251194 0.752743 0.0957046
0.282048 0.753597 0.0965591
0.312551 0.754192 0.0971542
0.342718 0.754894 0.0978714
0.372839 0.755627 0.0985885
0.403418 0.756451 0.0994125
0.433936 0.757214 0.100191
0.46482 0.757748 0.10071
0.495949 0.758206 0.101167
0.528191 0.75874 0.101717
0.560632 0.758846 0.101808
0.593576 0.758785 0.101747
0.627024 0.758556 0.101518
0.660548 0.758663 0.101625
0.693782 0.75845 0.101411
0.726345 0.758419 0.101381
0.758465 0.758465 0.101427
0.789609 0.759091 0.102052
0.818677 0.759854 0.102815
0.84358 0.7617 0.104662
0.866667 0.764035 0.106996
0.889647 0.76672 0.109682
0.912016 0.769131 0.112093
0.932494 0.771969 0.114946
0.950118 0.775601 0.118578
0.964569 0.78024 0.123201
0.976959 0.785138 0.128099
0.0681315 0.781659 0.0942855
0.0951095 0.783185 0.0958267
0.124514 0.784283 0.0969253
0.156451 0.784451 0.0970779
0.189425 0.78436 0.0969863
0.222187 0.784634 0.0972763
0.2533 0.785183 0.0978256
0.283909 0.785779 0.0984207
0.314427 0.786389 0.0990311
0.344884 0.787411 0.100053
0.375021 0.788128 0.100771
0.405432 0.788785 0.101427
0.435828 0.789441 0.102083
0.466941 0.790188 0.102815
0.4981 0.790677 0.103319
0.529992 0.790875 0.103502
0.562356 0.790906 0.103532
0.595544 0.791074 0.103716
0.628946 0.790814 0.103441
0.66212 0.790555 0.103197
0.695262 0.790249 0.102892
0.727977 0.790372 0.103014
0.759976 0.790311 0.102937
0.790753 0.790555 0.103197
0.81973 0.791226 0.103868
0.8448 0.793256 0.105882
0.86772 0.795407 0.108034
0.890211 0.79762 0.110246
0.912444 0.799878 0.11252
0.933043 0.802869 0.115496
0.950423 0.806226 0.118868
0.964355 0.810346 0.122972
0.97644 0.814954 0.127581
0.0715648 0.813291 0.097734
0.098558 0.814832 0.0992752
0.12781 0.815778 0.100221
0.15993 0.816114 0.100557
0.193118 0.816236 0.100679
0.225666 0.816312 0.100755
0.256718 0.816785 0.101228
0.287587 0.817655 0.102098
0.318135 0.818311 0.102754
0.348302 0.819028 0.103471
0.378424 0.81973 0.104173
0.409094 0.820645 0.105089
0.439414 0.821241 0.105684
0.470237 0.821683 0.106126
0.501274 0.822065 0.106508
0.533394 0.822477 0.10692
0.565713 0.822461 0.106905
0.598505 0.822232 0.106676
0.631769 0.82182 0.106264
0.66511 0.821759 0.106203
0.698177 0.821363 0.105806
0.730526 0.821118 0.105562
0.762387 0.82092 0.105364
0.79324 0.821241 0.105684
0.822049 0.821744 0.106188
0.846693 0.823346 0.10779
0.869474 0.82536 0.109789
0.892012 0.827604 0.112047
0.913863 0.829511 0.113954
0.933822 0.83183 0.116258
0.950881 0.834897 0.119341
0.964752 0.838941 0.123384
0.976242 0.842939 0.127382
0.078645 0.843381 0.104814
0.105669 0.844953 0.106386
0.135225 0.846204 0.107622
0.167224 0.846418 0.107851
0.200229 0.846372 0.107805
0.232944 0.846616 0.108034
0.264134 0.847227 0.108644
0.294713 0.847791 0.109224
0.325185 0.848371 0.109789
0.355581 0.849317 0.110735
0.385641 0.849973 0.111391
0.415961 0.850538 0.111955
0.44625 0.851087 0.112505
0.477272 0.851728 0.113161
0.508186 0.851987 0.113405
0.53991 0.851987 0.11342
0.572106 0.851865 0.113283
0.605097 0.851835 0.113268
0.638254 0.851331 0.112749
0.671153 0.850813 0.11223
0.704021 0.850233 0.11165
0.736492 0.850095 0.111513
0.768215 0.84976 0.111177
0.798627 0.849653 0.11107
0.827207 0.849928 0.111345
0.851682 0.851347 0.112764
0.874067 0.852979 0.114397
0.896056 0.854673 0.116091
0.917571 0.856229 0.117662
0.937148 0.858183 0.1196
0.953262 0.860288 0.121721
0.96585 0.863066 0.124483
0.976577 0.8663 0.127733
0.0876783 0.873167 0.113848
0.114687 0.874739 0.115419
0.143969 0.8757 0.116381
0.176013 0.875975 0.11664
0.209232 0.876127 0.116808
0.241718 0.876143 0.116823
0.272709 0.876554 0.11722
0.303441 0.877272 0.117952
0.333959 0.877897 0.118578
0.364004 0.878477 0.119158
0.393957 0.879026 0.119707
0.424445 0.879759 0.120439
0.454597 0.880186 0.120851
0.485252 0.880461 0.121126
0.516091 0.880629 0.121309
0.547967 0.880796 0.121477
0.57998 0.880491 0.121157
0.612497 0.879988 0.120668
0.645518 0.879332 0.120012
0.678553 0.878965 0.119646
0.711223 0.878172 0.118853
0.743084 0.87744 0.118105
0.774411 0.876692 0.117372
0.804746 0.876509 0.117189
0.832975 0.876448 0.117113
0.856825 0.877241 0.117906
0.878569 0.878218 0.118898
0.899672 0.879026 0.119707
0.920195 0.879606 0.120272
