lut/ground-control/GroundControl_Warm2.cube
TITLE "Generate by Resolve"
LUT_3D_SIZE 5
0 0 0
0.333913 0 0
0.593835 0 0
0.826749 0 0
1 0 0
0 0.251087 0
0.315816 0.232074 0
0.564797 0.231846 0
0.788037 0.238575 0.000991836
0.993317 0.250156 0.0179904
0.0122072 0.495125 0.0122072
0.315648 0.479683 0.00787366
0.553857 0.481849 0.021149
0.767651 0.490608 0.0410163
0.964218 0.504005 0.0655528
0.0515297 0.729473 0.0515297
0.33991 0.717556 0.0565194
0.567437 0.722087 0.0779431
0.771817 0.732845 0.105623
0.959792 0.748043 0.137728
0.116899 0.953445 0.116899
0.39028 0.945052 0.131273
0.607156 0.951904 0.160906
0.802213 0.964645 0.196429
0.981628 0.981628 0.236179
0.00289921 0.00289921 0.212741
0.335164 0 0.186694
0.593912 0 0.180514
0.825757 0 0.181598
1 0 0.187716
0.00247196 0.25449 0.198154
0.319417 0.236301 0.18117
0.567208 0.236789 0.182879
0.789395 0.24419 0.191485
0.993683 0.256413 0.204929
0.019852 0.499001 0.201373
0.32166 0.484382 0.193637
0.558679 0.487251 0.203418
0.771389 0.496681 0.21976
0.966995 0.510735 0.240711
0.0616007 0.733806 0.228962
0.348348 0.722713 0.230564
0.57467 0.727947 0.248493
0.777996 0.739391 0.272633
0.964996 0.75523 0.301183
0.129427 0.958236 0.282612
0.40116 0.950652 0.293599
0.616846 0.958221 0.319738
0.810834 0.971649 0.35172
0.989273 0.989273 0.387915
0.00109865 0.00109865 0.485878
0.331838 0 0.455177
0.589487 0 0.444221
0.820356 0 0.440497
1 0 0.441779
0.00334173 0.253513 0.455177
0.318761 0.236255 0.433555
0.565438 0.237552 0.430472
0.786664 0.245716 0.434272
0.990082 0.258701 0.442878
0.0234684 0.498833 0.442359
0.323735 0.485145 0.429969
0.559655 0.488823 0.434974
0.771405 0.499031 0.44651
0.96614 0.513832 0.462623
0.0679942 0.734432 0.453925
0.353185 0.724285 0.450874
0.578424 0.730312 0.464027
0.780789 0.742519 0.48336
0.966888 0.759121 0.507073
0.138582 0.959655 0.491585
0.408789 0.953002 0.497917
0.623377 0.961379 0.519265
0.816403 0.97557 0.546456
0.993942 0.993942 0.577813
0 0 0.786068
0.326436 0 0.750088
0.583047 0 0.73373
0.813001 0 0.724575
1 0 0.720409
0.00227359 0.250599 0.737179
0.316197 0.234318 0.710262
0.561837 0.236469 0.701793
0.782147 0.245457 0.70016
0.984726 0.259236 0.703319
0.0252995 0.496895 0.706203
0.324086 0.484169 0.688548
0.558953 0.488701 0.688151
0.769787 0.499733 0.69424
0.963684 0.515343 0.704921
0.0727245 0.733455 0.699657
0.356466 0.724269 0.691341
0.580652 0.731167 0.699092
0.782101 0.744198 0.712993
0.967361 0.761593 0.731258
0.146273 0.959625 0.719234
0.415 0.953948 0.720287
0.62855 0.96318 0.736248
0.820645 0.978195 0.757992
0.99736 0.99736 0.783902
0 0 1
0.319707 0 1
0.575296 0 1
0.804379 0 1
1 0 1
0 0.246433 1
0.312413 0.231144 1
0.557046 0.234195 0.988495
0.776471 0.244038 0.980987
0.978241 0.258656 0.978241
0.0259556 0.493797 0.984863
0.323308 0.482094 0.961471
0.557168 0.487511 0.95523
0.767132 0.499397 0.955444
0.96022 0.515831 0.96022
0.0764477 0.731441 0.958694
0.35874 0.723262 0.94464
0.581903 0.731044 0.946563
0.782467 0.74493 0.954574
0.966949 0.763165 0.966949
0.153063 0.958679 0.958679
0.42034 0.954009 0.954009
0.632868 0.964126 0.964126
0.824094 0.979995 0.979995
1 1 1
