lut/ground-control/GroundControl_Bright_Warm.cube
TITLE "Generate by Resolve"
LUT_3D_SIZE 9
0 0 0
0.0442054 0.0214694 0.0214694
0.105989 0.0382086 0.0382086
0.181827 0.0511482 0.0511482
0.270466 0.0606241 0.0606241
0.370291 0.0670787 0.0670787
0.479011 0.0711376 0.0711376
0.593439 0.0736553 0.0736553
0.710399 0.0754864 0.0754864
0.0720378 0.0950484 0.0720378
0.189502 0.0975204 0.0661173
0.282887 0.106508 0.0664073
0.382467 0.113832 0.0650034
0.487098 0.119768 0.0625162
0.594522 0.124895 0.0598001
0.70219 0.129885 0.0577249
0.807874 0.135332 0.0569772
0.90985 0.141695 0.0580911
0.0966049 0.209018 0.0966049
0.296452 0.190097 0.0599069
0.412863 0.193591 0.0469978
0.522118 0.19884 0.0376287
0.627253 0.20502 0.0311589
0.728252 0.212146 0.0276493
0.824567 0.22034 0.0271916
0.915663 0.229786 0.0298314
1 0.240589 0.0355535
0.0790112 0.339773 0.0790112
0.346548 0.302663 0.0231937
0.476341 0.302464 0.00743114
0.5879 0.306905 0
0.689189 0.313848 0
0.782544 0.322698 0
0.868925 0.333227 0.0043183
0.94876 0.345312 0.0139315
1 0.358907 0.027039
0.0472725 0.476173 0.0472725
0.356603 0.427146 0
0.493523 0.424384 0
0.605142 0.428138 0
0.702754 0.435416 0
0.790341 0.445167 0
0.869902 0.456886 0.00228885
0.942184 0.470375 0.0202335
1 0.485557 0.0423285
0.0246433 0.608927 0.0246433
0.352056 0.554101 0
0.491371 0.549798 0
0.60174 0.553048 0
0.696117 0.560357 0
0.778927 0.570489 0.00636301
0.851972 0.582925 0.0324712
0.915938 0.597452 0.0645762
0.970977 0.614008 0.102907
0.0238499 0.732998 0.0238499
0.351705 0.676997 0
0.489998 0.671794 0
0.597589 0.674464 0.00743114
0.68748 0.681468 0.0377966
0.764111 0.691554 0.076524
0.829313 0.704234 0.123384
0.883879 0.719265 0.178195
0.928222 0.736568 0.240681
0.0599069 0.84239 0.0599069
0.374624 0.788083 0.0355688
0.50898 0.781888 0.0657359
0.612039 0.78352 0.110384
0.696254 0.789654 0.166125
0.766018 0.799115 0.231403
0.823438 0.811429 0.304753
0.869856 0.826322 0.384878
0.906493 0.843671 0.469535
0.163836 0.924758 0.163836
0.447486 0.876051 0.175402
0.573693 0.86923 0.235752
0.66952 0.870115 0.3093
0.74641 0.875715 0.391806
0.808728 0.885115 0.479576
0.85919 0.89778 0.569833
0.899901 0.913344 0.660243
0.932662 0.931456 0.748775
0.00892653 0.00892653 0.00906386
0.0599527 0.0285039 0.02916
0.125383 0.0442054 0.0454108
0.204547 0.0561837 0.0580148
0.296101 0.0648203 0.0673228
0.39823 0.0705882 0.0737926
0.508431 0.0741894 0.0780957
0.623255 0.0765393 0.081117
0.739757 0.0784314 0.08365
0.0788281 0.104631 0.0808881
0.205219 0.104631 0.0730602
0.302113 0.112627 0.0729992
0.403967 0.119265 0.0716564
0.509728 0.124819 0.0696422
0.617426 0.129793 0.067628
0.724605 0.134844 0.0664378
0.829236 0.14049 0.0666972
0.929778 0.147189 0.0688334
0.100832 0.219379 0.105241
0.309133 0.198093 0.0671855
0.427863 0.200839 0.0547036
0.538064 0.205737 0.0461433
0.64332 0.21178 0.0406806
0.743862 0.218921 0.0382391
0.839353 0.227268 0.0388647
0.929351 0.236927 0.0425422
1 0.24799 0.0492561
0.0826886 0.350164 0.0890059
0.3561 0.31133 0.0329595
0.487221 0.310643 0.0181125
0.599145 0.31487 0.0110781
0.700267 0.321767 0.00943008
0.793103 0.330663 0.0122835
0.878752 0.341299 0.0191196
0.957702 0.353552 0.0296483
1 0.367346 0.0435035
0.0524758 0.485847 0.0599069
0.364813 0.435889 0
0.502297 0.432837 0
0.613931 0.4365 0
0.711223 0.443763 0
0.798367 0.453574 0.00509651
0.877287 0.465415 0.0198367
0.948714 0.479072 0.0386664
1 0.494469 0.061738
0.0323033 0.617578 0.0401312
0.360449 0.562448 0
0.499748 0.558068 0
0.609842 0.561318 0
0.703716 0.568673 0.00514229
0.785794 0.578912 0.0264897
0.857862 0.591501 0.0538491
0.920623 0.606256 0.0873274
0.974197 0.623102 0.127123
0.034287 0.740551 0.0419928
0.361334 0.684657 0
0.499168 0.679454 0.00712596
0.606134 0.68217 0.0296941
0.695186 0.68925 0.0616312
0.770764 0.699504 0.102037
0.834684 0.712383 0.150622
0.8878 0.727672 0.207111
0.930571 0.745281 0.271107
0.0751049 0.848112 0.0822156
0.387259 0.794324 0.0602426
0.520607 0.78822 0.0923934
0.622614 0.78999 0.13901
0.705623 0.796277 0.196612
0.77406 0.805966 0.263539
0.830076 0.81857 0.338094
0.875105 0.833814 0.418952
0.910506 0.85153 0.503578
0.186389 0.927672 0.192264
0.46508 0.880125 0.206943
0.58941 0.873671 0.2692
0.683558 0.874907 0.344167
0.758755 0.880949 0.427237
0.819471 0.890852 0.514855
0.868482 0.904036 0.604303
0.907958 0.920104 0.693309
0.939742 0.938689 0.780087
0.0177615 0.0177615 0.0192874
0.0757458 0.0352789 0.0393988
0.144808 0.0497749 0.0568246
0.227131 0.0606699 0.0709239
0.32134 0.0683299 0.082002
0.425422 0.0733196 0.0905013
0.536706 0.0763561 0.0970169
0.651514 0.0784772 0.102434
0.767193 0.0803693 0.107393
0.0850385 0.113695 0.0965286
0.22031 0.111055 0.088716
0.32047 0.117906 0.0903182
0.424125 0.123812 0.0910964
0.530846 0.128847 0.0912947
0.638544 0.133577 0.0916457
0.745022 0.138613 0.0927901
0.848432 0.144396 0.0952468
0.947417 0.151339 0.0994278
0.104097 0.228687 0.127184
0.320531 0.204929 0.0896315
0.441321 0.206867 0.0791638
0.552254 0.211322 0.0727855
0.657465 0.217166 0.0694591
0.757427 0.224277 0.0690166
0.851987 0.232715 0.0714275
0.940871 0.242542 0.0766918
1 0.253849 0.0847486
0.0852064 0.35903 0.117525
0.36408 0.318486 0.0623789
0.496345 0.317281 0.0492866
0.60853 0.321248 0.043946
0.709392 0.328069 0.0438392
0.801678 0.336996 0.0480049
0.886549 0.347753 0.0559854
0.964614 0.360174 0.0674296
1 0.374151 0.0819257
0.0563363 0.493751 0.0938125
0.371389 0.442908 0.034226
0.509331 0.439597 0.0251926
0.620905 0.443168 0.0257572
0.717861 0.450446 0.0325017
0.804532 0.460319 0.0438087
0.882795 0.472297 0.0591745
0.953338 0.486152 0.0785992
1 0.501823 0.102251
0.0385595 0.62443 0.0776989
0.367193 0.56907 0.0226444
0.506432 0.56463 0.0209812
0.616236 0.56791 0.0297093
0.709575 0.575341 0.0455482
0.79089 0.585733 0.0675822
0.861982 0.59855 0.095613
0.923537 0.613611 0.129702
0.975692 0.630823 0.170047
0.0433814 0.746334 0.0817273
0.369497 0.690608 0.0378576
0.506844 0.685466 0.0487221
0.613169 0.688289 0.0721141
0.701381 0.695552 0.104814
0.775921 0.706035 0.145922
0.838605 0.719219 0.195026
0.890349 0.73489 0.25182
0.93167 0.752941 0.31577
0.0893263 0.852125 0.124376
0.398718 0.798993 0.103944
0.53106 0.793103 0.137041
0.632029 0.795102 0.18436
0.713878 0.801694 0.24239
0.781064 0.811765 0.309285
0.835782 0.824796 0.383352
0.879576 0.840543 0.462898
0.913893 0.858778 0.545571
0.208362 0.929137 0.236896
0.48188 0.882963 0.253208
0.604257 0.877089 0.31545
0.696818 0.878813 0.390143
0.770397 0.885481 0.471839
0.829618 0.89604 0.557366
0.877317 0.90988 0.644129
0.915709 0.926589 0.730007
0.946654 0.945754 0.813428
0.0263676 0.0263676 0.0324254
0.0914473 0.0415656 0.0545968
0.164004 0.0546731 0.0754711
0.249256 0.0643015 0.0935225
0.345785 0.0708324 0.108904
0.451423 0.0749065 0.121965
0.563104 0.0773632 0.133211
0.677699 0.0790723 0.143221
0.792218 0.0808728 0.152575
0.0903944 0.12195 0.122789
0.234424 0.116442 0.117525
0.337545 0.121996 0.123308
0.442741 0.126986 0.128527
0.549996 0.131426 0.133181
0.657389 0.135821 0.137774
0.762921 0.140719 0.14284
0.864958 0.146578 0.148821
0.962295 0.153689 0.156069
0.105989 0.2365 0.167956
0.330159 0.210178 0.133028
0.452735 0.2112 0.126375
0.564202 0.215122 0.123674
0.669184 0.220691 0.12369
0.76846 0.227726 0.126192
0.862043 0.236194 0.131106
0.949737 0.246174 0.13843
1 0.257694 0.148135
0.0860914 0.365896 0.170687
0.370001 0.323644 0.117617
0.503243 0.321874 0.107164
0.615549 0.325582 0.104158
0.716091 0.332296 0.105989
0.807782 0.341253 0.111727
0.891875 0.352102 0.120897
0.96907 0.364706 0.133165
1 0.378882 0.148104
0.0583963 0.499443 0.1552
0.37583 0.447745 0.0969406
0.514153 0.44419 0.0893111
0.625605 0.447669 0.0909743
0.722225 0.454978 0.098436
0.808408 0.464958 0.110185
0.885969 0.477119 0.125856
0.955627 0.491218 0.145388
1 0.50724 0.168963
0.0429236 0.628992 0.143267
0.371878 0.573495 0.088777
0.511009 0.569039 0.0875715
0.620478 0.572381 0.0966049
0.713298 0.579965 0.112612
0.793866 0.590585 0.134615
0.863996 0.603708 0.162371
0.924361 0.619165 0.195941
0.975143 0.636866 0.235462
0.0507362 0.749905 0.148455
0.375769 0.694453 0.105043
0.512642 0.689448 0.115969
0.618341 0.69247 0.139178
0.70576 0.700008 0.17145
0.779309 0.710872 0.211795
0.840848 0.724514 0.259754
0.891325 0.740734 0.314916
0.93135 0.75938 0.376654
0.102205 0.854093 0.190723
0.408728 0.801785 0.170611
0.540063 0.796246 0.203113
0.640055 0.798642 0.249393
0.720851 0.805722 0.305821
0.786892 0.816358 0.370291
0.840467 0.830014 0.441657
0.883207 0.846448 0.517464
0.916671 0.86537 0.595789
0.22948 0.928923 0.30045
0.497704 0.884367 0.316365
0.618265 0.87924 0.376623
0.709209 0.881758 0.44828
0.781292 0.88925 0.526192
0.839155 0.900649 0.607279
0.88571 0.915328 0.689143
0.923201 0.932845 0.769757
0.953475 0.952712 0.848142
0.0345617 0.0345617 0.0508278
0.106813 0.0471656 0.0775464
0.182696 0.0586709 0.104662
0.270588 0.066804 0.129564
0.369055 0.0720378 0.152209
0.475807 0.0750286 0.172702
0.587549 0.0767224 0.191241
0.701396 0.0779583 0.208194
0.81442 0.0795453 0.223957
0.0945907 0.129076 0.163622
0.247181 0.12047 0.163806
0.352926 0.124544 0.176562
0.459281 0.128481 0.188739
0.566735 0.132189 0.200046
0.673548 0.136141 0.210773
0.777951 0.140826 0.221317
0.878477 0.146639 0.232074
0.974075 0.153872 0.24332
0.106188 0.242451 0.232288
0.337667 0.213458 0.202121
0.461753 0.213458 0.201099
0.573526 0.216785 0.203525
0.678141 0.222019 0.208011
0.776623 0.228885 0.214298
0.869154 0.237369 0.222309
0.955642 0.247456 0.232074
1 0.259174 0.243565
0.0849775 0.370398 0.253178
0.37351 0.326436 0.203296
0.507561 0.324086 0.196231
0.619913 0.327504 0.196078
0.720058 0.334096 0.200153
0.811109 0.343084 0.207553
0.894423 0.354055 0.217823
0.970825 0.366842 0.23064
1 0.381247 0.245701
0.0582895 0.502556 0.248371
0.377829 0.45008 0.191714
0.516426 0.446296 0.185519
0.627726 0.449729 0.188159
0.724025 0.457084 0.196033
0.809705 0.467216 0.207874
0.886564 0.479591 0.223301
0.955322 0.494026 0.242222
1 0.510475 0.264759
0.0450752 0.631022 0.240635
0.374166 0.575448 0.186465
0.513191 0.571023 0.185306
0.622324 0.574487 0.194064
0.714611 0.582284 0.209415
0.794461 0.593225 0.230381
0.863676 0.60679 0.256626
0.922942 0.622766 0.288182
0.972427 0.641123 0.325093
0.0561074 0.751003 0.245441
0.37995 0.695949 0.201648
0.51635 0.691188 0.211551
0.621454 0.694545 0.233249
0.708141 0.70251 0.263493
0.780804 0.713893 0.301198
0.841321 0.728176 0.345861
0.8907 0.745129 0.397009
0.929656 0.764584 0.45388
0.113603 0.853834 0.283482
0.417121 0.802548 0.262043
0.547524 0.797543 0.292012
0.646616 0.800534 0.334997
0.726467 0.808301 0.38735
0.791531 0.81973 0.447028
0.84416 0.834257 0.512612
0.886076 0.851575 0.581964
0.918914 0.871397 0.65333
0.249699 0.927016 0.383673
0.512505 0.884367 0.396674
0.631296 0.880232 0.452216
0.720729 0.883787 0.51809
0.791455 0.892332 0.589487
0.848157 0.904784 0.663554
0.893751 0.920485 0.73817
0.93051 0.938933 0.811688
0.960296 0.95967 0.882918
0.0421454 0.0421454 0.0771801
0.121599 0.0518502 0.111467
0.200565 0.0614633 0.148028
0.290745 0.0679026 0.183078
0.390753 0.0716259 0.21619
0.498161 0.0733654 0.247105
0.609491 0.0741741 0.275593
0.722194 0.074815 0.301778
0.833448 0.0760967 0.325872
0.0973068 0.134752 0.223133
0.258228 0.12282 0.231861
0.36611 0.125246 0.254459
0.473396 0.127962 0.276143
0.580743 0.1308 0.296284
0.686717 0.134203 0.314931
0.789792 0.138582 0.332372
0.888685 0.144305 0.348959
0.982467 0.151598 0.364996
0.104356 0.246159 0.324605
0.342702 0.21445 0.301289
0.468025 0.213352 0.30753
0.579919 0.215976 0.316381
0.684031 0.220813 0.326329
0.781643 0.227497 0.337087
0.87306 0.23595 0.348608
0.958343 0.246128 0.360998
1 0.258061 0.374289
0.0815442 0.372213 0.369024
0.374319 0.326589 0.323262
0.509026 0.323629 0.320195
0.621302 0.326741 0.323217
0.721019 0.333242 0.329656
0.811429 0.342245 0.338628
0.89398 0.353368 0.349737
0.96965 0.366354 0.362722
1 0.381033 0.377432
0.0557412 0.502846 0.376791
0.377111 0.449653 0.321843
0.515923 0.44567 0.316945
0.627054 0.449088 0.320211
0.723033 0.45655 0.328115
0.808194 0.466865 0.339498
0.884367 0.479545 0.353918
0.952255 0.494408 0.371252
1 0.511406 0.391531
0.0447547 0.630274 0.372732
0.373877 0.574701 0.318486
0.512779 0.570367 0.316747
0.621592 0.574044 0.324407
0.71339 0.582162 0.338048
0.792554 0.593545 0.356619
0.860914 0.607675 0.379767
0.919158 0.624353 0.407385
0.967483 0.643534 0.439506
0.0593423 0.749477 0.374914
0.381888 0.694942 0.329625
0.517845 0.690562 0.337087
0.622446 0.694392 0.355581
0.708492 0.702953 0.381781
0.780377 0.715068 0.414557
0.84004 0.730205 0.453361
0.888502 0.748104 0.497658
0.926604 0.768612 0.546746
0.123445 0.851255 0.403769
0.423865 0.801236 0.378958
0.553414 0.796994 0.403998
0.651743 0.800809 0.441032
0.7308 0.809506 0.486412
0.795056 0.821958 0.538231
0.846952 0.837598 0.59501
0.888289 0.856046 0.654963
0.920745 0.876951 0.716625
0.268986 0.923415 0.486244
0.526192 0.883024 0.493309
0.643427 0.88014 0.541192
0.731472 0.884993 0.59826
0.801007 0.89485 0.660258
0.856718 0.908568 0.724651
0.901549 0.925475 0.789624
0.937758 0.945022 0.853773
0.967239 0.966735 0.916182
0.0488594 0.0488594 0.114641
0.135485 0.055314 0.159945
0.217258 0.0627909 0.209537
0.309361 0.067277 0.258274
0.410437 0.069276 0.305226
0.5178 0.069688 0.349493
0.628534 0.069398 0.390555
0.739742 0.069337 0.428153
0.848951 0.070222 0.462287
0.0982223 0.138643 0.305577
0.267185 0.123125 0.326116
0.376913 0.123735 0.361379
0.484703 0.125078 0.395026
0.591623 0.12697 0.425986
0.696559 0.129717 0.454139
0.798154 0.13373 0.479683
0.895308 0.139269 0.502983
0.987243 0.146578 0.524392
0.10016 0.247333 0.449134
0.344945 0.212818 0.434562
0.471275 0.210544 0.449531
0.583108 0.212436 0.465888
0.686595 0.216831 0.482063
0.783276 0.223285 0.497749
0.873564 0.231693 0.513039
0.957626 0.241978 0.528038
1 0.254108 0.542931
0.0755169 0.371069 0.521782
0.372152 0.323812 0.480842
0.507393 0.320256 0.48217
0.619547 0.323064 0.488518
0.718791 0.329473 0.497246
0.80856 0.338537 0.50753
0.890364 0.349844 0.519051
0.965362 0.363058 0.531701
1 0.378103 0.545373
0.0505074 0.500084 0.543328
0.37348 0.44625 0.489982
0.512444 0.442115 0.486076
0.623423 0.445563 0.489509
0.719066 0.453178 0.496895
0.803738 0.463767 0.507057
0.879255 0.47686 0.519463
0.946288 0.492256 0.533928
1 0.509926 0.550378
0.0417792 0.626581 0.541848
0.37084 0.571084 0.486931
0.509606 0.566949 0.483787
0.618143 0.570916 0.48925
0.709499 0.579477 0.499809
0.788067 0.59144 0.514336
0.85568 0.606317 0.532387
0.913039 0.62388 0.553796
0.960357 0.644114 0.5785
0.0603037 0.745174 0.538384
0.381476 0.691356 0.490181
0.517052 0.68751 0.493446
0.621241 0.691997 0.506645
0.706783 0.70135 0.52639
0.778058 0.714412 0.551537
0.837049 0.730648 0.58146
0.884825 0.749767 0.615732
0.922332 0.771572 0.653788
0.131701 0.846342 0.551904
0.428962 0.797848 0.521233
0.557763 0.794614 0.538537
0.655467 0.799527 0.566537
0.733898 0.809445 0.601648
0.797604 0.823194 0.642344
0.848997 0.840177 0.687083
0.889998 0.859983 0.734615
0.922301 0.8822 0.783795
0.287404 0.918227 0.607111
0.539117 0.880385 0.605203
0.654719 0.879103 0.641886
0.741543 0.885527 0.686976
0.810071 0.896941 0.736599
0.864988 0.912139 0.788663
0.909224 0.930434 0.84152
0.945098 0.951217 0.894392
0.974426 0.97406 0.946242
0.0544289 0.0544289 0.166781
0.148165 0.0572824 0.226902
0.23241 0.0623026 0.2934
0.326024 0.0645914 0.359548
0.427726 0.0646677 0.423728
0.534707 0.0635386 0.484245
0.644297 0.0621042 0.540291
0.753689 0.0612192 0.591226
0.860639 0.0616007 0.636881
0.0970016 0.140414 0.415381
0.273686 0.12108 0.45098
0.384909 0.119707 0.501595
0.492866 0.11957 0.549447
0.5991 0.120378 0.593011
0.702785 0.122408 0.631998
0.802777 0.125978 0.666621
0.898131 0.131319 0.697261
0.98819 0.138598 0.724376
0.0933089 0.24564 0.609827
0.344091 0.208286 0.605692
0.471214 0.204776 0.630594
0.582849 0.205875 0.655314
0.685618 0.209796 0.678218
0.781308 0.216037 0.699123
0.870451 0.224399 0.718151
0.953307 0.234806 0.735576
1 0.247166 0.751675
0.0666361 0.366735 0.714611
0.366796 0.317891 0.678996
0.502449 0.313756 0.684886
0.61442 0.316289 0.694499
0.713191 0.322637 0.705242
0.802319 0.331807 0.716396
0.883497 0.343313 0.727749
0.957809 0.356832 0.739376
1 0.37232 0.75108
0.0424048 0.494072 0.750439
0.366751 0.439689 0.698405
0.505837 0.435492 0.694972
0.616663 0.439033 0.697978
0.711986 0.44686 0.704082
0.796201 0.457816 0.712001
0.871092 0.471412 0.721111
0.937377 0.487495 0.731106
0.995163 0.50602 0.741833
0.0360266 0.619791 0.749859
0.364935 0.564492 0.693462
0.503609 0.560632 0.687816
0.611902 0.565026 0.689677
0.702876 0.574182 0.69546
0.780957 0.586908 0.703929
0.847944 0.602716 0.714519
0.90457 0.621408 0.72697
0.95111 0.642924 0.741238
0.0589609 0.738033 0.736828
0.378698 0.685115 0.68394
0.513985 0.681987 0.680873
0.617868 0.687343 0.68629
0.703059 0.697765 0.696757
0.773922 0.712032 0.711101
0.832456 0.729625 0.728786
0.879881 0.750225 0.749477
0.917037 0.773602 0.772946
0.138399 0.839109 0.727581
0.432471 0.792447 0.688182
0.560647 0.790494 0.694499
0.657908 0.796796 0.710033
0.735958 0.808225 0.731441
0.799313 0.823575 0.757336
0.850462 0.842191 0.786694
0.891371 0.863584 0.818738
0.923781 0.887297 0.852705
0.305028 0.911604 0.744625
0.551202 0.876661 0.73019
0.665324 0.877302 0.752224
0.75108 0.885588 0.782071
0.818799 0.898772 0.816388
0.873121 0.915679 0.853483
0.916991 0.935515 0.89218
0.952682 0.957702 0.93167
0.98201 0.981765 0.971344
0.0585641 0.0585641 0.237476
0.159289 0.0574197 0.316579
0.245655 0.0596933 0.404074
0.340322 0.0595254 0.491402
0.442176 0.0574807 0.576135
0.548348 0.0546883 0.655573
0.656413 0.051957 0.728756
0.763745 0.0501869 0.794675
0.868254 0.0500191 0.853071
0.0933242 0.139696 0.557031
0.277302 0.116396 0.610513
0.389715 0.112825 0.67924
0.497536 0.111101 0.743282
0.602869 0.11075 0.800931
0.705135 0.112001 0.851835
0.803433 0.115099 0.896208
0.896956 0.120211 0.934554
0.985138 0.127459 0.967498
0.0835126 0.240787 0.810468
0.339864 0.200595 0.818143
0.467582 0.195804 0.853925
0.578897 0.196094 0.887572
0.680903 0.199542 0.91751
0.77557 0.205554 0.943633
0.863584 0.213901 0.966201
0.945266 0.224445 0.985641
1 0.237095 1
0.0546883 0.358984 0.950362
0.358038 0.308629 0.920302
0.494011 0.303944 0.930709
0.605768 0.306233 0.943313
0.704067 0.312566 0.955596
0.792599 0.321889 0.966934
0.873213 0.333654 0.977432
0.946868 0.34757 0.987121
1 0.363592 0.995697
0.0312657 0.484672 1
0.356802 0.429862 0.948959
0.495979 0.425635 0.945296
0.606668 0.429343 0.947143
0.701717 0.437476 0.950973
0.785504 0.44892 0.955367
0.859861 0.463172 0.959594
0.92546 0.480095 0.963195
0.982452 0.499672 0.965896
0.0273594 0.609781 0.998215
0.356069 0.554803 0.939269
0.494682 0.551354 0.929732
0.602823 0.556329 0.926299
0.693538 0.566262 0.925261
0.771237 0.57995 0.925231
0.837766 0.596933 0.925566
0.893858 0.616999 0.925948
0.939834 0.640085 0.926314
0.0552682 0.728008 0.970733
0.373526 0.676219 0.911025
0.508629 0.674052 0.899077
0.61239 0.680522 0.893782
0.697414 0.692241 0.891722
0.768093 0.708019 0.891737
0.826444 0.727291 0.893431
0.873732 0.749676 0.896803
0.910933 0.774899 0.901884
0.143618 0.829618 0.929946
0.43447 0.785138 0.878477
0.562203 0.784787 0.870207
0.659236 0.792813 0.86949
0.737118 0.806058 0.87335
0.800351 0.823285 0.880796
0.851514 0.843793 0.891432
0.892592 0.867002 0.904952
0.925368 0.892424 0.921111
0.321767 0.903761 0.896742
0.562615 0.872068 0.865965
0.67538 0.874937 0.86978
0.760266 0.885344 0.881132
0.827375 0.900557 0.897261
0.881285 0.919341 0.916899
0.924956 0.940887 0.939254
0.960632 0.964599 0.963699
0.990127 0.98999 0.989746
