lut/ground-control/GroundControl_Punch2.cube
TITLE "Generate by Resolve"
LUT_3D_SIZE 33
0 0 0
0.0151369 0.00154116 0.00154116
0.0312505 0.00383001 0.00383001
0.0471504 0.00657664 0.00657664
0.0628519 0.00906386 0.00906386
0.0787366 0.0112917 0.0112917
0.0946212 0.0134585 0.0134585
0.111376 0.0153201 0.0153201
0.12903 0.0169528 0.0169528
0.147799 0.0184939 0.0184939
0.168215 0.01944 0.01944
0.189105 0.0202945 0.0202945
0.210315 0.0209354 0.0209354
0.231907 0.0214694 0.0214694
0.253773 0.0220645 0.0220645
0.275898 0.022797 0.022797
0.298161 0.0233463 0.0233463
0.320027 0.0240177 0.0240177
0.342153 0.0247044 0.0247044
0.364691 0.0256809 0.0256809
0.387274 0.0268559 0.0268559
0.409445 0.0279393 0.0279393
0.431708 0.0290532 0.0290532
0.453559 0.0304875 0.0304875
0.475257 0.0322576 0.0322576
0.496788 0.0344396 0.0344396
0.518822 0.0366217 0.0366217
0.540444 0.0390326 0.0390326
0.563134 0.0415656 0.0415656
0.585321 0.0444495 0.0444495
0.607248 0.0476387 0.0476387
0.629709 0.0509194 0.0509194
0.651621 0.0543832 0.0543832
0 0.0237125 0
0.0235294 0.0235294 0.00395209
0.0410468 0.025391 0.00943008
0.0567483 0.0275425 0.0126802
0.0724193 0.029633 0.0153506
0.0882277 0.0317235 0.0176699
0.104707 0.0336004 0.0199588
0.122087 0.035523 0.0218662
0.140322 0.0369573 0.0234073
0.160128 0.0379492 0.0246738
0.181094 0.0387579 0.0253605
0.202579 0.0395514 0.0263981
0.224201 0.0402686 0.0269474
0.246479 0.0410773 0.0278019
0.268544 0.0417182 0.0285954
0.290654 0.0424659 0.0292363
0.313252 0.0432288 0.0301518
0.335775 0.0441749 0.0310063
0.358618 0.0452583 0.0321202
0.381613 0.0466011 0.0335699
0.404257 0.0479438 0.0348058
0.42707 0.0495003 0.0365454
0.449485 0.0513924 0.0382086
0.471763 0.0533455 0.040238
0.494209 0.0556344 0.042359
0.516655 0.0584268 0.045182
0.539254 0.0614328 0.0480354
0.561883 0.0646677 0.0512856
0.584054 0.0678416 0.0543679
0.606378 0.0710918 0.0576028
0.628809 0.0746624 0.0610361
0.650965 0.0783398 0.0646067
0.672969 0.0819257 0.0680552
0.000228885 0.0480201 0.000228885
0.0253452 0.0473793 0.00297551
0.0473945 0.0473945 0.00892653
0.0653849 0.0485542 0.0148013
0.0818036 0.0502632 0.0190127
0.0983291 0.0520333 0.0222324
0.115389 0.0539406 0.0250095
0.133425 0.0554513 0.0270085
0.15256 0.056733 0.028748
0.17348 0.0576791 0.0298924
0.19498 0.0586099 0.0311131
0.216526 0.0594034 0.0320592
0.239048 0.0603647 0.033051
0.261372 0.061265 0.0341344
0.283742 0.0622873 0.0350347
0.306615 0.0632029 0.0361639
0.32929 0.064332 0.0372931
0.352499 0.0657511 0.038529
0.376165 0.0676127 0.040528
0.399283 0.0693523 0.0420386
0.42269 0.0710613 0.0439002
0.44567 0.0732433 0.0458228
0.468956 0.0757458 0.0484016
0.492164 0.0789044 0.0512703
0.515099 0.0818647 0.0541695
0.537789 0.0849317 0.0571145
0.560418 0.0885023 0.0603952
0.58294 0.0918898 0.0636912
0.605386 0.0954452 0.0669261
0.627817 0.0991989 0.070573
0.649958 0.102831 0.0738231
0.67187 0.106584 0.077409
0.693477 0.110491 0.0807813
0.000259403 0.0718853 0.000259403
0.0257267 0.0712291 0.00256352
0.0497139 0.0707408 0.00717174
0.0708476 0.0708476 0.0134127
0.0897993 0.0717021 0.0194095
0.108003 0.0732433 0.0243534
0.126192 0.0746929 0.0280461
0.145129 0.0760357 0.0308385
0.165805 0.0770581 0.0326238
0.187396 0.0782177 0.0346532
0.20943 0.0794842 0.0362097
0.231907 0.0804761 0.0377356
0.254276 0.0815747 0.0389105
0.276921 0.0827955 0.0403143
0.300237 0.0841535 0.0418097
0.3234 0.0857862 0.0434272
0.347066 0.0876631 0.0453803
0.370672 0.0894331 0.0469368
0.394491 0.0918593 0.0492256
0.418647 0.094255 0.0514839
0.44242 0.0969558 0.0540169
0.46627 0.0996872 0.0565652
0.489769 0.102968 0.0596017
0.513069 0.106065 0.0624704
0.535744 0.109453 0.065507
0.55845 0.112856 0.0684825
0.581094 0.116518 0.0717479
0.603311 0.120378 0.0749981
0.625849 0.124315 0.0784924
0.647776 0.128161 0.0817426
0.669596 0.132021 0.0852064
0.691341 0.135958 0.0886549
0.712673 0.140078 0.0921798
0 0.0959182 0
0.0252842 0.0954452 0.00181582
0.0500649 0.0948959 0.00564584
0.0733959 0.094789 0.0113222
0.0950942 0.0950942 0.017792
0.115633 0.0957809 0.0237583
0.136019 0.0968338 0.0286259
0.157076 0.0979171 0.032517
0.178866 0.0989395 0.0354772
0.201297 0.100313 0.0379644
0.224292 0.101717 0.0403296
0.247059 0.103273 0.0425269
0.270268 0.104875 0.0446937
0.293767 0.106508 0.04654
0.317189 0.108415 0.0486152
0.341451 0.110857 0.0510719
0.365713 0.113344 0.0534829
0.389899 0.116106 0.0559243
0.414237 0.118914 0.0586099
0.438239 0.121767 0.0609293
0.462196 0.124727 0.0637369
0.48629 0.128145 0.0665141
0.509667 0.131365 0.0695048
0.532555 0.134798 0.0722362
0.555474 0.138277 0.0753643
0.577844 0.142168 0.0783703
0.600626 0.146365 0.0818647
0.622583 0.15024 0.0847639
0.644205 0.154253 0.0879988
0.665934 0.158312 0.0911574
0.687282 0.162524 0.0944991
0.708705 0.16672 0.0978866
0.730129 0.171283 0.101564
0 0.121019 0
0.0238193 0.120638 0.000167849
0.0492256 0.120333 0.00381476
0.0737011 0.120348 0.00906386
0.0976272 0.120394 0.0152285
0.120714 0.120714 0.021622
0.143771 0.121279 0.0274052
0.167468 0.122087 0.0322271
0.191653 0.123491 0.0367437
0.215274 0.125063 0.0405585
0.238651 0.126696 0.043595
0.262394 0.128588 0.0466468
0.286549 0.130816 0.049546
0.311025 0.133486 0.0525826
0.335363 0.136141 0.0555734
0.359762 0.138781 0.0580758
0.384192 0.141604 0.0610056
0.408545 0.144762 0.0637217
0.432807 0.147753 0.0662852
0.457115 0.151064 0.0690776
0.481041 0.154314 0.0716564
0.504524 0.157687 0.0743725
0.527642 0.161227 0.0771038
0.550378 0.164858 0.0799573
0.572869 0.168612 0.082826
0.595895 0.172992 0.0862898
0.617716 0.177081 0.0894636
0.639612 0.18114 0.0925917
0.661311 0.185245 0.0958419
0.682612 0.189517 0.0991073
0.704005 0.193805 0.102586
0.725399 0.19855 0.106218
0.746349 0.202976 0.109895
0 0.147982 0
0.0211337 0.147982 0
0.0469062 0.147829 0.000976577
0.072221 0.147936 0.00604257
0.097673 0.148211 0.0122072
0.123201 0.148653 0.0188602
0.149172 0.149172 0.0252384
0.175723 0.14992 0.0309453
0.201907 0.151308 0.0364385
0.227588 0.153048 0.0415198
0.25272 0.155169 0.0458534
0.277394 0.157519 0.0496986
0.302342 0.160128 0.0534676
0.327031 0.162966 0.0569467
0.351797 0.165713 0.0599832
0.376318 0.168582 0.0631418
0.40061 0.171588 0.0658885
0.425513 0.174807 0.0691539
0.449882 0.178241 0.0719921
0.474113 0.181552 0.0747997
0.497978 0.184863 0.0776226
0.521477 0.188357 0.080354
0.544549 0.19202 0.0833448
0.5673 0.195834 0.0862287
0.590051 0.200046 0.0896773
0.612375 0.204227 0.0929885
0.634562 0.208377 0.096376
0.656062 0.212665 0.0997177
0.677684 0.216922 0.103105
0.699397 0.221546 0.106691
0.72047 0.226017 0.110323
0.741588 0.230472 0.113848
0.762203 0.235233 0.117815
0 0.177218 0
0.0167391 0.1776 0
0.0432288 0.178058 0
0.0693675 0.178561 0.00218204
0.096025 0.179171 0.00823987
0.123552 0.17998 0.0151064
0.152224 0.180957 0.0221866
0.181628 0.181628 0.0285649
0.209979 0.182864 0.0348058
0.237598 0.184466 0.0407263
0.26421 0.186404 0.0460059
0.290455 0.188968 0.0509194
0.316152 0.191379 0.0550851
0.34168 0.193912 0.0590982
0.366644 0.196719 0.0628367
0.391485 0.199664 0.0662547
0.416815 0.202823 0.0699016
0.441581 0.206271 0.0732128
0.466087 0.209445 0.0763867
0.490349 0.212772 0.079469
0.514168 0.216281 0.0823835
0.537942 0.219776 0.0856184
0.561028 0.223789 0.0887617
0.584085 0.227695 0.092256
0.606699 0.231922 0.0955825
0.628885 0.236133 0.0993362
0.650721 0.24036 0.102602
0.67248 0.244587 0.10631
0.693996 0.249302 0.109926
0.715389 0.253803 0.113725
0.736461 0.258305 0.117372
0.757122 0.262913 0.121294
0.778042 0.267842 0.125566
0 0.208484 0
0.0132601 0.209369 0
0.0403601 0.210605 0
0.0675517 0.211948 0
0.0955367 0.213428 0.00611887
0.1243 0.214343 0.0128481
0.154513 0.214984 0.0196078
0.185794 0.215564 0.0262303
0.21648 0.21648 0.0327611
0.245624 0.217746 0.0390173
0.274311 0.219486 0.045182
0.301686 0.221439 0.0505684
0.328466 0.223667 0.0554818
0.35465 0.226123 0.059968
0.380774 0.228641 0.0643626
0.406378 0.231724 0.0685283
0.431937 0.235096 0.0726177
0.456992 0.238148 0.0763867
0.481666 0.241367 0.0797436
0.506127 0.244678 0.083238
0.530297 0.248142 0.0866102
0.553964 0.252049 0.090013
0.577462 0.255909 0.0937667
0.599954 0.259922 0.0971389
0.622843 0.26421 0.101122
0.644907 0.268437 0.104631
0.666682 0.27274 0.108354
0.688502 0.27744 0.112291
0.709957 0.281819 0.116091
0.730877 0.286397 0.120043
0.751781 0.291005 0.123919
0.772732 0.29572 0.128313
0.793118 0.300954 0.132723
0 0.24242 0
0.011429 0.24387 0
0.0390173 0.245365 0
0.0667887 0.247272 0
0.0950179 0.248707 0.00442512
0.12462 0.249714 0.0109712
0.156024 0.250217 0.0174411
0.188952 0.250736 0.0240635
0.220981 0.251255 0.030518
0.252338 0.252338 0.0370336
0.282139 0.253544 0.0433509
0.311192 0.255055 0.0493324
0.33933 0.256977 0.0548409
0.366674 0.259205 0.0599527
0.393683 0.261982 0.0649577
0.419944 0.264591 0.0697337
0.446128 0.26772 0.0741894
0.471489 0.270787 0.0782788
0.496529 0.27396 0.0823987
0.521355 0.277363 0.0861524
0.545968 0.28101 0.0901045
0.569787 0.284672 0.0938888
0.592813 0.288594 0.0975814
0.615961 0.292668 0.10164
0.638239 0.296986 0.105577
0.660624 0.301289 0.109529
0.68249 0.305821 0.113573
0.703914 0.310262 0.117632
0.725093 0.314748 0.121721
0.746242 0.319234 0.125887
0.766918 0.324117 0.130388
0.78764 0.329168 0.134783
0.807889 0.334066 0.139376
0 0.27776 0
0.0102388 0.279759 0
0.0380865 0.281514 0
0.0659495 0.283177 0
0.0945602 0.284688 0.00309758
0.124605 0.285801 0.009308
0.156756 0.28629 0.0156863
0.190936 0.286793 0.0221561
0.224567 0.287144 0.0285496
0.256992 0.287709 0.0349584
0.288579 0.288579 0.0411536
0.318975 0.289784 0.0476081
0.348577 0.29131 0.0534829
0.377523 0.293523 0.0592813
0.405249 0.295781 0.0646067
0.432563 0.298466 0.0700542
0.459144 0.301198 0.0749828
0.485222 0.304067 0.0794232
0.510704 0.30724 0.0838331
0.536004 0.31078 0.0884565
0.560632 0.314183 0.0925154
0.584588 0.317784 0.0967575
0.608103 0.321782 0.101122
0.630915 0.325948 0.105196
0.653666 0.330129 0.109407
0.675624 0.334646 0.113756
0.69749 0.338918 0.117937
0.718776 0.343374 0.12224
0.739895 0.347875 0.126696
0.760708 0.352468 0.131044
0.781888 0.357565 0.136049
0.802014 0.362478 0.14052
0.821393 0.367437 0.145235
0 0.314153 0
0.00903334 0.316106 0
0.0370031 0.317968 0
0.0650797 0.319738 0
0.0940108 0.321263 0.0018616
0.124376 0.322423 0.00799573
0.157565 0.323339 0.0143282
0.192386 0.323537 0.0203861
0.22678 0.323598 0.0264591
0.260655 0.323827 0.0327001
0.293416 0.324453 0.0391241
0.325353 0.325353 0.0454261
0.356619 0.326863 0.0520638
0.386526 0.32842 0.0579995
0.415625 0.330571 0.0639353
0.443717 0.332891 0.0694591
0.471077 0.335378 0.0747845
0.49807 0.338399 0.0800793
0.524117 0.341329 0.0847791
0.549599 0.344472 0.0894484
0.574456 0.347814 0.0942855
0.598703 0.35137 0.0986801
0.622446 0.355337 0.103502
0.645762 0.35967 0.108278
0.668009 0.363836 0.112581
0.690288 0.368002 0.117037
0.711727 0.372366 0.121599
0.73315 0.37673 0.126238
0.754238 0.381353 0.130968
0.775402 0.386389 0.136172
0.795727 0.391104 0.140688
0.815595 0.395865 0.145602
0.834623 0.400839 0.150561
0 0.350958 0
0.00781262 0.352926 0
0.0359197 0.354894 0
0.0641794 0.356786 0
0.0935073 0.358633 0.000808728
0.124315 0.359899 0.00700389
0.158038 0.360616 0.0130617
0.19321 0.360632 0.0185855
0.228458 0.360601 0.0244602
0.263157 0.360708 0.0305791
0.297414 0.361303 0.0370184
0.330587 0.361975 0.0434119
0.362875 0.362875 0.049836
0.394064 0.364111 0.0561379
0.424338 0.365927 0.0623331
0.453483 0.367941 0.0682231
0.481987 0.37052 0.074052
0.509499 0.372992 0.0796216
0.536126 0.375769 0.0848554
0.562112 0.378729 0.0898146
0.587366 0.381903 0.0949416
0.612146 0.385626 0.100237
0.636255 0.389654 0.105211
0.659373 0.393484 0.110094
0.681895 0.397513 0.11487
0.703746 0.401724 0.119554
0.725551 0.405936 0.124453
0.746807 0.410376 0.129442
0.768154 0.415167 0.134676
0.788846 0.419913 0.139651
0.809018 0.424506 0.144701
0.828305 0.429374 0.149798
0.847059 0.434333 0.155154
0 0.388098 0
0.00683604 0.390188 0
0.0350195 0.392218 0
0.0635386 0.394369 0
0.093019 0.396231 0
0.124056 0.397467 0.00596628
0.15819 0.398108 0.0117647
0.193912 0.398047 0.0171359
0.229709 0.397971 0.0226902
0.265492 0.398199 0.0287938
0.300481 0.398428 0.0349889
0.334539 0.39881 0.0412757
0.367971 0.39942 0.0475624
0.40061 0.40061 0.0542306
0.431861 0.401953 0.0605478
0.462333 0.403906 0.066804
0.491447 0.405844 0.0727245
0.519615 0.408103 0.0784772
0.547036 0.410605 0.0841993
0.573571 0.413397 0.0896315
0.599695 0.416663 0.0952468
0.624796 0.420279 0.100832
0.648768 0.423804 0.106111
0.672114 0.427558 0.111086
0.694835 0.431449 0.11632
0.716945 0.435508 0.121447
0.738857 0.440009 0.126696
0.760342 0.444526 0.13225
0.781201 0.448951 0.13753
0.801602 0.453422 0.142794
0.821225 0.458106 0.148013
0.840467 0.462867 0.153384
0.859159 0.468071 0.159365
0 0.425498 0
0.00614939 0.427726 0
0.034699 0.430152 0
0.0631723 0.432166 0
0.0926375 0.433951 0
0.124224 0.435431 0.00543221
0.15848 0.435859 0.0108492
0.194812 0.435874 0.0161746
0.231281 0.435874 0.0216373
0.267369 0.435752 0.0273594
0.30309 0.435752 0.0333715
0.338094 0.435935 0.0394903
0.37229 0.436332 0.0458076
0.40621 0.437476 0.0523995
0.438575 0.438575 0.0587778
0.469749 0.439918 0.0650339
0.499825 0.441566 0.0711681
0.528847 0.443534 0.0771649
0.556863 0.445792 0.0830091
0.584451 0.448676 0.0891432
0.610956 0.451713 0.0952468
0.636332 0.454795 0.100755
0.660487 0.458183 0.106188
0.684153 0.461707 0.111711
0.70695 0.465492 0.116991
0.72958 0.469703 0.122957
0.751354 0.473899 0.12845
0.772747 0.478248 0.133959
0.7935 0.482475 0.139651
0.813626 0.486915 0.145068
0.833036 0.491539 0.150561
0.85214 0.496544 0.156985
0.87068 0.501656 0.163043
0 0.463188 0
0.00593576 0.465782 0
0.0344396 0.467918 0
0.0630198 0.469978 0
0.0925154 0.471809 0
0.124361 0.473274 0.00495918
0.159014 0.473808 0.0102846
0.195712 0.473869 0.0154726
0.232273 0.473655 0.0208286
0.268788 0.473457 0.0262303
0.30518 0.473259 0.0319524
0.341176 0.473289 0.0379644
0.376654 0.473884 0.0444343
0.410895 0.474449 0.0507515
0.444083 0.475151 0.0569619
0.476173 0.476173 0.0632334
0.507149 0.477516 0.0696269
0.537011 0.479179 0.0758068
0.56611 0.481498 0.0820783
0.594141 0.484062 0.088304
0.62092 0.486625 0.0942245
0.64683 0.489418 0.100252
0.671489 0.492592 0.105959
0.695399 0.496254 0.111742
0.718776 0.49984 0.11754
0.741268 0.503914 0.123674
0.763149 0.507805 0.129351
0.784329 0.511849 0.135225
0.805066 0.515999 0.14081
0.825193 0.520592 0.147066
0.844358 0.525124 0.153033
0.863264 0.529992 0.159274
0.881453 0.534707 0.165866
0 0.501244 0
0.0059968 0.503563 0
0.0345312 0.50573 0
0.0632486 0.507897 0
0.09308 0.509972 0
0.125078 0.511513 0.00497444
0.159838 0.511849 0.010132
0.196414 0.511696 0.0150607
0.233433 0.511406 0.0202182
0.270405 0.511116 0.0253605
0.307332 0.510903 0.03093
0.344213 0.511223 0.0371252
0.380102 0.511147 0.0430304
0.415106 0.51133 0.0491188
0.44889 0.511833 0.0552987
0.481804 0.512551 0.0614633
0.513756 0.513756 0.0677195
0.54461 0.515328 0.074403
0.57438 0.517266 0.0808576
0.602777 0.519265 0.0869917
0.630106 0.521553 0.0930495
0.656214 0.524163 0.0991073
0.681773 0.527184 0.105394
0.705898 0.53051 0.11136
0.729366 0.534157 0.117418
0.752163 0.537697 0.123751
0.774105 0.541375 0.129641
0.795178 0.545296 0.135592
0.816129 0.549538 0.141939
0.835737 0.553872 0.148119
0.854978 0.558526 0.154665
0.87364 0.562905 0.161135
0.891463 0.567498 0.167636
0 0.538979 0
0.0065156 0.541344 0
0.03505 0.543526 0
0.0639963 0.545968 0
0.0939651 0.548089 0
0.125872 0.549294 0.00520333
0.160815 0.549599 0.0102693
0.197543 0.549401 0.0150149
0.234775 0.549035 0.019913
0.27216 0.548684 0.024918
0.30985 0.548714 0.0305638
0.346807 0.548486 0.0361944
0.383124 0.548226 0.0419165
0.418662 0.54818 0.0478218
0.453376 0.548348 0.0538033
0.486931 0.54902 0.060029
0.519661 0.549966 0.0663157
0.551324 0.551324 0.0727703
0.581323 0.552743 0.079118
0.610544 0.554391 0.0855116
0.638453 0.556405 0.091722
0.665537 0.55903 0.0981003
0.691051 0.561807 0.104372
0.715755 0.564843 0.110857
0.739269 0.568032 0.11696
0.762081 0.571359 0.123171
0.784222 0.575036 0.129641
0.805722 0.578805 0.135958
0.826017 0.582925 0.142367
0.845975 0.587045 0.148989
0.864836 0.591257 0.155642
0.883131 0.595575 0.162203
0.90135 0.600092 0.169085
0 0.576577 0
0.00749218 0.578973 0
0.0362097 0.581338 0
0.065156 0.583963 0
0.0950332 0.585702 0.000656138
0.127047 0.586847 0.0059205
0.161975 0.587152 0.0108797
0.199039 0.586847 0.0153964
0.236713 0.586755 0.0202792
0.274601 0.586511 0.02533
0.312139 0.585962 0.0303655
0.349371 0.585458 0.0356603
0.386175 0.585031 0.0411536
0.422263 0.584817 0.0468757
0.457603 0.585092 0.052903
0.491997 0.585397 0.0589456
0.525124 0.586114 0.0652323
0.557153 0.586892 0.071397
0.587991 0.587991 0.0775616
0.617685 0.589471 0.0838483
0.646357 0.591363 0.0903639
0.673701 0.593454 0.0968338
0.699733 0.596094 0.103426
0.724407 0.598764 0.109758
0.748119 0.601678 0.115999
0.771542 0.604807 0.12253
0.793713 0.608316 0.129061
0.815122 0.612009 0.135683
0.835584 0.615778 0.142473
0.855039 0.619623 0.149004
0.873747 0.623652 0.15584
0.892485 0.627848 0.162982
0.910445 0.632212 0.16994
0 0.613977 0
0.00939956 0.616861 0
0.0380407 0.619211 0
0.0666667 0.621332 0
0.0966049 0.623041 0.00202945
0.128679 0.624109 0.00714122
0.16376 0.624323 0.011902
0.201175 0.624292 0.0163882
0.238834 0.623972 0.0210269
0.276783 0.623453 0.025742
0.314473 0.622782 0.0305638
0.351949 0.62211 0.035584
0.389212 0.621485 0.0408179
0.426017 0.621332 0.0466621
0.461585 0.621134 0.0523384
0.496406 0.621393 0.0583963
0.530114 0.621576 0.064271
0.562493 0.62211 0.0703441
0.593927 0.622995 0.0765545
0.624353 0.624353 0.0828565
0.653559 0.626047 0.0893721
0.681071 0.627802 0.0956893
0.707393 0.629877 0.102205
0.73254 0.632258 0.108629
0.756848 0.635233 0.115175
0.78027 0.638163 0.121645
0.802716 0.641291 0.128481
0.823865 0.644587 0.135195
0.844038 0.648112 0.141848
0.863584 0.651835 0.14876
0.882628 0.655802 0.1561
0.901122 0.659693 0.163104
0.918715 0.663584 0.170031
0 0.651331 0
0.0116579 0.654078 0
0.0400092 0.656275 0
0.0686961 0.658289 0
0.0986648 0.659937 0.00389105
0.130678 0.661006 0.00891127
0.166354 0.661402 0.0136721
0.203647 0.661311 0.0178683
0.241367 0.660639 0.0222171
0.279072 0.659937 0.026688
0.317021 0.659144 0.0312505
0.355047 0.658625 0.0362249
0.392477 0.657847 0.0412299
0.429541 0.657435 0.0468605
0.465736 0.656947 0.0522316
0.50074 0.656703 0.0578164
0.534676 0.656718 0.0635691
0.568017 0.657206 0.0696117
0.599878 0.657694 0.075639
0.630594 0.658869 0.0821088
0.659998 0.659998 0.0882124
0.687938 0.661463 0.0944686
0.714473 0.66331 0.100862
0.740108 0.66566 0.107424
0.76492 0.668162 0.114168
0.788373 0.670787 0.120684
0.810529 0.673548 0.127291
0.831632 0.676509 0.133989
0.851881 0.679744 0.141161
0.87187 0.683543 0.148501
0.890471 0.687037 0.155444
0.908782 0.690486 0.162402
0.926589 0.693965 0.169589
0 0.688243 0
0.0143893 0.690684 0
0.0428168 0.692775 0
0.0714885 0.694743 0.00117494
0.101534 0.696574 0.00653086
0.133837 0.697566 0.0115663
0.169451 0.697871 0.0157626
0.206729 0.697353 0.0198978
0.244266 0.696651 0.0239567
0.282231 0.695735 0.0282444
0.320546 0.695048 0.0327153
0.35848 0.694148 0.0372778
0.396368 0.693431 0.0422827
0.433463 0.692607 0.0474098
0.469581 0.691936 0.0524605
0.505013 0.691432 0.0576333
0.539681 0.691508 0.0633707
0.572869 0.691524 0.0690929
0.605417 0.692012 0.075227
0.636484 0.69247 0.0812543
0.6663 0.693233 0.0874342
0.694469 0.694469 0.0935836
0.721584 0.696269 0.100099
0.747616 0.698238 0.106676
0.772137 0.700206 0.112963
0.795514 0.702449 0.119356
0.817639 0.704967 0.126101
0.839353 0.707973 0.133516
0.859525 0.711086 0.140627
0.878965 0.714076 0.147433
0.897597 0.71725 0.154421
0.916182 0.720394 0.161685
0.934142 0.72398 0.169223
0 0.7243 0
0.0180362 0.726619 0
0.0463874 0.728649 0
0.0751507 0.73077 0.00471504
0.105135 0.732403 0.0099794
0.137606 0.733516 0.0148318
0.173281 0.733318 0.0187076
0.210315 0.732692 0.0226444
0.248112 0.731838 0.0264286
0.286442 0.731121 0.0306859
0.324681 0.730175 0.0348821
0.362783 0.729168 0.0392615
0.400381 0.728099 0.0435187
0.437613 0.727062 0.0483558
0.474296 0.72639 0.0534066
0.509911 0.725734 0.0585184
0.544823 0.72549 0.0640574
0.578515 0.72517 0.0695048
0.61091 0.725155 0.0751965
0.64213 0.725353 0.0810101
0.672404 0.726055 0.0870527
0.701228 0.727138 0.0933089
0.728298 0.728298 0.099382
0.754131 0.729732 0.105684
0.778958 0.73135 0.112123
0.802686 0.733471 0.11873
0.825086 0.735988 0.125765
0.846159 0.73843 0.132601
0.866239 0.741085 0.139559
0.885756 0.743816 0.146517
0.90486 0.746899 0.153903
0.923278 0.749798 0.160983
0.941176 0.753033 0.168612
0 0.759701 0
0.0224613 0.762081 0
0.0507973 0.764263 0.00389105
0.0793011 0.766171 0.00895705
0.109377 0.767788 0.0140078
0.141909 0.768414 0.0184024
0.177508 0.768109 0.0222629
0.214878 0.767437 0.0260014
0.252781 0.766583 0.029633
0.29099 0.765606 0.0334325
0.329076 0.764538 0.0373693
0.366918 0.763287 0.0413367
0.404685 0.761959 0.0455024
0.442267 0.760861 0.0501717
0.479149 0.759854 0.0548257
0.515129 0.759136 0.0598764
0.549874 0.758328 0.0648661
0.583551 0.757702 0.0700389
0.61622 0.75729 0.0754101
0.648157 0.757549 0.0812848
0.67834 0.757931 0.0872053
0.707073 0.758404 0.0929885
0.73431 0.759182 0.0990005
0.760327 0.760327 0.105165
0.785336 0.761929 0.11162
0.809308 0.763821 0.11812
0.831479 0.765759 0.124681
0.852491 0.767926 0.13164
0.87306 0.770474 0.138918
0.8925 0.772976 0.145861
0.911467 0.775876 0.153109
0.929961 0.778454 0.160433
0.948013 0.78143 0.167895
0.000183108 0.794369 0.000183108
0.0276646 0.796902 0.00407416
0.0555734 0.798901 0.00880446
0.0843214 0.800824 0.0139467
0.114275 0.802029 0.0185855
0.1467 0.802518 0.0228122
0.182696 0.802136 0.0264591
0.220081 0.801389 0.0298161
0.257939 0.800549 0.0334325
0.295583 0.799313 0.0367437
0.333669 0.797894 0.0404059
0.371679 0.796429 0.0440833
0.409842 0.795178 0.0481422
0.447425 0.793927 0.0526284
0.48394 0.792523 0.0568093
0.519631 0.791318 0.0611124
0.554665 0.790204 0.0657816
0.588647 0.789502 0.0708019
0.621805 0.789181 0.0762646
0.6533 0.788739 0.0815747
0.683696 0.788556 0.0870222
0.712627 0.788739 0.0926986
0.740353 0.789532 0.0988937
0.766552 0.790555 0.105043
0.791638 0.791638 0.11104
0.815305 0.792981 0.117372
0.837842 0.794919 0.124239
0.858824 0.796887 0.131075
0.879149 0.798932 0.137972
0.898787 0.801389 0.145113
0.917845 0.803983 0.152392
0.936492 0.806241 0.159731
0.954498 0.808621 0.167041
0.00663767 0.828397 0.00663767
0.0340581 0.830823 0.010605
0.0619821 0.832593 0.0152743
0.0904097 0.83418 0.0199435
0.120241 0.83534 0.0243687
0.153124 0.835843 0.0285496
0.189166 0.835309 0.0318456
0.226154 0.83444 0.0348211
0.263569 0.833173 0.037995
0.301396 0.831662 0.0410163
0.339391 0.830106 0.0442206
0.377646 0.828779 0.0480354
0.41529 0.827161 0.0514076
0.452583 0.825452 0.0551766
0.489097 0.823804 0.0591592
0.52491 0.822339 0.0633249
0.560113 0.821332 0.0679484
0.594369 0.820264 0.0725872
0.627115 0.819364 0.0774548
0.658885 0.818631 0.0825666
0.689433 0.818479 0.0881514
0.718456 0.818357 0.0935225
0.746288 0.818753 0.0992752
0.772702 0.819348 0.10515
0.798016 0.820417 0.111406
0.821546 0.821546 0.117464
0.843793 0.82295 0.123857
0.865003 0.824552 0.130526
0.885695 0.826886 0.137942
0.905211 0.828809 0.145022
0.924346 0.830716 0.152056
0.943008 0.832837 0.159289
0.96112 0.834821 0.166339
0.0143587 0.861463 0.0143587
0.0412451 0.863493 0.0178836
0.0689555 0.865125 0.0222629
0.0971695 0.86659 0.026688
0.127367 0.867781 0.0311589
0.160189 0.868162 0.0349279
0.195895 0.867277 0.0376745
0.23267 0.865965 0.0404517
0.270024 0.864454 0.043061
0.307774 0.862852 0.0460059
0.345907 0.86157 0.0491035
0.383597 0.859632 0.0522164
0.421103 0.857633 0.0552987
0.45832 0.855665 0.0586099
0.495079 0.854109 0.0626078
0.531014 0.852689 0.066453
0.565835 0.851118 0.0704204
0.599695 0.849714 0.0746624
0.63299 0.848737 0.0795148
0.664622 0.847807 0.0843824
0.695384 0.847196 0.0894179
0.724727 0.846967 0.0946975
0.752636 0.847196 0.100328
0.779004 0.84741 0.105913
0.804028 0.847944 0.111742
0.827726 0.848798 0.117739
0.850355 0.850355 0.1243
0.871504 0.851774 0.13106
0.891615 0.853193 0.137835
0.911482 0.854688 0.144793
