lut/ground-control/GroundControl_Blue_Undertones.cube
TITLE "Generate by Resolve"
LUT_3D_SIZE 5
0 0 0
0.0675059 0.0459602 0.0820172
0.249851 0.0611887 0.130449
0.52253 0.0526589 0.148196
0.811261 0.0410773 0.148806
0 0.276341 0.169711
0.115709 0.272953 0.16791
0.385443 0.267582 0.163119
0.634104 0.267124 0.171481
0.870542 0.270375 0.179324
0 0.519554 0.182956
0.147311 0.510719 0.196048
0.403326 0.509041 0.195026
0.655879 0.506539 0.212345
0.866636 0.513832 0.255665
0 0.724681 0.255589
0.261784 0.716197 0.300053
0.493492 0.716747 0.34847
0.692485 0.726177 0.405325
0.848295 0.74548 0.491524
0.30695 0.862043 0.462776
0.531624 0.860578 0.551827
0.709224 0.872633 0.645579
0.841352 0.897932 0.742016
0.933989 0.933989 0.848295
0.00129702 0.0195315 0.0526436
0.0869917 0.0541085 0.194003
0.275425 0.0655985 0.261387
0.52932 0.0602731 0.302678
0.792645 0.0548562 0.317113
0 0.283787 0.384802
0.108721 0.278721 0.381308
0.369619 0.278508 0.351446
0.603357 0.282658 0.358144
0.836118 0.287343 0.362524
0 0.529473 0.386709
0.135576 0.520394 0.384848
0.412406 0.511727 0.391699
0.653696 0.513375 0.400946
0.847913 0.526894 0.431342
0 0.732647 0.425559
0.274662 0.721813 0.456519
0.512963 0.721035 0.498665
0.703182 0.734524 0.541192
0.851118 0.758007 0.609033
0.338781 0.865797 0.58175
0.56405 0.865904 0.653605
0.73753 0.880766 0.731624
0.862821 0.909621 0.812985
0.949248 0.949248 0.902129
0 0.0361944 0.154681
0.101686 0.0594492 0.347799
0.30634 0.0649882 0.426459
0.546792 0.0639963 0.4645
0.785718 0.0660563 0.476677
0 0.287175 0.60351
0.115724 0.280827 0.589883
0.383444 0.281071 0.535317
0.596078 0.294255 0.514687
0.813382 0.303426 0.52018
0 0.532708 0.597742
0.135149 0.525261 0.587793
0.411704 0.518441 0.577142
0.635966 0.527138 0.566827
0.820752 0.544961 0.582315
0.00646983 0.73817 0.598062
0.278584 0.730602 0.607874
0.524575 0.729625 0.629343
0.715206 0.743893 0.662882
0.853651 0.772061 0.712322
0.369116 0.871015 0.690791
0.591959 0.87393 0.741802
0.764508 0.890761 0.803174
0.885115 0.922377 0.871107
0.965377 0.965377 0.944823
0 0.0492256 0.30547
0.112779 0.0624247 0.535683
0.333471 0.0625162 0.621118
0.566873 0.0657511 0.637964
0.790509 0.0737163 0.636698
0 0.289372 0.816022
0.121996 0.283818 0.791745
0.391455 0.284169 0.730922
0.607019 0.299962 0.675959
0.808988 0.315145 0.667079
0 0.534005 0.802869
0.14699 0.527291 0.782895
0.422232 0.522683 0.754269
0.644419 0.536263 0.701625
0.806867 0.562325 0.701213
0.02916 0.739834 0.764797
0.297993 0.735042 0.756802
0.53579 0.738659 0.756863
0.727031 0.754879 0.769299
0.851484 0.789334 0.797681
0.406653 0.874983 0.790936
0.621561 0.882353 0.821286
0.788205 0.902907 0.863142
0.907149 0.936492 0.91632
0.982315 0.982315 0.977218
0 0.058732 0.49929
0.120958 0.0636149 0.749752
0.354391 0.0601968 0.832425
0.584894 0.0672618 0.819837
0.800992 0.0792401 0.800992
0 0.291646 1
0.127779 0.287327 0.990005
0.397055 0.288258 0.923995
0.620798 0.303685 0.848569
0.814298 0.323934 0.814298
0 0.53518 0.999313
0.161364 0.529793 0.965759
0.432486 0.528374 0.917632
0.656001 0.543435 0.846448
0.809766 0.575738 0.809766
0.0595102 0.74052 0.918608
0.325887 0.738399 0.891356
0.558343 0.745693 0.870832
0.742351 0.766461 0.859419
0.858213 0.806455 0.858213
0.450568 0.87834 0.87834
0.657282 0.890028 0.890028
0.816007 0.914672 0.914672
0.928435 0.951827 0.951827
1 1 1
