lut/ground-control/GroundControl_Punch1.cube
TITLE "Generate by Resolve"
LUT_3D_SIZE 9
0 0 0
0.0361334 0.021149 0.021149
0.107836 0.0326848 0.0326848
0.219089 0.0356146 0.0356146
0.363424 0.0337377 0.0337377
0.539422 0.0284276 0.0284276
0.729213 0.0213474 0.0213474
0.913893 0.0176699 0.0176699
1 0.0255436 0.0255436
0.0436866 0.100938 0.0436866
0.12137 0.12137 0.0437018
0.259602 0.128588 0.0314031
0.430518 0.129122 0.0151369
0.598825 0.131395 0.00521859
0.745266 0.139254 0.00903334
0.876143 0.151659 0.0207828
0.996689 0.166369 0.0350805
1 0.184451 0.052842
0 0.277928 0
0.120058 0.294163 0
0.294514 0.294514 0
0.465843 0.295995 0
0.613016 0.303319 0
0.747616 0.312291 0.00306706
0.874388 0.322133 0.0124208
0.990005 0.332967 0.0228733
1 0.346059 0.0356909
0 0.459602 0
0.12079 0.468574 0
0.295613 0.466392 0
0.464225 0.464225 0
0.606928 0.466835 0
0.736202 0.470497 0
0.85745 0.474968 0
0.968215 0.481132 0
1 0.49044 0.0078584
0 0.618463 0
0.132448 0.621988 0.000289921
0.302541 0.614176 0
0.466346 0.606668 0
0.604837 0.604837 0
0.731167 0.605463 0
0.849973 0.607462 0
0.95848 0.611444 0
1 0.61886 0
0.00701915 0.755322 0.00701915
0.138674 0.754894 0.00627146
0.306325 0.744183 0
0.468071 0.734325 0
0.604517 0.730282 0
0.729107 0.729107 0
0.846189 0.729366 0
0.951583 0.731624 0
1 0.738125 0.00856031
0.0137026 0.879622 0.0137026
0.143771 0.877287 0.0112459
0.309804 0.864713 0
0.470161 0.853071 0
0.606516 0.84625 0
0.72932 0.841779 0.00799573
0.839216 0.839216 0.0401923
0.930617 0.839887 0.0879835
0.997314 0.84596 0.154452
0.0258488 0.993515 0.0258488
0.164004 0.985779 0.0340429
0.339864 0.966125 0.0443122
0.505989 0.947158 0.0690776
0.641825 0.93492 0.115328
0.756497 0.926772 0.180041
0.851347 0.922408 0.262348
0.92253 0.92253 0.358877
0.96817 0.927581 0.46453
0.1308 1 0.1308
0.28925 1 0.180758
0.468559 1 0.238804
0.625986 0.995483 0.314382
0.74609 0.980926 0.407279
0.8374 0.972122 0.507942
0.904219 0.968429 0.610849
0.949096 0.969772 0.71313
0.976013 0.976013 0.813535
0.00764477 0.00764477 0.0120241
0.0475471 0.0268101 0.0475471
0.12462 0.0354009 0.0733959
0.242756 0.0358434 0.0926223
0.395239 0.0321965 0.109361
0.572366 0.02533 0.122087
0.76051 0.0180056 0.131624
0.937911 0.0155489 0.141497
1 0.0280613 0.158267
0.0441749 0.108125 0.108125
0.126864 0.126864 0.126864
0.271015 0.131746 0.131746
0.444587 0.130632 0.130632
0.610544 0.132738 0.132738
0.749615 0.142336 0.142336
0.880095 0.154726 0.154726
1 0.169268 0.169268
1 0.186618 0.186618
0 0.284215 0.118196
0.122377 0.297505 0.122377
0.297871 0.297871 0.12163
0.469154 0.299123 0.122255
0.616068 0.306142 0.128832
0.750317 0.314748 0.137118
0.876539 0.324041 0.146151
0.991455 0.334188 0.1561
1 0.346426 0.1682
0 0.462821 0.115572
0.123079 0.471107 0.123079
0.297765 0.468635 0.120027
0.46595 0.46595 0.116899
0.607813 0.467674 0.118273
0.736767 0.471 0.121324
0.857664 0.475105 0.1252
0.96817 0.48101 0.130953
1 0.49012 0.139925
0 0.619898 0.130648
0.133181 0.622873 0.133181
0.302892 0.614603 0.124559
0.466438 0.60679 0.116472
0.604562 0.604562 0.114015
0.73077 0.605051 0.114351
0.849378 0.606851 0.116014
0.957671 0.610605 0.119692
1 0.617945 0.126986
0.00686656 0.755276 0.139239
0.138399 0.754696 0.138399
0.305852 0.743755 0.127275
0.467369 0.733639 0.117021
0.603662 0.729427 0.112718
0.728115 0.728115 0.111345
0.844984 0.728222 0.111803
0.949187 0.730373 0.120638
1 0.737209 0.142962
0.0129091 0.878874 0.145418
0.14287 0.876417 0.14287
0.308736 0.863661 0.130068
0.469368 0.851423 0.119921
0.606271 0.844312 0.124575
0.728725 0.839796 0.142397
0.837491 0.837491 0.173114
0.927275 0.838865 0.218158
0.992081 0.845838 0.279957
0.0274662 0.991241 0.15906
0.168109 0.982483 0.168109
0.34519 0.962356 0.177966
0.511421 0.943404 0.200977
0.646754 0.931563 0.2439
0.760266 0.924147 0.303563
0.853117 0.92079 0.378119
0.922087 0.922087 0.4645
0.965866 0.928252 0.557595
0.14609 1 0.260563
0.306249 1 0.306249
0.485161 1 0.358709
0.640665 0.990478 0.426642
0.757733 0.977234 0.508354
0.845777 0.969924 0.595865
0.909682 0.967758 0.684977
0.952743 0.970764 0.775219
0.9785 0.9785 0.862791
0.0147555 0.0147555 0.0374762
0.0574044 0.0308537 0.0932174
0.140322 0.0363622 0.140322
0.265064 0.033875 0.182834
0.423285 0.0278782 0.225238
0.601022 0.0193942 0.26096
0.785718 0.0118715 0.289921
0.95433 0.0110018 0.313451
1 0.0275425 0.333913
0.0424506 0.113451 0.209171
0.129473 0.129473 0.252293
0.278523 0.131548 0.278523
0.453681 0.128786 0.294438
0.613108 0.131975 0.307057
0.750454 0.142153 0.318364
0.880552 0.154421 0.331273
1 0.168719 0.346014
1 0.185702 0.363333
0 0.286503 0.286503
0.122087 0.297688 0.297688
0.297902 0.297902 0.297902
0.469078 0.298878 0.298878
0.61532 0.30518 0.30518
0.749432 0.313634 0.313634
0.875151 0.322423 0.322423
0.989288 0.331823 0.331823
1 0.343587 0.343587
0 0.462425 0.292088
0.122225 0.470451 0.299779
0.296422 0.467369 0.296422
0.464042 0.464042 0.292882
0.605386 0.465217 0.293904
0.733913 0.468086 0.296666
0.854505 0.47187 0.300343
0.964462 0.477256 0.305653
1 0.486381 0.314717
0 0.617578 0.306279
0.130327 0.620157 0.308583
0.299763 0.611536 0.299763
0.463096 0.603479 0.291539
0.601022 0.601022 0.288945
0.727016 0.601282 0.289113
0.845411 0.602853 0.290623
0.953353 0.606287 0.293996
1 0.613611 0.301305
0.00318914 0.75172 0.314076
0.134691 0.751049 0.313237
0.301976 0.73991 0.301976
0.463111 0.729397 0.291386
0.599451 0.725231 0.28716
0.72372 0.72372 0.285634
0.840208 0.72369 0.286778
0.943267 0.725994 0.295918
1 0.733333 0.316442
0.00875868 0.874769 0.319921
0.138598 0.87216 0.31725
0.304341 0.859251 0.304341
0.465766 0.846357 0.295155
0.603143 0.839063 0.299443
0.725277 0.83473 0.314778
0.833021 0.833021 0.340764
0.921386 0.835447 0.379126
0.984543 0.843748 0.431632
0.0269932 0.985321 0.334249
0.170214 0.975769 0.341939
0.348409 0.955413 0.348409
0.514855 0.936843 0.366217
0.649821 0.92575 0.401541
0.762371 0.919539 0.451301
0.853574 0.917662 0.513237
0.920501 0.920501 0.583841
0.962768 0.928069 0.659205
0.160311 1 0.422141
0.322301 1 0.459098
0.500298 1 0.500298
0.653925 0.983917 0.554955
0.768277 0.972473 0.620722
0.853376 0.967041 0.690852
0.914992 0.966842 0.763195
0.956313 0.971786 0.836378
0.981247 0.981247 0.908217
0.020798 0.020798 0.0765545
0.0660716 0.033753 0.151537
0.155566 0.0364996 0.221286
0.288151 0.0313115 0.288151
0.449989 0.0230564 0.35375
0.627527 0.0133669 0.409232
0.807507 0.00633249 0.453071
0.960723 0.00978103 0.482948
1 0.0275425 0.503822
0.0400244 0.118105 0.324544
0.131472 0.131472 0.389395
0.285161 0.131106 0.433249
0.461311 0.127214 0.461311
0.614466 0.131975 0.476341
0.751614 0.142473 0.488579
0.881361 0.154543 0.501747
1 0.168383 0.516365
1 0.185016 0.533593
0 0.288304 0.455817
0.122347 0.298299 0.46746
0.298344 0.298344 0.468208
0.469398 0.299062 0.469398
0.615244 0.304906 0.475578
0.748806 0.312795 0.483742
0.873899 0.320974 0.492119
0.987427 0.329763 0.50106
1 0.341146 0.512566
0 0.462455 0.462455
0.121721 0.470161 0.470161
0.295491 0.466514 0.466514
0.462318 0.462318 0.462318
0.603174 0.462974 0.462974
0.73138 0.465507 0.465507
0.851743 0.469047 0.469047
0.961471 0.474205 0.474205
1 0.483085 0.483085
0 0.61593 0.475792
0.127916 0.617853 0.477607
0.297032 0.608865 0.468528
0.459861 0.600275 0.459861
0.597864 0.597864 0.457404
0.723674 0.59794 0.45745
0.841733 0.599161 0.45864
0.94966 0.602579 0.462028
1 0.60972 0.469184
0.000106813 0.748745 0.482643
0.13138 0.747814 0.481621
0.298512 0.736477 0.470222
0.459495 0.725795 0.459495
0.595682 0.721477 0.455146
0.719814 0.719814 0.453483
0.835538 0.719448 0.45481
0.937636 0.722255 0.463081
1 0.730251 0.480415
0.00505074 0.871092 0.487968
0.134737 0.868315 0.485161
0.300664 0.855177 0.472297
0.463264 0.841749 0.463264
0.600977 0.834363 0.465766
0.722713 0.830381 0.477256
0.829328 0.829328 0.497154
0.916274 0.833005 0.527672
0.977783 0.842741 0.569787
0.0282902 0.979568 0.501625
0.17406 0.96939 0.506615
0.353033 0.948913 0.508247
0.519844 0.930968 0.519844
0.654307 0.92079 0.546395
0.765743 0.915862 0.585092
0.855009 0.91548 0.633249
0.91989 0.91989 0.688228
0.960662 0.928923 0.74696
0.176867 1 0.571557
0.340566 1 0.598688
0.517723 0.996597 0.628199
0.668223 0.978302 0.668223
0.779477 0.968673 0.717968
0.861799 0.965133 0.771969
0.921141 0.966888 0.828672
0.960708 0.973663 0.886458
0.984726 0.984726 0.943252
0.0260319 0.0260319 0.125216
0.0747692 0.0364233 0.216846
0.170733 0.0365301 0.305409
0.311803 0.0291447 0.394064
0.475883 0.0191501 0.475883
0.653147 0.00917067 0.545037
0.827619 0.00337224 0.59675
0.965179 0.0115206 0.62414
1 0.0299229 0.645685
0.0379644 0.122698 0.436622
0.134325 0.134325 0.518257
0.292561 0.132158 0.572961
0.469306 0.127932 0.606226
0.617945 0.134463 0.617945
0.754833 0.144945 0.630457
0.884291 0.156847 0.643717
1 0.170047 0.657908
1 0.186374 0.674998
0 0.291112 0.597269
0.124849 0.301091 0.609171
0.300893 0.300893 0.610071
0.471717 0.301244 0.6112
0.617288 0.306767 0.617288
0.750317 0.314122 0.625086
0.874723 0.321599 0.632898
0.987518 0.329686 0.641245
1 0.340795 0.652552
0 0.464576 0.604166
0.123201 0.471824 0.611643
0.296559 0.467643 0.607645
0.46273 0.46273 0.602869
0.603128 0.462882 0.603128
0.730983 0.465064 0.605386
0.850996 0.468238 0.608637
0.960616 0.473289 0.613748
1 0.482002 0.622492
0 0.616205 0.616205
0.127657 0.6177 0.6177
0.296498 0.608392 0.608392
0.459098 0.599527 0.599527
0.596872 0.596872 0.596872
0.722499 0.59675 0.59675
0.84033 0.597757 0.597757
0.948165 0.601068 0.601068
1 0.608072 0.608072
0 0.747967 0.622278
0.130327 0.746807 0.621073
0.297093 0.735088 0.609339
0.458045 0.724361 0.598581
0.594095 0.71989 0.594095
0.718105 0.718105 0.592401
0.833234 0.717769 0.593469
0.934066 0.720974 0.599863
1 0.729656 0.613581
0.00357061 0.869642 0.627039
0.133089 0.866682 0.624079
0.299611 0.852857 0.610986
0.463523 0.839261 0.601343
0.601465 0.831922 0.601465
0.722484 0.828183 0.608652
0.828092 0.828092 0.623133
0.913344 0.832898 0.646143
0.973022 0.844007 0.678874
0.0331426 0.975769 0.638666
0.181338 0.965026 0.640452
0.361212 0.944625 0.637522
0.527825 0.92726 0.642939
0.66154 0.917983 0.66154
0.771267 0.914199 0.690044
0.858335 0.915175 0.72636
0.920897 0.920897 0.768063
0.960098 0.931243 0.813519
0.19707 1 0.690547
0.362158 1 0.708797
0.537942 0.99118 0.728069
0.684779 0.974502 0.755871
0.792264 0.966522 0.792264
0.871382 0.964675 0.833097
0.928359 0.968185 0.877379
0.966049 0.976577 0.923095
0.988952 0.988952 0.968002
0.0304112 0.0304112 0.18201
0.0834058 0.0387732 0.291127
0.186328 0.0364385 0.39733
0.334371 0.0269322 0.503914
0.501366 0.0158083 0.599329
0.677012 0.00610361 0.677012
0.844999 0.00233463 0.731334
0.970459 0.0148013 0.752544
1 0.033341 0.774212
0.0362097 0.127642 0.553155
0.137362 0.137362 0.646189
0.29984 0.133898 0.706722
0.47425 0.130785 0.735271
0.622324 0.138048 0.746395
0.758938 0.148409 0.758938
0.88806 0.160067 0.772122
1 0.172915 0.786099
1 0.188724 0.802792
0 0.295033 0.725673
0.12842 0.304906 0.737667
0.304433 0.304433 0.738537
0.474678 0.304097 0.739162
0.620111 0.309422 0.745235
0.752651 0.316274 0.752651
0.876188 0.322896 0.759701
0.988632 0.330632 0.767788
1 0.34139 0.778805
0 0.46772 0.732387
0.125566 0.474357 0.739422
0.298375 0.46952 0.73492
0.464042 0.464042 0.729686
0.604044 0.463767 0.729595
0.731609 0.465644 0.731609
0.851194 0.468376 0.734478
0.960739 0.47335 0.739544
1 0.481865 0.748119
0 0.617288 0.742779
0.128283 0.618433 0.744015
0.296864 0.60882 0.734447
0.459358 0.599802 0.72549
0.596918 0.596918 0.722637
0.722316 0.596567 0.722316
0.839948 0.59736 0.72314
0.947662 0.600549 0.726345
1 0.607492 0.733211
0 0.748119 0.748119
0.130236 0.746777 0.746777
0.296773 0.734783 0.734783
0.457649 0.723964 0.723964
0.59353 0.719326 0.719326
0.717281 0.717281 0.717281
0.831861 0.717235 0.717235
0.931395 0.720943 0.720943
1 0.730404 0.730404
0.00309758 0.8692 0.752377
0.132464 0.866041 0.749218
0.300587 0.851652 0.735637
0.4654 0.837781 0.724239
0.603449 0.830564 0.721202
0.723781 0.827314 0.723781
0.828153 0.828153 0.73225
0.911589 0.834165 0.7476
0.969314 0.846464 0.770764
0.0404669 0.972763 0.760174
0.190585 0.961471 0.7579
0.371511 0.941344 0.750088
0.537697 0.924636 0.74902
0.670497 0.91635 0.759579
0.7785 0.913802 0.7785
0.862882 0.916014 0.803479
0.922896 0.922896 0.833082
0.960342 0.934234 0.866316
0.219944 1 0.792416
0.38529 1 0.801495
0.559289 0.986801 0.810849
0.702296 0.971756 0.827588
0.805631 0.965331 0.85211
0.881926 0.965164 0.881926
0.936156 0.970306 0.915099
0.971969 0.980179 0.950591
0.993851 0.993851 0.986007
0.0341955 0.0341955 0.247669
0.0917983 0.0407263 0.374517
0.202701 0.0362554 0.499504
0.356451 0.0247196 0.619623
0.525383 0.0128481 0.724804
0.698405 0.0040589 0.806668
0.853758 0.00505074 0.853758
0.976074 0.0188144 0.873014
1 0.0373236 0.894621
0.0345617 0.132464 0.674372
0.140597 0.140597 0.77467
0.306844 0.136263 0.836637
0.479271 0.134859 0.855848
0.627222 0.142275 0.86685
0.763561 0.152453 0.879301
0.891966 0.163485 0.891966
1 0.17615 0.905882
1 0.191501 0.922179
0 0.299535 0.846113
0.13257 0.30927 0.858076
0.3084 0.3084 0.858717
0.478477 0.30779 0.85922
0.623362 0.312535 0.86482
0.755306 0.318761 0.871702
0.878294 0.324849 0.878294
0.990295 0.332143 0.885985
1 0.342596 0.896757
0 0.471351 0.852338
0.128511 0.47744 0.858961
0.300404 0.471611 0.853544
0.465751 0.465751 0.848005
0.605447 0.465126 0.847639
0.732769 0.466758 0.849454
0.852155 0.469291 0.852155
0.961471 0.474037 0.857008
1 0.482338 0.8654
0 0.618952 0.861036
0.129488 0.61973 0.861967
0.297658 0.609644 0.852003
0.460136 0.600595 0.843046
0.597528 0.597528 0.840055
0.722515 0.596765 0.839323
0.840208 0.59762 0.840208
0.947738 0.600641 0.843244
1 0.60766 0.849638
0 0.748852 0.865614
0.130724 0.747295 0.864088
0.297108 0.735149 0.851957
0.457847 0.724178 0.841001
0.593591 0.719371 0.836194
0.717128 0.717128 0.833173
0.831067 0.717449 0.831067
0.929213 0.721782 0.831266
1 0.732097 0.835752
0.00320439 0.869322 0.869322
0.13286 0.865858 0.865858
0.302968 0.850919 0.850919
0.468559 0.836912 0.836912
0.606546 0.829923 0.829923
0.726162 0.827298 0.827298
0.829114 0.829114 0.829114
0.910658 0.836393 0.836393
0.966354 0.849973 0.849973
0.0498207 0.970169 0.871092
0.202029 0.958511 0.864179
0.383612 0.938689 0.850736
0.549157 0.922759 0.842695
0.680507 0.91545 0.844724
0.786496 0.914153 0.85388
0.868193 0.917632 0.868193
0.925658 0.925658 0.886839
0.96144 0.938125 0.909483
0.244877 1 0.881605
0.411261 1 0.881697
0.581598 0.983154 0.880903
0.720165 0.969741 0.887129
0.819883 0.96495 0.90132
0.893019 0.966415 0.921004
0.944533 0.973083 0.944533
0.97818 0.984253 0.970718
0.999222 0.999222 0.998367
0.0376287 0.0376287 0.321096
0.0999008 0.0423743 0.463645
0.219135 0.0360876 0.607034
0.377981 0.0228885 0.736538
0.548104 0.0108797 0.847166
0.717662 0.00357061 0.928588
0.860517 0.00941482 0.963195
0.982361 0.023743 0.982361
1 0.0421454 1
0.0333867 0.137362 0.794858
0.14435 0.14435 0.89839
0.313878 0.139681 0.956817
0.485039 0.139925 0.965301
0.632868 0.147326 0.97612
0.768948 0.157336 0.988434
0.896849 0.167895 1
1 0.180087 1
1 0.194842 1
0 0.304906 0.955444
0.137514 0.314412 0.967239
0.313146 0.313146 0.96759
0.483009 0.31223 0.967895
0.627405 0.316442 0.973022
0.758572 0.321889 0.979187
0.88101 0.327413 0.98526
0.99266 0.334371 0.99266
1 0.344594 1
0 0.475578 0.960723
0.132082 0.481147 0.966918
0.303487 0.474754 0.960998
0.468269 0.468269 0.954894
0.60763 0.467292 0.954208
0.734478 0.468406 0.955566
0.85388 0.47097 0.958312
0.963012 0.475532 0.963012
1 0.483528 0.971099
0 0.621378 0.967834
0.13138 0.621714 0.968353
0.299474 0.611505 0.958312
0.461738 0.602197 0.949126
0.598932 0.598932 0.945937
0.723766 0.598001 0.945068
0.841321 0.598718 0.945815
0.948699 0.601587 0.948699
1 0.608682 0.953613
0.00148013 0.750439 0.971664
0.131792 0.748425 0.969696
0.298253 0.736309 0.95761
0.458854 0.725185 0.946517
0.594568 0.720256 0.941421
0.718029 0.718029 0.936675
0.831128 0.718715 0.931685
0.927779 0.723735 0.927779
1 0.734844 0.926802
0.00416571 0.870283 0.974777
0.134936 0.866194 0.970367
0.306981 0.850919 0.953353
0.473213 0.836912 0.936095
0.610773 0.830076 0.924544
0.729793 0.828336 0.916472
0.831174 0.831174 0.911452
0.910689 0.83975 0.910689
0.964233 0.854414 0.914946
0.0614328 0.968231 0.968231
0.215763 0.956313 0.956313
0.397711 0.936889 0.936889
0.562356 0.921813 0.921813
0.692103 0.915572 0.915572
0.795407 0.915373 0.915373
0.874174 0.919966 0.919966
0.929137 0.929137 0.929137
0.963287 0.942702 0.942702
0.272221 1 0.956207
0.43888 0.999084 0.947463
0.605264 0.980362 0.937499
0.738674 0.968566 0.934417
0.834577 0.965347 0.939605
0.904509 0.968338 0.950622
0.953323 0.976486 0.966094
0.984909 0.988922 0.984909
1 1 1
0.0411231 0.0411231 0.399588
0.108598 0.044358 0.555993
0.23505 0.0362707 0.710597
0.39942 0.0220798 0.846891
0.570016 0.0105592 0.957809
0.73521 0.00546273 1
0.868452 0.0155795 1
0.989822 0.030045 1
1 0.0483253 1
0.0333104 0.142962 0.906722
0.149233 0.149233 1
0.320699 0.145556 1
0.492088 0.14641 1
0.639735 0.153689 1
0.775525 0.163439 1
0.903044 0.173678 1
1 0.185351 1
1 0.19942 1
0.00418097 0.31162 1
0.143816 0.320867 1
0.319081 0.319081 1
0.48867 0.3178 1
0.632593 0.321508 1
0.763027 0.326207 1
0.885023 0.331304 1
0.996323 0.337911 1
1 0.347814 1
0.000335698 0.481041 1
0.13666 0.485863 1
0.307668 0.478981 1
0.472068 0.472084 1
0.611154 0.470802 1
0.737728 0.471626 1
0.856916 0.473976 1
0.96585 0.47834 1
1 0.486122 1
0.00257877 0.62504 1
0.134661 0.625071 1
0.302632 0.61471 1
0.464698 0.605188 1
0.601587 0.601587 1
0.726345 0.60058 1
0.843748 0.601144 1
0.950835 0.603937 1
1 0.611551 1
0.0043183 0.753353 1
0.134493 0.751156 1
0.300786 0.738857 1
0.461234 0.727565 1
0.596826 0.72224 1
0.720363 0.720363 1
0.832532 0.721538 1
0.927474 0.727153 1
0.998367 0.739406 0.998367
0.00634775 0.872465 1
0.139559 0.867842 1
0.313161 0.852171 1
0.47985 0.838224 1
0.61709 0.831815 0.999603
0.735073 0.830808 0.986175
0.834699 0.834699 0.974853
0.911833 0.844282 0.966812
0.963165 0.859937 0.963165
0.075288 0.967269 1
0.23209 0.955291 1
0.414084 0.936294 1
0.577569 0.922118 0.982223
0.705409 0.91693 0.968765
0.805615 0.917723 0.960815
0.881071 0.923278 0.957626
0.933364 0.933364 0.959304
0.965866 0.947951 0.965866
0.301946 1 1
0.467643 0.995926 0.995926
0.629816 0.978592 0.978592
0.757763 0.968322 0.968322
0.849989 0.966598 0.966598
0.916335 0.971023 0.971023
0.962417 0.980453 0.980453
0.991989 0.994064 0.994064
1 1 1
