lut/ground-control/GroundControl_Green_Undertones.cube
TITLE "Generate by Resolve"
LUT_3D_SIZE 9
0 0.130129 0.168444
0.0707256 0.124651 0.162966
0.205402 0.118578 0.156893
0.350439 0.112108 0.150408
0.501656 0.105226 0.143542
0.668132 0.0937972 0.132113
0.815045 0.0863508 0.124651
0.910964 0.0919356 0.130236
0.989807 0.101808 0.140124
0 0.243412 0.16556
0.0736095 0.243717 0.165866
0.21059 0.239948 0.162081
0.354925 0.232761 0.15491
0.504082 0.223819 0.145968
0.668635 0.210468 0.132616
0.814527 0.201999 0.124147
0.909957 0.207095 0.129229
0.988586 0.21677 0.138903
0 0.361257 0.174609
0.0806287 0.359503 0.172869
0.215869 0.353994 0.167346
0.359487 0.346105 0.159472
0.508263 0.336797 0.150149
0.672709 0.323323 0.13669
0.818753 0.315007 0.128374
0.914595 0.320516 0.133867
0.993881 0.330831 0.144198
0 0.474586 0.178561
0.0843061 0.472572 0.176547
0.219532 0.467048 0.171008
0.363394 0.459388 0.163363
0.512688 0.450599 0.154574
0.677897 0.437903 0.141878
0.824994 0.430625 0.1346
0.922255 0.437552 0.141527
1 0.449714 0.153689
0 0.59028 0.176974
0.0833143 0.588861 0.17557
0.219455 0.584237 0.170932
0.364492 0.577768 0.164477
0.515297 0.570474 0.157183
0.682445 0.559716 0.14641
0.831586 0.554498 0.141192
0.930663 0.563241 0.14995
1 0.576776 0.16347
0 0.71107 0.173877
0.0819104 0.71133 0.174151
0.219959 0.708629 0.17145
0.367041 0.704189 0.16701
0.519585 0.698665 0.161486
0.687877 0.689036 0.151858
0.837598 0.684398 0.147219
0.93666 0.693126 0.155932
1 0.705928 0.16875
0 0.835523 0.183658
0.0932631 0.837354 0.185504
0.232303 0.835645 0.183795
0.37969 0.831525 0.179675
0.531991 0.825727 0.173877
0.699367 0.815198 0.163348
0.847547 0.809018 0.157168
0.944305 0.815442 0.163592
1 0.824628 0.172778
0.00564584 0.952712 0.221698
0.130755 0.954025 0.223011
0.268711 0.951217 0.220203
0.414389 0.945388 0.214359
0.563867 0.936782 0.205753
0.726452 0.921447 0.190417
0.86714 0.907774 0.176761
0.955703 0.906004 0.17499
1 0.90866 0.17763
0.0596628 1 0.2757
0.181567 1 0.273823
0.313237 1 0.264729
0.451057 1 0.251026
0.592782 1 0.234668
0.75021 0.996185 0.214176
0.888609 0.980224 0.198215
0.975174 0.976455 0.194446
1 0.97467 0.19266
0 0.130175 0.264607
0.071458 0.125383 0.2598
0.206989 0.120165 0.254582
0.352605 0.11426 0.248692
0.503716 0.107286 0.241718
0.669978 0.0956436 0.23006
0.816571 0.0878614 0.222293
0.912367 0.0933394 0.227756
0.99115 0.103166 0.237583
0 0.245579 0.263828
0.075639 0.245747 0.263996
0.212222 0.241581 0.259831
0.356405 0.234241 0.252491
0.50547 0.225223 0.243473
0.669978 0.21181 0.23006
0.815854 0.203326 0.221576
0.911269 0.208408 0.226658
0.989929 0.218112 0.236362
0 0.362676 0.272145
0.082002 0.360891 0.270359
0.217197 0.355322 0.26479
0.3608 0.347417 0.256886
0.509606 0.338125 0.247593
0.674067 0.324697 0.234165
0.820172 0.316426 0.225895
0.916121 0.322026 0.231495
0.995529 0.332494 0.241962
0 0.475898 0.275975
0.0856336 0.473915 0.273991
0.22092 0.468437 0.268513
0.364843 0.460853 0.260929
0.514229 0.45214 0.252232
0.679606 0.439612 0.239689
0.826886 0.432517 0.232609
0.924315 0.439628 0.239704
1 0.452003 0.252079
0 0.591775 0.274586
0.0849165 0.590463 0.273274
0.22118 0.585962 0.268772
0.366445 0.579721 0.262531
0.517494 0.572686 0.255497
0.684794 0.562066 0.244877
0.834104 0.557015 0.239826
0.933303 0.565881 0.248692
1 0.579416 0.262226
0 0.713054 0.271977
0.0841688 0.713603 0.272526
0.222416 0.711101 0.270024
0.369589 0.706752 0.265675
0.522225 0.701305 0.260227
0.690532 0.691691 0.250614
0.840177 0.686976 0.245899
0.939132 0.695583 0.25452
1 0.708232 0.26717
0 0.838132 0.282383
0.0959029 0.840009 0.28426
0.234943 0.838285 0.282536
0.382239 0.834058 0.278325
0.534356 0.828107 0.272358
0.701595 0.817411 0.261677
0.849531 0.810987 0.255238
0.945693 0.816831 0.261082
1 0.824765 0.269032
0.00817884 0.955245 0.320333
0.133089 0.956359 0.321447
0.270802 0.953307 0.318395
0.416159 0.947158 0.312245
0.565118 0.938033 0.30312
0.726146 0.921141 0.286229
0.866255 0.906889 0.271977
0.954635 0.904936 0.270024
1 0.907607 0.272694
0.0611582 1 0.373312
0.182269 1 0.370626
0.312825 1 0.360418
0.449973 1 0.346059
0.59173 1 0.329732
0.749081 0.995056 0.309163
0.887251 0.978866 0.292973
0.972808 0.97409 0.288197
1 0.971206 0.285313
0 0.130785 0.354528
0.0732128 0.127138 0.350881
0.209277 0.122454 0.346197
0.355261 0.116915 0.340658
0.506249 0.109819 0.333562
0.672114 0.0977798 0.321523
0.818555 0.0898451 0.313588
0.91426 0.0952316 0.318975
0.992981 0.104982 0.328725
0 0.248173 0.355749
0.0781109 0.248219 0.355795
0.214267 0.24361 0.351171
0.358343 0.236164 0.34374
0.507347 0.2271 0.334661
0.671809 0.213642 0.321202
0.817655 0.205127 0.312688
0.9131 0.210239 0.3178
0.991775 0.219959 0.32752
0 0.364584 0.363363
0.0838331 0.362722 0.361501
0.219013 0.357137 0.355932
0.3626 0.349218 0.348013
0.511421 0.339956 0.338735
0.675959 0.326574 0.325353
0.822126 0.318364 0.317159
0.918151 0.324071 0.32285
0.997726 0.334676 0.333471
0 0.477714 0.367102
0.08748 0.475746 0.365148
0.222812 0.470344 0.359731
0.366827 0.462837 0.352239
0.51632 0.454231 0.343633
0.681819 0.441825 0.331212
0.829328 0.434958 0.324361
0.927001 0.442313 0.331701
1 0.454856 0.344244
0 0.59379 0.365927
0.0870832 0.59263 0.364752
0.223468 0.588251 0.360388
0.368917 0.582193 0.35433
0.520256 0.575448 0.34757
0.687755 0.565026 0.337148
0.837156 0.560067 0.332189
0.936431 0.569009 0.341146
1 0.582559 0.354696
0 0.715633 0.363882
0.0869612 0.716396 0.36463
0.225422 0.714092 0.362341
0.372686 0.70985 0.358099
0.525368 0.704433 0.352682
0.69366 0.69482 0.343069
0.843214 0.689998 0.338247
0.942 0.698466 0.3467
1 0.710948 0.359197
0 0.84126 0.374838
0.0990463 0.843137 0.376715
0.238041 0.841382 0.37496
0.38526 0.837079 0.370657
0.537179 0.83093 0.364492
0.704173 0.820005 0.353567
0.851804 0.813275 0.346838
0.947448 0.818586 0.352163
1 0.824964 0.358541
0.0111086 0.958175 0.412589
0.135882 0.959136 0.41355
0.273304 0.95581 0.410224
0.418158 0.949157 0.403555
0.566354 0.939254 0.393668
0.726238 0.921233 0.375631
0.865675 0.90631 0.360708
0.95407 0.904372 0.35877
1 0.906981 0.361379
0.0630198 1 0.464485
0.182773 1 0.460456
0.312688 1 0.449607
0.449378 1 0.434791
0.59118 1 0.418494
0.748348 0.994324 0.397742
0.886091 0.977707 0.381125
0.970825 0.972107 0.375525
1 0.967834 0.371252
0 0.131609 0.444099
0.0752575 0.129183 0.441688
0.211856 0.125032 0.437522
0.3579 0.119554 0.432059
0.508766 0.112337 0.424826
0.674189 0.099855 0.412345
0.820523 0.0918135 0.404303
0.916182 0.0971389 0.409644
0.994858 0.106859 0.419348
0 0.250767 0.447089
0.0804608 0.250568 0.446891
0.216312 0.245655 0.441978
0.360281 0.238117 0.43444
0.509224 0.228977 0.425299
0.673671 0.215503 0.411826
0.819501 0.206973 0.403296
0.914961 0.2121 0.408423
0.993698 0.221881 0.418204
0 0.366506 0.454047
0.0857099 0.364599 0.452125
0.220859 0.358984 0.446525
0.364462 0.35108 0.438621
0.513298 0.341833 0.429358
0.677897 0.328511 0.416052
0.824155 0.320394 0.407935
0.920272 0.326192 0.413733
0.999969 0.336934 0.424475
0 0.479576 0.457725
0.0893721 0.477653 0.455802
0.224765 0.472282 0.450431
0.368902 0.464897 0.443046
0.518517 0.456428 0.434577
0.684153 0.44416 0.422309
0.83183 0.437476 0.415625
0.929793 0.445106 0.423255
1 0.457832 0.435981
0 0.59588 0.456764
0.0893111 0.594858 0.455741
0.22591 0.590692 0.451575
0.371542 0.584817 0.445701
0.523079 0.578271 0.439155
0.690791 0.568063 0.428946
0.840299 0.563195 0.424079
0.939605 0.572183 0.433066
1 0.585733 0.446616
0 0.718395 0.45539
0.0898756 0.719295 0.456291
0.228473 0.717144 0.454154
0.37586 0.713024 0.450019
0.528542 0.707622 0.444617
0.696803 0.697963 0.434958
0.846265 0.693065 0.43006
0.944854 0.70132 0.438315
1 0.713573 0.450584
0 0.844434 0.466758
0.10222 0.846311 0.46865
0.241138 0.84448 0.466804
0.388251 0.84007 0.462394
0.540017 0.833753 0.456077
0.706722 0.822553 0.444877
0.853864 0.815335 0.437659
0.948775 0.819913 0.442237
1 0.825116 0.44744
0.0140078 0.961074 0.504234
0.138613 0.961868 0.505028
0.275792 0.958297 0.501472
0.420066 0.951064 0.494224
0.566949 0.939849 0.483009
0.726146 0.921141 0.464302
0.865125 0.905745 0.448905
0.953567 0.903853 0.447013
1 0.906294 0.449454
0.0647593 1 0.554986
0.182986 1 0.549416
0.312291 1 0.537957
0.448844 1 0.523003
0.590661 1 0.506722
0.747585 0.993576 0.48574
0.88452 0.976135 0.468315
0.968475 0.969757 0.461921
1 0.964416 0.45658
0 0.132647 0.537438
0.0771191 0.13106 0.535851
0.214298 0.127474 0.532265
0.360235 0.121889 0.52668
0.510857 0.114443 0.519234
0.67599 0.10164 0.506447
0.822202 0.093492 0.498283
0.917815 0.0987716 0.503563
0.99646 0.108461 0.513252
0 0.253071 0.54168
0.0823682 0.252461 0.541085
0.218067 0.24741 0.536034
0.361944 0.23978 0.528405
0.510842 0.230594 0.519203
0.675258 0.21709 0.505714
0.821103 0.208576 0.497185
0.916579 0.213718 0.502342
0.995392 0.22356 0.512184
0 0.36817 0.547997
0.0873121 0.366201 0.546044
0.222446 0.360586 0.540413
0.366064 0.352682 0.532525
0.514946 0.343465 0.523308
0.679591 0.330205 0.510033
0.825956 0.322194 0.502037
0.92221 0.32813 0.507958
1 0.338994 0.518837
0 0.481193 0.551644
0.0910353 0.479316 0.549767
0.226505 0.474022 0.544472
0.370718 0.466728 0.537163
0.520485 0.458412 0.528862
0.68632 0.446326 0.516777
0.83418 0.439826 0.510277
0.932372 0.447669 0.51812
1 0.460609 0.53106
0 0.597757 0.550942
0.0913252 0.596857 0.550042
0.228138 0.59292 0.546105
0.374014 0.587289 0.540475
0.525719 0.580911 0.534096
0.693584 0.570855 0.524041
0.843198 0.56611 0.519295
0.942535 0.575113 0.528283
1 0.588632 0.541802
0 0.720928 0.550225
0.092607 0.722042 0.551339
0.231312 0.719982 0.549279
0.378775 0.715938 0.545235
0.531472 0.710536 0.539834
0.699657 0.700801 0.530098
0.849012 0.695811 0.525109
0.947448 0.703899 0.533196
1 0.715877 0.545174
0 0.847349 0.561975
0.105135 0.849226 0.563851
0.243961 0.847303 0.561929
0.39089 0.842725 0.557351
0.542504 0.83624 0.550866
0.708965 0.824796 0.539422
0.855528 0.816983 0.531609
0.949172 0.820294 0.53492
1 0.824796 0.539422
0.0166171 0.963684 0.599145
0.140963 0.964218 0.59968
0.277821 0.960342 0.595789
0.421576 0.952575 0.588037
0.566918 0.939818 0.57528
0.725521 0.920516 0.555978
0.864317 0.904952 0.540413
0.952789 0.903075 0.538537
1 0.905272 0.540734
0.0656748 1 0.648203
0.182849 1 0.641566
0.311498 1 0.629465
0.448066 1 0.614527
0.589792 1 0.598169
0.746502 0.992477 0.576959
0.882429 0.974044 0.558511
0.96524 0.966537 0.551003
1 0.960494 0.544976
0 0.13373 0.637415
0.0787366 0.132677 0.636347
0.216266 0.129442 0.633112
0.362066 0.12372 0.627405
0.512306 0.115877 0.619547
0.677272 0.102937 0.606607
0.823407 0.0946975 0.598367
0.918944 0.0999161 0.603586
0.997574 0.109575 0.613245
0 0.254841 0.642344
0.0836957 0.253803 0.641306
0.219303 0.248646 0.636149
0.363134 0.24097 0.628458
0.511971 0.231724 0.619226
0.676371 0.218204 0.605707
0.822232 0.209705 0.597208
0.917739 0.214878 0.60238
0.996597 0.224781 0.612284
0 0.369314 0.648035
0.0884413 0.36733 0.646052
0.22356 0.3617 0.640421
0.367208 0.353826 0.632547
0.516136 0.344656 0.623377
0.680842 0.331456 0.610178
0.827298 0.323552 0.602258
0.923705 0.329625 0.608347
1 0.340688 0.61941
0 0.482338 0.651667
0.092256 0.480522 0.649851
0.227802 0.475319 0.644648
0.372107 0.468116 0.637446
0.522011 0.459937 0.629267
0.688075 0.448081 0.617411
0.836179 0.441825 0.611154
0.934524 0.449836 0.619165
1 0.462928 0.632258
0 0.599237 0.651286
0.0929274 0.598474 0.650538
0.229923 0.594705 0.646769
0.376089 0.589364 0.641428
0.527993 0.583169 0.635233
0.695949 0.57322 0.625284
0.845655 0.568551 0.620615
0.944976 0.577554 0.629618
1 0.590997 0.643061
0 0.723033 0.651209
0.0949111 0.724346 0.652522
0.233722 0.722408 0.650584
0.381216 0.718379 0.646555
0.533913 0.712978 0.641154
0.701991 0.703151 0.631327
0.851194 0.697978 0.626154
0.949462 0.705928 0.634104
1 0.717647 0.645823
0 0.849805 0.66331
0.107546 0.851637 0.665156
0.246281 0.849622 0.663127
0.393027 0.844846 0.658366
0.544381 0.838132 0.651637
0.710536 0.826368 0.639872
0.85658 0.818036 0.63154
0.948669 0.819791 0.633295
1 0.823713 0.637217
0.0187076 0.965774 0.700114
0.142763 0.966033 0.700374
0.279133 0.961639 0.695979
0.42208 0.953079 0.687419
0.566308 0.939208 0.673548
0.724254 0.919249 0.65359
0.863066 0.9037 0.638041
0.951461 0.901762 0.636103
1 0.903731 0.638071
0.0654612 1 0.746883
0.181994 1 0.739605
0.310201 1 0.727062
0.44683 1 0.712154
0.588373 1 0.695613
0.74461 0.9906 0.673945
0.879728 0.971344 0.654704
0.961181 0.962463 0.645808
1 0.955779 0.639139
0 0.135058 0.737469
0.0806134 0.134554 0.73695
0.218173 0.13135 0.733761
0.363851 0.125521 0.727916
0.513649 0.11722 0.719631
0.678523 0.104173 0.706584
0.824598 0.0958877 0.698299
0.920089 0.101061 0.703456
0.998703 0.110704 0.7131
0 0.256458 0.742687
0.0850385 0.255131 0.74136
0.220523 0.249866 0.736095
0.364294 0.24213 0.728359
0.513115 0.232868 0.719097
0.677501 0.219333 0.705562
0.823377 0.210849 0.697078
0.918944 0.216083 0.702312
0.997864 0.226032 0.712261
0 0.370459 0.747906
0.0895705 0.36846 0.745907
0.224704 0.362829 0.740276
0.368353 0.354971 0.732418
0.517342 0.345876 0.723323
0.682155 0.332769 0.710216
0.828702 0.324956 0.702403
0.925246 0.331151 0.708614
1 0.342458 0.719905
0 0.483513 0.751583
0.0934768 0.481758 0.749813
0.229145 0.476661 0.744732
0.373602 0.469596 0.737667
0.523629 0.461555 0.72961
0.68986 0.449866 0.717937
0.83827 0.4439 0.711955
0.936782 0.452094 0.72015
1 0.465293 0.733349
0 0.600748 0.751537
0.0946517 0.600198 0.750988
0.23183 0.596613 0.747402
0.378195 0.59147 0.74226
0.530312 0.585489 0.736278
0.69836 0.575631 0.726421
0.848096 0.571008 0.721798
0.947433 0.580011 0.7308
1 0.593362 0.744152
0 0.725231 0.752132
0.097261 0.72668 0.753597
0.236179 0.724849 0.751751
0.383673 0.720836 0.747738
0.536324 0.715404 0.742306
0.704326 0.705486 0.732387
0.85333 0.70013 0.727031
0.951354 0.70782 0.734722
1 0.719265 0.746166
0 0.852262 0.764492
0.109911 0.854017 0.766247
0.248539 0.851881 0.764126
0.395132 0.846967 0.759197
0.546212 0.839948 0.752194
0.711864 0.827695 0.739925
0.857145 0.818616 0.730846
0.948074 0.819211 0.731441
1 0.822461 0.734691
0.0207065 0.967773 0.800855
0.144533 0.967803 0.80087
0.280308 0.962814 0.79588
0.421927 0.952911 0.785992
0.565484 0.938384 0.771466
0.722972 0.917967 0.751034
0.861845 0.902464 0.735546
0.950042 0.900343 0.73341
1 0.901884 0.734966
0.0649577 1 0.84509
0.180865 1 0.837201
0.308949 1 0.824521
0.445579 1 0.809644
0.586892 1 0.792859
0.742306 0.988281 0.770367
0.876616 0.968246 0.750317
0.957015 0.958297 0.740383
1 0.950851 0.732937
0 0.137087 0.829404
0.0832227 0.137163 0.82948
0.220676 0.133852 0.826169
0.366125 0.127779 0.820096
0.515618 0.119188 0.811505
0.680369 0.106035 0.798352
0.826398 0.0976883 0.790005
0.921874 0.102831 0.795148
1 0.112459 0.804776
0 0.258518 0.834653
0.0869612 0.257053 0.833204
0.22237 0.251713 0.827863
0.366079 0.243915 0.82005
0.514885 0.234623 0.810773
0.679271 0.221103 0.797238
0.825162 0.212634 0.788785
0.920806 0.217945 0.794079
0.999817 0.227985 0.804135
0 0.372244 0.839597
0.0913405 0.370214 0.837583
0.22649 0.364614 0.831968
0.370184 0.356802 0.824155
0.519219 0.347738 0.815106
0.684123 0.334737 0.802106
0.830808 0.327062 0.794415
0.927489 0.333394 0.800763
1 0.344884 0.812238
0 0.485359 0.843336
0.0953841 0.483665 0.841642
0.231144 0.47866 0.836637
0.375738 0.471748 0.829725
0.525979 0.463905 0.821866
0.692393 0.452399 0.810376
0.841001 0.446647 0.804623
0.939742 0.455055 0.813031
1 0.46836 0.826322
0 0.602914 0.843626
0.0970626 0.602594 0.843305
0.234485 0.599268 0.839979
0.381018 0.594293 0.835004
0.533272 0.588464 0.82916
0.701442 0.578714 0.819425
0.851194 0.574105 0.814801
0.9505 0.583078 0.823774
1 0.596338 0.837034
0 0.728145 0.844968
0.100267 0.729702 0.84651
0.239261 0.727932 0.844755
0.386786 0.723934 0.840757
0.539345 0.71841 0.835233
0.70724 0.7084 0.825223
0.856077 0.702876 0.819699
0.953826 0.710292 0.827115
1 0.721233 0.838056
0 0.855344 0.857496
0.112902 0.857008 0.859159
0.251362 0.854704 0.856855
0.397772 0.849607 0.851759
0.548623 0.842359 0.844511
0.713695 0.829511 0.831662
0.857664 0.819135 0.821271
0.947921 0.819043 0.821195
1 0.82182 0.823957
0.0232395 0.970306 0.893278
0.146731 0.969985 0.892973
0.281971 0.964477 0.887465
0.422049 0.953048 0.87602
0.565011 0.937926 0.860899
0.722347 0.917342 0.84033
0.861234 0.901854 0.824842
0.949203 0.899504 0.822492
1 0.900236 0.823224
0.0649729 1 0.935027
0.18024 1 0.926482
0.308339 1 0.913832
0.444892 1 0.898863
0.585962 1 0.881849
0.740383 0.986358 0.858351
0.873533 0.965164 0.837156
0.953262 0.954543 0.826551
1 0.946548 0.81854
0 0.141314 0.897047
0.0877546 0.14168 0.897414
0.225071 0.138247 0.89398
0.370108 0.131777 0.88751
0.519463 0.123033 0.878767
0.684138 0.109789 0.865522
0.830091 0.101396 0.857114
0.925551 0.106508 0.862242
1 0.116152 0.87187
0 0.262409 0.901976
0.0907454 0.260853 0.900404
0.226108 0.255451 0.895003
0.369772 0.247608 0.88716
0.518547 0.2383 0.877852
0.682963 0.224796 0.864347
0.828901 0.216358 0.855924
0.924575 0.221714 0.86128
1 0.231876 0.871427
0 0.375921 0.906706
0.0950027 0.373892 0.904677
0.230182 0.368307 0.899092
0.373938 0.360555 0.891325
0.523033 0.351568 0.882338
0.688029 0.338659 0.869429
0.834882 0.331121 0.861906
0.931746 0.337667 0.868437
1 0.34931 0.880079
0 0.489128 0.910521
0.0992599 0.487541 0.908919
0.235111 0.482628 0.904005
0.379828 0.475837 0.897231
0.530297 0.468208 0.889601
0.696956 0.456962 0.878355
0.845731 0.451377 0.872755
0.944625 0.459937 0.881315
1 0.47335 0.894728
0 0.607111 0.911223
0.101411 0.606943 0.91107
0.239124 0.603906 0.908034
0.385855 0.599115 0.903243
0.538201 0.593393 0.897505
0.706447 0.583719 0.887846
0.856199 0.57911 0.883223
0.955428 0.588006 0.892119
1 0.60116 0.905272
0 0.733013 0.913252
0.105241 0.734676 0.9149
0.244266 0.732937 0.913176
0.391775 0.728939 0.909178
0.544244 0.723323 0.903548
0.711971 0.71313 0.89337
0.860655 0.707454 0.887678
0.95816 0.714626 0.89485
1 0.724987 0.905211
0 0.860319 0.925872
0.117784 0.861891 0.927459
0.256046 0.859388 0.924956
0.402213 0.854047 0.919615
0.552743 0.846479 0.912047
0.717281 0.833112 0.89868
0.859709 0.82118 0.886748
0.949371 0.820508 0.886076
1 0.823102 0.88867
0.0276036 0.97467 0.961074
0.150576 0.973831 0.960235
0.284993 0.967498 0.953902
0.423987 0.954986 0.94139
0.566308 0.939208 0.925597
0.723659 0.918654 0.905058
0.86247 0.90309 0.889494
0.95021 0.900511 0.8869
1 0.900236 0.886641
0.0666667 1 1
0.181506 1 0.99118
0.309667 1 0.978561
0.446006 1 0.963409
0.586618 1 0.945922
0.74023 0.986206 0.92163
0.872023 0.963638 0.899046
0.95108 0.952377 0.887785
1 0.943999 0.879408
