lut/kim-amland/Kim_Amland_Photographic_01.cube
#Copyright: (C) Copyright 2017 Kim Amland
TITLE "Kim Amland - Photographic 01"
#LUT size
LUT_3D_SIZE 8
#data domain
#LUT data points
DOMAIN_MIN 0.000000 0.000000 0.000000
DOMAIN_MAX 0.903226 0.903226 0.903226
0.000000 0.000000 0.000000
0.037994 0.000000 0.004456
0.212006 0.000000 0.027588
0.417938 0.000000 0.009521
0.623352 0.000000 0.000000
0.820160 0.000000 0.000000
0.970306 0.000000 0.000000
1.000000 0.072937 0.076050
0.000000 0.070984 0.003937
0.067139 0.074677 0.003937
0.228607 0.103058 0.006897
0.425690 0.126312 0.000000
0.627197 0.146515 0.000000
0.820129 0.157440 0.000000
0.970245 0.168274 0.000000
1.000000 0.194366 0.081512
0.000000 0.255432 0.000000
0.113922 0.256012 0.000000
0.260468 0.259735 0.000000
0.437500 0.288055 0.000000
0.634460 0.312653 0.000000
0.820190 0.326416 0.000000
0.965424 0.329346 0.003052
1.000000 0.333649 0.097107
0.000000 0.453156 0.000000
0.112305 0.453308 0.000000
0.295563 0.457153 0.000000
0.460754 0.461090 0.000000
0.642670 0.480865 0.000000
0.816284 0.490479 0.000000
0.956879 0.486664 0.016724
1.000000 0.477325 0.131317
0.000000 0.648621 0.000000
0.124359 0.649567 0.000000
0.317566 0.649567 0.000000
0.486786 0.650665 0.000000
0.651550 0.650665 0.000000
0.809814 0.649109 0.000000
0.940491 0.636566 0.081207
1.000000 0.618225 0.179810
0.047363 0.798065 0.043152
0.187225 0.798065 0.047363
0.335785 0.795624 0.054810
0.490601 0.794189 0.067047
0.641113 0.791656 0.086700
0.790222 0.787781 0.108887
0.921173 0.775482 0.167450
0.999603 0.747467 0.245087
0.239990 0.897430 0.240021
0.290710 0.896698 0.240082
0.383636 0.895752 0.243835
0.499908 0.893494 0.251892
0.625916 0.889374 0.259552
0.752716 0.885620 0.272949
0.880005 0.880005 0.287628
0.989868 0.862274 0.323151
0.385284 0.960052 0.385040
0.409882 0.960083 0.385651
0.461975 0.959198 0.389130
0.539185 0.956299 0.392975
0.631439 0.952209 0.399292
0.732849 0.948334 0.409088
0.834534 0.944427 0.421021
0.939850 0.936554 0.435669
0.000000 0.012329 0.066925
0.057098 0.004639 0.068634
0.222015 0.000000 0.098480
0.417572 0.000000 0.106262
0.619293 0.000000 0.113190
0.815491 0.000000 0.130890
0.966339 0.000519 0.162384
1.000000 0.102051 0.203430
0.000000 0.072205 0.074738
0.074615 0.074615 0.074615
0.231262 0.090424 0.090820
0.421387 0.097595 0.098602
0.621033 0.109558 0.111115
0.815643 0.130310 0.130035
0.965881 0.163849 0.164581
1.000000 0.207306 0.207306
0.000000 0.247650 0.090546
0.089722 0.248047 0.090332
0.252258 0.251953 0.090271
0.430054 0.276306 0.092499
0.628418 0.300995 0.105804
0.815613 0.319580 0.130463
0.961487 0.329620 0.170258
1.000000 0.341095 0.218201
0.000000 0.445465 0.092102
0.092987 0.446014 0.091980
0.288116 0.449249 0.092987
0.453094 0.453094 0.092987
0.637848 0.473083 0.105042
0.812073 0.486664 0.137909
0.951508 0.486633 0.185242
1.000000 0.482727 0.238129
0.000000 0.644470 0.117432
0.119507 0.644470 0.118286
0.314819 0.644562 0.120422
0.482910 0.646210 0.124237
0.647736 0.646667 0.130219
0.805939 0.647400 0.161652
0.936829 0.636566 0.215912
1.000000 0.622223 0.271179
0.090179 0.794159 0.200348
0.203491 0.794189 0.203674
0.343811 0.794159 0.206451
0.491974 0.791656 0.211487
0.641144 0.790253 0.219086
0.787720 0.786285 0.230743
0.917297 0.775146 0.263702
0.999634 0.748779 0.319641
0.273773 0.894684 0.315033
0.317688 0.893402 0.317627
0.402008 0.893372 0.319275
0.511200 0.890686 0.324188
0.631958 0.887817 0.332367
0.755890 0.883759 0.341858
0.877502 0.877777 0.353668
0.986542 0.862000 0.383423
0.415131 0.958740 0.435211
0.436768 0.955963 0.435547
0.484528 0.956238 0.437897
0.555725 0.955292 0.442261
0.643341 0.951813 0.448181
0.737732 0.947601 0.456635
0.838226 0.943481 0.465668
0.937347 0.936584 0.478088
0.000000 0.026611 0.252319
0.099579 0.003418 0.255463
0.255585 0.000000 0.255402
0.421906 0.000000 0.274384
0.619446 0.000000 0.295929
0.808350 0.000000 0.314453
0.954590 0.043182 0.336334
1.000000 0.190125 0.364502
0.000000 0.102386 0.251648
0.094421 0.094177 0.251434
0.248230 0.088379 0.248199
0.421631 0.084869 0.268311
0.616669 0.091614 0.292450
0.804504 0.121185 0.314362
0.953583 0.191650 0.338684
1.000000 0.261017 0.368195
0.000000 0.251892 0.252045
0.080627 0.252075 0.252167
0.264709 0.263977 0.264587
0.428955 0.273193 0.274902
0.618866 0.294891 0.295685
0.803436 0.317261 0.318176
0.947937 0.344452 0.345276
1.000000 0.373444 0.375122
0.000000 0.441223 0.280273
0.091919 0.441254 0.281860
0.284088 0.442474 0.284210
0.447144 0.445618 0.287598
0.629852 0.468964 0.303192
0.801910 0.485443 0.326721
0.938568 0.494476 0.356354
1.000000 0.504730 0.389618
0.001007 0.636383 0.313354
0.133179 0.637024 0.314606
0.316406 0.637329 0.316345
0.480988 0.638947 0.318573
0.639618 0.639740 0.322510
0.797058 0.643738 0.342926
0.925018 0.639648 0.377380
1.000000 0.633820 0.413757
0.181580 0.789368 0.365875
0.253967 0.788025 0.366638
0.369781 0.787720 0.369873
0.504333 0.786346 0.373383
0.643707 0.784485 0.377625
0.783752 0.782379 0.385223
0.907501 0.771881 0.409454
0.995392 0.755371 0.448975
0.349304 0.889435 0.444824
0.381409 0.889282 0.445984
0.448151 0.887909 0.448242
0.541321 0.885468 0.452057
0.648041 0.883148 0.456451
0.761047 0.880005 0.464447
0.876068 0.876129 0.472168
0.976196 0.861511 0.494751
0.477203 0.952179 0.529724
0.493958 0.952271 0.529877
0.533173 0.952026 0.531738
0.592163 0.950470 0.535461
0.668182 0.948029 0.539398
0.753296 0.944641 0.545135
0.843628 0.940491 0.552795
0.935608 0.935608 0.561035
0.000000 0.000000 0.458557
0.133331 0.000000 0.461212
0.300507 0.000000 0.457794
0.453064 0.000000 0.453308
0.625092 0.000000 0.465210
0.808472 0.000000 0.484406
0.951569 0.068878 0.490540
1.000000 0.243896 0.506165
0.000000 0.108459 0.453003
0.105225 0.105133 0.453430
0.288055 0.097504 0.450134
0.446716 0.089935 0.448395
0.622559 0.093414 0.463013
0.804596 0.129120 0.482758
0.946259 0.214447 0.494507
1.000000 0.322479 0.516174
0.000000 0.284119 0.446869
0.087921 0.283722 0.445435
0.284149 0.283722 0.443024
0.443054 0.284088 0.445251
0.622131 0.298035 0.464020
0.795807 0.328705 0.485229
0.930206 0.380920 0.508789
1.000000 0.447266 0.540894
0.000000 0.445862 0.447052
0.096222 0.445892 0.447052
0.291901 0.450165 0.450470
0.470337 0.470337 0.470490
0.631134 0.477020 0.478119
0.787384 0.500122 0.501068
0.916840 0.525604 0.526947
0.999573 0.553284 0.552887
0.012878 0.635010 0.478424
0.159912 0.635010 0.481110
0.336151 0.635925 0.485382
0.491669 0.636505 0.491974
0.639801 0.638885 0.495758
0.784821 0.646973 0.515442
0.906464 0.654877 0.542572
0.993591 0.662445 0.568909
0.289276 0.782379 0.525360
0.343201 0.780914 0.529266
0.429047 0.779846 0.533417
0.536224 0.779877 0.536072
0.655426 0.779938 0.540100
0.778473 0.778473 0.545074
0.892578 0.774658 0.564575
0.981079 0.768188 0.591370
0.449951 0.881531 0.585510
0.470795 0.881042 0.585449
0.517914 0.880463 0.585876
0.589355 0.878906 0.589417
0.675476 0.877747 0.592621
0.772064 0.874939 0.597290
0.873596 0.872131 0.601715
0.962830 0.862152 0.617706
0.556244 0.946045 0.639465
0.569092 0.946136 0.640533
0.597931 0.944305 0.642609
0.643280 0.943848 0.643402
0.704468 0.942261 0.647003
0.775177 0.940094 0.650787
0.853455 0.936707 0.655212
0.933411 0.932678 0.661926
0.000000 0.000000 0.658264
0.157806 0.000000 0.658447
0.325653 0.000000 0.656616
0.488922 0.000000 0.653503
0.649292 0.000000 0.650085
0.808472 0.000000 0.647278
0.947021 0.096954 0.643494
1.000000 0.260498 0.637817
0.000000 0.130920 0.652283
0.129364 0.129150 0.652496
0.316650 0.124207 0.650635
0.483765 0.119476 0.648438
0.644562 0.118652 0.645233
0.804535 0.140869 0.645691
0.940552 0.228577 0.643494
1.000000 0.335602 0.641632
0.000000 0.311951 0.643738
0.123077 0.312561 0.642670
0.312653 0.312347 0.641235
0.479004 0.313049 0.640350
0.638428 0.316345 0.638885
0.795685 0.335236 0.642761
0.926300 0.390442 0.645355
0.999603 0.461517 0.654480
0.002045 0.480194 0.639740
0.146637 0.480530 0.638947
0.328064 0.480804 0.636841
0.488861 0.487701 0.636810
0.637238 0.491943 0.638672
0.782318 0.514374 0.647034
0.903015 0.552216 0.660339
0.989258 0.597198 0.680084
0.067871 0.637329 0.638824
0.202484 0.637329 0.638824
0.357239 0.639282 0.639771
0.510895 0.643677 0.643646
0.659302 0.659302 0.659302
0.778900 0.664886 0.667419
0.886475 0.681519 0.682739
0.970734 0.700470 0.700378
0.318787 0.779877 0.653259
0.368652 0.779877 0.655914
0.459106 0.778503 0.659821
0.572327 0.778503 0.670258
0.677002 0.779297 0.677521
0.779907 0.780029 0.679382
0.878601 0.782043 0.695709
0.960510 0.786499 0.712830
0.500854 0.877838 0.689606
0.525970 0.876099 0.692749
0.578613 0.873871 0.700836
0.642456 0.873596 0.707855
0.710205 0.872131 0.709808
0.787689 0.870636 0.713257
0.869873 0.869720 0.716797
0.948029 0.865906 0.728973
0.632599 0.939514 0.739502
0.643951 0.939545 0.741638
0.666016 0.937805 0.742371
0.700287 0.936462 0.744934
0.746399 0.936462 0.745361
0.802704 0.935577 0.748779
0.865417 0.932709 0.752930
0.931671 0.931671 0.755554
0.005096 0.007629 0.807129
0.173157 0.005096 0.805817
0.329407 0.005096 0.806061
0.488159 0.010162 0.803406
0.645264 0.021240 0.802063
0.795624 0.057495 0.798096
0.939758 0.135956 0.790222
1.000000 0.282166 0.766998
0.010895 0.171356 0.803497
0.172546 0.172516 0.802032
0.331207 0.173584 0.802032
0.488251 0.178406 0.799561
0.641479 0.189178 0.798096
0.794189 0.207397 0.794159
0.933319 0.247559 0.787201
1.000000 0.352264 0.766815
0.094574 0.343262 0.794403
0.208160 0.343872 0.794098
0.346924 0.347260 0.794220
0.494476 0.351349 0.792816
0.641479 0.359528 0.790253
0.786621 0.372040 0.787750
0.919159 0.402771 0.782440
0.999390 0.472504 0.768127
0.196014 0.503235 0.787720
0.275604 0.507477 0.786346
0.399445 0.516571 0.783813
0.523102 0.522217 0.782349
0.651001 0.528442 0.782410
0.779846 0.537415 0.779816
0.899109 0.560364 0.778503
0.983826 0.604187 0.775970
0.285309 0.647980 0.782410
0.342377 0.651703 0.782501
0.442230 0.655823 0.779877
0.560883 0.663757 0.778503
0.673462 0.673004 0.779968
0.779968 0.676758 0.779877
0.879425 0.693939 0.783508
0.957672 0.721283 0.791199
0.377991 0.778503 0.778503
0.415771 0.778503 0.778473
0.490753 0.778564 0.778503
0.588867 0.778503 0.779877
0.695404 0.783905 0.783813
0.794189 0.794098 0.794220
0.873047 0.798859 0.799561
0.941376 0.808197 0.808472
0.521942 0.874207 0.781219
0.546051 0.873901 0.783905
0.594421 0.873901 0.785950
0.661713 0.872162 0.791870
0.737823 0.869781 0.800110
0.807587 0.872162 0.807465
0.872101 0.872192 0.807953
0.936707 0.873291 0.818665
0.652283 0.936554 0.804504
0.664459 0.936798 0.805817
0.693970 0.935608 0.811981
0.737366 0.932556 0.818481
0.784180 0.932678 0.826233
0.828156 0.931976 0.828064
0.876556 0.931732 0.830383
0.929504 0.928680 0.832001
0.116394 0.116119 0.907471
0.208496 0.120117 0.905182
0.336456 0.128693 0.904999
0.475708 0.145203 0.904449
0.617676 0.172058 0.901123
0.758820 0.208099 0.899719
0.894104 0.252594 0.895660
0.999573 0.312164 0.889282
0.149414 0.225403 0.904358
0.227814 0.227570 0.903564
0.347931 0.234222 0.903259
0.482056 0.245514 0.901184
0.621521 0.263916 0.899353
0.759857 0.291229 0.896515
0.891754 0.326660 0.893433
0.999390 0.377441 0.885040
0.237122 0.379517 0.897308
0.289917 0.380676 0.897003
0.386566 0.386414 0.896393
0.505554 0.394531 0.894989
0.633759 0.409393 0.893188
0.762573 0.428741 0.889648
0.885620 0.454529 0.886841
0.993744 0.488708 0.880768
0.363434 0.542389 0.886719
0.402405 0.548096 0.886322
0.469391 0.552399 0.885468
0.557495 0.557404 0.884430
0.661621 0.566162 0.882843
0.770416 0.576996 0.881104
0.877747 0.591400 0.878784
0.977081 0.613647 0.873352
0.431366 0.665375 0.880646
0.464630 0.669037 0.880005
0.531128 0.678040 0.877563
0.618408 0.691711 0.874878
0.699432 0.699738 0.873901
0.783844 0.704041 0.873840
0.872375 0.710907 0.872833
0.953583 0.726044 0.869873
0.500824 0.775940 0.873840
0.525269 0.776031 0.873901
0.577484 0.779938 0.873871
0.649384 0.787964 0.872131
0.729584 0.795624 0.872162
0.803436 0.803406 0.872131
0.872131 0.807526 0.872101
0.937408 0.816284 0.873779
0.566345 0.869843 0.869873
0.586060 0.869873 0.869873
0.625397 0.869720 0.869873
0.683350 0.869934 0.869873
0.750275 0.871338 0.872131
0.817871 0.873932 0.873779
0.880646 0.880737 0.880707
0.932678 0.884674 0.884613
0.668060 0.935699 0.869812
0.680420 0.935608 0.869873
0.707794 0.933105 0.872559
0.747375 0.932922 0.874084
0.795685 0.931702 0.879730
0.844971 0.931702 0.885437
0.889709 0.931671 0.889862
0.931854 0.931671 0.891632
0.205841 0.205811 0.971649
0.259003 0.209656 0.971832
0.354401 0.219299 0.971619
0.469452 0.238678 0.970856
0.594910 0.266907 0.967865
0.720306 0.302155 0.963989
0.841858 0.347534 0.963104
0.956146 0.401001 0.956848
0.242249 0.284973 0.970459
0.288361 0.288452 0.969604
0.375092 0.296722 0.967926
0.483917 0.311859 0.967804
0.602478 0.333862 0.965210
0.724030 0.364899 0.963074
0.841980 0.404968 0.959930
0.955231 0.450073 0.955872
0.331238 0.420807 0.963715
0.363861 0.423248 0.963776
0.430145 0.430603 0.963135
0.523468 0.442108 0.961792
0.628510 0.459229 0.959869
0.738037 0.482971 0.956207
0.846100 0.510925 0.954529
0.949432 0.541687 0.950470
0.463440 0.578979 0.953735
0.482971 0.580170 0.952148
0.526459 0.584106 0.952301
0.592072 0.591858 0.951843
0.673065 0.601715 0.950104
0.761810 0.613983 0.947723
0.853607 0.630890 0.945923
0.943481 0.648071 0.943451
0.546021 0.694275 0.944397
0.566833 0.698212 0.944427
0.612366 0.709625 0.943054
0.666534 0.719147 0.940460
0.723480 0.723633 0.940094
0.791260 0.729858 0.939667
0.862885 0.738037 0.937378
0.935547 0.748962 0.936554
0.599091 0.783844 0.939545
0.615814 0.787201 0.939606
0.653687 0.792511 0.936554
0.706879 0.802460 0.935883
0.767578 0.814789 0.932556
0.820190 0.820221 0.932831
0.873779 0.824127 0.932648
0.931702 0.828003 0.932678
0.653351 0.864380 0.933014
0.665527 0.865021 0.932526
0.694305 0.865967 0.932678
0.737640 0.869934 0.932678
0.788361 0.876495 0.931671
0.840332 0.881927 0.931671
0.888672 0.888580 0.931671
0.931854 0.889862 0.932526
0.703400 0.929382 0.931702
0.712311 0.929352 0.931732
0.734711 0.928558 0.931732
0.769012 0.928589 0.931702
0.809692 0.928680 0.931702
0.854340 0.931671 0.931641
0.896698 0.932922 0.932678
0.936554 0.936584 0.936707
