lut/kim-amland/Kim_Amland_Photographic_03.cube
#Copyright: (C) Copyright 2017 Kim Amland
TITLE "Kim Amland - Photographic 03"
#LUT size
LUT_3D_SIZE 32
#data domain
DOMAIN_MIN 0.0 0.0 0.0
DOMAIN_MAX 1.0 1.0 1.0
#LUT data points
0.000000 0.000000 0.000000
0.007202 0.000000 0.000000
0.015228 0.000000 0.000000
0.026947 0.000000 0.000366
0.044495 0.000000 0.003937
0.070953 0.003937 0.004303
0.107849 0.003937 0.007904
0.155884 0.003937 0.012543
0.208984 0.007874 0.016785
0.269867 0.007904 0.020844
0.332581 0.009186 0.024933
0.403778 0.011841 0.028992
0.466614 0.012146 0.033081
0.522980 0.015778 0.037598
0.576782 0.016479 0.043274
0.623016 0.019714 0.046906
0.665375 0.022491 0.052032
0.703461 0.025818 0.056976
0.737457 0.029419 0.061066
0.767395 0.033661 0.068756
0.795593 0.041901 0.077026
0.823669 0.053680 0.087860
0.847778 0.068298 0.097168
0.868408 0.080566 0.109222
0.889343 0.090118 0.123993
0.907898 0.102417 0.133972
0.924194 0.122009 0.153198
0.942657 0.145752 0.177429
0.956451 0.170441 0.198853
0.967773 0.183838 0.215393
0.972443 0.195831 0.226990
0.980408 0.199921 0.231445
0.000000 0.007996 0.000000
0.007996 0.007996 0.000000
0.020782 0.008026 0.000000
0.029449 0.008118 0.000366
0.052277 0.011932 0.003937
0.079620 0.011932 0.004578
0.115265 0.011932 0.008667
0.167542 0.012054 0.012726
0.217773 0.015900 0.016785
0.279022 0.015900 0.020844
0.343414 0.017181 0.024933
0.411743 0.019867 0.028992
0.472443 0.023773 0.035492
0.530426 0.025421 0.039429
0.580811 0.027832 0.043335
0.627106 0.031769 0.047913
0.668304 0.036896 0.053040
0.707489 0.041779 0.056976
0.741486 0.047546 0.062317
0.769928 0.057983 0.069092
0.799652 0.068512 0.076904
0.823822 0.080292 0.087585
0.848114 0.092804 0.099670
0.871735 0.104706 0.111786
0.891907 0.114532 0.123840
0.908539 0.125275 0.136139
0.926208 0.144165 0.153320
0.942688 0.167419 0.177399
0.956207 0.191071 0.199036
0.967804 0.204254 0.215393
0.972443 0.212128 0.223358
0.980438 0.220062 0.231445
0.000000 0.020020 0.000061
0.008240 0.020233 0.000153
0.020233 0.020233 0.000244
0.032135 0.019562 0.003937
0.054718 0.020233 0.003937
0.087616 0.020935 0.005890
0.125671 0.022919 0.008667
0.177979 0.024292 0.015167
0.229797 0.024200 0.019135
0.290680 0.028320 0.023102
0.355164 0.029388 0.027618
0.422333 0.032532 0.031555
0.482544 0.036285 0.035553
0.535400 0.040497 0.039948
0.586273 0.044342 0.045166
0.631165 0.049194 0.048889
0.672516 0.054596 0.053040
0.709717 0.062744 0.058105
0.745544 0.070313 0.064819
0.773651 0.082733 0.069092
0.802216 0.094330 0.079468
0.827637 0.106476 0.089417
0.851807 0.118561 0.101379
0.872284 0.129761 0.113708
0.893280 0.141327 0.125610
0.910248 0.150879 0.137878
0.927795 0.170105 0.155334
0.944000 0.194061 0.177216
0.956421 0.214996 0.199005
0.968384 0.228668 0.215149
0.972412 0.236694 0.223358
0.980408 0.240540 0.231445
0.000000 0.033539 0.003937
0.011932 0.033508 0.003937
0.020233 0.033478 0.003937
0.034943 0.033539 0.003937
0.058105 0.036316 0.003937
0.091827 0.036713 0.007874
0.135101 0.037445 0.011932
0.188263 0.040680 0.016083
0.240479 0.041382 0.019806
0.302765 0.044647 0.024017
0.367432 0.046204 0.027985
0.432129 0.050079 0.032959
0.490662 0.055115 0.037018
0.543335 0.060883 0.041016
0.593079 0.067261 0.044891
0.638214 0.074921 0.049622
0.678558 0.082611 0.055115
0.715393 0.091156 0.060425
0.749603 0.102600 0.065125
0.777649 0.112946 0.073059
0.803772 0.125305 0.081055
0.827972 0.134613 0.091766
0.852295 0.146667 0.103790
0.875793 0.157684 0.115845
0.895874 0.167114 0.127777
0.913727 0.178162 0.140137
0.930206 0.195282 0.155945
0.946777 0.219025 0.177338
0.959137 0.239929 0.199036
0.968445 0.253265 0.214722
0.972504 0.261322 0.223358
0.980408 0.268036 0.231445
0.003937 0.057770 0.003937
0.011932 0.062378 0.003937
0.021271 0.061951 0.003937
0.036743 0.061890 0.003937
0.061951 0.061676 0.004456
0.098877 0.062469 0.008423
0.143463 0.062256 0.012604
0.196228 0.066010 0.016663
0.252472 0.070313 0.020721
0.315155 0.072998 0.024780
0.380585 0.075409 0.028900
0.443726 0.082031 0.033966
0.500031 0.087402 0.039429
0.553192 0.094421 0.043335
0.600494 0.100250 0.047760
0.643433 0.108246 0.052460
0.684448 0.117035 0.056854
0.720947 0.127380 0.060944
0.753143 0.137177 0.066925
0.781708 0.146942 0.073273
0.807831 0.157532 0.083313
0.832123 0.166992 0.093414
0.855865 0.177856 0.105682
0.878265 0.187317 0.117493
0.899933 0.198639 0.129852
0.916412 0.210358 0.140472
0.932220 0.227234 0.157562
0.946899 0.247375 0.178528
0.960358 0.269104 0.199158
0.968384 0.281555 0.215424
0.976105 0.289612 0.223389
0.980438 0.297699 0.231445
0.003937 0.097656 0.007874
0.012360 0.099731 0.007874
0.024231 0.099854 0.007874
0.039337 0.102081 0.008118
0.066528 0.101746 0.008514
0.104004 0.101746 0.009186
0.151306 0.101746 0.011963
0.205505 0.104034 0.016052
0.265228 0.107666 0.023651
0.329102 0.111908 0.028229
0.394409 0.115997 0.032074
0.456085 0.120605 0.036896
0.511688 0.125916 0.040894
0.561554 0.132446 0.044769
0.608887 0.140411 0.048767
0.651337 0.148285 0.053619
0.690643 0.156067 0.059326
0.725311 0.165466 0.064545
0.757813 0.175659 0.068970
0.785370 0.183838 0.077087
0.811890 0.192963 0.084778
0.836121 0.203827 0.095459
0.860138 0.214478 0.107605
0.881500 0.223694 0.119629
0.901581 0.235504 0.131958
0.918793 0.244598 0.141693
0.934204 0.261414 0.157684
0.947815 0.282990 0.181305
0.960419 0.302094 0.201965
0.968140 0.315704 0.215820
0.976379 0.325775 0.227295
0.980408 0.330597 0.233582
0.007904 0.147400 0.012604
0.015991 0.149078 0.012604
0.026855 0.151031 0.012604
0.042053 0.151154 0.012604
0.070435 0.152588 0.012604
0.108002 0.152588 0.014496
0.158356 0.150970 0.016235
0.212067 0.152283 0.019714
0.273529 0.154755 0.023468
0.340851 0.158997 0.028717
0.406494 0.163208 0.032837
0.468109 0.168365 0.039429
0.522095 0.173218 0.043396
0.572723 0.179718 0.047546
0.618378 0.185730 0.051941
0.659302 0.192871 0.056549
0.697144 0.200684 0.060791
0.733429 0.208496 0.064606
0.762878 0.216553 0.071930
0.790924 0.225037 0.077332
0.815887 0.235077 0.087982
0.840179 0.244202 0.098663
0.864441 0.255280 0.110657
0.886810 0.265961 0.122894
0.905640 0.275726 0.133728
0.921936 0.284821 0.143860
0.935822 0.300110 0.159271
0.950714 0.320679 0.181274
0.963196 0.338440 0.202545
0.971863 0.352234 0.218567
0.976288 0.362000 0.227844
0.980408 0.366852 0.235168
0.012726 0.205292 0.018524
0.020721 0.207855 0.018524
0.032074 0.207855 0.018524
0.046051 0.208313 0.016052
0.074310 0.209351 0.016663
0.112213 0.209351 0.019104
0.162994 0.208893 0.020569
0.216980 0.207672 0.020599
0.281738 0.208496 0.024170
0.350098 0.211395 0.028717
0.418396 0.215790 0.035492
0.477448 0.219543 0.040771
0.531647 0.223633 0.044678
0.580841 0.229614 0.048645
0.626465 0.235870 0.052795
0.667480 0.241669 0.057404
0.705017 0.249390 0.063568
0.737366 0.257446 0.068817
0.768524 0.265564 0.072815
0.795746 0.274567 0.080963
0.819885 0.284027 0.089630
0.845367 0.293610 0.100616
0.868408 0.303040 0.112671
0.891602 0.312469 0.124329
0.909790 0.320648 0.135742
0.924561 0.328552 0.144501
0.938904 0.342865 0.161469
0.951721 0.362213 0.182892
0.964294 0.378723 0.205780
0.972260 0.391144 0.219696
0.976440 0.399170 0.231262
0.980408 0.402954 0.239258
0.019135 0.268005 0.024658
0.027222 0.269073 0.024658
0.036987 0.269012 0.024658
0.053131 0.272949 0.024078
0.078735 0.273407 0.023071
0.118164 0.276398 0.023529
0.168701 0.276245 0.024658
0.223785 0.273926 0.024109
0.285675 0.272888 0.024109
0.355072 0.272949 0.028717
0.425507 0.273376 0.033356
0.485809 0.278412 0.040771
0.540436 0.284973 0.044678
0.588959 0.288788 0.051178
0.634552 0.294373 0.056122
0.674744 0.301361 0.060669
0.712799 0.308197 0.064850
0.745514 0.314423 0.070465
0.773682 0.321228 0.076477
0.799744 0.329193 0.081543
0.826843 0.337128 0.092743
0.851166 0.345428 0.103424
0.874969 0.354065 0.115509
0.896423 0.362274 0.127625
0.913849 0.369019 0.138000
0.927917 0.376221 0.147644
0.940765 0.389404 0.163086
0.954590 0.405518 0.185516
0.964111 0.419861 0.206665
0.972290 0.431305 0.223022
0.976440 0.438599 0.234283
0.980408 0.443329 0.240204
0.024780 0.334534 0.032684
0.032806 0.334778 0.032684
0.045349 0.337769 0.032562
0.061005 0.339447 0.028198
0.086731 0.343842 0.027985
0.124329 0.346436 0.027588
0.175049 0.346497 0.028748
0.228333 0.346161 0.031525
0.291779 0.342255 0.032684
0.358124 0.341492 0.032684
0.427979 0.341156 0.032837
0.488647 0.342560 0.039429
0.544952 0.345886 0.043823
0.595520 0.350922 0.051025
0.642029 0.355713 0.056610
0.681702 0.361786 0.061432
0.717163 0.366974 0.068329
0.749420 0.373932 0.072784
0.779510 0.377991 0.076752
0.805298 0.384766 0.084930
0.830841 0.391388 0.093811
0.856171 0.397034 0.104706
0.879181 0.404785 0.116882
0.901306 0.412079 0.128662
0.917847 0.417175 0.139740
0.930695 0.423737 0.148590
0.942841 0.434052 0.165344
0.955933 0.447144 0.187195
0.964996 0.459595 0.209686
0.972504 0.467529 0.223999
0.976440 0.474365 0.235107
0.980408 0.478546 0.243256
0.032837 0.400818 0.040680
0.040771 0.400726 0.040680
0.052795 0.401428 0.039429
0.068146 0.405029 0.036377
0.094482 0.412872 0.032227
0.132538 0.413544 0.031555
0.180878 0.416473 0.032623
0.234100 0.412994 0.035492
0.297668 0.412537 0.036774
0.365723 0.409119 0.039429
0.429474 0.408569 0.036774
0.489777 0.404694 0.036896
0.544983 0.408661 0.040894
0.597260 0.408997 0.047272
0.643921 0.413757 0.055084
0.685547 0.419250 0.061523
0.724030 0.423004 0.068298
0.756287 0.426941 0.072784
0.783722 0.431702 0.079407
0.810699 0.437134 0.084625
0.834808 0.441223 0.095123
0.859009 0.446625 0.107178
0.883362 0.452087 0.116791
0.903259 0.457153 0.128998
0.919922 0.464294 0.140320
0.932281 0.468170 0.148987
0.944214 0.476227 0.165497
0.956024 0.487305 0.189026
0.967224 0.499542 0.209991
0.972473 0.506592 0.225189
0.976440 0.511963 0.235107
0.980408 0.516022 0.243103
0.036896 0.455750 0.046906
0.047699 0.455750 0.044556
0.057404 0.457062 0.044312
0.073914 0.461456 0.040405
0.102783 0.468567 0.036377
0.139832 0.472412 0.035492
0.187378 0.472961 0.036255
0.240326 0.472015 0.038422
0.303986 0.468964 0.040771
0.370239 0.467896 0.043274
0.433594 0.464966 0.043427
0.492523 0.463654 0.043274
0.548584 0.461090 0.043274
0.597260 0.463776 0.044769
0.645599 0.463654 0.051147
0.688812 0.467468 0.057617
0.725342 0.471405 0.065582
0.759644 0.475311 0.072784
0.787811 0.479279 0.079102
0.814514 0.483185 0.088226
0.838745 0.487091 0.096497
0.862976 0.491058 0.107178
0.885681 0.495087 0.116669
0.904419 0.500458 0.128387
0.919922 0.504486 0.138702
0.932159 0.508423 0.148315
0.944122 0.516663 0.164551
0.956055 0.526642 0.185913
0.967224 0.536102 0.208740
0.972504 0.544128 0.223145
0.976410 0.550720 0.235046
0.980408 0.554962 0.241791
0.043243 0.503967 0.052521
0.051514 0.504120 0.051270
0.063934 0.508209 0.048462
0.081482 0.512695 0.046387
0.109558 0.521271 0.040314
0.146210 0.525421 0.039429
0.193237 0.527679 0.039886
0.248169 0.525360 0.040894
0.309692 0.524200 0.044189
0.374634 0.521301 0.046875
0.440125 0.519775 0.048492
0.496490 0.515991 0.048492
0.548859 0.513458 0.046875
0.599518 0.512054 0.046875
0.646240 0.512054 0.048767
0.686462 0.512482 0.053619
0.724274 0.515747 0.059906
0.760162 0.519745 0.068237
0.788513 0.523651 0.076416
0.816101 0.527527 0.084656
0.842743 0.531433 0.096497
0.865692 0.535400 0.104706
0.887024 0.539429 0.116791
0.904602 0.543335 0.124512
0.919922 0.547241 0.136444
0.932312 0.551178 0.144836
0.944305 0.557526 0.161560
0.956177 0.568298 0.184326
0.966034 0.577698 0.204834
0.972443 0.584351 0.220856
0.976440 0.588715 0.231323
0.980408 0.592773 0.239044
0.046875 0.553040 0.056854
0.056610 0.554169 0.056519
0.069397 0.558716 0.054932
0.086395 0.566467 0.050507
0.115509 0.574554 0.044312
0.154510 0.580780 0.043243
0.199921 0.581940 0.043243
0.254547 0.580994 0.044800
0.317719 0.577789 0.047943
0.382324 0.576233 0.049042
0.444061 0.572235 0.052277
0.500275 0.570007 0.052673
0.552643 0.568329 0.052673
0.601196 0.566071 0.051300
0.646027 0.564209 0.051300
0.687744 0.564301 0.052917
0.723938 0.564606 0.056549
0.757629 0.566345 0.063324
0.788544 0.568970 0.070770
0.817017 0.573059 0.080292
0.842590 0.577118 0.092224
0.866821 0.581207 0.102692
0.886993 0.583557 0.112579
0.904602 0.587677 0.122284
0.920044 0.591827 0.132843
0.932312 0.593414 0.141968
0.944000 0.600983 0.158112
0.956238 0.608795 0.180206
0.964050 0.616608 0.200958
0.972260 0.622955 0.216827
0.976410 0.627014 0.226807
0.980408 0.631256 0.233612
0.051636 0.601471 0.062805
0.060699 0.604340 0.061188
0.075714 0.608582 0.059113
0.094116 0.616699 0.054260
0.123505 0.624573 0.048218
0.162048 0.630859 0.047272
0.207397 0.632324 0.046509
0.260712 0.631226 0.048615
0.324707 0.627136 0.051025
0.386902 0.623688 0.052795
0.447815 0.622223 0.054932
0.503510 0.619049 0.056671
0.555298 0.618896 0.056610
0.603485 0.617218 0.056610
0.648376 0.616028 0.056885
0.689667 0.614868 0.056610
0.723969 0.613251 0.058075
0.756256 0.613251 0.060944
0.788635 0.614868 0.064789
0.814453 0.616913 0.073212
0.842621 0.621002 0.085388
0.866852 0.624817 0.097595
0.886963 0.625885 0.108795
0.904633 0.629913 0.118896
0.919891 0.632202 0.128876
0.930817 0.634094 0.138794
0.942230 0.639526 0.153870
0.955200 0.646423 0.175690
0.964050 0.651733 0.196655
0.972290 0.658936 0.211029
0.976410 0.659332 0.221619
0.980408 0.663330 0.229645
0.057037 0.646820 0.068848
0.068268 0.647461 0.066772
0.081757 0.652924 0.063293
0.101929 0.663116 0.058411
0.131439 0.670410 0.052399
0.168701 0.673859 0.049957
0.214996 0.676392 0.048889
0.268280 0.673126 0.051331
0.330475 0.669067 0.052551
0.392792 0.667114 0.055481
0.452026 0.664307 0.056732
0.504639 0.662140 0.060120
0.557007 0.662140 0.061371
0.607208 0.662231 0.063629
0.649994 0.662476 0.062592
0.689941 0.660034 0.060669
0.726959 0.658173 0.061707
0.760132 0.658508 0.062531
0.788635 0.658508 0.065125
0.814392 0.658325 0.068878
0.840454 0.658813 0.079468
0.864197 0.663055 0.092010
0.886993 0.664063 0.103058
0.903931 0.667175 0.113434
0.920044 0.668091 0.125061
0.929901 0.671814 0.134644
0.942261 0.675323 0.149658
0.954651 0.679657 0.171051
0.964325 0.685486 0.190857
0.972260 0.689575 0.205383
0.976349 0.691650 0.216675
0.980408 0.693573 0.222534
0.060791 0.683899 0.072662
0.072876 0.686768 0.071533
0.089600 0.692169 0.068451
0.110413 0.700256 0.062592
0.141113 0.708466 0.056366
0.176819 0.712219 0.053040
0.221649 0.712341 0.053040
0.276398 0.708557 0.054626
0.336670 0.704498 0.055420
0.397156 0.702393 0.056549
0.456390 0.700439 0.060791
0.508606 0.700470 0.064209
0.560944 0.700439 0.067596
0.609375 0.700470 0.068695
0.653412 0.700562 0.068420
0.692505 0.699463 0.068451
0.727905 0.697968 0.065674
0.760162 0.696503 0.066467
0.788513 0.696503 0.068970
0.814392 0.695587 0.070526
0.838745 0.695862 0.076965
0.864258 0.696533 0.085632
0.884369 0.699951 0.097717
0.904053 0.700439 0.109039
0.920135 0.701508 0.119965
0.928925 0.704315 0.130035
0.942291 0.706909 0.145050
0.954681 0.711426 0.166718
0.964355 0.714905 0.185089
0.972351 0.717896 0.201111
0.976288 0.720795 0.209442
0.980408 0.721924 0.217590
0.065979 0.717010 0.078339
0.080353 0.720917 0.076691
0.097565 0.725037 0.072510
0.119202 0.733093 0.066254
0.150146 0.739990 0.060394
0.184723 0.742249 0.057068
0.228149 0.742310 0.055298
0.282715 0.738281 0.056732
0.341888 0.735657 0.058655
0.404999 0.734589 0.060760
0.462891 0.732697 0.064972
0.516602 0.732697 0.068604
0.565033 0.732697 0.072113
0.613068 0.732697 0.072571
0.656128 0.732697 0.074371
0.693817 0.732697 0.073914
0.727905 0.732697 0.072784
0.760132 0.732788 0.070526
0.788879 0.728790 0.072510
0.816101 0.728790 0.073059
0.842804 0.728790 0.077148
0.864197 0.728790 0.085205
0.884369 0.728760 0.093201
0.904022 0.730042 0.105255
0.917694 0.732849 0.114899
0.928558 0.732666 0.125397
0.940613 0.736023 0.140778
0.954651 0.738342 0.160828
0.964355 0.742004 0.180603
0.972076 0.745911 0.194031
0.976318 0.746155 0.205566
0.980408 0.749176 0.210175
0.072357 0.746948 0.084808
0.086121 0.749878 0.080597
0.105804 0.755096 0.076477
0.129364 0.761108 0.072052
0.158875 0.765472 0.066528
0.193817 0.766510 0.062317
0.235382 0.766571 0.060730
0.289642 0.763306 0.060852
0.349548 0.762665 0.063629
0.411682 0.762634 0.067383
0.469513 0.764252 0.069733
0.520630 0.765137 0.072754
0.572632 0.764954 0.076782
0.617188 0.764984 0.078003
0.659393 0.764954 0.080292
0.697235 0.765106 0.080322
0.731689 0.762878 0.078583
0.760254 0.761932 0.076752
0.790100 0.761078 0.074371
0.817230 0.761230 0.076965
0.842743 0.758728 0.078613
0.864197 0.758911 0.082428
0.884399 0.758911 0.090057
0.904083 0.758698 0.101196
0.916992 0.759186 0.110077
0.928528 0.761108 0.121185
0.939972 0.762451 0.136780
0.952362 0.765839 0.156464
0.964478 0.768799 0.175232
0.971771 0.770538 0.188995
0.976349 0.771332 0.197510
0.980408 0.774719 0.205750
0.076904 0.775299 0.089874
0.092987 0.775543 0.086273
0.113922 0.779388 0.082184
0.138153 0.783630 0.076599
0.168274 0.787262 0.072540
0.203644 0.788666 0.068634
0.247253 0.787262 0.069092
0.302368 0.786987 0.069092
0.361328 0.787354 0.071228
0.420929 0.790924 0.073914
0.477448 0.790863 0.076935
0.528839 0.791016 0.080841
0.576965 0.791107 0.080597
0.623047 0.793427 0.084839
0.661713 0.793427 0.084930
0.699707 0.793579 0.084930
0.731812 0.790894 0.084717
0.762573 0.790894 0.082397
0.790070 0.791077 0.080780
0.818481 0.789398 0.078613
0.842621 0.786987 0.080933
0.864197 0.787018 0.084930
0.884369 0.787018 0.089325
0.903137 0.787018 0.098145
0.916168 0.787018 0.109100
0.928711 0.786957 0.117340
0.940186 0.788483 0.132782
0.951965 0.790924 0.152435
0.964508 0.794403 0.169006
0.968384 0.794800 0.181396
0.976227 0.795227 0.192139
0.980408 0.798981 0.197479
0.085052 0.797089 0.096619
0.103424 0.799622 0.092773
0.125305 0.800995 0.088623
0.149902 0.803894 0.084808
0.181030 0.804871 0.084167
0.217957 0.804962 0.080872
0.261932 0.806732 0.080811
0.315582 0.808807 0.083252
0.373657 0.811310 0.083252
0.431458 0.813904 0.085754
0.486847 0.815155 0.087341
0.536682 0.815308 0.088623
0.582581 0.819183 0.090088
0.626770 0.819153 0.091095
0.665924 0.819122 0.090851
0.702087 0.819122 0.090027
0.732117 0.819092 0.089264
0.764221 0.819183 0.088776
0.792572 0.815582 0.086304
0.818451 0.815125 0.085083
0.842590 0.815155 0.082428
0.864197 0.815216 0.085205
0.884369 0.813934 0.089020
0.903137 0.811401 0.097046
0.915985 0.811432 0.106598
0.928375 0.811279 0.117157
0.940186 0.814972 0.130890
0.952118 0.815155 0.148529
0.963348 0.816345 0.165070
0.968475 0.819092 0.177246
0.976135 0.819183 0.185608
0.980408 0.819214 0.192322
0.092896 0.817169 0.104706
0.113098 0.817078 0.103058
0.136200 0.817291 0.099274
0.162048 0.821014 0.097015
0.193207 0.821045 0.095642
0.232147 0.821655 0.095642
0.277954 0.824951 0.096161
0.331482 0.827637 0.098297
0.387512 0.829926 0.100494
0.442841 0.832794 0.102234
0.496368 0.836700 0.103424
0.543396 0.838165 0.103424
0.589111 0.839355 0.103424
0.630768 0.840729 0.103424
0.669006 0.840668 0.100616
0.703461 0.840668 0.097504
0.735687 0.840668 0.096802
0.764038 0.840668 0.096954
0.792572 0.840729 0.092896
0.818390 0.839447 0.092896
0.842621 0.839386 0.088898
0.864197 0.836731 0.086517
0.884369 0.836731 0.090454
0.900818 0.836700 0.096985
0.915985 0.835571 0.104950
0.928375 0.835571 0.114532
0.940399 0.836731 0.128754
0.952332 0.836731 0.146423
0.961090 0.839355 0.160828
0.968567 0.840393 0.172272
0.972382 0.840668 0.180298
0.980408 0.840668 0.185608
0.103821 0.833221 0.112854
0.125092 0.833221 0.112854
0.148285 0.833221 0.111450
0.176544 0.833160 0.111572
0.209259 0.835693 0.111786
0.248322 0.837067 0.112305
0.293945 0.841064 0.115753
0.347687 0.844360 0.117889
0.403351 0.846832 0.119720
0.455963 0.850067 0.119720
0.504547 0.852966 0.119720
0.550049 0.855438 0.119720
0.594299 0.856903 0.119476
0.634521 0.856873 0.117950
0.671875 0.860718 0.113831
0.707031 0.860657 0.111694
0.736572 0.860870 0.108734
0.765961 0.860748 0.106323
0.792786 0.860626 0.105011
0.818359 0.860626 0.101410
0.842621 0.857117 0.097412
0.864197 0.856934 0.097137
0.884583 0.856934 0.093048
0.900635 0.857086 0.097565
0.916229 0.856720 0.105072
0.928375 0.856689 0.114258
0.940063 0.856689 0.128143
0.952393 0.856873 0.144440
0.960114 0.856903 0.159698
0.968353 0.856873 0.169067
0.972504 0.856873 0.176422
0.980103 0.859528 0.181610
0.113403 0.845215 0.124359
0.136200 0.845398 0.124359
0.160400 0.845123 0.123474
0.189209 0.847015 0.125183
0.221466 0.849243 0.127625
0.262665 0.850983 0.128937
0.309753 0.853729 0.132568
0.361725 0.856964 0.135590
0.414886 0.861053 0.136841
0.464447 0.864716 0.139435
0.512512 0.867371 0.138336
0.555328 0.868896 0.135956
0.598389 0.871490 0.135406
0.636780 0.872681 0.133911
0.674133 0.873138 0.130035
0.707367 0.876129 0.125977
0.737488 0.876678 0.123749
0.765747 0.876678 0.120300
0.792816 0.876648 0.117859
0.818359 0.876648 0.113983
0.842682 0.874115 0.112000
0.864044 0.873169 0.109070
0.884033 0.873169 0.104828
0.900482 0.872589 0.101410
0.916138 0.872589 0.108490
0.925995 0.872589 0.116547
0.938324 0.872589 0.128143
0.950867 0.873169 0.144073
0.960327 0.873169 0.156647
0.968353 0.873169 0.167908
0.972504 0.873901 0.173462
0.976440 0.874084 0.177521
0.124969 0.853882 0.133331
0.145691 0.854980 0.135803
0.172333 0.857452 0.136505
0.200775 0.858337 0.139587
0.234833 0.861359 0.141632
0.275177 0.863129 0.143555
0.322144 0.867065 0.147430
0.373840 0.870209 0.150909
0.425049 0.873230 0.151581
0.473999 0.876953 0.152313
0.519043 0.879456 0.151337
0.560242 0.880859 0.151611
0.603760 0.882568 0.149017
0.640503 0.884735 0.147369
0.675232 0.885956 0.143860
0.708221 0.887848 0.140533
0.738434 0.888885 0.136658
0.765747 0.888885 0.134003
0.792847 0.888885 0.131897
0.818481 0.888885 0.128967
0.840027 0.888641 0.124878
0.862946 0.886566 0.120697
0.880219 0.886322 0.117798
0.900116 0.886353 0.114044
0.913483 0.886353 0.112244
0.924652 0.886353 0.116943
0.937897 0.886353 0.128204
0.950684 0.886353 0.144073
0.960388 0.886322 0.156097
0.968445 0.888733 0.164978
0.972473 0.888641 0.172516
0.976440 0.888672 0.176483
0.132294 0.865631 0.144592
0.156464 0.865784 0.144287
0.181213 0.867310 0.148041
0.209625 0.869568 0.149811
0.245911 0.871429 0.152191
0.286835 0.873932 0.155975
0.334229 0.877747 0.159821
0.383636 0.881287 0.162842
0.433655 0.883423 0.163177
0.480927 0.885803 0.164398
0.523621 0.889557 0.163818
0.565491 0.891602 0.163574
0.605072 0.893463 0.161224
0.643463 0.894623 0.158539
0.678558 0.897003 0.156738
0.710815 0.897186 0.152710
0.739777 0.897034 0.149200
0.766449 0.898529 0.146973
0.793701 0.898560 0.144623
0.818573 0.898529 0.140747
0.840240 0.898560 0.136658
0.861847 0.897308 0.134094
0.880463 0.897156 0.130371
0.897156 0.897125 0.126312
0.912292 0.897125 0.124939
0.924438 0.897156 0.120636
0.936249 0.897125 0.131348
0.948242 0.897156 0.144714
0.959625 0.898651 0.158936
0.964783 0.898560 0.167603
0.972473 0.898560 0.172516
0.976410 0.898560 0.176483
0.140289 0.873657 0.152527
0.164856 0.875641 0.154541
0.190643 0.878021 0.156219
0.219788 0.879669 0.160004
0.254639 0.881836 0.162933
0.297638 0.884766 0.166199
0.343384 0.887115 0.170166
0.393097 0.889862 0.172302
0.441437 0.894012 0.175476
0.486725 0.897095 0.175751
0.529480 0.897888 0.175751
0.569031 0.901154 0.173981
0.608276 0.901978 0.171844
0.646332 0.905151 0.170410
0.679016 0.905151 0.166901
0.711304 0.906219 0.164063
0.739532 0.907288 0.160645
0.766479 0.909058 0.159027
0.794342 0.909027 0.155121
0.818573 0.909424 0.152405
0.838745 0.909027 0.148865
0.860321 0.909027 0.144562
0.880219 0.909027 0.140778
0.896118 0.908752 0.138947
0.909851 0.907257 0.136719
0.922058 0.907288 0.132507
0.934387 0.906921 0.135193
0.946899 0.908997 0.147705
0.956604 0.909027 0.160217
0.964691 0.909027 0.168427
0.968933 0.908997 0.172638
0.976440 0.909424 0.176483
0.151001 0.885742 0.160217
0.172607 0.885651 0.164124
0.201080 0.888031 0.166473
0.229645 0.889557 0.168762
0.266052 0.892456 0.172211
0.307739 0.894897 0.176086
0.354553 0.897736 0.180359
0.401978 0.901337 0.183716
0.449188 0.904022 0.184296
0.493774 0.905945 0.186035
0.535187 0.909180 0.186035
0.574036 0.910034 0.183533
0.612091 0.913177 0.183685
0.648315 0.912933 0.180939
0.682678 0.915344 0.178955
0.712952 0.917114 0.175934
0.741638 0.916931 0.172791
0.768066 0.916901 0.171021
