lut/kim-amland/Kim_Amland_Photographic_01.cube
#Copyright: (C) Copyright 2017 Kim Amland
TITLE "Kim Amland - Photographic 01"
#LUT size
LUT_3D_SIZE 32
#data domain
DOMAIN_MIN 0.0 0.0 0.0
DOMAIN_MAX 1.0 1.0 1.0
#LUT data points
0.000000 0.000000 0.000000
0.000000 0.000000 0.000000
0.000000 0.000000 0.000000
0.005524 0.000000 0.000366
0.037994 0.000000 0.004456
0.078979 0.000000 0.009827
0.118958 0.000000 0.016541
0.164581 0.000000 0.023651
0.212006 0.000000 0.027588
0.264801 0.000000 0.027618
0.314484 0.000000 0.022369
0.365753 0.000000 0.015778
0.417938 0.000000 0.009521
0.467957 0.000000 0.002289
0.519379 0.000000 0.000000
0.571075 0.000000 0.000000
0.623352 0.000000 0.000000
0.675140 0.000000 0.000000
0.725372 0.000000 0.000000
0.774353 0.000000 0.000000
0.820160 0.000000 0.000000
0.860474 0.000000 0.000000
0.900726 0.000000 0.000000
0.938019 0.000000 0.000000
0.970306 0.000000 0.000000
0.994354 0.004761 0.005219
0.999329 0.022003 0.023712
1.000000 0.048126 0.051819
1.000000 0.072937 0.076050
1.000000 0.096375 0.097382
1.000000 0.117157 0.117126
1.000000 0.137146 0.137146
0.000000 0.000000 0.000000
0.000000 0.000000 0.000000
0.004303 0.000031 0.000000
0.015839 0.001801 0.000366
0.047150 0.004059 0.004456
0.085724 0.004364 0.012238
0.126495 0.007996 0.016541
0.168304 0.007996 0.020447
0.216339 0.007996 0.023651
0.265961 0.007996 0.022522
0.317200 0.007996 0.018311
0.366882 0.007996 0.010437
0.418182 0.008057 0.005768
0.469879 0.010132 0.002289
0.520416 0.011932 0.000000
0.571747 0.012085 0.000000
0.623322 0.014008 0.000000
0.675781 0.016022 0.000000
0.726196 0.016052 0.000000
0.774231 0.018433 0.000000
0.820160 0.020081 0.000000
0.860535 0.022797 0.000000
0.900818 0.026825 0.000000
0.938110 0.032654 0.000000
0.970306 0.041260 0.000000
0.992249 0.049469 0.007111
0.999329 0.064972 0.024689
1.000000 0.082306 0.052094
1.000000 0.101624 0.076050
1.000000 0.120758 0.100708
1.000000 0.137543 0.121002
1.000000 0.153595 0.141449
0.000000 0.009186 0.000000
0.000000 0.009369 0.000000
0.008423 0.012390 0.000000
0.022278 0.012604 0.003937
0.055328 0.017242 0.005829
0.091614 0.020599 0.011749
0.131409 0.025360 0.015991
0.172607 0.029388 0.019470
0.220123 0.029846 0.019470
0.269012 0.033600 0.017761
0.318909 0.033600 0.011566
0.369629 0.034119 0.006470
0.419708 0.037506 0.002411
0.470642 0.037811 0.000000
0.522095 0.041748 0.000000
0.572723 0.044403 0.000000
0.625244 0.047180 0.000000
0.677094 0.050110 0.000000
0.726257 0.053864 0.000000
0.774475 0.054138 0.000000
0.820129 0.058014 0.000000
0.860413 0.060822 0.000000
0.900726 0.065735 0.000000
0.938110 0.072174 0.000000
0.970337 0.081451 0.000000
0.992249 0.093109 0.007111
0.999329 0.105347 0.026062
1.000000 0.118408 0.051453
1.000000 0.130219 0.077179
1.000000 0.145660 0.100677
1.000000 0.157837 0.120880
1.000000 0.173798 0.141174
0.000000 0.030304 0.001099
0.000366 0.031067 0.003937
0.010284 0.034210 0.003937
0.030731 0.035004 0.003937
0.063477 0.038940 0.004150
0.095917 0.042358 0.007416
0.135864 0.050568 0.012207
0.177277 0.058899 0.015411
0.223938 0.066040 0.014374
0.272644 0.070251 0.010712
0.321472 0.074127 0.006592
0.373657 0.075745 0.002533
0.422119 0.078339 0.000000
0.472382 0.082306 0.000000
0.523285 0.087128 0.000000
0.574402 0.092102 0.000000
0.625244 0.097412 0.000000
0.677429 0.101898 0.000000
0.728210 0.106171 0.000000
0.774872 0.109253 0.000000
0.820190 0.112000 0.000000
0.860413 0.113861 0.000000
0.900665 0.117218 0.000000
0.937164 0.121826 0.000000
0.970398 0.127960 0.000000
0.992218 0.134399 0.007111
0.999329 0.141937 0.026306
1.000000 0.151245 0.053467
1.000000 0.161774 0.080322
1.000000 0.170746 0.101715
1.000000 0.182678 0.122406
1.000000 0.194458 0.141571
0.000000 0.070984 0.003937
0.003937 0.070862 0.003937
0.013245 0.070435 0.003937
0.034821 0.071075 0.003937
0.067139 0.074677 0.003937
0.103241 0.079163 0.007355
0.139984 0.085541 0.007690
0.183167 0.095123 0.007385
0.228607 0.103058 0.006897
0.276825 0.110840 0.003418
0.325531 0.115967 0.001617
0.374207 0.122040 0.000000
0.425690 0.126312 0.000000
0.474915 0.130524 0.000000
0.524994 0.135803 0.000000
0.575928 0.140656 0.000000
0.627197 0.146515 0.000000
0.678436 0.150330 0.000000
0.729523 0.153595 0.000000
0.775848 0.156006 0.000000
0.820129 0.157440 0.000000
0.860443 0.160278 0.000000
0.900696 0.162262 0.000000
0.937134 0.165222 0.000000
0.970245 0.168274 0.000000
0.992096 0.173737 0.007202
0.999329 0.179932 0.027954
1.000000 0.186310 0.055328
1.000000 0.194366 0.081512
1.000000 0.202667 0.104248
1.000000 0.211151 0.124634
1.000000 0.219055 0.145081
0.000000 0.111084 0.003937
0.004059 0.111053 0.003937
0.021667 0.111542 0.003693
0.047180 0.113190 0.003296
0.080658 0.115265 0.003296
0.113190 0.115417 0.003296
0.147888 0.120178 0.003296
0.188354 0.129913 0.003296
0.234253 0.139252 0.003296
0.281342 0.147186 0.000000
0.329651 0.155243 0.000000
0.377899 0.162872 0.000000
0.428436 0.167389 0.000000
0.477966 0.174866 0.000000
0.527374 0.179199 0.000000
0.578156 0.184357 0.000000
0.629089 0.189209 0.000000
0.680267 0.193573 0.000000
0.729492 0.197327 0.000000
0.775787 0.199249 0.000000
0.820160 0.201416 0.000000
0.860474 0.203278 0.000000
0.900665 0.204956 0.000000
0.936310 0.208282 0.000000
0.968903 0.209503 0.000000
0.990509 0.212677 0.008392
0.999329 0.216675 0.027863
1.000000 0.222595 0.058716
1.000000 0.227692 0.084167
1.000000 0.234894 0.108490
1.000000 0.239502 0.128723
1.000000 0.247528 0.149139
0.000000 0.155792 0.001251
0.007996 0.157745 0.000000
0.025574 0.158234 0.000000
0.057739 0.158661 0.000000
0.093445 0.159515 0.000000
0.127411 0.161987 0.000000
0.162079 0.163696 0.000000
0.197723 0.167755 0.000000
0.241058 0.175507 0.000000
0.288269 0.187256 0.000000
0.335175 0.195343 0.000000
0.381714 0.203217 0.000000
0.430237 0.207581 0.000000
0.480957 0.215149 0.000000
0.530243 0.219727 0.000000
0.579803 0.226959 0.000000
0.631287 0.231354 0.000000
0.680969 0.235565 0.000000
0.729919 0.238922 0.000000
0.775818 0.241699 0.000000
0.820160 0.244873 0.000000
0.860413 0.245178 0.000000
0.898987 0.247192 0.000000
0.934082 0.249237 0.000000
0.967224 0.251068 0.000000
0.989960 0.253174 0.008392
0.999329 0.256317 0.031219
1.000000 0.259521 0.060791
1.000000 0.263702 0.088196
1.000000 0.267792 0.111115
1.000000 0.271881 0.132690
1.000000 0.275757 0.151764
0.000000 0.204742 0.000000
0.007996 0.207031 0.000000
0.033020 0.206879 0.000000
0.066742 0.206940 0.000000
0.105804 0.207764 0.000000
0.142181 0.208527 0.000000
0.175995 0.210724 0.000000
0.211670 0.211823 0.000000
0.248535 0.215942 0.000000
0.293243 0.223785 0.000000
0.340729 0.231567 0.000000
0.385895 0.239685 0.000000
0.434570 0.247772 0.000000
0.483032 0.255676 0.000000
0.531738 0.260040 0.000000
0.582123 0.267578 0.000000
0.632813 0.271637 0.000000
0.682526 0.277161 0.000000
0.730164 0.281219 0.000000
0.776001 0.283325 0.000000
0.820099 0.285492 0.000000
0.860504 0.287354 0.000000
0.897888 0.289215 0.000000
0.934082 0.289490 0.000000
0.966339 0.289581 0.000610
0.990173 0.292969 0.011719
0.999390 0.293365 0.036133
1.000000 0.295868 0.066620
1.000000 0.297150 0.092896
1.000000 0.300323 0.116669
1.000000 0.304199 0.136505
1.000000 0.308136 0.156952
0.000000 0.255432 0.000000
0.007996 0.255432 0.000000
0.032623 0.255280 0.000000
0.071564 0.255951 0.000000
0.113922 0.256012 0.000000
0.150757 0.259491 0.000000
0.188995 0.259369 0.000000
0.225464 0.259918 0.000000
0.260468 0.259735 0.000000
0.299744 0.264008 0.000000
0.344360 0.272034 0.000000
0.390015 0.280121 0.000000
0.437500 0.288055 0.000000
0.485718 0.294373 0.000000
0.534943 0.299744 0.000000
0.584412 0.307922 0.000000
0.634460 0.312653 0.000000
0.684723 0.318207 0.000000
0.731445 0.322418 0.000000
0.776001 0.325409 0.000000
0.820190 0.326416 0.000000
0.860504 0.329468 0.000000
0.897980 0.329681 0.000000
0.934174 0.329651 0.000000
0.965424 0.329346 0.003052
0.990387 0.329254 0.012909
0.999359 0.332489 0.040497
1.000000 0.333496 0.072144
1.000000 0.333649 0.097107
1.000000 0.336212 0.121338
1.000000 0.336334 0.141663
1.000000 0.340393 0.161774
0.000000 0.304047 0.000000
0.006866 0.304108 0.000000
0.028534 0.304169 0.000000
0.069489 0.304260 0.000000
0.115479 0.304382 0.000000
0.157990 0.305084 0.000000
0.196747 0.307892 0.000000
0.235687 0.307922 0.000000
0.271759 0.308105 0.000000
0.311462 0.309021 0.000000
0.348450 0.312073 0.000000
0.393005 0.320068 0.000000
0.441345 0.328156 0.000000
0.489685 0.332916 0.000000
0.537994 0.339966 0.000000
0.587372 0.348236 0.000000
0.636841 0.355133 0.000000
0.685944 0.360199 0.000000
0.733398 0.364075 0.000000
0.776001 0.365875 0.000000
0.820129 0.369537 0.000000
0.859436 0.369904 0.000000
0.896851 0.369873 0.000000
0.930145 0.369904 0.000000
0.963196 0.369873 0.003510
0.989380 0.369904 0.016541
0.999420 0.369873 0.047577
1.000000 0.369843 0.079742
1.000000 0.369843 0.104553
1.000000 0.369873 0.125824
1.000000 0.372437 0.148041
1.000000 0.372650 0.165802
0.000000 0.352570 0.000000
0.002808 0.352570 0.000000
0.022064 0.352478 0.000000
0.062134 0.352966 0.000000
0.115479 0.353729 0.000000
0.160522 0.356506 0.000000
0.203094 0.356445 0.000000
0.243347 0.356384 0.000000
0.279816 0.356445 0.000000
0.320099 0.357544 0.000000
0.360352 0.360352 0.000000
0.398132 0.360443 0.000000
0.444824 0.368530 0.000000
0.491119 0.376770 0.000000
0.539459 0.381714 0.000000
0.590240 0.388214 0.000000
0.638519 0.396454 0.000000
0.685730 0.400360 0.000000
0.733826 0.405762 0.000000
0.775909 0.408386 0.000000
0.818817 0.410095 0.000000
0.857788 0.410095 0.000000
0.894135 0.410095 0.000000
0.930176 0.410095 0.000000
0.962006 0.410095 0.005554
0.987579 0.408752 0.024078
0.999420 0.408936 0.055969
1.000000 0.406189 0.088287
1.000000 0.406219 0.112885
1.000000 0.404938 0.134003
1.000000 0.404938 0.153809
1.000000 0.404999 0.173798
0.000000 0.402283 0.000000
0.000000 0.404755 0.000000
0.017578 0.404846 0.000000
0.055725 0.404816 0.000000
0.114075 0.404846 0.000000
0.162567 0.404877 0.000000
0.207428 0.404846 0.000000
0.247559 0.404816 0.000000
0.287750 0.405731 0.000000
0.328125 0.408691 0.000000
0.368530 0.408722 0.000000
0.408722 0.408722 0.000000
0.449188 0.410187 0.000000
0.495209 0.416687 0.000000
0.543671 0.424896 0.000000
0.592102 0.432648 0.000000
0.640594 0.436584 0.000000
0.688629 0.442474 0.000000
0.733734 0.446533 0.000000
0.776001 0.450165 0.000000
0.817566 0.450348 0.000000
0.856537 0.450348 0.000000
0.894073 0.450348 0.000000
0.926270 0.450348 0.001404
0.958466 0.449158 0.009613
0.986145 0.446411 0.033447
0.999023 0.445007 0.067413
1.000000 0.443054 0.095917
1.000000 0.441559 0.120789
1.000000 0.441101 0.142242
1.000000 0.441101 0.161926
1.000000 0.438599 0.181793
0.000000 0.453156 0.000000
0.000000 0.453430 0.000000
0.017578 0.453400 0.000000
0.052063 0.453278 0.000000
0.112305 0.453308 0.000000
0.164673 0.454254 0.000000
0.211212 0.454620 0.000000
0.254974 0.456970 0.000000
0.295563 0.457153 0.000000
0.337372 0.457123 0.000000
0.380402 0.457214 0.000000
0.420654 0.458588 0.000000
0.460754 0.461090 0.000000
0.501068 0.461151 0.000000
0.547699 0.467407 0.000000
0.595093 0.472900 0.000000
0.642670 0.480865 0.000000
0.689209 0.484863 0.000000
0.733673 0.486786 0.000000
0.776123 0.490601 0.000000
0.816284 0.490479 0.000000
0.855011 0.490448 0.000000
0.891205 0.490479 0.000000
0.925720 0.489349 0.003235
0.956879 0.486664 0.016724
0.983612 0.485138 0.045715
0.997406 0.482788 0.078796
1.000000 0.480133 0.106964
1.000000 0.477325 0.131317
1.000000 0.475311 0.153259
1.000000 0.473328 0.173584
1.000000 0.473297 0.189728
0.000000 0.505096 0.000000
0.000000 0.505096 0.000000
0.017334 0.505219 0.000000
0.052063 0.505585 0.000000
0.112457 0.505585 0.000000
0.166931 0.505493 0.000000
0.215179 0.505737 0.000000
0.259338 0.505737 0.000000
0.303864 0.506989 0.000000
0.344543 0.507080 0.000000
0.388306 0.509064 0.000000
0.428345 0.509369 0.000000
0.469757 0.509827 0.000000
0.511536 0.511047 0.000000
0.553375 0.512939 0.000000
0.597534 0.516968 0.000000
0.645782 0.521088 0.000000
0.689880 0.526398 0.000000
0.733643 0.529633 0.000000
0.776184 0.530792 0.000000
0.816254 0.530640 0.000000
0.853882 0.530731 0.000000
0.890167 0.530823 0.000000
0.922333 0.526947 0.006165
0.952759 0.525635 0.028137
0.980499 0.523071 0.060730
0.995483 0.519653 0.092590
1.000000 0.516541 0.118561
1.000000 0.513489 0.141449
1.000000 0.509460 0.162109
1.000000 0.507355 0.181854
1.000000 0.505585 0.201813
0.000000 0.554352 0.000000
0.000000 0.554352 0.000000
0.017273 0.554291 0.000000
0.052063 0.555695 0.000000
0.114502 0.555573 0.000000
0.169495 0.555573 0.000000
0.219391 0.556580 0.000000
0.264893 0.557251 0.000000
0.307922 0.557220 0.000000
0.352020 0.557861 0.000000
0.394196 0.558502 0.000000
0.436371 0.558350 0.000000
0.478210 0.558350 0.000000
0.521149 0.561157 0.000000
0.560913 0.561157 0.000000
0.601654 0.561035 0.000000
0.645782 0.565247 0.000000
0.691162 0.567505 0.000000
0.733673 0.571014 0.000000
0.775970 0.571014 0.000000
0.813660 0.570953 0.000000
0.850861 0.571198 0.000000
0.886169 0.568512 0.002808
0.918243 0.565857 0.013519
0.949585 0.563446 0.042664
0.976746 0.560059 0.076782
0.995178 0.555847 0.105835
1.000000 0.551971 0.131104
1.000000 0.548767 0.153687
1.000000 0.545837 0.173828
1.000000 0.541779 0.193329
1.000000 0.537842 0.211426
0.000000 0.603088 0.000000
0.000000 0.603088 0.000000
0.017578 0.603149 0.000000
0.054047 0.603027 0.000000
0.117950 0.604309 0.000000
0.173462 0.604340 0.000000
0.223572 0.604340 0.000000
0.270020 0.605438 0.000000
0.314056 0.605438 0.000000
0.355927 0.605316 0.000000
0.399902 0.605194 0.000000
0.441406 0.606110 0.000000
0.483673 0.606140 0.000000
0.524963 0.605988 0.000000
0.566193 0.605988 0.000000
0.607727 0.606537 0.000000
0.648987 0.608307 0.000000
0.691376 0.608215 0.000000
0.731873 0.611481 0.000000
0.773438 0.611237 0.000000
0.812347 0.611328 0.000000
0.849976 0.608856 0.000000
0.882690 0.607269 0.005585
0.915985 0.603821 0.028931
0.945374 0.600311 0.061340
0.973022 0.596222 0.094116
0.992828 0.592377 0.120819
0.999451 0.587677 0.145569
1.000000 0.582153 0.166687
1.000000 0.578247 0.186035
1.000000 0.574188 0.205231
1.000000 0.570038 0.222229
0.000000 0.648621 0.000000
0.000061 0.648621 0.000000
0.021790 0.648590 0.000000
0.059814 0.649567 0.000000
0.124359 0.649567 0.000000
0.178253 0.649567 0.000000
0.227722 0.649567 0.000000
0.274017 0.649567 0.000000
0.317566 0.649567 0.000000
0.359894 0.650696 0.000000
0.403015 0.650665 0.000000
0.444427 0.650665 0.000000
0.486786 0.650665 0.000000
0.527283 0.650696 0.000000
0.569702 0.650696 0.000000
0.610168 0.650696 0.000000
0.651550 0.650665 0.000000
0.691711 0.651642 0.000000
0.731903 0.651703 0.000000
0.772125 0.651611 0.000000
0.809814 0.649109 0.000000
0.846008 0.647583 0.005096
0.880341 0.644806 0.017700
0.912415 0.640625 0.048431
0.940491 0.636566 0.081207
0.969238 0.632751 0.111511
0.990997 0.627106 0.136475
0.999481 0.622070 0.159180
1.000000 0.618225 0.179810
1.000000 0.613007 0.199036
1.000000 0.606445 0.218475
1.000000 0.602417 0.235413
0.000000 0.691742 0.000000
0.006104 0.691742 0.000000
0.031281 0.691742 0.000000
0.072571 0.691742 0.000000
0.133423 0.691742 0.000000
0.185760 0.691742 0.000000
0.233032 0.691711 0.000000
0.277679 0.691772 0.000000
0.320862 0.691803 0.000000
0.364075 0.691803 0.000000
0.406189 0.691803 0.000000
0.446503 0.691742 0.000000
0.488068 0.691803 0.000000
0.530457 0.691742 0.000000
0.571259 0.691833 0.000000
0.611450 0.691040 0.000000
0.651642 0.691132 0.000000
0.691040 0.691132 0.000000
0.731720 0.689453 0.000000
0.770050 0.689514 0.000000
0.806152 0.687775 0.002380
0.842651 0.685089 0.013092
0.876129 0.681458 0.036194
0.908417 0.677368 0.072205
0.936584 0.673035 0.102814
0.964783 0.667664 0.129547
0.987732 0.662384 0.152985
0.999512 0.656860 0.174927
1.000000 0.650757 0.194977
1.000000 0.646515 0.214355
1.000000 0.638672 0.231201
1.000000 0.634674 0.248474
0.000000 0.729492 0.000000
0.017700 0.729492 0.000000
0.047729 0.729492 0.000000
0.093994 0.729553 0.000000
0.147583 0.729553 0.000000
0.195923 0.729736 0.000000
0.239807 0.729736 0.000000
0.283997 0.729736 0.000000
0.325287 0.729736 0.000000
0.366699 0.729736 0.000000
0.408478 0.729767 0.000000
0.448700 0.729736 0.000000
0.490723 0.729279 0.000000
0.529938 0.729279 0.000000
0.569611 0.727936 0.000000
0.608124 0.728058 0.001892
0.648499 0.727661 0.002289
0.688049 0.725616 0.005890
0.725891 0.725800 0.008209
0.765991 0.725769 0.009705
0.803986 0.725525 0.014526
0.838867 0.721802 0.030579
0.872070 0.717896 0.062927
0.903778 0.713348 0.096954
0.932770 0.706726 0.124817
0.960419 0.702179 0.148102
0.984161 0.695801 0.171112
0.996704 0.690674 0.191132
1.000000 0.682892 0.210876
1.000000 0.678772 0.230072
1.000000 0.670959 0.246704
1.000000 0.666931 0.263336
0.010406 0.765839 0.007233
0.041626 0.765839 0.007233
0.076141 0.765839 0.007446
0.123505 0.765839 0.009186
0.166473 0.765839 0.009186
0.208771 0.765839 0.009186
0.250732 0.765839 0.010406
0.291534 0.765839 0.012848
0.331451 0.765839 0.012848
0.369720 0.765869 0.013977
0.410095 0.765869 0.015259
0.450317 0.765503 0.016632
0.490723 0.761932 0.017670
0.527435 0.761932 0.020081
0.567108 0.761932 0.022003
0.606384 0.761932 0.024597
0.645203 0.761902 0.027985
0.684448 0.761932 0.032196
0.721710 0.759583 0.039124
0.759521 0.759521 0.044098
0.798340 0.758026 0.050598
0.834717 0.758026 0.060547
0.868073 0.753998 0.092499
0.900055 0.747101 0.120819
0.928131 0.742310 0.145874
0.953857 0.735077 0.168121
0.979279 0.728790 0.188843
0.995544 0.723267 0.209473
0.999908 0.715149 0.227173
1.000000 0.709259 0.246185
1.000000 0.703217 0.262756
1.000000 0.696869 0.278931
0.047363 0.798065 0.043152
0.080109 0.798096 0.043152
0.117401 0.798096 0.043152
0.151215 0.798065 0.043488
0.187225 0.798065 0.047363
0.225250 0.798065 0.047363
0.261597 0.798065 0.049469
0.299835 0.798096 0.051056
0.335785 0.795624 0.054810
0.375122 0.795593 0.056122
0.413971 0.795532 0.058868
0.450348 0.795563 0.062927
0.490601 0.794189 0.067047
0.526825 0.794159 0.072144
0.564697 0.794189 0.076721
0.602356 0.793335 0.082184
0.641113 0.791656 0.086700
0.677643 0.791656 0.091705
0.715027 0.790588 0.098480
0.753784 0.790253 0.103546
0.790222 0.787781 0.108887
0.826721 0.787750 0.115417
0.863037 0.786285 0.123871
0.892395 0.781830 0.145660
0.921173 0.775482 0.167450
0.948944 0.767273 0.188385
0.973969 0.761810 0.208771
0.991943 0.755646 0.226685
0.999603 0.747467 0.245087
1.000000 0.739685 0.262665
1.000000 0.733154 0.278870
1.000000 0.727509 0.295044
0.109009 0.827637 0.105103
0.130615 0.827667 0.105103
0.155731 0.827667 0.106232
0.181702 0.826416 0.109009
0.211639 0.826416 0.109009
0.243774 0.826416 0.109009
0.277435 0.826355 0.110840
0.310455 0.826385 0.112854
0.346802 0.825500 0.113800
0.381470 0.823730 0.116669
0.417938 0.823761 0.119354
0.454285 0.823761 0.120697
0.490540 0.823761 0.124786
0.526825 0.823761 0.127502
0.563232 0.822418 0.131683
0.600098 0.820587 0.134735
0.637238 0.819855 0.138977
0.673370 0.819855 0.143158
0.709198 0.819794 0.147278
0.743408 0.816345 0.153107
0.779694 0.815979 0.157074
0.815979 0.815979 0.161224
0.852051 0.814545 0.166779
0.885315 0.811920 0.173370
0.916473 0.807678 0.190155
0.941559 0.799713 0.208252
0.967285 0.791870 0.228882
0.988220 0.785706 0.245941
0.999634 0.777832 0.262939
1.000000 0.771881 0.278992
1.000000 0.763947 0.295319
1.000000 0.755829 0.311127
0.158752 0.851868 0.155914
0.172180 0.851868 0.155914
0.191803 0.852020 0.156158
0.212982 0.852020 0.158539
0.235046 0.852020 0.158691
0.263428 0.851990 0.158325
0.293488 0.851990 0.159821
0.322937 0.851990 0.162628
0.355194 0.851898 0.162323
0.390137 0.851746 0.164764
0.423401 0.851654 0.166290
0.456940 0.847870 0.169067
0.491791 0.847931 0.170319
0.526825 0.848114 0.173340
0.561401 0.848083 0.177307
0.596954 0.847778 0.179321
0.632904 0.845490 0.182587
0.666718 0.844147 0.186707
0.701965 0.844208 0.189606
0.735474 0.843903 0.193329
0.771790 0.840118 0.198547
0.803802 0.840271 0.202698
0.839966 0.839966 0.206543
0.873413 0.837158 0.211548
0.908478 0.836243 0.217957
0.935394 0.830597 0.230835
0.961487 0.824219 0.248901
0.983521 0.816315 0.265503
0.996277 0.808319 0.282501
1.000000 0.800293 0.298828
1.000000 0.792297 0.313995
1.000000 0.784241 0.327454
0.200378 0.876343 0.199738
0.212067 0.876343 0.199738
0.225403 0.876343 0.199677
0.242798 0.875671 0.199677
0.263184 0.875732 0.200531
0.287018 0.875732 0.203033
0.311829 0.875732 0.203827
0.340393 0.875732 0.203613
0.369049 0.874786 0.205048
0.399445 0.873047 0.207794
0.431458 0.873047 0.207550
0.463745 0.872375 0.211731
0.495880 0.872375 0.211487
0.528229 0.871796 0.215576
0.561401 0.870148 0.217529
0.593658 0.869141 0.219299
0.628479 0.868378 0.223450
0.662140 0.868042 0.226227
0.695404 0.866272 0.229370
0.727417 0.865143 0.231567
0.763123 0.864502 0.234894
0.796143 0.863983 0.238922
0.828369 0.861298 0.243317
0.861542 0.860474 0.250427
0.893585 0.859314 0.254730
0.925873 0.857422 0.258911
0.953796 0.852234 0.271118
0.976013 0.844604 0.285950
0.994171 0.836639 0.301758
0.999908 0.828156 0.317871
1.000000 0.820068 0.331696
1.000000 0.811981 0.347809
0.239990 0.897430 0.240021
0.249084 0.897430 0.240021
0.260956 0.897430 0.239990
0.273987 0.896637 0.239990
0.290710 0.896698 0.240082
0.311066 0.895599 0.241882
0.332642 0.895660 0.242340
0.357483 0.895691 0.243896
0.383636 0.895752 0.243835
0.411652 0.893585 0.246521
0.439789 0.893463 0.247711
0.470337 0.893280 0.248444
0.499908 0.893494 0.251892
0.530975 0.891724 0.252441
0.561401 0.891815 0.255768
0.593628 0.889435 0.257813
0.625916 0.889374 0.259552
0.658173 0.888885 0.263519
0.690491 0.887817 0.266846
0.722626 0.885651 0.270813
0.752716 0.885620 0.272949
0.784943 0.883911 0.275391
0.816925 0.881622 0.279266
0.849487 0.881744 0.283386
0.880005 0.880005 0.287628
0.911285 0.877808 0.293732
0.942261 0.876404 0.299164
0.969543 0.870270 0.307343
0.989868 0.862274 0.323151
0.999756 0.853821 0.337830
1.000000 0.845734 0.351471
1.000000 0.837830 0.366333
0.278320 0.915680 0.276581
0.285248 0.915680 0.277100
0.293793 0.915680 0.276886
0.305328 0.915649 0.278320
0.319092 0.915710 0.280457
0.336914 0.915253 0.280243
0.356262 0.913818 0.280212
0.377808 0.913849 0.280518
0.400909 0.913818 0.281830
0.425781 0.913544 0.284180
0.452148 0.913177 0.284424
0.478668 0.912292 0.286255
0.506836 0.911743 0.288025
0.536072 0.910797 0.289734
0.565308 0.909912 0.291931
0.593506 0.909332 0.294647
0.624725 0.908325 0.296173
0.654785 0.907928 0.299896
0.685669 0.905945 0.302887
0.715637 0.904724 0.304443
0.746582 0.903900 0.307861
0.776093 0.902008 0.311554
0.807434 0.900574 0.315125
0.837280 0.900452 0.319183
0.867828 0.898102 0.323181
0.898315 0.896576 0.327240
0.926544 0.893951 0.331299
0.957153 0.894196 0.335510
0.981873 0.888794 0.345642
0.996155 0.882050 0.358063
1.000000 0.872101 0.371796
1.000000 0.861816 0.386322
0.313049 0.932037 0.313232
0.321198 0.932007 0.313232
0.329407 0.932037 0.313049
0.337158 0.932037 0.313080
0.349670 0.932037 0.316711
0.363647 0.932037 0.316528
0.380463 0.932312 0.316467
0.399719 0.930145 0.317200
0.419861 0.930176 0.317078
0.441010 0.930206 0.320557
0.465118 0.929443 0.320343
0.489624 0.928131 0.320984
0.514771 0.928131 0.324463
0.542725 0.928253 0.324982
0.569824 0.926239 0.328491
0.597748 0.926239 0.328888
0.625458 0.924164 0.332275
0.654419 0.924194 0.334717
0.682648 0.922913 0.336731
0.711578 0.922424 0.339966
0.739899 0.920288 0.343231
0.768890 0.919037 0.344452
0.797546 0.918427 0.348541
0.827057 0.916351 0.352478
0.855591 0.914886 0.355835
0.884064 0.912567 0.359863
0.912506 0.912445 0.363892
0.940887 0.910583 0.368164
0.969208 0.908356 0.372162
0.992188 0.904388 0.380341
0.999939 0.896484 0.392273
1.000000 0.887909 0.406250
0.349365 0.946777 0.349365
0.355957 0.946777 0.349365
0.361420 0.946777 0.349365
0.369354 0.946777 0.349365
0.379150 0.946808 0.349365
0.391785 0.946594 0.351868
0.405975 0.946564 0.352814
0.421356 0.946564 0.352997
0.440155 0.944153 0.353302
0.460297 0.944275 0.354095
0.480621 0.943970 0.356873
0.502869 0.944214 0.357300
0.525665 0.943573 0.358398
0.550232 0.942657 0.360596
0.574402 0.941406 0.361115
0.601807 0.940369 0.364532
0.627441 0.940186 0.364899
0.654358 0.938934 0.368652
