lut/kim-amland/Kim_Amland_Photographic_03.cube
#Copyright: (C) Copyright 2017 Kim Amland
TITLE "Kim Amland - Photographic 03"
#LUT size
LUT_3D_SIZE 5
#data domain
#LUT data points
DOMAIN_MIN 0.000000 0.000000 0.000000
DOMAIN_MAX 0.903226 0.903226 0.903226
0.000000 0.000000 0.000000
0.155884 0.003937 0.012543
0.576782 0.016479 0.043274
0.823669 0.053680 0.087860
0.956451 0.170441 0.198853
0.012726 0.205292 0.018524
0.216980 0.207672 0.020599
0.626465 0.235870 0.052795
0.845367 0.293610 0.100616
0.964294 0.378723 0.205780
0.051636 0.601471 0.062805
0.260712 0.631226 0.048615
0.648376 0.616028 0.056885
0.866852 0.624817 0.097595
0.964050 0.651733 0.196655
0.092896 0.817169 0.104706
0.331482 0.827637 0.098297
0.669006 0.840668 0.100616
0.864197 0.836731 0.086517
0.961090 0.839355 0.160828
0.156494 0.893433 0.168274
0.410370 0.909912 0.191742
0.682983 0.925171 0.187897
0.859619 0.928802 0.167664
0.952545 0.929016 0.153290
0.003937 0.011841 0.099976
0.180603 0.022369 0.179749
0.605255 0.046234 0.249298
0.840088 0.092682 0.330414
0.960358 0.195862 0.428436
0.016479 0.216125 0.207825
0.217010 0.216827 0.216858
0.619324 0.251617 0.265503
0.835632 0.306030 0.328827
0.952148 0.386993 0.413818
0.035675 0.643036 0.265350
0.265259 0.637848 0.276276
0.649384 0.632111 0.297699
0.860229 0.637817 0.355865
0.962616 0.663025 0.433777
0.091766 0.824921 0.333740
0.342255 0.841522 0.354095
0.665405 0.847229 0.356750
0.859039 0.841370 0.351440
0.957458 0.844238 0.411255
0.178589 0.905731 0.403503
0.419159 0.921906 0.426910
0.686584 0.932953 0.426514
0.859497 0.936707 0.414642
0.952698 0.936920 0.407532
0.037262 0.060791 0.383545
0.179382 0.070831 0.470428
0.603821 0.089996 0.599182
0.859009 0.147156 0.666687
0.964325 0.238220 0.702148
0.040466 0.272522 0.589478
0.252533 0.284149 0.610565
0.651123 0.313690 0.647644
0.855133 0.363770 0.665192
0.960419 0.438416 0.694336
0.046906 0.649963 0.624481
0.283875 0.646057 0.631622
0.641602 0.641571 0.641602
0.856384 0.660767 0.667694
0.951233 0.670807 0.682678
0.101471 0.838623 0.645508
0.345612 0.852448 0.664948
0.661255 0.851166 0.667328
0.852417 0.847229 0.670013
0.952789 0.848877 0.686768
0.191620 0.918854 0.668945
0.425812 0.932068 0.685760
0.684387 0.940857 0.691681
0.856354 0.944214 0.690765
0.951538 0.943451 0.687988
0.069305 0.104706 0.630219
0.225372 0.117096 0.694885
0.620789 0.164642 0.802582
0.852509 0.193573 0.844635
0.953186 0.287201 0.853149
0.072876 0.336853 0.808777
0.305115 0.353699 0.824310
0.650085 0.372253 0.840759
0.860291 0.403656 0.857086
0.960480 0.481354 0.868103
0.084869 0.661469 0.823761
0.332428 0.665894 0.835541
0.653351 0.673859 0.847290
0.858978 0.683868 0.859009
0.956268 0.703308 0.864624
0.117859 0.844604 0.828918
0.353516 0.856384 0.844666
0.661499 0.853210 0.848541
0.851227 0.851227 0.851227
0.951233 0.856354 0.860321
0.207184 0.925079 0.828918
0.433441 0.936646 0.844543
0.684387 0.944702 0.856323
0.856354 0.947357 0.860321
0.948669 0.944427 0.860291
0.152069 0.213562 0.883484
0.365753 0.238800 0.911987
0.647583 0.269318 0.925232
0.823669 0.291290 0.921173
0.932953 0.320435 0.924835
0.167175 0.427612 0.939514
0.378998 0.425751 0.936890
0.653412 0.450043 0.933716
0.841431 0.486755 0.937378
0.944855 0.513184 0.940765
0.186340 0.679016 0.928741
0.404633 0.690369 0.943665
0.671173 0.698669 0.949921
0.855072 0.708344 0.948364
0.951630 0.720306 0.948486
0.212708 0.852448 0.925110
0.425201 0.860291 0.936768
0.679047 0.860321 0.944733
0.855042 0.860291 0.948761
0.948334 0.864197 0.949097
0.226501 0.925201 0.913391
0.449707 0.936584 0.925018
0.690796 0.944702 0.940857
0.856384 0.948761 0.947357
0.948639 0.948639 0.948639
