lut/kim-amland/Kim_Amland_Photographic_01.cube
#Copyright: (C) Copyright 2017 Kim Amland
TITLE "Kim Amland - Photographic 01"
#LUT size
LUT_3D_SIZE 5
#data domain
#LUT data points
DOMAIN_MIN 0.000000 0.000000 0.000000
DOMAIN_MAX 0.903226 0.903226 0.903226
0.000000 0.000000 0.000000
0.164581 0.000000 0.023651
0.519379 0.000000 0.000000
0.860474 0.000000 0.000000
1.000000 0.072937 0.076050
0.000000 0.204742 0.000000
0.211670 0.211823 0.000000
0.531738 0.260040 0.000000
0.860504 0.287354 0.000000
1.000000 0.297150 0.092896
0.000000 0.554352 0.000000
0.264893 0.557251 0.000000
0.560913 0.561157 0.000000
0.850861 0.571198 0.000000
1.000000 0.548767 0.153687
0.109009 0.827637 0.105103
0.310455 0.826385 0.112854
0.563232 0.822418 0.131683
0.815979 0.815979 0.161224
0.999634 0.777832 0.262939
0.385284 0.960052 0.385040
0.446411 0.959167 0.385559
0.583405 0.955261 0.395599
0.757477 0.948334 0.411682
0.939850 0.936554 0.435669
0.000000 0.027618 0.202911
0.204285 0.000000 0.206848
0.518524 0.000000 0.243866
0.848694 0.000000 0.274200
1.000000 0.163727 0.322754
0.000000 0.204041 0.203918
0.213470 0.213379 0.214233
0.519135 0.239716 0.240021
0.847839 0.278107 0.279419
1.000000 0.330566 0.331482
0.000000 0.542175 0.252563
0.254669 0.543701 0.254669
0.549225 0.549469 0.257629
0.839233 0.567047 0.297333
1.000000 0.562347 0.361115
0.203918 0.819855 0.343689
0.346283 0.819855 0.345642
0.573761 0.815948 0.353302
0.811981 0.811951 0.367889
0.993896 0.782013 0.424591
0.459320 0.955261 0.503510
0.506134 0.952850 0.504852
0.619293 0.950562 0.511505
0.772827 0.944641 0.521332
0.935760 0.936432 0.536804
0.000000 0.000000 0.563263
0.276855 0.000000 0.562225
0.555847 0.000000 0.555634
0.848694 0.000000 0.566895
1.000000 0.251923 0.568970
0.000000 0.255707 0.550018
0.254913 0.254547 0.547150
0.545593 0.253174 0.545807
0.836029 0.297119 0.567200
1.000000 0.422180 0.591827
0.000000 0.547607 0.548187
0.268188 0.548340 0.549255
0.573730 0.572479 0.573395
0.812897 0.593536 0.593231
0.989502 0.632141 0.633026
0.357147 0.808044 0.601410
0.459564 0.808075 0.611084
0.620575 0.805664 0.620758
0.804138 0.804169 0.626862
0.965485 0.799591 0.659729
0.598206 0.942963 0.692139
0.624084 0.941925 0.694519
0.696777 0.939880 0.696075
0.807007 0.936737 0.702698
0.931976 0.932159 0.709930
0.027710 0.030396 0.835754
0.293304 0.029114 0.835419
0.561279 0.050598 0.831604
0.826447 0.120697 0.826447
1.000000 0.287201 0.799316
0.109833 0.308380 0.827637
0.312347 0.312347 0.826447
0.566528 0.323669 0.823761
0.817902 0.350372 0.819916
0.999634 0.443878 0.796204
0.283234 0.583038 0.813934
0.414612 0.592407 0.811981
0.611176 0.610840 0.808075
0.806824 0.621735 0.807648
0.969421 0.666931 0.804138
0.431854 0.804169 0.804108
0.508026 0.804169 0.804108
0.660858 0.807129 0.808044
0.819763 0.819763 0.819763
0.937317 0.831665 0.831543
0.656189 0.936584 0.820648
0.688477 0.935577 0.824524
0.764435 0.932892 0.836304
0.844452 0.931671 0.844513
0.931335 0.928802 0.848083
0.205841 0.205811 0.971649
0.326508 0.216858 0.971924
0.530396 0.250793 0.967834
0.749634 0.313660 0.964081
0.956146 0.401001 0.956848
0.305298 0.382874 0.966309
0.390869 0.390778 0.964020
0.563599 0.414551 0.962524
0.762268 0.458130 0.958466
0.951294 0.516266 0.951996
0.517517 0.645172 0.948425
0.564362 0.652405 0.947906
0.662476 0.663055 0.945892
0.795715 0.678741 0.943665
0.939636 0.700226 0.940063
0.612885 0.805084 0.936493
0.652649 0.809937 0.936829
0.743439 0.824554 0.933075
0.840240 0.840302 0.932678
0.931671 0.844574 0.931671
0.703400 0.929382 0.931702
0.728455 0.928558 0.931702
0.788910 0.928589 0.931732
0.865051 0.931671 0.932404
0.936554 0.936584 0.936707
