lut/kim-amland/Kim_Amland_Photographic_03.cube
#Copyright: (C) Copyright 2017 Kim Amland
TITLE "Kim Amland - Photographic 03"
#LUT size
LUT_3D_SIZE 8
#data domain
#LUT data points
DOMAIN_MIN 0.000000 0.000000 0.000000
DOMAIN_MAX 0.903226 0.903226 0.903226
0.000000 0.000000 0.000000
0.044495 0.000000 0.003937
0.208984 0.007874 0.016785
0.466614 0.012146 0.033081
0.665375 0.022491 0.052032
0.795593 0.041901 0.077026
0.889343 0.090118 0.123993
0.956451 0.170441 0.198853
0.003937 0.057770 0.003937
0.061951 0.061676 0.004456
0.252472 0.070313 0.020721
0.500031 0.087402 0.039429
0.684448 0.117035 0.056854
0.807831 0.157532 0.083313
0.899933 0.198639 0.129852
0.960358 0.269104 0.199158
0.019135 0.268005 0.024658
0.078735 0.273407 0.023071
0.285675 0.272888 0.024109
0.540436 0.284973 0.044678
0.712799 0.308197 0.064850
0.826843 0.337128 0.092743
0.913849 0.369019 0.138000
0.964111 0.419861 0.206665
0.043243 0.503967 0.052521
0.109558 0.521271 0.040314
0.309692 0.524200 0.044189
0.548859 0.513458 0.046875
0.724274 0.515747 0.059906
0.842743 0.531433 0.096497
0.919922 0.547241 0.136444
0.966034 0.577698 0.204834
0.060791 0.683899 0.072662
0.141113 0.708466 0.056366
0.336670 0.704498 0.055420
0.560944 0.700439 0.067596
0.727905 0.697968 0.065674
0.838745 0.695862 0.076965
0.920135 0.701508 0.119965
0.964355 0.714905 0.185089
0.085052 0.797089 0.096619
0.181030 0.804871 0.084167
0.373657 0.811310 0.083252
0.582581 0.819183 0.090088
0.732117 0.819092 0.089264
0.842590 0.815155 0.082428
0.915985 0.811432 0.106598
0.963348 0.816345 0.165070
0.124969 0.853882 0.133331
0.234833 0.861359 0.141632
0.425049 0.873230 0.151581
0.603760 0.882568 0.149017
0.738434 0.888885 0.136658
0.840027 0.888641 0.124878
0.913483 0.886353 0.112244
0.960388 0.886322 0.156097
0.156494 0.893433 0.168274
0.274109 0.901642 0.180511
0.455841 0.913208 0.192627
0.615997 0.920929 0.191711
0.741455 0.927765 0.183441
0.838776 0.928802 0.171631
0.905853 0.928802 0.156830
0.952545 0.929016 0.153290
0.000000 0.003937 0.030396
0.049927 0.003937 0.049316
0.220459 0.011810 0.069275
0.476105 0.020020 0.098572
0.672852 0.033661 0.139893
0.803436 0.057861 0.187622
0.893402 0.106293 0.232086
0.956268 0.179871 0.311768
0.003937 0.062469 0.061432
0.062469 0.062469 0.062469
0.255585 0.074097 0.080658
0.500671 0.091400 0.107239
0.681580 0.123657 0.146423
0.803894 0.163177 0.190338
0.893402 0.202881 0.230042
0.952515 0.269592 0.303406
0.016083 0.274292 0.085815
0.081238 0.277618 0.086304
0.289673 0.280762 0.094696
0.541534 0.293091 0.127167
0.712830 0.317535 0.163544
0.827972 0.347382 0.202942
0.907288 0.374054 0.240906
0.960358 0.423767 0.313049
0.034302 0.520782 0.122650
0.111206 0.527252 0.119171
0.309906 0.527802 0.127197
0.553314 0.524841 0.139069
0.727905 0.532043 0.175201
0.838898 0.539886 0.213928
0.919708 0.553223 0.250000
0.964355 0.584534 0.320343
0.051544 0.704407 0.159546
0.139130 0.712738 0.153717
0.337494 0.708252 0.158325
0.562378 0.704803 0.171112
0.727905 0.704376 0.175415
0.839478 0.704315 0.207367
0.916016 0.707550 0.237091
0.964264 0.719482 0.306702
0.080139 0.804901 0.198242
0.181030 0.808838 0.196594
0.379486 0.817505 0.202454
0.583221 0.823181 0.210449
0.731812 0.819214 0.209900
0.838776 0.815857 0.202301
0.913788 0.815155 0.226776
0.960388 0.819183 0.286469
0.129486 0.858978 0.242126
0.243286 0.867188 0.253326
0.430664 0.879120 0.264801
0.603760 0.887421 0.261627
0.737488 0.890564 0.251648
0.838837 0.892548 0.239471
0.912231 0.888550 0.230255
0.959442 0.888519 0.276184
0.168243 0.901581 0.277588
0.286102 0.908997 0.293884
0.459686 0.917877 0.305481
0.616089 0.926208 0.305206
0.742371 0.931854 0.296967
0.838776 0.932678 0.285004
0.908112 0.932678 0.273956
0.952545 0.933044 0.270508
0.007874 0.016602 0.132263
0.054321 0.023376 0.174957
0.236725 0.030975 0.236267
0.514282 0.047943 0.284851
0.698944 0.061829 0.328064
0.820129 0.088409 0.375031
0.907745 0.138031 0.419159
0.960815 0.201965 0.469788
0.016602 0.086334 0.226532
0.074036 0.089935 0.239349
0.264862 0.094666 0.264465
0.526276 0.121124 0.298889
0.698486 0.152679 0.333496
0.815552 0.191406 0.372620
0.899719 0.223480 0.408020
0.955383 0.292542 0.458466
0.020721 0.285797 0.272552
0.089081 0.293152 0.280823
0.285797 0.285675 0.285675
0.531769 0.301941 0.312439
0.705383 0.331024 0.342438
0.825012 0.363159 0.381439
0.894073 0.380341 0.404144
0.952576 0.430786 0.454956
0.031525 0.540924 0.305115
0.115509 0.540771 0.310120
0.313690 0.539185 0.321503
0.552856 0.540649 0.333496
0.727905 0.543213 0.363464
0.838745 0.552948 0.396912
0.909729 0.561523 0.423920
0.959595 0.588257 0.466553
0.044159 0.724091 0.340668
0.143219 0.717072 0.340668
0.345825 0.712219 0.353271
0.561920 0.712341 0.366211
0.723938 0.710144 0.375793
0.837799 0.708282 0.403107
0.912720 0.712280 0.424622
0.960236 0.724274 0.468262
0.075439 0.808838 0.371613
0.185333 0.817139 0.379913
0.384216 0.825012 0.395905
0.581421 0.827026 0.400574
0.727905 0.823029 0.404022
0.834778 0.819092 0.399872
0.910492 0.819092 0.417755
0.957336 0.823120 0.456573
0.140015 0.868744 0.415863
0.253204 0.877136 0.431549
0.432220 0.886963 0.442566
0.599731 0.892792 0.439728
0.735718 0.894897 0.435181
0.837769 0.894165 0.429352
0.908112 0.892670 0.424103
0.956573 0.892761 0.451904
0.180634 0.909485 0.447815
0.295105 0.917206 0.462891
0.463409 0.925903 0.471344
0.618103 0.932831 0.473145
0.742310 0.936829 0.468536
0.838806 0.937408 0.462982
0.905945 0.937378 0.455841
0.952637 0.937408 0.454346
0.027588 0.044647 0.294800
0.074249 0.052704 0.335663
0.216888 0.056366 0.409637
0.497864 0.070343 0.493896
0.707184 0.091980 0.545044
0.834808 0.122925 0.583282
0.918152 0.166168 0.607513
0.964355 0.224243 0.631287
0.032166 0.118622 0.422699
0.090851 0.123077 0.439331
0.256775 0.130371 0.472321
0.526062 0.147705 0.521790
0.717957 0.187683 0.556946
0.831726 0.223236 0.579620
0.909851 0.254822 0.595764
0.961060 0.324890 0.626740
0.035492 0.313751 0.501587
0.111725 0.322083 0.513580
0.303070 0.325592 0.526398
0.552582 0.341675 0.549011
0.720062 0.364807 0.561096
0.828552 0.390472 0.578491
0.901703 0.410675 0.588196
0.956543 0.455170 0.619598
0.039429 0.549103 0.524048
0.123383 0.549255 0.529236
0.322052 0.551056 0.543182
0.551453 0.551331 0.551453
0.718079 0.550323 0.557037
0.834900 0.570648 0.583496
0.900177 0.570709 0.590210
0.951233 0.594208 0.615784
0.046906 0.722076 0.539520
0.149994 0.720032 0.545319
0.351349 0.720154 0.557007
0.560333 0.715240 0.563171
0.720032 0.712219 0.567841
0.834839 0.715698 0.583344
0.908569 0.720093 0.599609
0.956573 0.728333 0.623260
0.079468 0.815247 0.557495
0.190430 0.825043 0.569672
0.385132 0.830902 0.583435
0.578583 0.827087 0.586334
0.725006 0.827057 0.587189
0.830994 0.822998 0.588806
0.908234 0.823029 0.596741
0.956604 0.826996 0.619598
0.147949 0.876953 0.583862
0.257019 0.884857 0.599426
0.431885 0.892822 0.607330
0.598816 0.896423 0.607269
0.733368 0.898132 0.603973
0.834808 0.896454 0.603607
0.905975 0.895325 0.602173
0.952271 0.895355 0.615906
0.191406 0.916718 0.604279
0.301544 0.922272 0.615723
0.466461 0.931702 0.623871
0.617950 0.936951 0.627808
0.742157 0.940857 0.625793
0.838745 0.940582 0.623901
0.904205 0.943542 0.619293
0.952667 0.940552 0.616333
0.047241 0.073669 0.466309
0.096954 0.077789 0.494385
0.230316 0.084412 0.555084
0.482056 0.097839 0.634674
0.698639 0.117645 0.694946
0.833069 0.149048 0.726471
0.920258 0.185730 0.745514
0.964325 0.250275 0.760834
0.046875 0.154816 0.586517
0.115479 0.158875 0.604401
0.283051 0.172668 0.644257
0.541138 0.196838 0.693542
0.731201 0.215515 0.725159
0.841736 0.248688 0.734192
0.918793 0.283264 0.742554
0.964386 0.353973 0.758514
0.049042 0.347382 0.675446
0.140381 0.352753 0.682404
0.329987 0.361786 0.697540
0.559052 0.376862 0.712189
0.727905 0.391876 0.723846
0.834930 0.416107 0.731812
0.912445 0.443115 0.739624
0.960205 0.483246 0.752930
0.053040 0.562927 0.690155
0.154968 0.562958 0.695374
0.347198 0.563110 0.704285
0.555359 0.566864 0.712250
0.723541 0.575012 0.720001
0.834900 0.587341 0.728424
0.905182 0.595154 0.734802
0.955261 0.617615 0.745575
0.049377 0.723938 0.700439
0.155701 0.723938 0.704315
0.360199 0.724060 0.711304
0.562714 0.716400 0.712219
0.716156 0.716156 0.716156
0.830841 0.723938 0.727905
0.905670 0.727936 0.735809
0.951233 0.733246 0.742340
0.085297 0.823151 0.708435
0.195770 0.830963 0.717529
0.385925 0.834808 0.724457
0.575714 0.830841 0.725006
0.723938 0.826965 0.727875
0.830872 0.826904 0.728790
0.904541 0.826935 0.735657
0.952423 0.830933 0.745361
0.154541 0.882080 0.716461
0.260803 0.889954 0.725952
0.431396 0.897430 0.733734
0.595551 0.900635 0.736450
0.731812 0.900513 0.736755
0.834961 0.898102 0.737549
0.904388 0.896362 0.737640
0.952698 0.896362 0.744293
0.195740 0.921051 0.723053
0.305054 0.928711 0.731476
0.467010 0.935638 0.739716
0.617889 0.940796 0.745483
0.741516 0.943756 0.746796
0.836212 0.944733 0.746216
0.904327 0.944855 0.745850
0.948303 0.944702 0.745270
0.062805 0.096497 0.598114
0.125275 0.102356 0.627930
0.259613 0.112152 0.681213
0.505829 0.140167 0.751831
0.706482 0.163055 0.800812
0.832397 0.177673 0.824493
0.909546 0.209595 0.828461
0.957184 0.278595 0.840210
0.059875 0.195404 0.726257
0.149933 0.202789 0.742065
0.322845 0.222931 0.776093
0.562683 0.247650 0.810120
0.731812 0.260803 0.826843
0.840332 0.268494 0.832397
0.913177 0.307251 0.836243
0.960449 0.380432 0.847656
0.069183 0.380280 0.788635
0.174530 0.384888 0.796539
0.352814 0.395294 0.805878
0.562958 0.406036 0.815155
0.727997 0.420258 0.826965
0.840302 0.437103 0.838684
0.916016 0.465759 0.842651
0.960114 0.507294 0.851318
0.076721 0.582306 0.802673
0.186432 0.578491 0.803436
0.368805 0.580536 0.811279
0.565521 0.588959 0.819366
0.727081 0.598938 0.829834
0.838562 0.606934 0.837006
0.912201 0.619141 0.840515
0.959961 0.641296 0.846588
0.073181 0.726593 0.803436
0.190613 0.727905 0.810516
0.384552 0.728210 0.815674
0.574036 0.728943 0.823090
0.723267 0.731903 0.826904
0.832916 0.736237 0.832123
0.906311 0.740326 0.836426
0.952484 0.748566 0.842682
0.093719 0.827118 0.807404
0.204620 0.833527 0.817902
0.392151 0.834930 0.823181
0.579346 0.830902 0.827057
0.724487 0.830872 0.826904
0.830963 0.830963 0.830963
0.904541 0.833038 0.834869
0.951233 0.834930 0.840118
0.162872 0.884766 0.807556
0.268494 0.892731 0.817200
0.434692 0.898682 0.826965
0.595520 0.902008 0.830933
0.732086 0.902039 0.834869
0.832367 0.900513 0.834839
0.900421 0.900391 0.835388
0.951569 0.900360 0.840240
0.203369 0.924835 0.811401
0.312927 0.928955 0.816986
0.470123 0.936737 0.827850
0.617981 0.942719 0.834930
0.741516 0.944702 0.838806
0.836334 0.944427 0.840118
0.902039 0.944427 0.840240
0.948669 0.944489 0.842682
0.085602 0.128021 0.715332
0.163940 0.137817 0.747498
0.313507 0.160126 0.796295
0.545868 0.192688 0.851318
0.712708 0.214996 0.876648
0.816010 0.223511 0.881012
0.889343 0.231537 0.881409
0.941071 0.305267 0.888916
0.089752 0.245270 0.834320
0.194427 0.253906 0.849152
0.366150 0.273560 0.870056
0.570709 0.290497 0.882416
0.716858 0.300415 0.884766
0.819946 0.316284 0.886383
0.896393 0.334869 0.890778
0.948700 0.402496 0.898376
0.108582 0.417206 0.876068
0.206848 0.419586 0.880310
0.377563 0.422638 0.884644
0.568176 0.432556 0.888947
0.723938 0.452881 0.896515
0.830902 0.472473 0.900726
0.906708 0.488556 0.904480
0.952637 0.528717 0.906525
0.116547 0.594177 0.879608
0.217438 0.591797 0.881714
0.391266 0.596985 0.888977
0.574554 0.607330 0.896973
0.729340 0.619080 0.904175
0.835815 0.629089 0.908234
0.910675 0.637207 0.908875
0.956573 0.657288 0.909790
0.117584 0.732147 0.880707
0.229340 0.735718 0.885925
0.411682 0.739594 0.893433
0.583557 0.740662 0.897400
0.727905 0.742279 0.901306
0.834808 0.746521 0.904816
0.908295 0.750641 0.908447
0.956207 0.759399 0.909210
0.139587 0.829193 0.878510
0.241516 0.836243 0.887115
0.418518 0.838745 0.893402
0.591278 0.836304 0.896332
0.728943 0.835419 0.898132
0.830902 0.836273 0.900299
0.904297 0.838837 0.904358
0.951569 0.842743 0.905975
0.172852 0.885315 0.870605
0.278259 0.892731 0.878815
0.442657 0.898987 0.889313
0.599609 0.904327 0.896515
0.731995 0.904297 0.900513
0.834869 0.901398 0.900360
0.900269 0.900269 0.900269
0.948334 0.902008 0.904541
0.211334 0.925110 0.869232
0.320984 0.928955 0.877045
0.478394 0.937378 0.886932
0.622040 0.944153 0.895264
0.741486 0.944305 0.900635
0.836304 0.947632 0.902039
0.902039 0.947327 0.904297
0.948792 0.947357 0.904572
0.152069 0.213562 0.883484
0.252167 0.225677 0.896423
0.409943 0.242676 0.915710
0.576813 0.263031 0.925079
0.706238 0.273712 0.921112
0.803680 0.287201 0.921204
0.877777 0.303864 0.921661
0.932953 0.320435 0.924835
0.160370 0.320099 0.928741
0.266632 0.328339 0.930084
0.421875 0.339172 0.932465
0.576813 0.347321 0.929108
0.708344 0.360870 0.925110
0.811584 0.382568 0.929077
0.885193 0.401825 0.931671
0.939911 0.417938 0.933044
0.168457 0.466492 0.936951
0.265320 0.461853 0.939362
0.419861 0.462311 0.936676
0.583038 0.477081 0.937561
0.723236 0.497406 0.939453
0.823059 0.516724 0.940674
0.896484 0.531677 0.940735
0.944611 0.544159 0.941162
0.178650 0.608185 0.930450
0.282288 0.611664 0.936707
0.432495 0.619476 0.944305
0.595703 0.631287 0.948181
0.733398 0.641632 0.948730
0.831421 0.649445 0.948730
0.902496 0.658783 0.948059
0.948517 0.668732 0.948792
0.191162 0.741058 0.931854
0.302277 0.745239 0.936676
0.451965 0.749329 0.944641
0.603821 0.749908 0.948639
0.734467 0.753326 0.949249
0.834900 0.757202 0.951569
0.904236 0.760986 0.948364
0.951538 0.767456 0.950317
0.204865 0.834930 0.928375
0.312073 0.838837 0.932831
0.458649 0.840179 0.940857
0.609985 0.839996 0.944702
0.736053 0.842102 0.947510
0.834839 0.842743 0.948669
0.904327 0.844116 0.948364
0.951569 0.847900 0.951569
0.230133 0.889252 0.917694
0.335815 0.893250 0.925201
0.476349 0.900543 0.932800
0.617584 0.904541 0.940857
0.739838 0.904236 0.944702
0.835815 0.904419 0.947327
0.902039 0.904236 0.948639
0.948669 0.904938 0.948669
0.226501 0.925201 0.913391
0.336609 0.929230 0.917725
0.488464 0.937347 0.928406
0.629791 0.944153 0.936920
0.745422 0.946289 0.943756
0.838745 0.948761 0.946503
0.902008 0.948700 0.947632
0.948639 0.948639 0.948639
