lut/retro-80s/Aliens (1986) - Standard.cube
# Created by Benjamin (IWLTBAP): https://luts.iwltbap.com
# Copyright: (C) Copyright 2018 Triune Films and IWLTBAP SAS
# Cannot be resold, shared or otherwise redistributed
TITLE "Triune Films 80s Retro LUTs (Rec.709, sRGB, DCI-P3)"
LUT_3D_SIZE 33
0.000000 0.004150 0.012421
0.006500 0.003723 0.011169
0.013031 0.002869 0.008698
0.020264 0.001038 0.002228
0.027649 0.000702 0.000305
0.036835 0.000946 0.000000
0.053680 0.001282 0.000000
0.080688 0.001648 0.000122
0.106903 0.002075 0.000732
0.133362 0.002533 0.001099
0.162292 0.003021 0.001404
0.190521 0.003632 0.001923
0.216736 0.004242 0.002289
0.242645 0.004883 0.002350
0.269196 0.005402 0.002014
0.296143 0.006409 0.005798
0.323486 0.007751 0.014099
0.349884 0.008911 0.022705
0.376404 0.009888 0.030487
0.402802 0.011230 0.035675
0.427948 0.012939 0.038971
0.451416 0.015015 0.042511
0.475342 0.018585 0.046814
0.500519 0.022644 0.053223
0.525726 0.027527 0.061859
0.550781 0.033813 0.072632
0.577179 0.040619 0.081329
0.605652 0.050140 0.090179
0.634003 0.059631 0.099487
0.661346 0.068207 0.109283
0.689545 0.076263 0.119934
0.717621 0.084778 0.130554
0.745087 0.092865 0.140594
0.000854 0.012268 0.014099
0.007202 0.010986 0.012482
0.013702 0.009552 0.009399
0.021729 0.007935 0.001984
0.029572 0.007782 0.000397
0.040588 0.007904 0.000275
0.059753 0.008270 0.000641
0.086395 0.008606 0.000732
0.112946 0.009216 0.000732
0.140533 0.009827 0.000824
0.169006 0.010559 0.001495
0.196259 0.011444 0.002258
0.222534 0.012360 0.002533
0.250122 0.013123 0.003418
0.277557 0.013794 0.005188
0.304443 0.014954 0.009918
0.331848 0.017975 0.017181
0.358734 0.021912 0.026489
0.384583 0.024872 0.034393
0.410156 0.029114 0.040924
0.435242 0.033203 0.044281
0.459167 0.037720 0.048187
0.482635 0.041382 0.051666
0.506836 0.047089 0.058319
0.532715 0.053467 0.066833
0.558624 0.062073 0.077301
0.585602 0.070618 0.085358
0.613922 0.079926 0.095001
0.642487 0.088806 0.105072
0.669922 0.096375 0.116089
0.697235 0.104156 0.126770
0.723602 0.111938 0.136353
0.750000 0.119263 0.144775
0.001709 0.022858 0.016357
0.008057 0.021637 0.014618
0.014404 0.017792 0.010254
0.022583 0.015442 0.003143
0.031616 0.015076 0.000763
0.045013 0.015350 0.000702
0.065796 0.015533 0.001190
0.092957 0.015991 0.001312
0.119629 0.016693 0.000641
0.147675 0.018250 0.000916
0.176605 0.020508 0.002136
0.203033 0.023163 0.002960
0.229279 0.025360 0.003326
0.257294 0.026733 0.005676
0.286011 0.028442 0.008606
0.313263 0.031830 0.013855
0.340485 0.036407 0.020996
0.366974 0.041138 0.028900
0.392517 0.046356 0.036591
0.417480 0.052551 0.042999
0.442444 0.058319 0.048065
0.466980 0.063873 0.052612
0.490936 0.068542 0.056335
0.515350 0.074768 0.062714
0.540955 0.081787 0.071259
0.567078 0.090149 0.080627
0.594238 0.098877 0.089996
0.622589 0.107819 0.100128
0.650787 0.115082 0.110535
0.677856 0.122040 0.121552
0.704010 0.129395 0.131378
0.729950 0.137634 0.140137
0.756897 0.145050 0.148163
0.002808 0.036652 0.020233
0.009216 0.035309 0.018921
0.015564 0.030548 0.013947
0.022705 0.024048 0.005493
0.032745 0.022125 0.002686
0.046936 0.023712 0.001526
0.069733 0.024139 0.002380
0.098999 0.026428 0.001740
0.126892 0.029358 0.001556
0.155762 0.031830 0.002289
0.184387 0.036621 0.004517
0.210785 0.040710 0.005402
0.236877 0.045105 0.006226
0.264679 0.047333 0.008881
0.293091 0.050629 0.012695
0.321838 0.056488 0.017212
0.349457 0.062958 0.023712
0.374542 0.067993 0.030273
0.399017 0.072540 0.036255
0.424103 0.078857 0.043610
0.450134 0.085541 0.051025
0.475159 0.091492 0.057343
0.499298 0.095764 0.061005
0.523926 0.102753 0.067749
0.549469 0.109344 0.075592
0.575897 0.116852 0.084808
0.602753 0.124817 0.094574
0.629486 0.132141 0.104919
0.657166 0.138824 0.114288
0.683594 0.145416 0.123657
0.710327 0.153625 0.133087
0.737122 0.162933 0.142120
0.764893 0.170380 0.150665
0.003876 0.054138 0.023010
0.010284 0.052429 0.021484
0.016693 0.046600 0.015015
0.023651 0.038879 0.007385
0.031677 0.033264 0.004303
0.047211 0.035156 0.003479
0.072876 0.039398 0.003265
0.103668 0.044830 0.003265
0.134216 0.052460 0.003174
0.164612 0.056976 0.005676
0.192932 0.061279 0.008118
0.219086 0.066437 0.008881
0.245453 0.070618 0.009766
0.272461 0.074158 0.012695
0.300781 0.078400 0.016449
0.329926 0.084015 0.021851
0.358154 0.089447 0.027893
0.382294 0.093414 0.032715
0.405975 0.097656 0.038177
0.431671 0.104492 0.046692
0.457764 0.111176 0.055145
0.482727 0.116455 0.061890
0.507172 0.121094 0.066467
0.532043 0.127991 0.073334
0.557495 0.135284 0.080933
0.584167 0.142487 0.089569
0.611084 0.149261 0.099609
0.637299 0.156006 0.109802
0.663361 0.162018 0.117126
0.690063 0.168976 0.124786
0.717651 0.177643 0.134979
0.745331 0.186737 0.144806
0.772766 0.193909 0.153412
0.005463 0.072754 0.025726
0.011688 0.071777 0.024719
0.018127 0.065979 0.016754
0.024780 0.057343 0.009460
0.032013 0.052216 0.006165
0.046906 0.052490 0.005646
0.076752 0.059723 0.006958
0.108002 0.068542 0.006561
0.140472 0.077393 0.008118
0.170746 0.084351 0.009369
0.199280 0.088745 0.011963
0.227051 0.094574 0.012909
0.253632 0.099579 0.014160
0.280304 0.102325 0.016174
0.308319 0.105804 0.020721
0.337769 0.109467 0.027069
0.365509 0.113892 0.033203
0.389984 0.118805 0.038666
0.414093 0.124054 0.043640
0.439758 0.130280 0.052582
0.464813 0.135437 0.060425
0.489349 0.140778 0.066925
0.514587 0.145813 0.072021
0.540405 0.152191 0.078766
0.566162 0.159637 0.085632
0.592316 0.166870 0.093842
0.619324 0.173584 0.103668
0.645325 0.180176 0.112976
0.672058 0.186432 0.119720
0.699799 0.194214 0.127838
0.727203 0.202209 0.138184
0.753296 0.208984 0.147247
0.780487 0.215668 0.155060
0.007050 0.091675 0.028198
0.013275 0.090881 0.027008
0.019531 0.085968 0.019226
0.026215 0.080811 0.011993
0.033600 0.077454 0.009491
0.049133 0.076691 0.009216
0.080353 0.082672 0.012238
0.112823 0.091766 0.013306
0.145538 0.101257 0.013672
0.175995 0.108032 0.014893
0.204102 0.114685 0.015472
0.232880 0.121460 0.017639
0.261108 0.126801 0.019196
0.288116 0.129669 0.020355
0.316071 0.131348 0.024628
0.344727 0.133575 0.033142
0.372650 0.137573 0.040344
0.398102 0.144562 0.045105
0.423035 0.150146 0.050781
0.447571 0.155182 0.057495
0.472565 0.160095 0.064392
0.497528 0.165222 0.070496
0.523071 0.170563 0.076172
0.549194 0.177063 0.082367
0.575378 0.183929 0.088623
0.601715 0.191162 0.096802
0.628418 0.197968 0.106476
0.655151 0.204987 0.115234
0.682678 0.211853 0.122681
0.710632 0.219482 0.131775
0.737335 0.226440 0.141632
0.762390 0.232178 0.149811
0.788269 0.237793 0.156250
0.008881 0.111145 0.031982
0.015045 0.112274 0.031616
0.021271 0.108887 0.025787
0.027954 0.107330 0.022003
0.036194 0.106537 0.021393
0.053162 0.104767 0.020142
0.081207 0.107025 0.021057
0.117737 0.114319 0.021545
0.151733 0.123596 0.022430
0.183136 0.130920 0.022064
0.212250 0.138092 0.023071
0.239777 0.147339 0.024231
0.268036 0.152100 0.026093
0.293671 0.156830 0.026459
0.321594 0.159271 0.030151
0.350647 0.161072 0.038116
0.378662 0.165588 0.045197
0.406006 0.171753 0.050262
0.431305 0.177063 0.054779
0.455597 0.180939 0.060669
0.481079 0.185760 0.066833
0.506958 0.190826 0.073212
0.532867 0.195923 0.079376
0.558502 0.202118 0.084595
0.584320 0.208832 0.090393
0.610718 0.215820 0.099121
0.637939 0.222992 0.108582
0.665802 0.230316 0.117279
0.693634 0.237213 0.125549
0.719940 0.243103 0.134399
0.746246 0.249725 0.143799
0.770874 0.254944 0.150726
0.796387 0.260803 0.156403
0.010681 0.131561 0.039886
0.016876 0.134064 0.040619
0.023041 0.134399 0.039032
0.029907 0.134735 0.038147
0.038727 0.134979 0.038330
0.057068 0.133392 0.036499
0.082764 0.133484 0.034637
0.117493 0.138031 0.034485
0.154846 0.145142 0.034698
0.187897 0.153900 0.033173
0.218811 0.161133 0.032196
0.247681 0.169220 0.033691
0.274200 0.176270 0.034088
0.299927 0.181702 0.034515
0.325897 0.186920 0.036804
0.354279 0.190552 0.043365
0.383514 0.194427 0.048187
0.411774 0.199402 0.052917
0.439148 0.203522 0.058075
0.464325 0.207642 0.063568
0.490173 0.211884 0.069183
0.516418 0.216919 0.075867
0.541901 0.221741 0.081787
0.566925 0.227295 0.086395
0.592804 0.233398 0.092682
0.619598 0.240753 0.102051
0.646973 0.247803 0.111816
0.674713 0.254639 0.120697
0.702576 0.260803 0.128418
0.728821 0.266571 0.136780
0.754578 0.272797 0.145050
0.779419 0.278595 0.151093
0.804535 0.283936 0.155914
0.013214 0.158417 0.053223
0.019287 0.161926 0.056366
0.025482 0.163574 0.059082
0.032471 0.164490 0.059937
0.043671 0.165527 0.059143
0.063141 0.165985 0.056976
0.087860 0.165375 0.054321
0.116821 0.164703 0.050690
0.154663 0.170898 0.049622
0.192749 0.179077 0.046600
0.225769 0.186676 0.045410
0.256317 0.191925 0.043701
0.284149 0.199432 0.043488
0.309540 0.206207 0.041809
0.335327 0.211975 0.044128
0.359894 0.218048 0.047852
0.388855 0.221771 0.052765
0.416443 0.226288 0.057068
0.444550 0.230377 0.061798
0.471344 0.234314 0.067139
0.497314 0.239136 0.072357
0.523407 0.244049 0.078827
0.548218 0.248505 0.084106
0.573395 0.253082 0.088776
0.600281 0.258789 0.095612
0.627686 0.265747 0.105194
0.655365 0.272919 0.115051
0.682678 0.277954 0.122742
0.710266 0.283600 0.130127
0.736420 0.289124 0.137115
0.762299 0.295868 0.144379
0.786499 0.300842 0.149323
0.811401 0.305878 0.154022
0.015717 0.187683 0.071533
0.021820 0.191040 0.076111
0.027924 0.193878 0.080353
0.034698 0.196167 0.081512
0.045929 0.198456 0.080414
0.066650 0.199799 0.077515
0.091522 0.198853 0.075531
0.120636 0.195862 0.072083
0.152893 0.197235 0.068024
0.192719 0.205017 0.063965
0.230957 0.212280 0.061005
0.263489 0.218292 0.057220
0.293701 0.223328 0.051971
0.319672 0.230072 0.050140
0.345306 0.236938 0.050476
0.370117 0.242950 0.054077
0.395233 0.248291 0.058014
0.422302 0.252411 0.062653
0.449707 0.256958 0.066589
0.476959 0.261597 0.071350
0.503204 0.266174 0.076324
0.528900 0.271210 0.082062
0.555145 0.274628 0.086975
0.581360 0.278625 0.091614
0.608643 0.284241 0.098419
0.636719 0.290985 0.107544
0.664459 0.296906 0.116150
0.692017 0.301880 0.123749
0.719452 0.307129 0.130524
0.744812 0.312775 0.136810
0.769409 0.318207 0.142365
0.793243 0.322784 0.147125
0.817017 0.326965 0.151550
0.018555 0.219116 0.092621
0.024597 0.222778 0.098145
0.030701 0.226288 0.102173
0.038025 0.229553 0.103058
0.050201 0.232330 0.102478
0.071289 0.233429 0.099945
0.097748 0.232239 0.097992
0.125366 0.229248 0.095123
0.155212 0.228058 0.092102
0.190430 0.231750 0.085449
0.229584 0.239929 0.080627
0.267365 0.245117 0.072998
0.299652 0.250305 0.066467
0.330109 0.254944 0.062073
0.357666 0.262299 0.061859
0.381531 0.269257 0.062469
0.407196 0.274292 0.065735
0.430878 0.279297 0.068878
0.458374 0.284088 0.072144
0.483307 0.289642 0.074921
0.510406 0.293884 0.079987
0.537292 0.298126 0.085815
0.563934 0.301544 0.090332
0.590118 0.304657 0.094604
0.617493 0.310242 0.101013
0.646606 0.315125 0.108185
0.674164 0.320160 0.115387
0.701111 0.325317 0.122711
0.728180 0.331604 0.130066
0.752411 0.336578 0.135193
0.776154 0.341278 0.140472
0.800446 0.344818 0.144409
0.823669 0.348969 0.148987
0.021423 0.251556 0.114380
0.027466 0.255524 0.119476
0.033569 0.259216 0.123505
0.040863 0.261902 0.124054
0.055817 0.263977 0.123718
0.079071 0.264526 0.120148
0.103577 0.264252 0.117706
0.132080 0.262207 0.115662
0.158722 0.259949 0.113647
0.189392 0.260315 0.106659
0.224213 0.265747 0.097870
0.264191 0.271912 0.090820
0.303070 0.276672 0.083313
0.335724 0.282104 0.078003
0.368225 0.287354 0.073761
0.394165 0.294586 0.073425
0.419128 0.300720 0.073364
0.443451 0.305878 0.075287
0.467773 0.311401 0.076813
0.492920 0.316528 0.079681
0.518463 0.321228 0.083130
0.546295 0.325043 0.088928
0.572571 0.328400 0.093292
0.597748 0.332245 0.097900
0.625275 0.336304 0.103271
0.654480 0.340332 0.108673
0.682953 0.344879 0.114960
0.709442 0.350983 0.122009
0.735291 0.356750 0.128540
0.759766 0.361176 0.134094
0.783661 0.365082 0.139008
0.808441 0.368408 0.143188
0.831482 0.371826 0.146973
0.024872 0.285767 0.137054
0.030823 0.290192 0.140869
0.036835 0.293976 0.144257
0.045074 0.296021 0.145782
0.059814 0.297424 0.145081
0.079865 0.298218 0.142273
0.106354 0.298187 0.139343
0.137909 0.296997 0.137726
0.166199 0.295013 0.136169
0.190399 0.293030 0.129486
0.219635 0.294189 0.120117
0.257935 0.299652 0.111328
0.300476 0.306091 0.105103
0.339294 0.310974 0.094849
0.374329 0.316681 0.089386
0.405304 0.320374 0.086548
0.431335 0.326782 0.084656
0.454285 0.332092 0.083282
0.479004 0.337250 0.084534
0.503082 0.342346 0.086090
0.528015 0.346802 0.088745
0.551666 0.351196 0.090759
0.577972 0.355103 0.095795
0.602631 0.359467 0.098602
0.630249 0.363342 0.103821
0.659607 0.366974 0.108887
0.687500 0.372406 0.114777
0.713715 0.378021 0.120728
0.739807 0.383392 0.126556
0.766083 0.385620 0.131989
0.791260 0.389008 0.137756
0.815887 0.391357 0.141479
0.838165 0.394714 0.145325
0.028290 0.320557 0.157288
0.034241 0.325317 0.161377
0.040192 0.328125 0.164886
0.046082 0.329376 0.166443
0.061798 0.330597 0.167542
0.082794 0.331390 0.166260
0.109528 0.331757 0.164978
0.143677 0.331207 0.161407
0.172546 0.330139 0.158325
0.197021 0.327820 0.151489
0.219849 0.326599 0.143860
0.250916 0.330017 0.136536
0.292389 0.335449 0.127075
0.337738 0.339935 0.114502
0.378113 0.343628 0.103455
0.410187 0.348419 0.099487
0.441620 0.352356 0.096863
0.465332 0.357819 0.095917
0.488861 0.362823 0.094116
0.513245 0.367737 0.094666
0.536163 0.372467 0.094299
0.559174 0.377106 0.095306
0.582825 0.381927 0.097809
0.608673 0.386566 0.101562
0.635620 0.390533 0.104218
0.664703 0.394440 0.109253
0.692871 0.399292 0.114502
0.718964 0.404449 0.120056
0.745300 0.408600 0.125549
0.772003 0.410919 0.131470
0.798096 0.412811 0.136902
0.822571 0.415131 0.140778
0.843109 0.417542 0.144440
0.031921 0.355560 0.180695
0.037781 0.359589 0.184967
0.043732 0.362457 0.187866
0.053528 0.363983 0.189972
0.067627 0.365570 0.192261
0.090881 0.366394 0.192627
0.120728 0.366882 0.191162
0.151093 0.366913 0.187714
0.179199 0.365997 0.182617
0.203857 0.364288 0.176575
0.227509 0.362854 0.169586
0.250000 0.362976 0.161194
0.284729 0.365631 0.153015
0.332153 0.369049 0.138916
0.375549 0.372955 0.126099
0.409760 0.375763 0.115875
0.443573 0.380646 0.112976
0.476379 0.384186 0.112274
0.500000 0.389252 0.110413
0.521088 0.394226 0.106537
0.545044 0.399384 0.105011
0.567596 0.404358 0.103851
0.592712 0.409058 0.105560
0.618164 0.413147 0.106995
0.645111 0.417206 0.109650
0.671448 0.420624 0.110443
0.699646 0.424774 0.115570
0.725861 0.428192 0.118958
0.752136 0.432068 0.124786
0.778320 0.434631 0.130310
0.803314 0.437317 0.136230
0.826660 0.438995 0.140900
0.846008 0.441254 0.144775
0.035583 0.388550 0.204376
0.041473 0.393646 0.208435
0.048737 0.397736 0.211700
0.059601 0.399719 0.213776
0.078613 0.401093 0.215912
0.102844 0.401733 0.215607
0.128937 0.402679 0.214111
0.156464 0.402863 0.209991
0.181549 0.402039 0.206360
0.207581 0.399963 0.200043
0.232300 0.398956 0.193390
0.258026 0.397583 0.184540
0.285400 0.398224 0.178070
0.324951 0.400604 0.169312
0.369568 0.403595 0.154816
0.407471 0.405853 0.142334
0.444275 0.408569 0.132965
0.478302 0.412384 0.129913
0.510284 0.415192 0.125946
0.532196 0.420593 0.121826
0.553955 0.426392 0.117493
0.577637 0.431549 0.116089
0.601593 0.435944 0.114563
0.628326 0.439789 0.114380
0.654175 0.443817 0.115906
0.680389 0.447266 0.117035
0.705872 0.450287 0.117859
0.731964 0.453064 0.121155
0.758209 0.456207 0.125122
0.784424 0.459290 0.130463
0.809082 0.461853 0.135406
0.831299 0.463562 0.139923
0.849182 0.465088 0.144073
0.039185 0.422455 0.226379
0.045502 0.428131 0.230469
0.053223 0.431702 0.233948
0.067078 0.433441 0.236542
0.087067 0.434998 0.238434
0.110382 0.436401 0.238922
0.137817 0.437836 0.237915
0.163696 0.438385 0.235046
0.189148 0.437500 0.231049
0.214081 0.436035 0.226257
0.239868 0.434509 0.219116
0.266052 0.433899 0.211914
0.291199 0.433380 0.204712
0.317932 0.433075 0.196838
0.359009 0.433807 0.183746
0.400269 0.434845 0.167999
0.439514 0.437439 0.156647
0.474152 0.440552 0.147827
0.508575 0.444214 0.142487
0.540710 0.447327 0.138672
0.563477 0.453033 0.135345
0.585266 0.457092 0.130127
0.608673 0.461731 0.128021
0.633026 0.465668 0.125732
0.660706 0.469574 0.127075
0.685822 0.472656 0.127045
0.711273 0.475708 0.127625
0.735626 0.479004 0.127472
0.762665 0.482147 0.130493
0.789795 0.485138 0.130554
0.815033 0.487793 0.134491
0.835571 0.488861 0.137512
0.852295 0.490356 0.141113
0.042633 0.456482 0.245728
0.048920 0.461273 0.250763
0.056366 0.465027 0.255951
0.070709 0.467316 0.259491
0.089905 0.469421 0.262268
0.118317 0.470947 0.262878
0.146606 0.472076 0.263031
0.175293 0.472534 0.259827
0.199890 0.472443 0.255737
0.224396 0.471222 0.250153
0.248138 0.470215 0.245483
0.274780 0.468750 0.237732
0.299957 0.467407 0.229462
0.323242 0.464722 0.218933
0.353180 0.464294 0.208649
0.392120 0.464874 0.194336
0.431244 0.466675 0.178955
0.467773 0.470123 0.169525
0.505341 0.473236 0.161163
0.540070 0.476807 0.157440
0.571320 0.479523 0.152832
0.593201 0.483704 0.147552
0.615356 0.487671 0.142120
0.640106 0.491516 0.140472
0.665253 0.494720 0.139771
0.691132 0.497650 0.139313
0.715393 0.500946 0.138031
0.740509 0.504639 0.136841
0.766846 0.508453 0.135864
0.795258 0.511230 0.134583
0.820007 0.513336 0.133453
0.840363 0.514313 0.136414
0.856140 0.515137 0.139587
0.046417 0.490417 0.266571
0.052063 0.494415 0.272095
0.059235 0.498749 0.278015
0.071350 0.500946 0.281036
0.093506 0.502533 0.283051
0.119598 0.503113 0.283386
0.150665 0.503998 0.282745
0.177948 0.505219 0.281403
0.204102 0.506226 0.278351
0.229309 0.506287 0.275269
0.253632 0.504456 0.270538
0.278290 0.502808 0.264984
0.305084 0.501129 0.257294
0.329376 0.499237 0.247498
0.355499 0.497162 0.237793
0.385834 0.496002 0.224976
0.421875 0.496277 0.208618
0.458435 0.498474 0.194824
0.497925 0.501923 0.186066
0.535065 0.504517 0.178131
0.569122 0.507904 0.173187
0.598236 0.510101 0.167267
0.621277 0.514008 0.162140
0.645508 0.516815 0.157593
0.670715 0.520172 0.156219
0.695007 0.523163 0.152832
0.720093 0.526794 0.150543
0.744812 0.529968 0.147064
0.771973 0.533447 0.144501
0.798767 0.535614 0.141327
0.823120 0.537201 0.140594
0.843201 0.538300 0.140198
0.860046 0.539154 0.144196
0.049866 0.524078 0.288269
0.055542 0.528076 0.293793
0.063171 0.531647 0.298431
0.075287 0.533295 0.300507
0.094177 0.534180 0.301636
0.121735 0.534424 0.301422
0.150635 0.535400 0.301422
0.180023 0.536926 0.301056
0.204987 0.538055 0.300659
0.230255 0.538971 0.298462
0.253906 0.538635 0.295929
0.279419 0.536499 0.290558
0.304657 0.534760 0.285950
0.331024 0.532959 0.277191
0.357635 0.531403 0.267609
0.382629 0.528351 0.256531
0.413696 0.525757 0.240875
0.449677 0.526154 0.225830
0.488495 0.529144 0.212311
0.526611 0.532837 0.203613
0.563049 0.535583 0.194458
0.595490 0.538330 0.188629
0.625458 0.540070 0.183411
0.650055 0.542847 0.178223
0.674469 0.545776 0.173065
0.699219 0.549347 0.168823
0.723450 0.552948 0.163879
0.748901 0.555939 0.159729
0.774475 0.558319 0.155151
0.801056 0.559814 0.150726
0.825958 0.561340 0.148254
0.847107 0.562378 0.148560
0.864075 0.563416 0.148560
0.052429 0.554810 0.307953
0.058380 0.557983 0.312561
0.065979 0.560883 0.317047
0.077972 0.562286 0.318787
0.098206 0.563568 0.320129
0.122864 0.563934 0.320679
0.150665 0.564758 0.321106
0.178284 0.566040 0.321716
0.204681 0.567444 0.321564
0.228394 0.569794 0.321381
0.253143 0.570740 0.319672
0.277374 0.569885 0.316315
0.303101 0.567322 0.310913
0.328674 0.565613 0.303925
0.356018 0.564484 0.294037
0.381958 0.561646 0.283813
0.407837 0.557770 0.271729
0.439301 0.555328 0.257233
0.477356 0.557129 0.242462
0.516052 0.560181 0.229248
0.553772 0.563110 0.219849
0.588287 0.564606 0.210815
0.620544 0.566711 0.204926
0.650238 0.567596 0.198853
0.675049 0.570557 0.192596
0.699951 0.573151 0.185577
0.724670 0.576965 0.181030
0.750031 0.579926 0.174103
0.776245 0.582306 0.168427
0.801758 0.583984 0.161652
0.827972 0.585632 0.158173
0.850189 0.586945 0.156128
0.867859 0.587982 0.156097
0.055511 0.584930 0.327911
0.061066 0.587402 0.332550
0.069672 0.589996 0.336639
0.082306 0.591461 0.338440
0.100952 0.592804 0.339722
0.124603 0.593628 0.340668
0.149841 0.594452 0.341949
0.177002 0.595795 0.342712
0.202911 0.597504 0.343140
0.229492 0.600311 0.342865
0.253876 0.602081 0.342896
0.279175 0.601624 0.339966
0.303467 0.600464 0.336334
0.329834 0.598389 0.328766
0.355865 0.597290 0.320953
0.382172 0.594299 0.310303
0.408386 0.590668 0.299652
0.434021 0.587250 0.288605
0.467133 0.586121 0.273621
0.503815 0.587921 0.259766
0.541199 0.589966 0.247528
0.576385 0.591400 0.238953
0.610901 0.592499 0.228607
0.642944 0.594238 0.220856
0.673492 0.595673 0.213379
0.699799 0.598450 0.205658
0.725006 0.600952 0.198975
0.750793 0.603668 0.191742
0.776703 0.605988 0.182587
0.803619 0.608154 0.174500
0.829376 0.610291 0.169006
0.852203 0.611664 0.166534
0.869843 0.612823 0.164581
0.058014 0.614319 0.345764
0.063904 0.616302 0.350128
0.072052 0.619049 0.353851
0.085754 0.620148 0.354980
0.104004 0.621613 0.356934
0.127075 0.622437 0.358459
0.153290 0.623474 0.360413
0.179626 0.624664 0.361755
0.206696 0.625763 0.362091
0.233795 0.627228 0.362579
0.260223 0.629059 0.362396
0.285583 0.630463 0.362244
0.310394 0.630798 0.358887
0.334198 0.629517 0.353790
0.358582 0.626923 0.344513
0.382355 0.624542 0.334473
0.407532 0.621338 0.323364
0.431305 0.619324 0.315521
0.457123 0.617004 0.306702
0.489441 0.615509 0.293182
0.526611 0.616455 0.279541
0.562775 0.617554 0.267548
0.598389 0.619415 0.257385
0.632568 0.620422 0.244568
0.664948 0.622253 0.235657
0.697083 0.622925 0.226044
0.723816 0.625427 0.217773
0.749725 0.626953 0.209381
0.776154 0.629486 0.200317
0.802216 0.632233 0.190399
0.829620 0.634277 0.183472
0.851654 0.635712 0.178162
0.869873 0.636688 0.175354
0.060608 0.643982 0.362701
0.066040 0.646271 0.366638
0.076569 0.648895 0.369873
0.086975 0.649963 0.371124
0.104858 0.651001 0.373230
0.128845 0.651764 0.375427
0.155670 0.652496 0.377594
0.183960 0.653137 0.379486
0.212433 0.653259 0.380798
0.239960 0.654205 0.381561
0.266083 0.656219 0.381989
0.292847 0.658661 0.380890
0.317993 0.660034 0.379761
0.342712 0.658966 0.374878
0.366119 0.657104 0.368866
0.387878 0.653992 0.357941
0.408752 0.652039 0.347382
0.431824 0.650635 0.339966
0.456848 0.650055 0.336395
0.481689 0.647583 0.329285
0.513733 0.644257 0.314117
0.549713 0.644012 0.299194
0.584808 0.645142 0.285583
0.619080 0.646545 0.272858
0.653290 0.647430 0.258850
0.687286 0.648376 0.247437
0.720215 0.648926 0.236633
0.747589 0.650879 0.227295
0.773987 0.652557 0.218567
0.800842 0.655731 0.209717
0.827942 0.658264 0.200378
0.851166 0.659546 0.193146
0.868530 0.660431 0.187408
0.062714 0.671722 0.377991
0.067963 0.674561 0.381622
0.075073 0.676910 0.385315
0.083466 0.678009 0.387238
0.099884 0.678864 0.389435
0.124146 0.679169 0.391022
0.154724 0.679352 0.392731
0.186188 0.679871 0.395111
0.217651 0.680328 0.397156
0.246063 0.681335 0.398743
0.272369 0.682983 0.398621
0.297150 0.684723 0.397736
0.323334 0.685638 0.395844
0.348114 0.685913 0.393951
0.372498 0.684906 0.389038
0.395813 0.683655 0.382874
0.418518 0.681519 0.373749
0.440460 0.680573 0.367462
0.465332 0.679901 0.362732
0.488251 0.677673 0.356873
0.511169 0.672882 0.345123
0.540771 0.669373 0.329681
0.574127 0.670044 0.316528
0.607544 0.671143 0.301666
0.641815 0.672699 0.287537
0.675568 0.673157 0.271606
0.710297 0.674011 0.258972
0.741791 0.674622 0.247925
0.769897 0.677032 0.239227
0.796997 0.678436 0.230103
0.825348 0.681335 0.220367
0.848541 0.682373 0.209473
0.866699 0.683228 0.202545
0.064941 0.699738 0.393005
0.070160 0.702667 0.397095
0.075409 0.704590 0.400665
0.081268 0.705841 0.403198
0.095001 0.706360 0.404785
0.119202 0.706177 0.405731
0.151733 0.706238 0.407349
0.187958 0.706848 0.410156
0.221497 0.707611 0.412628
0.251587 0.708649 0.414124
0.277527 0.709320 0.414368
0.302856 0.710114 0.413269
0.327972 0.711060 0.412476
0.353790 0.712006 0.410309
0.378418 0.712585 0.408051
0.402679 0.712006 0.403229
0.426056 0.711609 0.398499
0.448364 0.710083 0.391785
0.471069 0.709015 0.385468
0.493988 0.706726 0.378601
0.516296 0.702911 0.370605
