lut/retro-80s/Aliens (1986) - Standard.cube
# Created by Benjamin (IWLTBAP): https://luts.iwltbap.com
# Copyright: (C) Copyright 2018 Triune Films and IWLTBAP SAS
# Cannot be resold, shared or otherwise redistributed
TITLE "Triune Films 80s Retro LUTs (Rec.709, sRGB, DCI-P3)"
LUT_3D_SIZE 5
0.000000 0.004150 0.012421
0.106903 0.002075 0.000732
0.323486 0.007751 0.014099
0.525726 0.027527 0.061859
0.745087 0.092865 0.140594
0.010681 0.131561 0.039886
0.154846 0.145142 0.034698
0.383514 0.194427 0.048187
0.592804 0.233398 0.092682
0.804535 0.283936 0.155914
0.035583 0.388550 0.204376
0.181549 0.402039 0.206360
0.444275 0.408569 0.132965
0.654175 0.443817 0.115906
0.849182 0.465088 0.144073
0.060608 0.643982 0.362701
0.212433 0.653259 0.380798
0.408752 0.652039 0.347382
0.653290 0.647430 0.258850
0.868530 0.660431 0.187408
0.074554 0.845428 0.471924
0.224030 0.858215 0.484772
0.445435 0.869690 0.494934
0.627533 0.870392 0.476746
0.809692 0.842194 0.363037
0.000977 0.012604 0.089203
0.089111 0.010254 0.126801
0.312622 0.015656 0.177704
0.517670 0.045502 0.238678
0.727905 0.110474 0.309692
0.007874 0.141937 0.190735
0.129944 0.179688 0.229553
0.393799 0.220551 0.242645
0.598419 0.263031 0.289246
0.801117 0.311981 0.339722
0.026337 0.393433 0.348114
0.163605 0.437012 0.385681
0.443390 0.447662 0.330627
0.656647 0.462585 0.302979
0.856415 0.483246 0.326294
0.052521 0.644745 0.487457
0.222717 0.672668 0.525482
0.438416 0.685730 0.520538
0.661285 0.674652 0.438232
0.876617 0.677643 0.358093
0.073792 0.848083 0.582520
0.262848 0.878113 0.610260
0.482300 0.890381 0.628571
0.660767 0.888428 0.614716
0.833740 0.865845 0.526459
0.003815 0.037354 0.332916
0.112946 0.029480 0.343323
0.311279 0.025421 0.347778
0.503479 0.074524 0.422668
0.723999 0.151459 0.495575
0.008850 0.189301 0.348938
0.058411 0.238892 0.420166
0.329926 0.251099 0.434601
0.560181 0.306030 0.496643
0.771179 0.359467 0.545898
0.027740 0.403137 0.478729
0.172150 0.458618 0.535095
0.394714 0.503845 0.563660
0.643768 0.511383 0.541656
0.850189 0.526093 0.551819
0.045624 0.645508 0.618011
0.187439 0.675964 0.650177
0.434998 0.713440 0.676514
0.674011 0.710388 0.631470
0.886017 0.701263 0.538788
0.066467 0.849213 0.692444
0.218079 0.874481 0.717010
0.481415 0.906891 0.748840
0.679626 0.917419 0.750000
0.843567 0.897369 0.699158
0.004700 0.069916 0.518005
0.112701 0.072021 0.539825
0.323090 0.039032 0.533203
0.512909 0.102478 0.589355
0.724365 0.198975 0.672211
0.010437 0.237762 0.514618
0.057190 0.288940 0.604065
0.307770 0.300293 0.621063
0.560425 0.340424 0.658142
0.761414 0.400848 0.723694
0.041931 0.446655 0.612610
0.243378 0.503052 0.661896
0.417511 0.544830 0.706818
0.567474 0.572266 0.737244
0.812469 0.593903 0.775269
0.056274 0.655121 0.732819
0.234192 0.690582 0.770935
0.430267 0.723206 0.792999
0.652985 0.759827 0.812042
0.878662 0.751923 0.779480
0.065582 0.848297 0.800262
0.226807 0.875671 0.824707
0.459625 0.901642 0.845917
0.687500 0.932922 0.869019
0.876587 0.930542 0.849548
0.005432 0.100067 0.672577
0.131287 0.102814 0.699158
0.326843 0.091614 0.707672
0.539307 0.136047 0.743378
0.722076 0.214355 0.803345
0.013672 0.288116 0.671906
0.060730 0.336212 0.751038
0.275391 0.355835 0.779663
0.549194 0.380005 0.798798
0.762421 0.418152 0.846283
0.146271 0.492249 0.756714
0.297516 0.541168 0.799561
0.419434 0.578735 0.837830
0.575348 0.599823 0.865509
0.809540 0.609802 0.893829
0.057404 0.681976 0.834656
0.262848 0.718597 0.869690
0.451630 0.746002 0.887512
0.666046 0.783875 0.907867
0.842834 0.793579 0.933868
0.068909 0.845276 0.893951
0.272491 0.871399 0.916840
0.488007 0.899567 0.940582
0.699951 0.929779 0.959381
0.908051 0.954956 0.973602
