lut/retro-80s/Aliens (1986) - Standard.cube
# Created by Benjamin (IWLTBAP): https://luts.iwltbap.com
# Copyright: (C) Copyright 2018 Triune Films and IWLTBAP SAS
# Cannot be resold, shared or otherwise redistributed
TITLE "Triune Films 80s Retro LUTs (Rec.709, sRGB, DCI-P3)"
LUT_3D_SIZE 9
0.000000 0.004150 0.012421
0.027649 0.000702 0.000305
0.106903 0.002075 0.000732
0.216736 0.004242 0.002289
0.323486 0.007751 0.014099
0.427948 0.012939 0.038971
0.525726 0.027527 0.061859
0.634003 0.059631 0.099487
0.745087 0.092865 0.140594
0.003876 0.054138 0.023010
0.031677 0.033264 0.004303
0.134216 0.052460 0.003174
0.245453 0.070618 0.009766
0.358154 0.089447 0.027893
0.457764 0.111176 0.055145
0.557495 0.135284 0.080933
0.663361 0.162018 0.117126
0.772766 0.193909 0.153412
0.010681 0.131561 0.039886
0.038727 0.134979 0.038330
0.154846 0.145142 0.034698
0.274200 0.176270 0.034088
0.383514 0.194427 0.048187
0.490173 0.211884 0.069183
0.592804 0.233398 0.092682
0.702576 0.260803 0.128418
0.804535 0.283936 0.155914
0.021423 0.251556 0.114380
0.055817 0.263977 0.123718
0.158722 0.259949 0.113647
0.303070 0.276672 0.083313
0.419128 0.300720 0.073364
0.518463 0.321228 0.083130
0.625275 0.336304 0.103271
0.735291 0.356750 0.128540
0.831482 0.371826 0.146973
0.035583 0.388550 0.204376
0.078613 0.401093 0.215912
0.181549 0.402039 0.206360
0.285400 0.398224 0.178070
0.444275 0.408569 0.132965
0.553955 0.426392 0.117493
0.654175 0.443817 0.115906
0.758209 0.456207 0.125122
0.849182 0.465088 0.144073
0.049866 0.524078 0.288269
0.094177 0.534180 0.301636
0.204987 0.538055 0.300659
0.304657 0.534760 0.285950
0.413696 0.525757 0.240875
0.563049 0.535583 0.194458
0.674469 0.545776 0.173065
0.774475 0.558319 0.155151
0.864075 0.563416 0.148560
0.060608 0.643982 0.362701
0.104858 0.651001 0.373230
0.212433 0.653259 0.380798
0.317993 0.660034 0.379761
0.408752 0.652039 0.347382
0.513733 0.644257 0.314117
0.653290 0.647430 0.258850
0.773987 0.652557 0.218567
0.868530 0.660431 0.187408
0.068298 0.752441 0.419586
0.099823 0.758301 0.432129
0.224365 0.760834 0.439545
0.335480 0.764496 0.442596
0.436890 0.768677 0.438354
0.527496 0.764069 0.418182
0.618164 0.750671 0.378937
0.746552 0.750122 0.312408
0.852966 0.750427 0.265869
0.074554 0.845428 0.471924
0.103912 0.856537 0.480347
0.224030 0.858215 0.484772
0.343384 0.862213 0.490387
0.445435 0.869690 0.494934
0.536530 0.870209 0.493958
0.627533 0.870392 0.476746
0.708435 0.852783 0.432220
0.809692 0.842194 0.363037
0.000000 0.002686 0.035156
0.024902 0.003693 0.033234
0.104126 0.004028 0.043762
0.213684 0.006714 0.065826
0.319183 0.009888 0.097534
0.419281 0.016998 0.124878
0.521423 0.037170 0.148865
0.631439 0.066254 0.189545
0.743286 0.096466 0.225098
0.003113 0.033417 0.054169
0.028046 0.039490 0.064819
0.132446 0.053070 0.090149
0.250977 0.082733 0.105438
0.355255 0.100616 0.124176
0.461029 0.121796 0.155396
0.564758 0.148621 0.178314
0.669098 0.174866 0.207428
0.767853 0.205841 0.243011
0.008392 0.129944 0.116699
0.036591 0.149628 0.135681
0.147369 0.163635 0.134888
0.282776 0.193115 0.136322
0.392395 0.208832 0.145020
0.497650 0.221832 0.167969
0.601868 0.244171 0.193420
0.702240 0.271759 0.218384
0.797150 0.296326 0.248108
0.016968 0.254456 0.190094
0.046631 0.277008 0.203583
0.155579 0.284821 0.206879
0.309662 0.295929 0.180847
0.425140 0.313934 0.165924
0.524017 0.331116 0.177490
0.631805 0.348846 0.196594
0.733521 0.367889 0.217072
0.828827 0.382721 0.235962
0.029541 0.389893 0.275024
0.075134 0.413666 0.296844
0.187195 0.420441 0.297119
0.294464 0.414978 0.274811
0.447205 0.426300 0.225891
0.559784 0.439087 0.206879
0.656372 0.453674 0.210449
0.759491 0.463440 0.218872
0.852264 0.472595 0.233368
0.044434 0.525635 0.354340
0.089874 0.541962 0.376678
0.205597 0.553467 0.387543
0.304962 0.554169 0.374146
0.402863 0.548065 0.342621
0.559204 0.547729 0.283051
0.676636 0.557709 0.258728
0.780823 0.564270 0.239014
0.868408 0.570770 0.237854
0.057190 0.644226 0.424377
0.114960 0.658447 0.446930
0.232239 0.668365 0.458557
0.331604 0.673279 0.454865
0.427765 0.670563 0.442505
0.525269 0.660339 0.406525
0.663391 0.661652 0.343964
0.782166 0.664886 0.305328
0.872375 0.670898 0.276093
0.066559 0.749176 0.475494
0.103485 0.763550 0.492615
0.238556 0.774261 0.509460
0.349915 0.777710 0.514465
0.448853 0.781555 0.511719
0.536682 0.775940 0.494171
0.628479 0.761047 0.459229
0.759918 0.761993 0.397827
0.855682 0.759613 0.346405
0.074219 0.846619 0.525421
0.106598 0.860199 0.539429
0.249329 0.870392 0.552124
0.367188 0.874542 0.558990
0.463928 0.879059 0.563995
0.554993 0.880859 0.563293
0.642548 0.876160 0.543732
0.725800 0.861359 0.507355
0.816345 0.854614 0.444519
0.000977 0.012604 0.089203
0.024170 0.013519 0.087433
0.089111 0.010254 0.126801
0.204224 0.009033 0.149536
0.312622 0.015656 0.177704
0.412354 0.025757 0.208466
0.517670 0.045502 0.238678
0.623566 0.078339 0.271576
0.727905 0.110474 0.309692
0.003571 0.052094 0.126129
0.026825 0.062134 0.143585
0.105682 0.066864 0.175385
0.234741 0.085510 0.189178
0.348816 0.113403 0.207214
0.450775 0.136200 0.237335
0.554504 0.157867 0.266571
0.654724 0.189941 0.294006
0.761322 0.217651 0.330597
0.007874 0.141937 0.190735
0.037140 0.163574 0.210999
0.129944 0.179688 0.229553
0.272522 0.196838 0.236053
0.393799 0.220551 0.242645
0.497650 0.238983 0.264221
0.598419 0.263031 0.289246
0.698425 0.287994 0.315948
0.801117 0.311981 0.339722
0.015503 0.257935 0.268707
0.044006 0.283447 0.290649
0.149475 0.300659 0.302094
0.292786 0.314850 0.290222
0.423615 0.330963 0.268433
0.528503 0.343323 0.273468
0.636353 0.361450 0.292450
0.736298 0.380402 0.318024
0.832733 0.397888 0.333191
0.026337 0.393433 0.348114
0.058136 0.417755 0.371338
0.163605 0.437012 0.385681
0.288330 0.445068 0.380707
0.443390 0.447662 0.330627
0.561035 0.456635 0.302460
0.656647 0.462585 0.302979
0.764038 0.475067 0.316467
0.856415 0.483246 0.326294
0.039185 0.529694 0.425018
0.085480 0.547699 0.452209
0.201019 0.563202 0.467468
0.313934 0.574066 0.467224
0.423553 0.564117 0.448456
0.564514 0.566620 0.386688
0.681549 0.571075 0.346100
0.781830 0.574219 0.331482
0.870483 0.578400 0.327911
0.052521 0.644745 0.487457
0.092590 0.660004 0.506805
0.222717 0.672668 0.525482
0.336975 0.687897 0.535187
0.438416 0.685730 0.520538
0.528870 0.679504 0.498077
0.661285 0.674652 0.438232
0.788513 0.675812 0.387207
0.876617 0.677643 0.358093
0.064056 0.747162 0.538086
0.098328 0.764801 0.553253
0.244781 0.779724 0.575012
0.364594 0.792725 0.586700
0.463379 0.797119 0.581573
0.547913 0.791565 0.568207
0.631378 0.780792 0.543732
0.765350 0.772980 0.476471
0.867279 0.772247 0.428986
0.073792 0.848083 0.582520
0.112427 0.862732 0.595276
0.262848 0.878113 0.610260
0.389282 0.887390 0.624207
0.482300 0.890381 0.628571
0.574127 0.894684 0.628510
0.660767 0.888428 0.614716
0.742859 0.875580 0.586151
0.833740 0.865845 0.526459
0.002625 0.028778 0.196472
0.024231 0.026581 0.221710
0.096313 0.018951 0.227997
0.203522 0.012421 0.237366
0.310028 0.018494 0.263367
0.414215 0.031342 0.296692
0.509827 0.058777 0.326843
0.610718 0.100342 0.359131
0.721649 0.130310 0.394653
0.004700 0.076019 0.228333
0.026825 0.090393 0.265442
0.103577 0.092865 0.279541
0.222992 0.093872 0.280670
0.339905 0.121338 0.297791
0.439087 0.149261 0.328217
0.536194 0.178528 0.361206
0.644684 0.208374 0.387756
0.750214 0.237000 0.422302
0.009064 0.162537 0.275238
0.044250 0.188110 0.303436
0.101868 0.206299 0.323059
0.214020 0.216309 0.329681
0.360443 0.231842 0.339752
0.472198 0.259918 0.362823
0.579803 0.282501 0.386841
0.687927 0.310333 0.420929
0.789124 0.331451 0.445770
0.015747 0.266296 0.329956
0.038788 0.293701 0.358673
0.128754 0.321716 0.384430
0.255646 0.336517 0.393616
0.389526 0.351746 0.387360
0.523804 0.369537 0.394165
0.626526 0.386475 0.407104
0.733887 0.403076 0.425934
0.828186 0.416962 0.445129
0.026886 0.395538 0.420502
0.061707 0.421478 0.449402
0.168091 0.446625 0.473602
0.283447 0.466492 0.482300
0.421326 0.474030 0.460938
0.551758 0.471832 0.410278
0.660156 0.480255 0.408051
0.764740 0.488983 0.416962
0.856445 0.498383 0.428192
0.037720 0.535614 0.500031
0.077545 0.553162 0.522766
0.183502 0.568024 0.541718
0.296997 0.585754 0.548157
0.424622 0.593170 0.545990
0.561432 0.585236 0.496368
0.679626 0.585052 0.442810
0.784515 0.583984 0.424408
0.876556 0.586548 0.424530
0.047241 0.649384 0.558533
0.077393 0.660889 0.572174
0.197327 0.675476 0.590607
0.322876 0.691193 0.605408
0.447601 0.702789 0.603546
0.549591 0.697021 0.592194
0.668091 0.691681 0.535583
0.788635 0.688812 0.474945
0.886841 0.686951 0.442688
0.058838 0.749176 0.603058
0.092957 0.762787 0.611359
0.223907 0.777405 0.626648
0.359436 0.791931 0.643402
0.471893 0.806061 0.650879
0.566650 0.808105 0.643127
0.652588 0.799377 0.626892
0.773987 0.790558 0.569458
0.874237 0.785828 0.514832
0.071594 0.848541 0.639069
0.112518 0.860718 0.648712
0.264221 0.880798 0.663208
0.384949 0.893799 0.679413
0.482819 0.904175 0.691162
0.571075 0.906647 0.694702
0.664490 0.906097 0.686951
0.756439 0.893250 0.663025
0.847412 0.878540 0.606476
0.003815 0.037354 0.332916
0.026611 0.035065 0.344055
0.112946 0.029480 0.343323
0.214996 0.016296 0.335815
0.311279 0.025421 0.347778
0.404053 0.040924 0.383331
0.503479 0.074524 0.422668
0.612823 0.114471 0.458618
0.723999 0.151459 0.495575
0.005585 0.102295 0.330292
0.027069 0.115601 0.366028
0.081421 0.126129 0.384766
0.207886 0.120605 0.375488
0.325836 0.131744 0.385681
0.427185 0.161743 0.418335
0.532501 0.194092 0.458374
0.641083 0.226746 0.495026
0.743958 0.260010 0.522888
0.008850 0.189301 0.348938
0.031342 0.211456 0.379181
0.058411 0.238892 0.420166
0.197235 0.244568 0.427032
0.329926 0.251099 0.434601
0.453369 0.272919 0.463623
0.560181 0.306030 0.496643
0.667816 0.334015 0.522247
0.771179 0.359467 0.545898
0.037933 0.284088 0.409210
0.082489 0.313019 0.433289
0.175720 0.340912 0.461548
0.265137 0.363831 0.486664
0.343475 0.379761 0.498108
0.474426 0.397034 0.516754
0.605408 0.418243 0.533783
0.709229 0.436523 0.543182
0.813263 0.448975 0.555573
0.027740 0.403137 0.478729
0.055481 0.431305 0.509796
0.172150 0.458618 0.535095
0.277222 0.486206 0.557648
0.394714 0.503845 0.563660
0.518311 0.503876 0.551208
0.643768 0.511383 0.541656
0.755585 0.521637 0.545227
0.850189 0.526093 0.551819
0.040253 0.530945 0.562408
0.091370 0.554565 0.588470
0.193848 0.572266 0.609497
0.293060 0.592072 0.624603
0.418854 0.611084 0.632599
0.549957 0.614655 0.612488
0.670685 0.599670 0.545288
0.778900 0.602661 0.533173
0.874939 0.605072 0.531982
0.045624 0.645508 0.618011
0.071228 0.662903 0.638306
0.187439 0.675964 0.650177
0.303619 0.691528 0.663849
0.434998 0.713440 0.676514
0.554596 0.720032 0.673706
0.674011 0.710388 0.631470
0.791138 0.704102 0.572205
0.886017 0.701263 0.538788
0.053528 0.750519 0.659149
0.085419 0.765015 0.671326
0.200867 0.776917 0.684113
0.324463 0.790680 0.700104
0.449280 0.809906 0.713806
0.566895 0.819672 0.716705
0.659149 0.814453 0.704163
0.771667 0.808289 0.665009
0.879364 0.802643 0.606110
0.066467 0.849213 0.692444
0.090607 0.863556 0.707245
0.218079 0.874481 0.717010
0.356110 0.892181 0.731323
0.481415 0.906891 0.748840
0.581787 0.914703 0.753723
0.679626 0.917419 0.750000
0.767639 0.910767 0.737091
0.843567 0.897369 0.699158
0.004333 0.053101 0.430969
0.025360 0.054718 0.445862
0.107025 0.050262 0.443390
0.213013 0.036835 0.433838
0.313965 0.028992 0.439941
0.410248 0.051697 0.465851
0.508972 0.091797 0.509827
0.611206 0.138733 0.554321
0.717987 0.177460 0.588531
0.006042 0.122833 0.424744
0.027344 0.140289 0.464783
0.076752 0.150146 0.483521
0.207764 0.148834 0.478271
0.326660 0.148193 0.476257
0.430359 0.174316 0.501648
0.531952 0.207306 0.544128
0.633789 0.245361 0.586731
0.741730 0.282471 0.616425
0.009460 0.214447 0.434479
0.032288 0.240417 0.469849
0.056030 0.264130 0.516174
0.187988 0.274628 0.530975
0.322357 0.272766 0.526550
0.446838 0.291718 0.548737
0.556427 0.321442 0.584930
0.664185 0.355377 0.620636
0.770416 0.384033 0.644928
0.020844 0.306549 0.496735
0.100250 0.335449 0.522644
0.182770 0.366150 0.551208
0.255646 0.393280 0.575439
0.327698 0.405426 0.587708
0.443268 0.418732 0.600677
0.582001 0.440338 0.631897
0.697205 0.462677 0.649841
0.797089 0.476318 0.662750
0.030029 0.420135 0.539703
0.071381 0.453522 0.574371
0.196625 0.481476 0.601501
0.293365 0.508209 0.622498
0.406250 0.524689 0.634827
0.493256 0.536591 0.653534
0.600555 0.552948 0.666962
0.726593 0.559204 0.673859
0.826843 0.567749 0.671600
0.041046 0.535065 0.614594
0.091309 0.561371 0.644012
0.217072 0.583649 0.665070
0.308075 0.604004 0.681976
0.408234 0.626038 0.696350
0.524475 0.640564 0.699860
0.641785 0.634705 0.679718
0.761566 0.638306 0.669464
0.862152 0.639557 0.665924
0.050842 0.646423 0.675110
0.106598 0.664581 0.694183
0.213043 0.681061 0.713440
0.307495 0.696014 0.727234
0.414215 0.716583 0.741364
0.539673 0.734741 0.749146
0.651917 0.738831 0.739288
0.782806 0.718231 0.668854
0.886597 0.714447 0.649780
0.054810 0.752014 0.716187
0.085571 0.763794 0.731445
0.189941 0.781006 0.748322
0.310242 0.791077 0.757385
0.431000 0.810883 0.770081
0.558044 0.828735 0.781036
0.674103 0.834686 0.781036
0.783630 0.825745 0.750885
0.888031 0.817352 0.695221
0.063599 0.850250 0.749237
0.085358 0.862549 0.760681
0.190155 0.875061 0.774109
0.346588 0.891052 0.786072
0.467682 0.904694 0.797577
0.584625 0.919983 0.810242
0.689789 0.926300 0.812347
0.786163 0.925415 0.806732
0.868225 0.913910 0.772064
0.004700 0.069916 0.518005
0.025421 0.073212 0.535614
0.112701 0.072021 0.539825
0.208923 0.060974 0.532227
0.323090 0.039032 0.533203
0.419891 0.063721 0.553711
0.512909 0.102478 0.589355
0.614441 0.152771 0.633026
0.724365 0.198975 0.672211
0.006409 0.142883 0.515289
0.027771 0.161163 0.547394
0.074371 0.176331 0.577148
0.198059 0.179169 0.576538
0.322327 0.176727 0.572510
0.435120 0.192566 0.586945
0.534119 0.221130 0.621704
0.639252 0.265259 0.660156
0.743134 0.299957 0.695099
0.010437 0.237762 0.514618
0.033569 0.265015 0.554474
0.057190 0.288940 0.604065
0.175323 0.302032 0.620605
0.307770 0.300293 0.621063
0.437958 0.314117 0.628571
0.560425 0.340424 0.658142
0.662506 0.370026 0.692566
0.761414 0.400848 0.723694
0.019379 0.334747 0.571228
0.064240 0.365967 0.606873
0.160278 0.394440 0.632874
0.237823 0.419037 0.654144
0.324982 0.435638 0.671906
0.442657 0.441956 0.678406
0.564056 0.458344 0.699646
0.680725 0.479309 0.727600
0.784302 0.498230 0.752075
0.041931 0.446655 0.612610
0.129913 0.477112 0.640686
0.243378 0.503052 0.661896
0.327454 0.524902 0.679962
0.417511 0.544830 0.706818
0.483490 0.558960 0.727081
0.567474 0.572266 0.737244
0.693878 0.583618 0.761871
0.812469 0.593903 0.775269
0.045288 0.554291 0.672485
0.103973 0.580963 0.701843
0.225739 0.601593 0.721069
0.316620 0.623016 0.738586
0.414520 0.640015 0.751038
0.523712 0.658203 0.761871
0.626801 0.666077 0.771942
0.717560 0.682220 0.790436
0.842560 0.678192 0.789307
0.056274 0.655121 0.732819
0.126160 0.670685 0.748444
0.234192 0.690582 0.770935
0.327606 0.703766 0.782471
0.430267 0.723206 0.792999
0.539062 0.745483 0.806000
0.652985 0.759827 0.812042
0.766357 0.754181 0.793701
0.878662 0.751923 0.779480
0.059692 0.753632 0.771698
0.096405 0.769012 0.785675
0.228668 0.782074 0.800415
0.343903 0.795074 0.813965
0.443970 0.810089 0.823395
0.554352 0.830719 0.837036
0.674591 0.844208 0.842407
0.785522 0.851562 0.840271
0.890198 0.834442 0.784332
0.065582 0.848297 0.800262
0.091309 0.863617 0.813080
0.226807 0.875671 0.824707
0.359375 0.889587 0.838074
0.459625 0.901642 0.845917
0.566254 0.916565 0.858185
0.687500 0.932922 0.869019
0.798523 0.940308 0.869293
0.876587 0.930542 0.849548
0.005005 0.084564 0.597565
0.027344 0.088135 0.614258
0.115967 0.089233 0.622925
0.209808 0.085693 0.626343
0.320160 0.074524 0.622772
0.429016 0.070862 0.634521
0.525757 0.115479 0.670410
0.626770 0.163635 0.703491
0.720306 0.207794 0.736877
0.006989 0.163849 0.595245
0.028503 0.180847 0.635468
0.062653 0.199066 0.656372
0.194641 0.202209 0.663055
0.310425 0.201050 0.660553
0.433777 0.211121 0.666412
0.550934 0.241028 0.696533
0.640869 0.275269 0.731812
0.734680 0.314850 0.763062
0.011871 0.262238 0.597229
0.035553 0.290619 0.633575
0.058777 0.312744 0.679565
0.177643 0.326843 0.699371
0.301208 0.328735 0.700806
0.431793 0.338928 0.706055
0.554047 0.361969 0.731781
0.657104 0.386322 0.761719
0.755524 0.411987 0.787262
0.021851 0.364868 0.642029
0.047485 0.392944 0.679321
0.121063 0.422638 0.708527
0.227234 0.445709 0.730530
0.311432 0.458710 0.745911
0.427582 0.464783 0.754333
0.555664 0.476440 0.768677
0.672119 0.491608 0.790497
0.786591 0.508575 0.811920
0.121429 0.467957 0.684875
0.189240 0.497650 0.707092
0.277374 0.521973 0.729736
0.349121 0.543121 0.747803
0.420013 0.559784 0.772034
0.478149 0.578461 0.796539
0.573181 0.586426 0.807587
0.686401 0.594666 0.819366
0.811920 0.600830 0.837524
0.048035 0.576355 0.735229
0.105927 0.600708 0.761169
0.240540 0.621613 0.779388
0.339203 0.637512 0.790558
0.433563 0.654633 0.800476
0.540802 0.674377 0.815857
0.623657 0.681671 0.834656
0.705078 0.691162 0.846161
0.830017 0.698273 0.865265
0.055420 0.666595 0.783569
0.128387 0.687622 0.804596
0.250366 0.705170 0.823456
0.350006 0.719696 0.835083
0.443237 0.735352 0.841614
0.543610 0.756592 0.853455
0.654358 0.772980 0.861816
0.755402 0.779755 0.868439
0.851776 0.785919 0.885101
0.063202 0.756470 0.825531
0.130585 0.772614 0.840057
0.262421 0.783264 0.850769
0.367828 0.797546 0.864594
0.464294 0.814087 0.872070
0.564606 0.832916 0.885162
0.679169 0.850708 0.896515
0.791412 0.867676 0.900360
0.884491 0.865417 0.887543
0.068268 0.848022 0.851501
0.114746 0.862335 0.863373
0.251099 0.873260 0.874146
0.375092 0.887726 0.884186
0.475098 0.901062 0.894684
0.572784 0.915558 0.907501
0.689484 0.933502 0.919220
0.811859 0.948425 0.925446
0.897614 0.949249 0.922455
0.005432 0.100067 0.672577
0.031921 0.102539 0.689667
0.131287 0.102814 0.699158
0.215942 0.100281 0.704834
0.326843 0.091614 0.707672
0.442993 0.093262 0.720215
0.539307 0.136047 0.743378
0.630951 0.176392 0.775696
0.722076 0.214355 0.803345
0.007965 0.179810 0.675964
0.029602 0.201447 0.707733
0.053528 0.217926 0.733551
0.186279 0.227203 0.741180
0.300476 0.225464 0.739349
0.428680 0.237061 0.745636
0.545624 0.266663 0.772644
0.649231 0.292419 0.801575
0.741821 0.320251 0.823639
0.013672 0.288116 0.671906
0.037628 0.314850 0.709595
0.060730 0.336212 0.751038
0.143585 0.349426 0.773621
0.275391 0.355835 0.779663
0.407349 0.365875 0.784363
0.549194 0.380005 0.798798
0.672821 0.399811 0.825409
0.762421 0.418152 0.846283
0.025208 0.394257 0.710114
0.050568 0.423828 0.750519
0.089630 0.448456 0.779327
0.210510 0.467438 0.797607
0.310394 0.478088 0.815552
0.424347 0.486420 0.822601
0.561066 0.493622 0.833893
0.683289 0.503448 0.849670
0.784637 0.513092 0.865479
0.146271 0.492249 0.756714
0.221619 0.519440 0.776245
0.297516 0.541168 0.799561
0.361084 0.559967 0.817139
0.419434 0.578735 0.837830
0.475555 0.595795 0.856934
0.575348 0.599823 0.865509
0.693756 0.606476 0.877045
0.809540 0.609802 0.893829
0.050323 0.594574 0.794098
0.165436 0.619324 0.816315
0.274689 0.635345 0.829254
0.366974 0.650574 0.837860
0.458801 0.664856 0.845428
0.557343 0.681458 0.868561
0.624969 0.697968 0.889679
0.710938 0.703400 0.901642
0.826172 0.703613 0.914429
0.057404 0.681976 0.834656
0.131439 0.701569 0.855652
0.262848 0.718597 0.869690
0.362488 0.732544 0.878662
0.451630 0.746002 0.887512
0.551239 0.764862 0.897003
0.666046 0.783875 0.907867
0.755524 0.791351 0.922363
0.842834 0.793579 0.933868
0.063873 0.764160 0.874329
0.144318 0.779694 0.888092
0.278961 0.792297 0.898651
0.384308 0.809052 0.912537
0.474579 0.822998 0.921570
0.569305 0.840027 0.930298
0.678528 0.860016 0.940277
0.792419 0.877747 0.945435
0.881378 0.883392 0.954559
0.068909 0.845276 0.893951
0.138641 0.861145 0.907745
0.272491 0.871399 0.916840
0.386292 0.884216 0.926025
0.488007 0.899567 0.940582
0.585602 0.913544 0.948944
0.699951 0.929779 0.959381
0.816040 0.946320 0.968628
0.908051 0.954956 0.973602
