lut/retro-80s/An American Werewolf in London (1981) - Standard.cube
# Created by Benjamin (IWLTBAP): https://luts.iwltbap.com
# Copyright: (C) Copyright 2018 Triune Films and IWLTBAP SAS
# Cannot be resold, shared or otherwise redistributed
TITLE "Triune Films 80s Retro LUTs (Rec.709, sRGB, DCI-P3)"
LUT_3D_SIZE 9
0.000000 0.000000 0.000000
0.094543 0.008698 0.001312
0.199554 0.021667 0.008240
0.300232 0.036743 0.015259
0.389374 0.054077 0.019165
0.475647 0.073395 0.023285
0.562866 0.094849 0.028473
0.652557 0.117218 0.033569
0.742462 0.139221 0.038483
0.005310 0.053772 0.004791
0.097687 0.075623 0.004059
0.209839 0.095886 0.005157
0.323883 0.111053 0.011658
0.432922 0.128448 0.023010
0.535706 0.148926 0.033295
0.634857 0.170868 0.040131
0.730469 0.192627 0.045319
0.823120 0.213470 0.050354
0.024048 0.120941 0.003510
0.106750 0.144043 0.004852
0.217529 0.178864 0.005127
0.339478 0.206970 0.011383
0.460754 0.224548 0.024353
0.574921 0.240753 0.038574
0.680542 0.259033 0.048584
0.778870 0.277527 0.055481
0.872437 0.295441 0.059937
0.048279 0.199005 0.001373
0.120453 0.221130 0.006226
0.227020 0.254486 0.006287
0.347595 0.299011 0.013153
0.474548 0.333374 0.023987
0.596893 0.353851 0.033386
0.710114 0.366943 0.043365
0.814545 0.379425 0.052856
0.912170 0.392822 0.059235
0.057526 0.285828 0.002441
0.116028 0.310089 0.012695
0.235565 0.337219 0.008667
0.354736 0.379456 0.014954
0.480499 0.429199 0.027222
0.603973 0.466888 0.033020
0.721924 0.486420 0.034485
0.836426 0.498566 0.035461
0.943848 0.506989 0.043213
0.049500 0.378052 0.013611
0.099731 0.404510 0.031738
0.231293 0.427521 0.020050
0.360687 0.465454 0.022461
0.487518 0.513672 0.034760
0.608246 0.565002 0.041656
0.725067 0.602875 0.035278
0.842804 0.620911 0.029205
0.961517 0.631287 0.024475
0.036163 0.471710 0.043732
0.087616 0.498596 0.064392
0.208160 0.522522 0.050781
0.356720 0.560577 0.045135
0.492859 0.604218 0.050903
0.613800 0.653015 0.056519
0.726959 0.701965 0.049316
0.843719 0.738464 0.032990
0.965118 0.755066 0.021667
0.031189 0.572418 0.087402
0.080597 0.600342 0.107086
0.165558 0.619904 0.098877
0.332977 0.659119 0.077789
0.486481 0.701111 0.075012
0.616791 0.743439 0.074860
0.730377 0.789886 0.068695
0.842590 0.836182 0.051697
0.962555 0.870392 0.030304
0.037201 0.682495 0.134125
0.098541 0.692535 0.145813
0.184875 0.708984 0.162598
0.335236 0.753235 0.124115
0.490662 0.794708 0.116455
0.627258 0.830811 0.115692
0.741425 0.869476 0.118134
0.845642 0.910522 0.121552
0.949615 0.947937 0.132507
0.002136 0.002502 0.047821
0.105103 0.014618 0.064484
0.215759 0.028595 0.075592
0.322144 0.043488 0.080505
0.417938 0.058777 0.078827
0.510101 0.078613 0.076111
0.605896 0.101532 0.075134
0.705109 0.124664 0.075867
0.804535 0.146149 0.079071
0.003143 0.066498 0.065155
0.096497 0.082520 0.076965
0.211975 0.103149 0.088165
0.328247 0.119537 0.096436
0.439117 0.134460 0.103577
0.544708 0.152435 0.106873
0.646637 0.173615 0.106812
0.745911 0.195801 0.106049
0.843658 0.216370 0.106323
0.011108 0.133362 0.075592
0.092072 0.154541 0.086060
0.212921 0.190857 0.099731
0.341614 0.219727 0.112335
0.461517 0.232574 0.121948
0.576141 0.245789 0.130524
0.683014 0.262207 0.134888
0.782349 0.280090 0.135071
0.877594 0.297424 0.133118
0.029114 0.209595 0.077789
0.098999 0.231964 0.088409
0.215424 0.267914 0.098785
0.346161 0.313538 0.114746
0.475159 0.344269 0.126465
0.598022 0.360291 0.133881
0.711975 0.370483 0.140472
0.816193 0.381775 0.144897
0.913177 0.394440 0.145874
0.049225 0.295380 0.076965
0.107361 0.319336 0.092468
0.228088 0.348755 0.095612
0.354218 0.392792 0.110748
0.482239 0.440247 0.126160
0.606018 0.473907 0.133270
0.724640 0.490570 0.135040
0.839020 0.500946 0.135254
0.945831 0.508545 0.138702
0.058075 0.386627 0.084961
0.108459 0.412445 0.106781
0.235779 0.437195 0.100830
0.365631 0.476807 0.110260
0.492188 0.523804 0.125549
0.611847 0.572144 0.135345
0.728210 0.607452 0.133667
0.845825 0.624054 0.129547
0.964294 0.633881 0.124725
0.051483 0.479462 0.110199
0.102631 0.506134 0.132324
0.219543 0.530640 0.123383
0.365601 0.569427 0.122650
0.500031 0.612305 0.131134
0.619293 0.659607 0.140076
0.731110 0.706940 0.139160
0.846954 0.742218 0.129211
0.968262 0.758423 0.119934
0.042786 0.579865 0.147949
0.091980 0.607544 0.168304
0.176880 0.627075 0.163116
0.342316 0.666046 0.146210
0.494354 0.707275 0.145630
0.623413 0.748993 0.148560
0.735626 0.794922 0.148010
0.846619 0.840546 0.137787
0.966217 0.874207 0.121735
0.041504 0.689056 0.188782
0.112518 0.697601 0.201904
0.206116 0.716644 0.223328
0.353271 0.759521 0.189301
0.505951 0.799438 0.183990
0.639771 0.835175 0.187073
0.751068 0.873840 0.196228
0.852264 0.914124 0.209442
0.953064 0.950012 0.235443
0.002991 0.008881 0.096069
0.102173 0.022888 0.130707
0.218842 0.039703 0.153748
0.332184 0.055389 0.161346
0.430084 0.069092 0.156097
0.519775 0.084778 0.147583
0.609558 0.105743 0.140686
0.703918 0.128906 0.137543
0.801056 0.150879 0.139038
0.004364 0.081757 0.123596
0.092834 0.096802 0.148590
0.210144 0.114777 0.168121
0.330505 0.131378 0.179993
0.442627 0.143616 0.185577
0.548126 0.157104 0.186096
0.646912 0.176331 0.182739
0.742432 0.199371 0.179382
0.837708 0.221405 0.177277
0.004364 0.155182 0.147156
0.074402 0.172241 0.166229
0.191345 0.193909 0.185394
0.329987 0.223083 0.208344
0.454498 0.238251 0.218323
0.570953 0.249908 0.223572
0.678101 0.264282 0.224915
0.775970 0.282410 0.223022
0.869537 0.300964 0.218903
0.011322 0.229248 0.165741
0.067780 0.248932 0.182312
0.180969 0.275513 0.199036
0.329865 0.321106 0.223724
0.469971 0.353790 0.238281
0.593842 0.365784 0.243561
0.707336 0.373169 0.247101
0.810486 0.383270 0.248444
0.905945 0.395477 0.246399
0.030182 0.310089 0.175171
0.078888 0.333740 0.196411
0.193115 0.357239 0.202484
0.333069 0.402893 0.222656
0.474365 0.450500 0.239075
0.603088 0.482422 0.247223
0.723633 0.495667 0.250031
0.837372 0.501862 0.251465
0.942108 0.507751 0.252777
0.053101 0.396973 0.180939
0.099518 0.423462 0.207062
0.215149 0.444824 0.204803
0.348816 0.487213 0.218964
0.483826 0.535706 0.234558
0.609070 0.581421 0.246155
0.727692 0.612854 0.250488
0.845947 0.625977 0.250580
0.963898 0.633575 0.249146
0.064301 0.488281 0.196045
0.113617 0.516144 0.221039
0.218811 0.537781 0.217072
0.359741 0.577545 0.221191
0.496063 0.621735 0.231720
0.618561 0.667603 0.243591
0.731537 0.711792 0.251373
0.847076 0.744019 0.251495
0.967804 0.758240 0.248688
0.061829 0.587891 0.224640
0.111145 0.616364 0.247009
0.191193 0.634766 0.246429
0.347443 0.670959 0.234924
0.496948 0.712097 0.237122
0.626648 0.753296 0.244476
0.738129 0.797729 0.252686
0.847198 0.841431 0.254883
0.965454 0.873871 0.250671
0.054596 0.695068 0.258972
0.133026 0.705994 0.276917
0.223846 0.725800 0.303192
0.363922 0.762787 0.273224
0.513397 0.801605 0.269592
0.645935 0.837372 0.275299
0.755432 0.876099 0.290375
0.854431 0.916168 0.311798
0.954224 0.952087 0.347321
0.003998 0.017639 0.144196
0.083038 0.033386 0.188202
0.198578 0.051788 0.226685
0.326050 0.069580 0.246796
0.439117 0.081879 0.248199
0.534821 0.093994 0.235077
0.619476 0.112061 0.218109
0.704865 0.135101 0.208008
0.794952 0.159424 0.204834
0.009979 0.095856 0.180084
0.085236 0.109924 0.212341
0.198578 0.126831 0.242462
0.327240 0.144043 0.262848
0.446655 0.155426 0.269867
0.553650 0.164581 0.264740
0.648712 0.179840 0.256134
0.737396 0.203094 0.251099
0.826019 0.229187 0.248901
0.006256 0.181641 0.216217
0.066406 0.196320 0.239990
0.176544 0.211945 0.265015
0.315094 0.232422 0.286926
0.445648 0.246948 0.297150
0.562653 0.255432 0.298462
0.668945 0.266479 0.299622
0.763672 0.284485 0.299591
0.853363 0.306335 0.297638
0.003204 0.263855 0.249756
0.047241 0.280701 0.268951
0.144623 0.294983 0.287689
0.292816 0.322144 0.311951
0.450867 0.353821 0.334045
0.579773 0.366730 0.338287
0.693634 0.375427 0.340607
0.795959 0.385529 0.341827
0.890198 0.398224 0.340057
0.011078 0.338531 0.273926
0.049713 0.362579 0.297089
0.141541 0.373505 0.304993
0.286163 0.408173 0.328278
0.452301 0.455505 0.348846
0.595703 0.487854 0.359711
0.718719 0.499298 0.363403
0.830170 0.503662 0.363953
0.932465 0.508911 0.363556
0.032288 0.418854 0.288086
0.072845 0.447327 0.315033
0.167267 0.458435 0.314789
0.302155 0.493713 0.330780
0.456238 0.542816 0.347229
0.599304 0.586975 0.358398
0.724915 0.616577 0.366913
0.844910 0.628876 0.369934
0.962219 0.634155 0.370117
0.059692 0.506866 0.297455
0.104584 0.536285 0.323761
0.192902 0.550385 0.321960
0.326233 0.583923 0.328217
0.471130 0.628998 0.340057
0.608032 0.674896 0.351654
0.729187 0.715607 0.363403
0.846619 0.746063 0.370758
0.968140 0.759888 0.371796
0.076691 0.603241 0.313080
0.124237 0.632050 0.336792
0.194977 0.647949 0.339142
0.337158 0.676483 0.331116
0.485565 0.717346 0.335999
0.621002 0.759552 0.344788
0.737396 0.802490 0.357361
0.847412 0.843689 0.368011
0.965790 0.875763 0.372375
0.079742 0.705475 0.335632
0.153015 0.717987 0.358002
0.230988 0.736908 0.388611
0.369568 0.767548 0.360931
0.515198 0.804413 0.359711
0.645996 0.841248 0.368408
0.756317 0.879547 0.387543
0.855988 0.917328 0.416199
0.954102 0.948853 0.460846
0.007233 0.028259 0.192383
0.065948 0.045380 0.237427
0.162994 0.062897 0.284363
0.294434 0.081573 0.318451
0.425262 0.096497 0.332642
0.537964 0.106049 0.328064
0.631287 0.117920 0.308960
0.710754 0.139374 0.287018
0.788574 0.167450 0.276306
0.020813 0.108948 0.237152
0.079468 0.122864 0.269592
0.176422 0.136780 0.305969
0.306030 0.153931 0.335480
0.437286 0.167755 0.350403
0.554565 0.175323 0.348969
0.653961 0.184692 0.335907
0.736481 0.205200 0.321167
0.813141 0.234680 0.315521
0.014282 0.201477 0.279449
0.066986 0.214905 0.304413
0.166260 0.225006 0.332642
0.302094 0.242035 0.359711
0.439758 0.257233 0.374725
0.562012 0.264465 0.374908
0.666412 0.271027 0.367554
0.753998 0.286102 0.360901
0.835449 0.309235 0.360535
0.003571 0.295380 0.322174
0.044708 0.311951 0.343567
0.134735 0.319672 0.364960
0.276855 0.339722 0.392883
0.432251 0.361176 0.409607
0.567413 0.373657 0.410431
0.678467 0.380157 0.407379
0.776276 0.388153 0.410339
0.866394 0.399994 0.412720
0.002380 0.379578 0.360107
0.036987 0.406525 0.386230
0.115265 0.407776 0.395691
0.249176 0.431000 0.421875
0.415253 0.461853 0.441406
0.578522 0.491119 0.456238
0.703217 0.501587 0.457611
0.810486 0.507233 0.459778
0.908875 0.511841 0.461334
0.011993 0.456329 0.386841
0.048065 0.486267 0.413940
0.122040 0.488983 0.417084
0.248505 0.513519 0.437195
0.410858 0.552094 0.457611
0.579407 0.593903 0.470520
0.718628 0.621063 0.481537
0.839691 0.631134 0.487213
0.950806 0.633972 0.487671
0.037628 0.538269 0.403503
0.077484 0.567322 0.429474
0.149139 0.574768 0.430634
0.272736 0.597504 0.440002
0.424561 0.635834 0.455597
0.583710 0.680817 0.467743
0.721680 0.718781 0.478638
0.843750 0.745789 0.489380
0.964905 0.758240 0.493774
0.071411 0.627106 0.414154
0.115875 0.654541 0.438507
0.177063 0.667572 0.443848
0.303223 0.685089 0.438354
0.450531 0.720795 0.447144
0.599457 0.762939 0.457245
0.729828 0.804626 0.469482
0.845459 0.841827 0.483063
0.963318 0.871674 0.492950
0.098969 0.720703 0.424927
0.156982 0.732941 0.450470
0.217407 0.749176 0.482574
0.351105 0.773163 0.460449
0.494293 0.807434 0.464447
0.631042 0.844360 0.476196
0.750122 0.882874 0.497284
0.854858 0.918732 0.528564
0.952545 0.947754 0.577820
0.013123 0.039886 0.242523
0.063477 0.060120 0.288818
0.135162 0.076416 0.335815
0.249817 0.093231 0.381042
0.389984 0.109009 0.407318
0.521088 0.120819 0.413361
0.629761 0.129425 0.401031
0.717804 0.142761 0.377289
0.790680 0.167633 0.355408
0.033844 0.122528 0.295319
0.082611 0.137268 0.326263
0.156586 0.149384 0.365936
0.270752 0.163666 0.404175
0.409515 0.178558 0.427216
0.541260 0.189056 0.432526
0.651733 0.195892 0.422241
0.740417 0.208557 0.403168
0.812805 0.233337 0.386414
0.027283 0.216125 0.340607
0.076294 0.230255 0.366669
0.159882 0.237122 0.398163
0.280334 0.249451 0.430206
0.421265 0.264984 0.450256
0.553894 0.275177 0.454742
0.665131 0.280426 0.447205
0.755676 0.289612 0.434052
0.830933 0.308075 0.421417
0.008972 0.316498 0.387268
0.051086 0.334778 0.412018
0.138702 0.337891 0.435699
0.268402 0.351379 0.465698
0.421051 0.369873 0.486053
0.563080 0.382935 0.490417
0.677795 0.388336 0.484863
0.771088 0.392456 0.476471
0.851105 0.400360 0.467957
0.001587 0.415253 0.435547
0.035889 0.445374 0.464844
0.114899 0.441406 0.475281
0.240173 0.457275 0.503204
0.400787 0.481567 0.527283
0.562195 0.501862 0.535126
0.690582 0.511932 0.531982
0.789703 0.515442 0.528595
0.879639 0.516846 0.530792
0.002625 0.502960 0.475067
0.036987 0.532440 0.502350
0.103760 0.532318 0.507019
0.221893 0.547729 0.529083
0.377777 0.577057 0.555908
0.551361 0.607300 0.570801
0.706421 0.629700 0.584686
0.821991 0.637207 0.587067
0.923370 0.640167 0.589355
0.014954 0.578430 0.500366
0.052094 0.606049 0.526001
0.111664 0.610565 0.528961
0.226227 0.622803 0.540985
0.377106 0.654083 0.565582
0.549500 0.692352 0.585510
0.708252 0.727448 0.597168
0.837799 0.750061 0.607819
0.957733 0.759521 0.613739
0.046539 0.656372 0.516663
0.087646 0.681549 0.540985
0.140839 0.693085 0.549377
0.254761 0.699768 0.546265
0.399689 0.730682 0.563324
0.562561 0.769714 0.580780
0.713379 0.810028 0.593353
0.839813 0.843811 0.604004
0.958435 0.869598 0.613556
0.090546 0.739563 0.526428
0.133789 0.750244 0.549805
0.188171 0.763489 0.575684
0.310730 0.780090 0.565277
0.451935 0.813629 0.578857
0.601471 0.850525 0.596802
0.736572 0.888947 0.618683
0.850769 0.924255 0.647552
0.949951 0.951660 0.693909
0.020721 0.051971 0.295013
0.072418 0.076599 0.348846
0.125732 0.092499 0.390747
0.213287 0.107880 0.443237
0.344543 0.120911 0.480103
0.489044 0.134308 0.493164
0.614716 0.144867 0.488922
0.715088 0.154053 0.469452
0.794983 0.169891 0.442566
0.048096 0.136932 0.355835
0.093628 0.152954 0.386230
0.148224 0.165039 0.426788
0.235901 0.176910 0.473816
0.367859 0.188965 0.505585
0.512939 0.202026 0.516022
0.638550 0.211334 0.511017
0.737549 0.219757 0.492889
0.816711 0.235291 0.468201
0.046936 0.229553 0.403870
0.093170 0.244965 0.431488
0.160522 0.250763 0.465637
0.254669 0.259583 0.503540
0.386566 0.272308 0.529114
0.530670 0.285828 0.538208
0.654785 0.293945 0.534088
0.753357 0.299683 0.519409
0.834442 0.309937 0.498169
0.024109 0.331146 0.453491
0.066925 0.351990 0.481567
0.149811 0.351990 0.506470
0.259094 0.360657 0.537811
0.399231 0.375580 0.560822
0.547638 0.390259 0.569702
0.671875 0.397858 0.567108
0.770142 0.400299 0.556702
0.853180 0.403076 0.540649
0.007355 0.438293 0.504303
0.043304 0.468262 0.534393
0.124207 0.463287 0.545746
0.240265 0.473541 0.572906
0.389435 0.492401 0.599060
0.552612 0.510956 0.613312
0.688354 0.520874 0.614258
0.789795 0.523254 0.608154
0.873291 0.522278 0.598297
0.002686 0.539703 0.552948
0.039307 0.568207 0.580475
0.105865 0.566925 0.583405
0.218323 0.576538 0.603302
0.366211 0.599792 0.633209
0.540405 0.627045 0.657410
0.696045 0.644653 0.665161
0.809082 0.652283 0.663513
0.895782 0.653595 0.660461
0.008606 0.622589 0.589844
0.050690 0.648346 0.615387
0.107056 0.651672 0.616608
0.210297 0.657043 0.624634
0.351562 0.681458 0.652588
0.525238 0.716492 0.683685
0.693207 0.744568 0.699554
0.828766 0.761932 0.713409
0.935211 0.767914 0.716400
0.029083 0.691437 0.611938
0.074982 0.714233 0.635376
0.126282 0.724976 0.644592
0.220673 0.723389 0.638000
0.354858 0.747467 0.659607
0.524567 0.786133 0.690308
0.692871 0.822479 0.711243
0.831604 0.853149 0.723083
0.951080 0.874054 0.731445
0.062439 0.761688 0.626617
0.109650 0.770569 0.641846
0.171875 0.781128 0.657288
0.271942 0.791718 0.656097
0.407043 0.822327 0.677643
0.568481 0.861938 0.705780
0.721405 0.899567 0.731232
0.847076 0.933960 0.756561
0.949310 0.961792 0.794342
0.030396 0.065369 0.350891
0.085297 0.094482 0.416473
0.129272 0.108704 0.454041
0.195618 0.123169 0.508057
0.307739 0.133118 0.552155
0.453674 0.145660 0.569794
0.592957 0.159241 0.569885
0.705048 0.169769 0.558350
0.793365 0.180634 0.534607
0.062927 0.152130 0.419617
0.106293 0.169525 0.452850
0.149414 0.180786 0.491882
0.214355 0.191895 0.543457
0.327667 0.200256 0.582428
0.476868 0.213013 0.597137
0.617798 0.226044 0.595703
0.728333 0.235474 0.583099
0.815460 0.245392 0.559265
0.070709 0.242859 0.471252
0.113800 0.259857 0.500549
0.165649 0.264893 0.533234
0.234497 0.272766 0.575317
0.346649 0.282104 0.607361
0.493896 0.295715 0.621094
0.633850 0.307343 0.620239
0.744141 0.314178 0.609375
0.832764 0.319763 0.588379
0.051727 0.343750 0.524933
0.092468 0.367859 0.555817
0.164154 0.364868 0.577240
0.250183 0.371307 0.608734
0.369720 0.383148 0.634583
0.517609 0.397675 0.647980
0.654968 0.407867 0.649292
0.763214 0.411652 0.642426
0.851837 0.412109 0.627136
0.025238 0.452911 0.574310
0.063660 0.482361 0.604370
0.140533 0.477478 0.614197
0.242981 0.484222 0.638519
0.375275 0.499664 0.664734
0.534210 0.516815 0.683319
0.678558 0.527435 0.689423
0.787628 0.530731 0.686523
0.874115 0.529297 0.676819
0.013306 0.561951 0.623657
0.056732 0.589630 0.651031
0.121979 0.588074 0.651733
0.224548 0.593292 0.666473
0.360626 0.612335 0.694885
0.530243 0.637115 0.723297
0.691406 0.653564 0.737701
0.810791 0.660431 0.739471
0.897980 0.661377 0.734467
0.024689 0.656372 0.669342
0.077942 0.680267 0.693542
0.132050 0.683075 0.693359
0.217346 0.683929 0.693970
0.343719 0.703857 0.718842
0.513458 0.736572 0.754211
0.688232 0.763824 0.778412
0.824341 0.779114 0.786163
0.919525 0.786102 0.784973
0.050323 0.729279 0.700195
0.106506 0.749390 0.721588
0.158539 0.760773 0.732147
0.223572 0.755096 0.717834
0.335022 0.773804 0.734985
0.498474 0.809418 0.769409
0.678345 0.845276 0.799103
0.826202 0.870483 0.813354
0.942017 0.886322 0.827759
0.074188 0.789307 0.717194
0.125549 0.795807 0.724243
0.184814 0.804779 0.731812
0.259705 0.813416 0.732941
0.378235 0.839813 0.754517
0.543213 0.878601 0.787231
0.713318 0.917725 0.817596
0.850647 0.949158 0.839966
0.954803 0.977020 0.868652
0.040680 0.078766 0.406921
0.098541 0.113159 0.490967
0.137115 0.124176 0.526367
0.191528 0.136505 0.576874
0.287018 0.143677 0.621033
0.425690 0.154968 0.641754
0.572266 0.170776 0.643555
0.694244 0.184326 0.637695
0.787659 0.195831 0.623108
0.075439 0.167572 0.487823
0.117584 0.187347 0.527832
0.153473 0.195618 0.562927
0.205444 0.205566 0.612213
0.300934 0.211670 0.653381
0.443878 0.223328 0.671814
0.595062 0.238434 0.672180
0.717010 0.250549 0.664795
0.809296 0.260956 0.649628
0.092651 0.256012 0.542816
0.133606 0.275635 0.574432
0.171234 0.278076 0.601471
0.222504 0.286743 0.643463
0.313690 0.294617 0.679626
0.453369 0.306519 0.698578
0.605499 0.319427 0.700226
0.730286 0.328583 0.693573
0.825623 0.335297 0.681000
0.085876 0.355499 0.599670
0.122528 0.382294 0.630585
0.178558 0.376892 0.646759
0.243622 0.383240 0.676514
0.340698 0.393829 0.704620
0.478912 0.407074 0.723389
0.627472 0.417725 0.728180
0.750458 0.423553 0.725311
0.845856 0.426361 0.718079
0.056824 0.464600 0.648468
0.094269 0.492096 0.674072
0.163116 0.488922 0.683777
0.247162 0.493408 0.703094
0.359741 0.507294 0.728180
0.507660 0.523743 0.750244
0.659058 0.534149 0.760712
0.780304 0.538666 0.762329
0.872253 0.539948 0.758972
0.038391 0.575165 0.692932
0.085663 0.600281 0.714966
0.149414 0.601410 0.718262
0.235657 0.603027 0.726593
0.357147 0.619934 0.751892
0.517517 0.643524 0.781250
0.681213 0.658997 0.799866
0.809143 0.665497 0.806335
0.900513 0.667572 0.805298
0.055786 0.677094 0.738251
0.111420 0.697327 0.756195
0.163422 0.700745 0.756256
0.232178 0.701691 0.755768
0.342590 0.718536 0.775513
0.504333 0.748596 0.809357
0.681976 0.774261 0.837402
0.826050 0.788177 0.850647
0.924927 0.794556 0.852142
0.093323 0.758820 0.775757
0.146912 0.774109 0.791016
0.191254 0.779266 0.792358
0.245667 0.784332 0.790802
0.332581 0.800171 0.801392
0.481628 0.831055 0.830841
0.666992 0.865601 0.864136
0.827606 0.890686 0.884827
0.939209 0.904602 0.890228
0.122681 0.821960 0.802948
0.164795 0.825897 0.804077
0.212799 0.832947 0.805939
0.272644 0.844299 0.808777
0.370728 0.866943 0.823883
0.530365 0.902344 0.853760
0.713898 0.940582 0.885590
0.863220 0.970123 0.906189
0.969452 0.991638 0.920319
