lut/retro-80s/An American Werewolf in London (1981) - Standard.cube
# Created by Benjamin (IWLTBAP): https://luts.iwltbap.com
# Copyright: (C) Copyright 2018 Triune Films and IWLTBAP SAS
# Cannot be resold, shared or otherwise redistributed
TITLE "Triune Films 80s Retro LUTs (Rec.709, sRGB, DCI-P3)"
LUT_3D_SIZE 5
0.000000 0.000000 0.000000
0.199554 0.021667 0.008240
0.389374 0.054077 0.019165
0.562866 0.094849 0.028473
0.742462 0.139221 0.038483
0.024048 0.120941 0.003510
0.217529 0.178864 0.005127
0.460754 0.224548 0.024353
0.680542 0.259033 0.048584
0.872437 0.295441 0.059937
0.057526 0.285828 0.002441
0.235565 0.337219 0.008667
0.480499 0.429199 0.027222
0.721924 0.486420 0.034485
0.943848 0.506989 0.043213
0.036163 0.471710 0.043732
0.208160 0.522522 0.050781
0.492859 0.604218 0.050903
0.726959 0.701965 0.049316
0.965118 0.755066 0.021667
0.037201 0.682495 0.134125
0.184875 0.708984 0.162598
0.490662 0.794708 0.116455
0.741425 0.869476 0.118134
0.949615 0.947937 0.132507
0.002991 0.008881 0.096069
0.218842 0.039703 0.153748
0.430084 0.069092 0.156097
0.609558 0.105743 0.140686
0.801056 0.150879 0.139038
0.004364 0.155182 0.147156
0.191345 0.193909 0.185394
0.454498 0.238251 0.218323
0.678101 0.264282 0.224915
0.869537 0.300964 0.218903
0.030182 0.310089 0.175171
0.193115 0.357239 0.202484
0.474365 0.450500 0.239075
0.723633 0.495667 0.250031
0.942108 0.507751 0.252777
0.064301 0.488281 0.196045
0.218811 0.537781 0.217072
0.496063 0.621735 0.231720
0.731537 0.711792 0.251373
0.967804 0.758240 0.248688
0.054596 0.695068 0.258972
0.223846 0.725800 0.303192
0.513397 0.801605 0.269592
0.755432 0.876099 0.290375
0.954224 0.952087 0.347321
0.007233 0.028259 0.192383
0.162994 0.062897 0.284363
0.425262 0.096497 0.332642
0.631287 0.117920 0.308960
0.788574 0.167450 0.276306
0.014282 0.201477 0.279449
0.166260 0.225006 0.332642
0.439758 0.257233 0.374725
0.666412 0.271027 0.367554
0.835449 0.309235 0.360535
0.002380 0.379578 0.360107
0.115265 0.407776 0.395691
0.415253 0.461853 0.441406
0.703217 0.501587 0.457611
0.908875 0.511841 0.461334
0.037628 0.538269 0.403503
0.149139 0.574768 0.430634
0.424561 0.635834 0.455597
0.721680 0.718781 0.478638
0.964905 0.758240 0.493774
0.098969 0.720703 0.424927
0.217407 0.749176 0.482574
0.494293 0.807434 0.464447
0.750122 0.882874 0.497284
0.952545 0.947754 0.577820
0.020721 0.051971 0.295013
0.125732 0.092499 0.390747
0.344543 0.120911 0.480103
0.614716 0.144867 0.488922
0.794983 0.169891 0.442566
0.046936 0.229553 0.403870
0.160522 0.250763 0.465637
0.386566 0.272308 0.529114
0.654785 0.293945 0.534088
0.834442 0.309937 0.498169
0.007355 0.438293 0.504303
0.124207 0.463287 0.545746
0.389435 0.492401 0.599060
0.688354 0.520874 0.614258
0.873291 0.522278 0.598297
0.008606 0.622589 0.589844
0.107056 0.651672 0.616608
0.351562 0.681458 0.652588
0.693207 0.744568 0.699554
0.935211 0.767914 0.716400
0.062439 0.761688 0.626617
0.171875 0.781128 0.657288
0.407043 0.822327 0.677643
0.721405 0.899567 0.731232
0.949310 0.961792 0.794342
0.040680 0.078766 0.406921
0.137115 0.124176 0.526367
0.287018 0.143677 0.621033
0.572266 0.170776 0.643555
0.787659 0.195831 0.623108
0.092651 0.256012 0.542816
0.171234 0.278076 0.601471
0.313690 0.294617 0.679626
0.605499 0.319427 0.700226
0.825623 0.335297 0.681000
0.056824 0.464600 0.648468
0.163116 0.488922 0.683777
0.359741 0.507294 0.728180
0.659058 0.534149 0.760712
0.872253 0.539948 0.758972
0.055786 0.677094 0.738251
0.163422 0.700745 0.756256
0.342590 0.718536 0.775513
0.681976 0.774261 0.837402
0.924927 0.794556 0.852142
0.122681 0.821960 0.802948
0.212799 0.832947 0.805939
0.370728 0.866943 0.823883
0.713898 0.940582 0.885590
0.969452 0.991638 0.920319
