lut/retro-80s/An American Werewolf in London (1981) - Standard.cube
# Created by Benjamin (IWLTBAP): https://luts.iwltbap.com
# Copyright: (C) Copyright 2018 Triune Films and IWLTBAP SAS
# Cannot be resold, shared or otherwise redistributed
TITLE "Triune Films 80s Retro LUTs (Rec.709, sRGB, DCI-P3)"
LUT_3D_SIZE 33
0.000000 0.000000 0.000000
0.020813 0.000488 0.000122
0.043976 0.002869 0.000183
0.069458 0.005768 0.000549
0.094543 0.008698 0.001312
0.120270 0.011688 0.002563
0.146973 0.014557 0.004272
0.173981 0.017914 0.006409
0.199554 0.021667 0.008240
0.226166 0.025146 0.010345
0.251740 0.028961 0.012268
0.275970 0.032745 0.013580
0.300232 0.036743 0.015259
0.323547 0.040955 0.016510
0.346344 0.045135 0.017456
0.368530 0.049500 0.018341
0.389374 0.054077 0.019165
0.411316 0.058685 0.020203
0.432739 0.063324 0.021027
0.453888 0.068268 0.021973
0.475647 0.073395 0.023285
0.497528 0.078644 0.024628
0.518921 0.083984 0.025818
0.541046 0.089386 0.027130
0.562866 0.094849 0.028473
0.585297 0.100494 0.029572
0.607697 0.106049 0.031006
0.630096 0.111633 0.032318
0.652557 0.117218 0.033569
0.675323 0.122711 0.034760
0.697662 0.128265 0.036041
0.720337 0.133759 0.037201
0.742462 0.139221 0.038483
0.000122 0.010773 0.000305
0.021637 0.014160 0.000671
0.045502 0.017822 0.000977
0.069763 0.020905 0.001404
0.094635 0.024139 0.001862
0.120972 0.027618 0.002563
0.147003 0.031189 0.003937
0.174042 0.034668 0.005707
0.201111 0.038666 0.007050
0.227753 0.042328 0.009094
0.253876 0.046387 0.010712
0.279510 0.050232 0.012482
0.304596 0.054321 0.013824
0.329407 0.058289 0.015656
0.354462 0.062683 0.017120
0.377899 0.067230 0.018341
0.401062 0.071625 0.019806
0.424042 0.076355 0.021332
0.446991 0.081299 0.022644
0.469299 0.086304 0.023956
0.492279 0.091583 0.025452
0.515015 0.096954 0.026886
0.537537 0.102417 0.028381
0.560638 0.107941 0.029907
0.583374 0.113525 0.031189
0.606384 0.119080 0.032501
0.629211 0.124573 0.033783
0.652344 0.130280 0.035065
0.675110 0.135864 0.036377
0.698090 0.141357 0.037537
0.720520 0.146881 0.038666
0.743225 0.152252 0.039978
0.765625 0.157593 0.041290
0.000885 0.024750 0.002075
0.021637 0.028778 0.002594
0.045746 0.032745 0.002655
0.070465 0.037048 0.002655
0.096039 0.040955 0.002899
0.122162 0.044800 0.003052
0.149384 0.048645 0.004059
0.177094 0.052246 0.004883
0.205078 0.056091 0.006226
0.232208 0.059937 0.007812
0.260254 0.063965 0.009735
0.286621 0.068085 0.011475
0.313660 0.072021 0.013519
0.339569 0.076172 0.015472
0.364716 0.080597 0.017181
0.389374 0.084991 0.018982
0.414001 0.089569 0.020935
0.438141 0.094513 0.023010
0.462036 0.099579 0.024719
0.485718 0.104736 0.026459
0.509247 0.110046 0.027924
0.532776 0.115479 0.029449
0.556396 0.121094 0.031189
0.579803 0.126678 0.032745
0.603271 0.132263 0.034149
0.626831 0.137848 0.035370
0.650269 0.143433 0.036652
0.673340 0.148956 0.037994
0.696564 0.154449 0.039124
0.719666 0.160004 0.040253
0.742554 0.165436 0.041626
0.765228 0.170807 0.042938
0.787903 0.176056 0.044250
0.002686 0.039032 0.003876
0.022888 0.043304 0.004120
0.046631 0.048187 0.004028
0.071075 0.053131 0.003601
0.097076 0.058441 0.003510
0.123810 0.063110 0.003571
0.151276 0.067383 0.003967
0.179230 0.071106 0.004486
0.207336 0.075104 0.005585
0.235657 0.078735 0.006805
0.263733 0.082672 0.008148
0.291718 0.086609 0.010345
0.319031 0.090698 0.012421
0.346161 0.094879 0.014618
0.372620 0.099274 0.017090
0.398743 0.103729 0.019745
0.424072 0.108459 0.021912
0.449493 0.113403 0.024567
0.474426 0.118500 0.026703
0.498871 0.123779 0.028748
0.523590 0.129028 0.030579
0.547760 0.134521 0.032318
0.572144 0.140106 0.034180
0.596191 0.145630 0.035675
0.620361 0.151276 0.037170
0.644226 0.156891 0.038391
0.667908 0.162415 0.039764
0.691620 0.167938 0.040955
0.715027 0.173370 0.042175
0.738159 0.178772 0.043488
0.761139 0.184082 0.044739
0.784119 0.189392 0.045898
0.806885 0.194641 0.047211
0.005310 0.053772 0.004791
0.023895 0.058655 0.005341
0.047241 0.063904 0.005249
0.072113 0.069550 0.004425
0.097687 0.075623 0.004059
0.124878 0.081604 0.003876
0.152924 0.086700 0.003784
0.181152 0.091461 0.004272
0.209839 0.095886 0.005157
0.238495 0.099701 0.006226
0.267029 0.103485 0.007690
0.295532 0.107117 0.009399
0.323883 0.111053 0.011658
0.351868 0.115021 0.014160
0.379181 0.119385 0.016998
0.406403 0.123810 0.020111
0.432922 0.128448 0.023010
0.459045 0.133362 0.025909
0.484985 0.138367 0.028625
0.510498 0.143616 0.031067
0.535706 0.148926 0.033295
0.560852 0.154358 0.035217
0.585724 0.159821 0.037018
0.610321 0.165283 0.038513
0.634857 0.170868 0.040131
0.659119 0.176361 0.041534
0.683167 0.181885 0.042816
0.706940 0.187256 0.044128
0.730469 0.192627 0.045319
0.754028 0.197968 0.046600
0.777191 0.203186 0.047729
0.800293 0.208344 0.048950
0.823120 0.213470 0.050354
0.008606 0.069550 0.004883
0.025543 0.074585 0.006226
0.048828 0.079803 0.005737
0.073364 0.085907 0.004944
0.098785 0.092377 0.004364
0.126129 0.099487 0.004211
0.154205 0.106384 0.004089
0.182892 0.112091 0.004150
0.211945 0.117218 0.004883
0.241455 0.121887 0.005829
0.270569 0.125916 0.007202
0.299347 0.129608 0.008972
0.328033 0.133301 0.011169
0.356689 0.136993 0.013885
0.385345 0.141083 0.017181
0.413513 0.145355 0.020294
0.441071 0.149750 0.023560
0.467987 0.154572 0.027008
0.494690 0.159485 0.030090
0.521027 0.164581 0.032867
0.546814 0.169830 0.035370
0.572601 0.175110 0.037689
0.597839 0.180420 0.039673
0.622955 0.185791 0.041290
0.647858 0.191193 0.043091
0.672333 0.196655 0.044586
0.696655 0.202026 0.045837
0.720581 0.207275 0.047211
0.744232 0.212555 0.048401
0.767853 0.217743 0.049683
0.791229 0.222870 0.050873
0.814392 0.227875 0.052063
0.837311 0.232819 0.053223
0.012787 0.085876 0.004791
0.028564 0.091003 0.006500
0.051025 0.096283 0.006134
0.075775 0.102448 0.005280
0.100952 0.109222 0.004608
0.127472 0.116882 0.004028
0.155518 0.124786 0.003967
0.184723 0.132416 0.004364
0.214081 0.138702 0.004852
0.243652 0.144196 0.005524
0.273438 0.149109 0.006958
0.303070 0.153564 0.008728
0.332520 0.157379 0.010834
0.361755 0.160980 0.013947
0.390717 0.164764 0.016998
0.419556 0.168732 0.020660
0.447968 0.172882 0.024170
0.476166 0.177277 0.027649
0.503906 0.182068 0.031006
0.530731 0.187012 0.034180
0.557373 0.191925 0.037201
0.583435 0.197021 0.039673
0.609131 0.202271 0.041840
0.634460 0.207397 0.043854
0.659515 0.212677 0.045563
0.684265 0.217865 0.047211
0.708527 0.223022 0.048737
0.732758 0.228180 0.049988
0.756683 0.233246 0.051331
0.780304 0.238281 0.052521
0.803680 0.243225 0.053650
0.826996 0.248077 0.054718
0.849945 0.252808 0.055786
0.017883 0.103058 0.004150
0.031555 0.108307 0.006836
0.053497 0.113678 0.006561
0.078552 0.119598 0.005280
0.103577 0.126343 0.004730
0.129700 0.134125 0.004333
0.157135 0.142487 0.004059
0.186005 0.151184 0.004272
0.215973 0.159485 0.004791
0.245789 0.166412 0.005768
0.275940 0.172241 0.007080
0.306183 0.177460 0.008698
0.336395 0.182281 0.010895
0.366486 0.186523 0.013611
0.396301 0.190186 0.017029
0.425568 0.193939 0.020691
0.454498 0.197845 0.024384
0.483398 0.201904 0.028168
0.511719 0.206238 0.031860
0.539520 0.210785 0.035187
0.566925 0.215424 0.038086
0.593445 0.220337 0.040802
0.619415 0.225311 0.043304
0.645264 0.230286 0.045563
0.670441 0.235291 0.047546
0.695404 0.240204 0.049377
0.719940 0.245117 0.050964
0.744141 0.250031 0.052399
0.768188 0.254913 0.053772
0.791901 0.259674 0.054993
0.815277 0.264435 0.056061
0.838593 0.269073 0.057129
0.861511 0.273682 0.058105
0.024048 0.120941 0.003510
0.036438 0.126404 0.006592
0.056763 0.131561 0.006866
0.082123 0.137299 0.005554
0.106750 0.144043 0.004852
0.132538 0.151642 0.004364
0.159760 0.160248 0.004150
0.187927 0.169342 0.004517
0.217529 0.178864 0.005127
0.247803 0.187744 0.005981
0.278076 0.195221 0.007111
0.308746 0.201477 0.008911
0.339478 0.206970 0.011383
0.370087 0.212067 0.013916
0.400818 0.216766 0.017120
0.431000 0.220734 0.020538
0.460754 0.224548 0.024353
0.489960 0.228363 0.028137
0.518860 0.232300 0.031891
0.547180 0.236389 0.035370
0.574921 0.240753 0.038574
0.602203 0.245148 0.041473
0.628967 0.249756 0.044037
0.655029 0.254395 0.046417
0.680542 0.259033 0.048584
0.705688 0.263672 0.050629
0.730438 0.268341 0.052460
0.754822 0.272980 0.054108
0.778870 0.277527 0.055481
0.802643 0.282074 0.056854
0.826141 0.286560 0.057983
0.849426 0.291016 0.059021
0.872437 0.295441 0.059937
0.030304 0.139587 0.002869
0.042480 0.145142 0.006042
0.060364 0.150360 0.006958
0.085358 0.155731 0.005737
0.110321 0.162231 0.004883
0.135925 0.169922 0.004608
0.162476 0.178314 0.004517
0.190033 0.187469 0.004486
0.219360 0.197540 0.005432
0.249329 0.207581 0.006226
0.280029 0.217072 0.007599
0.311096 0.225098 0.009399
0.342102 0.231689 0.011719
0.373108 0.237488 0.014435
0.404266 0.242798 0.017395
0.435211 0.247833 0.020447
0.465759 0.252289 0.023712
0.495728 0.256165 0.027313
0.525116 0.259888 0.031006
0.553986 0.263641 0.034607
0.582275 0.267456 0.038055
0.609863 0.271484 0.041199
0.636993 0.275604 0.044128
0.663513 0.279816 0.046631
0.689575 0.284088 0.048798
0.715271 0.288330 0.050812
0.740265 0.292694 0.052917
0.764862 0.296967 0.054749
0.789062 0.301239 0.056366
0.812897 0.305511 0.057831
0.836487 0.309692 0.059082
0.859772 0.313934 0.060181
0.882843 0.318176 0.061066
0.036804 0.158630 0.002289
0.048767 0.164337 0.005524
0.063477 0.169830 0.007507
0.088867 0.174988 0.006042
0.113983 0.181122 0.005341
0.139465 0.188660 0.004791
0.165619 0.196930 0.004639
0.193054 0.206207 0.004883
0.221619 0.216187 0.005524
0.251190 0.226654 0.006592
0.281677 0.237274 0.008087
0.312958 0.247284 0.009888
0.344269 0.255707 0.011993
0.375519 0.262726 0.014709
0.407135 0.268860 0.017609
0.438354 0.274384 0.020660
0.469299 0.279541 0.023712
0.500153 0.284271 0.026733
0.530151 0.288422 0.029846
0.559631 0.292053 0.033203
0.588470 0.295624 0.036560
0.616516 0.299194 0.039795
0.644073 0.302856 0.042877
0.671051 0.306610 0.045746
0.697479 0.310394 0.048309
0.723450 0.314301 0.050568
0.748901 0.318207 0.052643
0.774017 0.322113 0.054504
0.798615 0.326050 0.056122
0.822632 0.330048 0.057770
0.846375 0.334045 0.059143
0.869751 0.337982 0.060333
0.892944 0.341980 0.061401
0.042908 0.178467 0.001678
0.054565 0.184326 0.004944
0.066223 0.190186 0.008148
0.091949 0.194977 0.006592
0.117462 0.200775 0.005615
0.142914 0.207916 0.005188
0.169128 0.216095 0.005035
0.196198 0.225220 0.005157
0.224274 0.235107 0.005859
0.253448 0.245728 0.007050
0.283447 0.256653 0.008606
0.314362 0.267731 0.010315
0.346039 0.278229 0.012512
0.377686 0.287140 0.015259
0.409393 0.294495 0.017883
0.440918 0.300842 0.020905
0.472260 0.306519 0.023865
0.503204 0.311798 0.026733
0.533844 0.316650 0.029327
0.564026 0.321014 0.031921
0.593292 0.324738 0.034668
0.621979 0.328125 0.037659
0.650085 0.331390 0.040649
0.677490 0.334686 0.043549
0.704346 0.338043 0.046326
0.730713 0.341492 0.048920
0.756561 0.344971 0.051239
0.781921 0.348572 0.053314
0.806885 0.352173 0.055084
0.831512 0.355774 0.056702
0.855743 0.359406 0.058044
0.879395 0.363129 0.059448
0.902740 0.366913 0.060791
0.048279 0.199005 0.001373
0.059845 0.204926 0.004639
0.071289 0.210968 0.007782
0.092987 0.215820 0.007690
0.120453 0.221130 0.006226
0.146118 0.227905 0.005707
0.172363 0.235870 0.005493
0.199127 0.244720 0.005707
0.227020 0.254486 0.006287
0.255798 0.265015 0.007416
0.285645 0.276123 0.008972
0.316132 0.287506 0.010895
0.347595 0.299011 0.013153
0.379425 0.309875 0.015808
0.411163 0.319214 0.018341
0.442963 0.326843 0.021088
0.474548 0.333374 0.023987
0.505768 0.339203 0.026642
0.536621 0.344513 0.029266
0.567017 0.349335 0.031403
0.596893 0.353851 0.033386
0.626068 0.357727 0.035492
0.654724 0.360931 0.037964
0.682678 0.364014 0.040680
0.710114 0.366943 0.043365
0.736969 0.369965 0.045929
0.763306 0.373016 0.048401
0.789154 0.376221 0.050751
0.814545 0.379425 0.052856
0.839508 0.382721 0.054749
0.864044 0.386078 0.056427
0.888184 0.389435 0.057861
0.912170 0.392822 0.059235
0.052612 0.219910 0.001404
0.063995 0.226044 0.004517
0.075378 0.232239 0.007660
0.093262 0.237488 0.008820
0.122284 0.242279 0.006958
0.148407 0.248596 0.006226
0.175140 0.256317 0.006012
0.202057 0.264893 0.006042
0.229767 0.274414 0.006561
0.258362 0.284790 0.007721
0.287872 0.295807 0.009399
0.318024 0.307251 0.011261
0.349152 0.319031 0.013641
0.380768 0.330811 0.016266
0.412659 0.342072 0.018982
0.444672 0.351746 0.021698
0.476379 0.359619 0.024231
0.507721 0.366394 0.026794
0.538727 0.372314 0.029236
0.569305 0.377533 0.031281
0.599274 0.382324 0.032990
0.628937 0.386780 0.034424
0.658142 0.390717 0.035828
0.686737 0.393982 0.037720
0.714722 0.396851 0.039856
0.742218 0.399506 0.042175
0.769135 0.402191 0.044617
0.795532 0.404938 0.047028
0.821411 0.407806 0.049347
0.846863 0.410706 0.051514
0.871796 0.413757 0.053497
0.896393 0.416840 0.055328
0.920715 0.420013 0.056976
0.055725 0.241455 0.001434
0.067017 0.247711 0.004639
0.078308 0.253937 0.007812
0.091980 0.259949 0.010437
0.122467 0.264038 0.008148
0.150024 0.269989 0.006836
0.177277 0.277344 0.006439
0.204407 0.285614 0.006439
0.232239 0.294861 0.006897
0.260834 0.304901 0.007965
0.290070 0.315735 0.009491
0.320129 0.327148 0.011475
0.350891 0.338989 0.013916
0.382263 0.351105 0.016846
0.414093 0.363159 0.019806
0.446075 0.374786 0.022400
0.477905 0.384735 0.024872
0.509338 0.392853 0.027191
0.540405 0.399689 0.029266
0.571045 0.405579 0.031128
0.601288 0.410767 0.032715
0.630981 0.415527 0.033997
0.660492 0.419800 0.034973
0.689484 0.423737 0.035797
0.718170 0.427063 0.036865
0.746216 0.429810 0.038391
0.773865 0.432343 0.040405
0.800903 0.434753 0.042572
0.827515 0.437195 0.044891
0.853485 0.439758 0.047119
0.879028 0.442444 0.049347
0.904144 0.445190 0.051422
0.928925 0.448151 0.053406
0.057159 0.263458 0.001617
0.068604 0.269836 0.005005
0.080048 0.276245 0.008423
0.091766 0.282715 0.011963
0.120148 0.286621 0.009796
0.150208 0.291992 0.008148
0.178131 0.298859 0.007202
0.206116 0.306885 0.007324
0.234222 0.315796 0.007477
0.262909 0.325531 0.008453
0.292328 0.336090 0.009796
0.322205 0.347290 0.011871
0.352814 0.359070 0.014374
0.383972 0.371277 0.017334
0.415649 0.383728 0.020538
0.447418 0.395996 0.023438
0.479187 0.407837 0.025909
0.510742 0.418030 0.027924
0.541870 0.426270 0.029846
0.572479 0.433197 0.031311
0.602753 0.439087 0.032654
0.632660 0.444244 0.033661
0.662109 0.448853 0.034393
0.691437 0.453033 0.034973
0.720367 0.456848 0.035278
0.749146 0.460236 0.035675
0.777405 0.463013 0.036560
0.805237 0.465363 0.038055
0.832489 0.467590 0.039948
0.859283 0.469788 0.042084
0.885529 0.472107 0.044312
0.911316 0.474548 0.046539
0.936737 0.477173 0.048767
0.057526 0.285828 0.002441
0.069031 0.292328 0.005859
0.080597 0.298859 0.009277
0.092499 0.305420 0.012878
0.116028 0.310089 0.012695
0.148743 0.314545 0.009705
0.177979 0.320984 0.008575
0.206757 0.328644 0.008301
0.235565 0.337219 0.008667
0.264526 0.346588 0.009094
0.294250 0.356873 0.010376
0.324280 0.367828 0.012512
0.354736 0.379456 0.014954
0.385773 0.391571 0.017975
0.417267 0.404144 0.021179
0.448944 0.416748 0.024475
0.480499 0.429199 0.027222
0.511993 0.441162 0.029358
0.543121 0.451599 0.030884
0.573639 0.459961 0.032104
0.603973 0.466888 0.033020
0.633881 0.472717 0.033691
0.663422 0.477844 0.034119
0.692810 0.482361 0.034393
0.721924 0.486420 0.034485
0.750946 0.490051 0.034424
0.779724 0.493408 0.034271
0.808350 0.496246 0.034485
0.836426 0.498566 0.035461
0.864014 0.500641 0.036957
0.891083 0.502686 0.038849
0.917725 0.504700 0.040955
0.943848 0.506989 0.043213
0.056702 0.308685 0.003967
0.068359 0.315155 0.007416
0.080109 0.321716 0.011078
0.092163 0.328308 0.014832
0.110107 0.333954 0.016449
0.145538 0.337585 0.012421
0.176788 0.343597 0.010712
0.206451 0.350891 0.009949
0.236023 0.359131 0.009979
0.265717 0.368164 0.010437
0.295624 0.378113 0.011536
0.326019 0.388763 0.013306
0.356689 0.400146 0.015778
0.387726 0.412170 0.018677
0.419098 0.424652 0.022186
0.450623 0.437408 0.025665
0.482117 0.450226 0.028748
0.513367 0.462769 0.031128
0.544250 0.474762 0.032654
0.574799 0.485382 0.033417
0.604919 0.493774 0.033997
0.634796 0.500763 0.034180
0.664490 0.506592 0.034271
0.693909 0.511658 0.034180
0.723114 0.516052 0.033936
0.752197 0.519958 0.033569
0.781281 0.523468 0.033203
0.810211 0.526672 0.032715
0.839081 0.529510 0.032379
0.867584 0.531891 0.032684
0.895569 0.533844 0.033752
0.923096 0.535675 0.035278
0.950134 0.537567 0.037231
0.054901 0.331665 0.006226
0.066803 0.338257 0.010010
0.078766 0.344818 0.013855
0.091003 0.351440 0.017792
0.103638 0.358124 0.022064
0.140869 0.361053 0.016388
0.174072 0.366638 0.013702
0.204865 0.373535 0.012726
0.235596 0.381500 0.012360
0.266083 0.390320 0.012390
0.296539 0.399872 0.013275
0.327454 0.410248 0.014801
0.358459 0.421387 0.017273
0.389526 0.433136 0.020081
0.420959 0.445435 0.023376
0.452484 0.458252 0.027039
0.483795 0.471161 0.030426
0.514893 0.484100 0.033112
0.545624 0.496674 0.034943
0.575989 0.508636 0.035736
0.605927 0.519196 0.035736
0.635620 0.527740 0.035370
0.665314 0.534760 0.034943
0.694672 0.540588 0.034424
0.724030 0.545471 0.033844
0.753204 0.549805 0.033112
0.782410 0.553558 0.032410
0.811554 0.556915 0.031647
0.840729 0.559998 0.030914
0.869843 0.562775 0.030182
0.898804 0.565094 0.029877
0.927338 0.567017 0.030334
0.955292 0.568726 0.031494
0.052338 0.354858 0.009186
0.064545 0.361389 0.013245
0.076752 0.367981 0.017273
0.089264 0.374603 0.021637
0.102081 0.381226 0.026245
0.133698 0.385101 0.022644
0.169586 0.389923 0.018402
0.202271 0.396606 0.016479
0.234009 0.404327 0.015411
0.265594 0.412903 0.015503
0.296875 0.422180 0.015839
0.328400 0.432312 0.017273
0.359802 0.443054 0.019226
0.391357 0.454620 0.022003
0.422882 0.466705 0.025360
0.454315 0.479309 0.028809
0.485626 0.492249 0.032318
0.516602 0.505310 0.035217
0.547150 0.518250 0.037415
0.577301 0.530762 0.038513
0.607025 0.542633 0.038391
0.636536 0.553192 0.037567
0.665955 0.561859 0.036438
0.695251 0.568817 0.035278
0.724640 0.574554 0.034210
0.753876 0.579407 0.033051
0.783234 0.583557 0.031952
0.812622 0.587250 0.030914
0.841980 0.590454 0.029877
0.871307 0.593353 0.028900
0.900696 0.595978 0.027924
0.930115 0.598236 0.027130
0.959198 0.600159 0.026947
0.049500 0.378052 0.013611
0.061798 0.384613 0.018036
0.074158 0.391144 0.022461
0.086884 0.397797 0.027008
0.099731 0.404510 0.031738
0.123047 0.409515 0.031616
0.163788 0.413483 0.024353
0.198334 0.419952 0.021210
0.231293 0.427521 0.020050
0.263916 0.435913 0.019440
0.296509 0.445068 0.019531
0.328583 0.454926 0.020721
0.360687 0.465454 0.022461
0.392731 0.476685 0.024902
0.424591 0.488495 0.027893
0.456238 0.500916 0.031372
0.487518 0.513672 0.034760
0.518433 0.526703 0.037872
0.548859 0.539764 0.040131
0.578705 0.552551 0.041473
0.608246 0.565002 0.041656
0.637543 0.576752 0.040680
0.666595 0.587250 0.038940
0.695831 0.595917 0.037079
0.725067 0.602875 0.035278
0.754425 0.608551 0.033661
0.783813 0.613373 0.032104
0.813324 0.617401 0.030609
0.842804 0.620911 0.029205
0.872406 0.623993 0.027924
0.902039 0.626709 0.026703
0.931793 0.629120 0.025604
0.961517 0.631287 0.024475
0.046051 0.401367 0.019592
0.058624 0.407867 0.023987
0.071259 0.414429 0.028656
0.084076 0.421082 0.033569
0.096924 0.427734 0.038544
0.111420 0.434143 0.042633
0.156067 0.437347 0.032349
0.193024 0.443573 0.028015
0.227631 0.450989 0.025818
0.261353 0.459442 0.024872
0.294952 0.468445 0.024536
0.328094 0.478088 0.025208
0.361115 0.488434 0.026459
0.393768 0.499420 0.028717
0.426056 0.510925 0.031372
0.457825 0.522949 0.034576
0.489288 0.535522 0.037842
0.520172 0.548340 0.040894
0.550476 0.561310 0.043182
0.580322 0.574371 0.044769
0.609558 0.587036 0.045074
0.638550 0.599304 0.044373
0.667419 0.610901 0.042480
0.696381 0.621338 0.039948
0.725464 0.629974 0.037354
0.754761 0.636963 0.034973
0.784210 0.642548 0.032867
0.813721 0.647247 0.030884
0.843353 0.651215 0.029053
0.873199 0.654572 0.027435
0.903046 0.657532 0.025909
0.932922 0.660065 0.024506
0.962952 0.662262 0.023193
0.042664 0.424622 0.026489
0.055328 0.431183 0.031281
0.068085 0.437775 0.036194
0.080963 0.444397 0.041107
0.093903 0.451080 0.046173
0.106812 0.457764 0.051361
0.146851 0.461243 0.042236
0.186188 0.467224 0.036041
0.222443 0.474792 0.032867
0.257874 0.483215 0.031250
0.292480 0.492279 0.030579
0.326721 0.501831 0.030823
0.360657 0.511993 0.031830
0.394012 0.522705 0.033478
0.426971 0.533936 0.035828
0.459320 0.545685 0.038666
0.490906 0.557861 0.041534
0.521912 0.570465 0.044312
0.552246 0.583252 0.046692
0.581909 0.596161 0.048187
0.610992 0.608948 0.048706
0.639709 0.621490 0.048126
0.668335 0.633606 0.046448
0.697021 0.645020 0.043762
0.725891 0.655396 0.040558
0.754944 0.663971 0.037354
0.784332 0.670898 0.034424
0.813965 0.676483 0.031891
0.843689 0.681091 0.029541
0.873657 0.684967 0.027466
0.903656 0.688171 0.025543
0.933807 0.690918 0.023804
0.964020 0.693298 0.022217
0.039124 0.448029 0.034393
0.051971 0.454651 0.039520
0.064789 0.461243 0.044678
0.077698 0.467926 0.049866
0.090698 0.474670 0.054962
0.103699 0.481384 0.060089
0.134613 0.485687 0.054749
0.177826 0.490997 0.045532
0.216064 0.498627 0.041199
0.252686 0.507141 0.038818
0.288757 0.516357 0.037842
0.324158 0.526001 0.037537
0.359222 0.536133 0.038025
0.393555 0.546600 0.039246
0.427216 0.557556 0.041077
0.460083 0.568970 0.043396
0.492126 0.580780 0.045898
0.523315 0.592987 0.048309
0.553711 0.605469 0.050507
0.583435 0.618195 0.051910
0.612457 0.630920 0.052460
0.641022 0.643555 0.052032
0.669373 0.655884 0.050507
0.697784 0.667847 0.048035
0.726349 0.679138 0.044678
0.755249 0.689331 0.040802
0.784424 0.697815 0.037109
0.813934 0.704712 0.033752
0.843811 0.710327 0.030762
0.873840 0.714844 0.028137
0.903992 0.718597 0.025726
0.934296 0.721680 0.023621
0.964752 0.724274 0.021667
0.036163 0.471710 0.043732
0.048950 0.478394 0.048889
0.061737 0.485077 0.054047
0.074677 0.491852 0.059235
0.087616 0.498596 0.064392
0.100616 0.505402 0.069611
0.120087 0.511078 0.070526
0.168152 0.515045 0.056671
0.208160 0.522522 0.050781
0.246368 0.531250 0.047546
0.283722 0.540649 0.045868
0.320465 0.550476 0.045074
0.356720 0.560577 0.045135
0.391998 0.570984 0.045837
0.426575 0.581665 0.047241
0.460175 0.592743 0.048889
0.492859 0.604218 0.050903
0.524323 0.615967 0.052948
0.554962 0.628082 0.054749
0.584778 0.640472 0.056000
0.613800 0.653015 0.056519
0.642273 0.665527 0.056122
0.670563 0.678009 0.054810
0.698669 0.690216 0.052521
0.726959 0.701965 0.049316
0.755524 0.713043 0.045319
0.784546 0.723114 0.040955
0.813934 0.731598 0.036774
0.843719 0.738464 0.032990
0.873749 0.744019 0.029572
0.903992 0.748444 0.026611
0.934448 0.752075 0.023987
0.965118 0.755066 0.021667
0.033508 0.495941 0.053925
0.046448 0.502686 0.059113
0.059357 0.509430 0.064301
0.072296 0.516266 0.069427
0.085236 0.523163 0.074554
0.098114 0.530060 0.079681
0.110870 0.537018 0.084900
0.156860 0.539307 0.069275
0.198914 0.546387 0.061188
0.238647 0.555328 0.056885
0.277405 0.565002 0.054565
0.315521 0.575073 0.053314
0.352905 0.585297 0.052856
0.389374 0.595673 0.053009
0.424805 0.606201 0.053833
0.459320 0.616974 0.055023
0.492706 0.628021 0.056519
0.524872 0.639435 0.058075
0.555847 0.651154 0.059509
0.585876 0.663086 0.060486
0.615082 0.675293 0.060852
0.643555 0.687653 0.060425
0.671692 0.700043 0.059174
0.699615 0.712250 0.057129
0.727661 0.724274 0.054047
0.755920 0.735840 0.050262
0.784607 0.746796 0.045776
0.813843 0.756775 0.040894
0.843475 0.765167 0.036255
0.873444 0.771973 0.032074
0.903748 0.777496 0.028381
0.934326 0.781891 0.025177
0.965118 0.785461 0.022339
0.031860 0.520721 0.064697
0.044678 0.527527 0.069885
0.057556 0.534424 0.075012
0.070465 0.541321 0.080109
0.083282 0.548279 0.085205
0.095917 0.555237 0.090302
0.108459 0.562225 0.095398
0.144287 0.564514 0.083832
0.188690 0.570557 0.072662
0.229828 0.579376 0.067047
0.269470 0.589233 0.063812
0.309143 0.599609 0.061768
0.347504 0.609985 0.060974
0.385193 0.620453 0.060608
0.421967 0.630951 0.060791
0.457458 0.641510 0.061432
0.491669 0.652222 0.062469
0.524567 0.663177 0.063446
0.556122 0.674408 0.064423
0.586517 0.685944 0.065125
0.615997 0.697845 0.065308
