lut/retro-80s/Back to the Future (1985) - Standard.cube
# Created by Benjamin (IWLTBAP): https://luts.iwltbap.com
# Copyright: (C) Copyright 2018 Triune Films and IWLTBAP SAS
# Cannot be resold, shared or otherwise redistributed
TITLE "Triune Films 80s Retro LUTs (Rec.709, sRGB, DCI-P3)"
LUT_3D_SIZE 33
0.007721 0.006012 0.013245
0.022766 0.008087 0.017120
0.042145 0.009705 0.018707
0.061157 0.011444 0.019928
0.081635 0.013702 0.020813
0.103363 0.015900 0.022614
0.126831 0.018372 0.023926
0.151855 0.021698 0.025482
0.178375 0.025574 0.027283
0.207825 0.030121 0.028992
0.238586 0.035309 0.031799
0.270935 0.040375 0.034210
0.303711 0.046112 0.036591
0.336426 0.051758 0.038727
0.368835 0.057465 0.040894
0.401154 0.063019 0.043396
0.433350 0.068573 0.045898
0.464630 0.074097 0.048828
0.495880 0.080109 0.051788
0.526764 0.085938 0.055664
0.557312 0.091858 0.059143
0.586823 0.097809 0.063354
0.616150 0.103943 0.067505
0.645691 0.111023 0.072266
0.674835 0.117737 0.076935
0.703125 0.125092 0.081970
0.731384 0.131897 0.087250
0.759430 0.139374 0.092987
0.786804 0.146423 0.098663
0.813354 0.153198 0.104248
0.839600 0.160004 0.110321
0.865814 0.167084 0.116180
0.891205 0.174347 0.121826
0.019379 0.023956 0.021606
0.027802 0.028351 0.025238
0.045746 0.029968 0.026978
0.064362 0.031677 0.027924
0.085144 0.034119 0.028229
0.107300 0.036652 0.028839
0.130798 0.039093 0.029724
0.155853 0.042175 0.030334
0.182678 0.045990 0.031921
0.212311 0.050385 0.033203
0.243164 0.055023 0.035461
0.275848 0.059784 0.036987
0.309174 0.065247 0.038971
0.341827 0.070404 0.041016
0.374298 0.075836 0.042755
0.406982 0.081543 0.045105
0.439392 0.086884 0.047729
0.471069 0.092590 0.050598
0.502319 0.098450 0.053589
0.532990 0.104034 0.056885
0.563446 0.109924 0.060425
0.592896 0.115967 0.064850
0.622375 0.122162 0.069336
0.651855 0.129150 0.073975
0.680908 0.136108 0.078369
0.709106 0.143036 0.083618
0.737061 0.150024 0.088715
0.764893 0.157135 0.094696
0.792175 0.163910 0.100006
0.818451 0.170776 0.105347
0.844635 0.177643 0.111359
0.870789 0.184265 0.117065
0.896118 0.191437 0.122620
0.034607 0.041626 0.024719
0.042114 0.045471 0.028839
0.049683 0.049469 0.034729
0.067902 0.051239 0.035645
0.088135 0.053314 0.035461
0.110687 0.056610 0.034973
0.134521 0.059540 0.034912
0.159576 0.062531 0.035583
0.186646 0.066010 0.036987
0.216461 0.070618 0.037903
0.247589 0.074982 0.039551
0.280701 0.079956 0.040955
0.314087 0.085052 0.042236
0.347107 0.089935 0.043488
0.379852 0.095245 0.045532
0.412903 0.100494 0.047546
0.445496 0.105957 0.049805
0.477570 0.111481 0.052399
0.508850 0.117249 0.055389
0.539520 0.122772 0.058624
0.569702 0.128448 0.062256
0.599274 0.134430 0.066437
0.628815 0.140991 0.070892
0.658264 0.147919 0.075470
0.687103 0.154938 0.080292
0.715240 0.161682 0.085205
0.743103 0.168549 0.090454
0.770508 0.175354 0.095917
0.797607 0.181854 0.101074
0.823700 0.189056 0.106659
0.849762 0.195740 0.112640
0.875885 0.202301 0.118256
0.901245 0.209045 0.123352
0.050323 0.059021 0.027802
0.056732 0.062561 0.031311
0.063477 0.066101 0.036407
0.071167 0.070190 0.043457
0.091125 0.072418 0.043030
0.113190 0.075531 0.042572
0.138245 0.079865 0.041656
0.163605 0.083344 0.042023
0.190765 0.086761 0.043091
0.220551 0.090851 0.043091
0.251831 0.095123 0.044128
0.285095 0.099609 0.044464
0.318665 0.104584 0.045685
0.351990 0.109436 0.046478
0.385132 0.114441 0.047974
0.418427 0.119629 0.049713
0.451324 0.125061 0.051849
0.483551 0.130707 0.054657
0.515167 0.136353 0.057251
0.545837 0.142059 0.060608
0.576141 0.147888 0.063995
0.605988 0.153961 0.068329
0.635376 0.160248 0.072632
0.664642 0.166962 0.077057
0.693359 0.173798 0.081665
0.721588 0.180481 0.086823
0.749268 0.187073 0.091888
0.776276 0.193604 0.097015
0.803101 0.200104 0.102234
0.829193 0.207092 0.107635
0.855011 0.213959 0.113342
0.881104 0.220459 0.118835
0.906525 0.226898 0.124146
0.065643 0.077515 0.030396
0.071442 0.080414 0.033264
0.077576 0.083710 0.037323
0.084686 0.087555 0.043365
0.094238 0.091919 0.051483
0.115906 0.095032 0.050568
0.140808 0.099243 0.049713
0.167542 0.104095 0.048920
0.194916 0.107697 0.049072
0.224335 0.111298 0.048462
0.255707 0.115570 0.048798
0.288940 0.119965 0.048676
0.322754 0.124420 0.048981
0.356384 0.129242 0.049774
0.389923 0.134216 0.050751
0.423584 0.139709 0.052246
0.456879 0.144989 0.053986
0.489410 0.150543 0.056549
0.521118 0.156372 0.059265
0.551941 0.161957 0.062561
0.582520 0.167908 0.065826
0.612762 0.174011 0.069733
0.642242 0.180328 0.074066
0.671143 0.186462 0.078339
0.699738 0.193115 0.082947
0.728027 0.199615 0.087799
0.755737 0.206055 0.093018
0.782471 0.212341 0.097961
0.808929 0.218719 0.103180
0.834961 0.225555 0.108459
0.860809 0.232300 0.114075
0.886627 0.238678 0.119049
0.911987 0.244934 0.124390
0.080780 0.096100 0.032959
0.085724 0.098785 0.035919
0.090942 0.101959 0.039856
0.097321 0.105621 0.045685
0.105164 0.109741 0.053680
0.118286 0.113922 0.059662
0.143188 0.118286 0.058105
0.169830 0.123016 0.056732
0.197876 0.127777 0.055267
0.227264 0.131500 0.054565
0.258667 0.136108 0.053772
0.291870 0.140991 0.053406
0.326111 0.145264 0.053314
0.360382 0.149994 0.053467
0.394379 0.155029 0.053833
0.428406 0.160065 0.054932
0.461975 0.165405 0.056610
0.495148 0.170837 0.058594
0.526947 0.176575 0.061249
0.558075 0.182404 0.064575
0.588959 0.188446 0.067871
0.619537 0.194580 0.071716
0.649048 0.200714 0.075592
0.677917 0.206909 0.079803
0.706573 0.213226 0.084473
0.734711 0.219513 0.089020
0.761871 0.225891 0.094025
0.788635 0.232239 0.098938
0.815063 0.238434 0.103668
0.841248 0.244690 0.108856
0.866974 0.251251 0.114075
0.892456 0.257233 0.119049
0.917725 0.263428 0.123993
0.093903 0.115417 0.038544
0.098236 0.118042 0.041901
0.103607 0.120880 0.045563
0.109955 0.124207 0.050476
0.117432 0.128143 0.057129
0.127289 0.132965 0.064392
0.145538 0.136902 0.067078
0.171875 0.141754 0.065460
0.199982 0.146729 0.063141
0.229492 0.151337 0.061066
0.260834 0.155975 0.059937
0.294281 0.161896 0.058868
0.328766 0.166412 0.058289
0.363831 0.170868 0.057587
0.398315 0.175873 0.058014
0.432709 0.180847 0.058380
0.466675 0.186401 0.059753
0.500092 0.191925 0.061279
0.532410 0.197662 0.063904
0.564026 0.203796 0.066711
0.595245 0.209900 0.069977
0.626007 0.215942 0.073517
0.655518 0.221985 0.077423
0.684509 0.228119 0.081238
0.713104 0.234222 0.085754
0.741150 0.240173 0.089844
0.768219 0.246552 0.094604
0.794922 0.252777 0.099182
0.821472 0.258728 0.103943
0.847778 0.264771 0.109009
0.873535 0.270874 0.113983
0.899017 0.276764 0.118530
0.923859 0.282440 0.123108
0.105988 0.135773 0.049347
0.110474 0.138092 0.051483
0.115509 0.140564 0.054443
0.121674 0.143707 0.058258
0.129700 0.147186 0.062561
0.139374 0.151367 0.068359
0.151398 0.156433 0.074371
0.173553 0.160278 0.074524
0.201569 0.165375 0.072144
0.231201 0.170563 0.069000
0.262604 0.175751 0.066803
0.296295 0.181915 0.065247
0.331055 0.187805 0.063934
0.366394 0.192413 0.062897
0.401245 0.197662 0.062469
0.435760 0.203247 0.062592
0.470490 0.208496 0.063354
0.504364 0.214203 0.064392
0.537476 0.219879 0.066803
0.569885 0.226074 0.069122
0.601349 0.232025 0.072296
0.632324 0.238007 0.075531
0.661957 0.244019 0.079010
0.691101 0.249878 0.082703
0.719635 0.255798 0.086609
0.747650 0.261444 0.090515
0.774750 0.267731 0.095093
0.801483 0.273895 0.099396
0.828033 0.279694 0.103760
0.854401 0.285461 0.108673
0.880066 0.290894 0.113068
0.905579 0.296631 0.117584
0.930206 0.302094 0.121704
0.118591 0.156219 0.061279
0.122742 0.158356 0.062927
0.128052 0.160583 0.064392
0.134399 0.163269 0.066498
0.142212 0.166443 0.069824
0.151611 0.170258 0.073578
0.162994 0.174896 0.078369
0.177795 0.180206 0.083313
0.203217 0.184387 0.081482
0.232910 0.189789 0.078522
0.265137 0.195526 0.074860
0.298798 0.201630 0.072571
0.333649 0.208130 0.070953
0.368591 0.214020 0.069153
0.403778 0.219452 0.068207
0.438263 0.225677 0.067230
0.473297 0.231293 0.067474
0.508392 0.236816 0.068512
0.542053 0.242950 0.070068
0.575317 0.248840 0.072327
0.607086 0.254944 0.074982
0.638184 0.260834 0.077820
0.668335 0.267090 0.081085
0.697388 0.272888 0.084106
0.725830 0.278534 0.087891
0.753998 0.284149 0.091400
0.781128 0.289734 0.095154
0.807983 0.295898 0.099060
0.834656 0.301270 0.103180
0.861115 0.306763 0.107819
0.886749 0.311951 0.111877
0.912292 0.317230 0.115570
0.936859 0.322479 0.119598
0.132843 0.176575 0.071716
0.137299 0.178497 0.072388
0.142639 0.180542 0.073273
0.148712 0.183014 0.074524
0.156097 0.186005 0.076721
0.165131 0.189606 0.079346
0.175751 0.194122 0.083344
0.188416 0.199493 0.088470
0.207458 0.204803 0.091064
0.235535 0.209381 0.088440
0.267487 0.215179 0.085144
0.301270 0.221466 0.080627
0.336090 0.227966 0.078613
0.370758 0.235046 0.076111
0.405945 0.241333 0.074738
0.440704 0.247925 0.073364
0.475616 0.254272 0.073090
0.511292 0.260132 0.073730
0.545959 0.266388 0.074463
0.579498 0.272522 0.076141
0.611847 0.278595 0.078064
0.643280 0.284790 0.080505
0.674011 0.290894 0.082855
0.703308 0.296600 0.085571
0.731873 0.302094 0.088745
0.760071 0.307617 0.091888
0.787445 0.313049 0.095245
0.814453 0.318481 0.098724
0.841400 0.323700 0.102417
0.867981 0.328827 0.106476
0.893677 0.333832 0.110168
0.919220 0.338715 0.113464
0.943909 0.343567 0.117065
0.147125 0.197815 0.082031
0.151215 0.199524 0.082031
0.156250 0.201538 0.082581
0.162201 0.203827 0.083313
0.169312 0.206604 0.084564
0.177765 0.209930 0.086792
0.188232 0.214111 0.089905
0.200989 0.218994 0.093536
0.215973 0.224823 0.098267
0.238495 0.229980 0.099548
0.269836 0.234924 0.095947
0.303589 0.241364 0.091675
0.338776 0.248077 0.087250
0.373840 0.255310 0.084656
0.408783 0.262787 0.082184
0.444061 0.269714 0.080383
0.478424 0.276978 0.079926
0.513885 0.283661 0.079773
0.548950 0.290039 0.080048
0.582977 0.296539 0.080841
0.615753 0.302795 0.082031
0.647675 0.308807 0.083527
0.678619 0.315033 0.085083
0.708740 0.320862 0.087219
0.737579 0.326385 0.089630
0.765961 0.331604 0.092163
0.793701 0.336853 0.095184
0.820953 0.341919 0.097870
0.847839 0.346863 0.101288
0.874634 0.351807 0.104950
0.900330 0.356415 0.107483
0.926056 0.361206 0.110657
0.951080 0.365326 0.113190
0.161591 0.219666 0.092224
0.165588 0.221252 0.092041
0.170197 0.223114 0.092285
0.175781 0.225281 0.092926
0.182373 0.227875 0.093964
0.190491 0.230957 0.095490
0.200836 0.234741 0.097534
0.213257 0.239441 0.100830
0.228241 0.244965 0.104767
0.245544 0.251312 0.109528
0.272797 0.256561 0.108673
0.306427 0.262360 0.104309
0.341370 0.269043 0.099335
0.377258 0.275604 0.094360
0.412415 0.283234 0.091705
0.447449 0.291321 0.089203
0.482178 0.298920 0.088196
0.516144 0.306946 0.087280
0.551575 0.313904 0.086639
0.585754 0.320862 0.086548
0.618469 0.327484 0.086761
0.650757 0.333405 0.087128
0.682312 0.339569 0.088013
0.712830 0.345490 0.089417
0.742279 0.350891 0.090973
0.771149 0.356140 0.092651
0.799652 0.361023 0.094574
0.827179 0.366089 0.097046
0.854126 0.370667 0.099762
0.880951 0.375275 0.102661
0.906982 0.379852 0.104736
0.932922 0.384430 0.107239
0.958191 0.388336 0.109161
0.176514 0.242188 0.103210
0.180603 0.243713 0.102814
0.185303 0.245514 0.102692
0.190765 0.247620 0.102844
0.197479 0.249969 0.103668
0.205872 0.252899 0.104553
0.215912 0.256439 0.106415
0.227905 0.260712 0.108948
0.242035 0.265900 0.112305
0.258453 0.271912 0.116547
0.278870 0.278564 0.120392
0.309540 0.283844 0.117554
0.344391 0.290039 0.112366
0.380646 0.296600 0.106689
0.416382 0.304199 0.102936
0.451935 0.312866 0.100067
0.486328 0.321381 0.097626
0.520813 0.329803 0.096039
0.553955 0.337921 0.094788
0.588409 0.344971 0.093750
0.620300 0.352081 0.092285
0.652863 0.358551 0.091797
0.685211 0.364502 0.091553
0.716278 0.370392 0.092133
0.746307 0.375885 0.092621
0.775757 0.381042 0.093689
0.804749 0.386017 0.094727
0.832947 0.390625 0.096161
0.860168 0.395203 0.098145
0.887024 0.399292 0.099854
0.913269 0.403717 0.101685
0.939636 0.408020 0.103271
0.965271 0.411774 0.105072
0.191162 0.265991 0.115967
0.196014 0.267365 0.115021
0.200867 0.268982 0.114471
0.206451 0.270935 0.114502
0.213104 0.273224 0.114685
0.221222 0.275940 0.115326
0.230835 0.279144 0.116852
0.242249 0.283051 0.119019
0.255646 0.287781 0.121796
0.271576 0.293335 0.125031
0.290558 0.299927 0.128906
0.314606 0.306885 0.131317
0.348419 0.312653 0.127197
0.384644 0.319580 0.121918
0.420898 0.326813 0.116608
0.456909 0.334930 0.112610
0.490997 0.343781 0.109375
0.525085 0.352448 0.106720
0.557922 0.360565 0.104553
0.590546 0.368591 0.102325
0.623047 0.375977 0.100311
0.654449 0.383392 0.098145
0.687378 0.389740 0.096985
0.718872 0.395599 0.095886
0.749268 0.401398 0.095459
0.779358 0.406586 0.094971
0.808899 0.411591 0.095001
0.837494 0.416107 0.095581
0.865234 0.420410 0.096313
0.892426 0.424438 0.097351
0.919342 0.428162 0.098175
0.946198 0.432404 0.099609
0.972137 0.435760 0.100647
0.204315 0.290680 0.130463
0.211212 0.291656 0.128113
0.216949 0.293152 0.127106
0.222351 0.294983 0.126862
0.228638 0.297058 0.127197
0.236145 0.299652 0.127899
0.245422 0.302795 0.129333
0.256348 0.306671 0.131256
0.269318 0.311157 0.133514
0.284912 0.316467 0.136017
0.303955 0.322815 0.139343
0.325378 0.330048 0.142975
0.353180 0.337036 0.143494
0.388947 0.343048 0.138367
0.425049 0.350128 0.132935
0.461609 0.357330 0.126740
0.495941 0.365753 0.123047
0.529510 0.374573 0.119507
0.561523 0.383087 0.116272
0.593903 0.391571 0.113464
0.626038 0.399414 0.110260
0.657745 0.407288 0.107025
0.688995 0.414551 0.104218
0.721130 0.420685 0.101868
0.751587 0.426971 0.098816
0.782135 0.432526 0.097290
0.812408 0.437347 0.096130
0.841492 0.442017 0.095337
0.869812 0.446259 0.095459
0.897614 0.450043 0.095306
0.925140 0.453857 0.095459
0.952484 0.457367 0.095886
0.978821 0.460724 0.096039
0.218140 0.316711 0.146820
0.225067 0.317627 0.144531
0.232697 0.318695 0.142273
0.238983 0.320312 0.141357
0.245239 0.322449 0.141418
0.252533 0.324860 0.142181
0.261536 0.327850 0.143066
0.272614 0.331360 0.144440
0.286041 0.335510 0.145844
0.301666 0.340485 0.147797
0.319580 0.346344 0.150513
0.339783 0.353271 0.154022
0.362762 0.360962 0.157532
0.393036 0.368011 0.156769
0.429657 0.374146 0.151031
0.465393 0.381287 0.145081
0.500885 0.388397 0.139435
0.534241 0.396912 0.135468
0.565308 0.405518 0.130737
0.597412 0.414124 0.126587
0.629120 0.422485 0.122528
0.660828 0.430603 0.118378
0.692017 0.438477 0.114594
0.722870 0.445404 0.109924
0.753998 0.451996 0.105713
0.784088 0.457764 0.101044
0.814880 0.462982 0.098724
0.844574 0.467438 0.096161
0.873566 0.471924 0.094757
0.902374 0.475861 0.093445
0.930450 0.479614 0.092773
0.958099 0.483032 0.092010
0.984711 0.486267 0.091095
0.233002 0.343628 0.164246
0.239685 0.344635 0.162018
0.247131 0.345612 0.159790
0.255371 0.346771 0.157532
0.262573 0.348633 0.156860
0.270081 0.350952 0.157196
0.279449 0.353668 0.157532
0.290527 0.356934 0.158203
0.303406 0.360779 0.159454
0.318176 0.365479 0.161560
0.335327 0.371063 0.164276
0.355011 0.377472 0.167328
0.376740 0.384735 0.170837
0.401276 0.392670 0.174255
0.433868 0.399261 0.171112
0.469604 0.405579 0.164642
0.504486 0.412415 0.158783
0.539032 0.419556 0.153107
0.570160 0.427917 0.148163
0.600800 0.436768 0.142273
0.632263 0.445496 0.137573
0.663391 0.453979 0.132538
0.694244 0.462158 0.127411
0.725128 0.469635 0.121338
0.755951 0.476532 0.115082
0.786713 0.482758 0.108734
0.816833 0.488373 0.103088
0.847198 0.493408 0.099060
0.876892 0.497864 0.096008
0.906219 0.502045 0.093079
0.935211 0.505737 0.090881
0.963165 0.509186 0.088593
0.989990 0.512421 0.086609
0.247894 0.371582 0.183228
0.254578 0.372589 0.181305
0.262054 0.373596 0.178986
0.270294 0.374695 0.176819
0.279816 0.376007 0.174408
0.288025 0.378052 0.173859
0.296997 0.380707 0.174286
0.307587 0.383881 0.175354
0.319855 0.387604 0.176758
0.334076 0.392029 0.178772
0.350769 0.397156 0.181152
0.369659 0.402985 0.183807
0.390564 0.409332 0.186005
0.413727 0.416626 0.189026
0.440002 0.424133 0.190247
0.473999 0.430298 0.185272
0.508392 0.436829 0.179535
0.542419 0.443878 0.173828
0.575134 0.451263 0.168060
0.605621 0.460297 0.161957
0.635010 0.468628 0.155334
0.666321 0.477234 0.149597
0.696442 0.485504 0.142670
0.727295 0.493469 0.135345
0.758057 0.500671 0.127533
0.788727 0.507507 0.119659
0.819183 0.513733 0.111725
0.849243 0.519287 0.104919
0.879456 0.524261 0.100281
0.909180 0.528473 0.093781
0.938629 0.532593 0.089691
0.966736 0.536102 0.086151
0.993744 0.539368 0.082581
0.262970 0.400330 0.203857
0.269775 0.401306 0.201782
0.277313 0.402344 0.199707
0.286133 0.403473 0.197205
0.295990 0.404633 0.194672
0.306702 0.406097 0.192261
0.315399 0.408539 0.192627
0.325287 0.411499 0.193665
0.337280 0.414948 0.194702
0.351501 0.418793 0.196136
0.367798 0.423279 0.197845
0.386108 0.428497 0.199921
0.406128 0.434387 0.201874
0.427826 0.441010 0.204132
0.451508 0.448517 0.206787
0.479248 0.456146 0.207275
0.512329 0.462097 0.201904
0.545898 0.468872 0.196289
0.578918 0.475800 0.190002
0.610535 0.483582 0.183411
0.639923 0.491821 0.176361
0.668945 0.500336 0.168884
0.699127 0.508850 0.161133
0.728882 0.516541 0.152771
0.759827 0.524231 0.143311
0.790436 0.531830 0.133942
0.820953 0.538849 0.124603
0.851257 0.544800 0.115387
0.881287 0.550293 0.106964
0.911560 0.555023 0.098694
0.941406 0.559326 0.090179
0.969635 0.563019 0.083923
0.996582 0.566345 0.077759
0.278870 0.429413 0.224915
0.285980 0.430359 0.222717
0.293823 0.431305 0.220367
0.302368 0.432343 0.217926
0.311920 0.433533 0.215546
0.322754 0.434784 0.213074
0.334290 0.436523 0.211182
0.344177 0.439209 0.211761
0.355927 0.442383 0.212708
0.369720 0.445923 0.213806
0.385345 0.450165 0.215607
0.402985 0.455017 0.217590
0.422150 0.460449 0.219574
0.442871 0.466583 0.221680
0.465332 0.473450 0.224030
0.489685 0.481171 0.226471
0.516724 0.488403 0.226349
0.550171 0.494202 0.219879
0.582245 0.500732 0.214050
0.614502 0.507477 0.206787
0.643890 0.514923 0.200226
0.672516 0.523285 0.191986
0.701416 0.531555 0.182831
0.731567 0.539795 0.173218
0.761353 0.547699 0.162537
0.792114 0.555481 0.151764
0.822449 0.562988 0.140594
0.852631 0.569519 0.129425
0.882721 0.575562 0.117859
0.912811 0.580627 0.106659
0.942810 0.585144 0.096100
0.970703 0.589294 0.084869
0.998047 0.593079 0.076569
0.294952 0.458771 0.246307
0.301819 0.459717 0.244385
0.309235 0.460815 0.242432
0.317657 0.461884 0.240234
0.327087 0.463074 0.238007
0.337860 0.464386 0.235840
0.350006 0.465851 0.233398
0.362335 0.467926 0.232178
0.373627 0.470917 0.233002
0.386505 0.474304 0.234253
0.401215 0.478271 0.236115
0.418030 0.482819 0.238251
0.436279 0.487946 0.240509
0.456451 0.493622 0.242554
0.478241 0.499847 0.244720
0.501282 0.506561 0.246613
0.525665 0.513672 0.248108
0.554657 0.520081 0.245514
0.585846 0.525787 0.239563
0.617065 0.532104 0.232880
0.647522 0.538544 0.225830
0.676392 0.546112 0.217773
0.704987 0.554565 0.207672
0.734039 0.562775 0.197052
0.763580 0.570679 0.185547
0.792938 0.578278 0.172607
0.823212 0.586060 0.160370
0.853149 0.593109 0.146667
0.883179 0.599457 0.132965
0.913269 0.605072 0.119049
0.943268 0.610229 0.105438
0.971436 0.614990 0.091431
0.998596 0.619476 0.078400
0.311523 0.488617 0.268555
0.318298 0.489594 0.266754
0.325775 0.490662 0.264923
0.333771 0.491791 0.263000
0.342651 0.492981 0.261200
0.353302 0.494263 0.258972
0.365723 0.495728 0.256622
0.379669 0.497284 0.254089
0.391785 0.499878 0.254120
0.404083 0.503174 0.255554
0.418365 0.506744 0.257111
0.434509 0.510773 0.259033
0.452393 0.515259 0.261017
0.471954 0.520325 0.262817
0.493134 0.525818 0.264557
0.514893 0.531799 0.266418
0.537903 0.538452 0.268372
0.561890 0.545532 0.269775
0.590363 0.551483 0.266144
0.620636 0.557098 0.259827
0.650238 0.563416 0.253113
0.680298 0.569672 0.245361
0.708344 0.577362 0.235626
0.736359 0.585480 0.223694
0.764984 0.593018 0.211212
0.794189 0.600861 0.197693
0.823456 0.608459 0.183228
0.853363 0.615723 0.168213
0.882904 0.622345 0.151459
0.912842 0.628479 0.135468
0.942841 0.634369 0.119171
0.970917 0.639801 0.102600
0.998169 0.644989 0.086884
0.328827 0.518280 0.290680
0.335602 0.519226 0.288940
0.342957 0.520325 0.287201
0.350861 0.521423 0.285492
0.359741 0.522583 0.283691
0.369904 0.523926 0.281952
0.381470 0.525330 0.280090
0.394836 0.526886 0.277893
0.409454 0.528687 0.275970
0.422119 0.531616 0.276794
0.436279 0.534882 0.278137
0.452057 0.538544 0.279724
0.469360 0.542633 0.281494
0.488464 0.547180 0.283295
0.508270 0.552155 0.285400
0.529236 0.557709 0.287567
0.551361 0.563751 0.289307
0.573151 0.570312 0.291534
0.595978 0.576874 0.292633
0.625000 0.582092 0.287323
0.653748 0.587830 0.281006
0.682892 0.593903 0.273834
0.711853 0.600220 0.264771
0.739075 0.607880 0.253632
0.766846 0.615234 0.239319
0.795288 0.622833 0.225159
0.823883 0.630066 0.209747
0.852692 0.637268 0.192474
0.882111 0.644226 0.174896
0.911438 0.650879 0.156128
0.941315 0.657318 0.137878
0.969513 0.663483 0.118408
0.996552 0.669464 0.100037
0.346100 0.547729 0.312775
0.352905 0.548737 0.311218
0.360199 0.549835 0.309692
0.368347 0.550964 0.308197
0.377197 0.552185 0.306641
0.386993 0.553406 0.305084
0.398163 0.554932 0.303680
0.410614 0.556488 0.302063
0.425232 0.558289 0.300262
0.439911 0.560425 0.299286
0.453735 0.563538 0.300568
0.469086 0.567017 0.302246
0.485748 0.570862 0.304138
0.503174 0.574799 0.306091
0.521942 0.579132 0.308350
0.542023 0.583923 0.310486
0.562836 0.589203 0.312683
0.583862 0.594757 0.314423
0.606262 0.600922 0.315826
0.630066 0.607117 0.315277
0.658173 0.612152 0.309387
0.686401 0.618011 0.302612
0.714447 0.623932 0.294983
0.742310 0.630280 0.284088
0.768677 0.636780 0.270630
0.795746 0.643799 0.254944
0.823517 0.650757 0.238678
0.851868 0.657959 0.220947
0.880707 0.665131 0.201630
0.909943 0.672180 0.182159
0.939026 0.679169 0.161530
0.967194 0.686005 0.140076
0.993744 0.692749 0.119232
0.363647 0.577148 0.335236
0.370483 0.578125 0.334045
0.377899 0.579163 0.332672
0.385834 0.580200 0.331238
0.394379 0.581329 0.329803
0.404022 0.582581 0.328461
0.414948 0.583862 0.327057
0.427185 0.585419 0.325745
0.440765 0.587006 0.323975
0.456512 0.588654 0.322113
0.470703 0.591278 0.322693
0.485596 0.594360 0.324188
0.501648 0.597748 0.326172
0.518311 0.601379 0.328400
0.536438 0.605408 0.330780
0.556671 0.609741 0.332703
0.576660 0.614532 0.335297
0.597107 0.619659 0.337372
0.618317 0.625214 0.338928
0.639282 0.631195 0.340332
0.663208 0.636810 0.338318
0.690216 0.641663 0.331970
0.717255 0.647095 0.324707
0.744171 0.652679 0.315765
0.770447 0.658295 0.302979
0.796387 0.664459 0.287964
0.823120 0.670990 0.270782
0.850769 0.678162 0.252930
0.878937 0.685211 0.232971
0.906952 0.692535 0.212494
0.935486 0.699829 0.191223
0.962952 0.707184 0.168457
0.989227 0.714386 0.145966
0.381073 0.605194 0.356598
0.387756 0.606201 0.355713
0.394897 0.607239 0.354645
0.402527 0.608337 0.353607
0.411072 0.609436 0.352325
0.420593 0.610626 0.351044
0.431396 0.612030 0.349945
0.443817 0.613434 0.348846
0.457184 0.614990 0.347382
0.472076 0.616730 0.345886
0.488098 0.618805 0.345184
0.502838 0.621674 0.346497
0.518799 0.624664 0.348267
0.535767 0.628113 0.350250
0.553741 0.631805 0.352478
0.572327 0.635773 0.355133
0.591248 0.639954 0.357758
0.610870 0.644531 0.360046
0.630646 0.649384 0.361877
0.650665 0.654724 0.363586
0.671265 0.660431 0.364288
0.694855 0.665283 0.360870
0.720581 0.669983 0.354187
0.746277 0.674988 0.346100
0.771942 0.680115 0.335785
0.797394 0.685364 0.321991
0.822906 0.691193 0.305756
0.849091 0.697662 0.287384
0.876251 0.704712 0.268341
0.903564 0.711761 0.247742
0.930634 0.719269 0.226105
0.958099 0.726837 0.203522
0.983429 0.734283 0.180511
0.399048 0.633331 0.378174
0.405762 0.634369 0.377350
0.412811 0.635468 0.376526
0.420349 0.636597 0.375763
0.428589 0.637787 0.374939
0.438019 0.638947 0.373993
0.448883 0.640167 0.372925
0.461060 0.641479 0.371887
0.474243 0.642975 0.370728
0.488739 0.644714 0.369446
0.504639 0.646545 0.368561
0.520050 0.648895 0.369202
0.535583 0.651672 0.370789
0.552063 0.654755 0.372681
0.568939 0.658112 0.374969
0.586243 0.661713 0.377716
0.604584 0.665497 0.380493
0.623444 0.669586 0.383270
0.642273 0.673981 0.385742
0.661621 0.678528 0.387421
0.681519 0.683380 0.388245
