lut/retro-80s/Back to the Future (1985) - Standard.cube
# Created by Benjamin (IWLTBAP): https://luts.iwltbap.com
# Copyright: (C) Copyright 2018 Triune Films and IWLTBAP SAS
# Cannot be resold, shared or otherwise redistributed
TITLE "Triune Films 80s Retro LUTs (Rec.709, sRGB, DCI-P3)"
LUT_3D_SIZE 9
0.007721 0.006012 0.013245
0.081635 0.013702 0.020813
0.178375 0.025574 0.027283
0.303711 0.046112 0.036591
0.433350 0.068573 0.045898
0.557312 0.091858 0.059143
0.674835 0.117737 0.076935
0.786804 0.146423 0.098663
0.891205 0.174347 0.121826
0.065643 0.077515 0.030396
0.094238 0.091919 0.051483
0.194916 0.107697 0.049072
0.322754 0.124420 0.048981
0.456879 0.144989 0.053986
0.582520 0.167908 0.065826
0.699738 0.193115 0.082947
0.808929 0.218719 0.103180
0.911987 0.244934 0.124390
0.118591 0.156219 0.061279
0.142212 0.166443 0.069824
0.203217 0.184387 0.081482
0.333649 0.208130 0.070953
0.473297 0.231293 0.067474
0.607086 0.254944 0.074982
0.725830 0.278534 0.087891
0.834656 0.301270 0.103180
0.936859 0.322479 0.119598
0.176514 0.242188 0.103210
0.197479 0.249969 0.103668
0.242035 0.265900 0.112305
0.344391 0.290039 0.112366
0.486328 0.321381 0.097626
0.620300 0.352081 0.092285
0.746307 0.375885 0.092621
0.860168 0.395203 0.098145
0.965271 0.411774 0.105072
0.233002 0.343628 0.164246
0.262573 0.348633 0.156860
0.303406 0.360779 0.159454
0.376740 0.384735 0.170837
0.504486 0.412415 0.158783
0.632263 0.445496 0.137573
0.755951 0.476532 0.115082
0.876892 0.497864 0.096008
0.989990 0.512421 0.086609
0.294952 0.458771 0.246307
0.327087 0.463074 0.238007
0.373627 0.470917 0.233002
0.436279 0.487946 0.240509
0.525665 0.513672 0.248108
0.647522 0.538544 0.225830
0.763580 0.570679 0.185547
0.883179 0.599457 0.132965
0.998596 0.619476 0.078400
0.363647 0.577148 0.335236
0.394379 0.581329 0.329803
0.440765 0.587006 0.323975
0.501648 0.597748 0.326172
0.576660 0.614532 0.335297
0.663208 0.636810 0.338318
0.770447 0.658295 0.302979
0.878937 0.685211 0.232971
0.989227 0.714386 0.145966
0.434052 0.687592 0.419617
0.463806 0.691803 0.417053
0.507446 0.697083 0.414856
0.568451 0.704315 0.415192
0.632996 0.714752 0.424408
0.703064 0.727539 0.434326
0.778534 0.742737 0.428528
0.866913 0.759613 0.389252
0.957458 0.782990 0.326599
0.504211 0.787170 0.493561
0.533356 0.790894 0.494537
0.574310 0.795288 0.495758
0.628937 0.800568 0.498657
0.688690 0.807526 0.506989
0.748138 0.815094 0.519897
0.803497 0.821960 0.535797
0.853333 0.828339 0.557159
0.907562 0.835358 0.574097
0.030914 0.012726 0.062897
0.075317 0.024170 0.081543
0.163544 0.034851 0.087830
0.283936 0.053131 0.094666
0.415070 0.073822 0.105896
0.540344 0.096924 0.122437
0.659149 0.123230 0.142456
0.772339 0.152039 0.167542
0.878723 0.180176 0.193878
0.067627 0.084229 0.090271
0.092865 0.097229 0.105591
0.178436 0.110748 0.111145
0.303772 0.126648 0.112274
0.438019 0.146088 0.118530
0.564758 0.168884 0.132263
0.683685 0.194977 0.152283
0.794617 0.222076 0.176270
0.899017 0.249481 0.200500
0.121155 0.158356 0.116730
0.142609 0.168701 0.122925
0.188568 0.187775 0.139130
0.317352 0.208374 0.135101
0.457184 0.229431 0.136169
0.590820 0.253235 0.146576
0.711212 0.278290 0.164093
0.821411 0.303101 0.183655
0.925018 0.326080 0.203339
0.172546 0.243103 0.151215
0.196045 0.251068 0.151489
0.237305 0.266815 0.160583
0.327881 0.291901 0.170776
0.471405 0.321045 0.164612
0.609100 0.349945 0.169281
0.735626 0.374969 0.177368
0.850098 0.396667 0.188354
0.955505 0.414734 0.199829
0.225037 0.343567 0.206299
0.255676 0.348877 0.200378
0.297668 0.360901 0.203247
0.368561 0.384705 0.216217
0.491394 0.414642 0.216919
0.622162 0.446411 0.208313
0.747467 0.476746 0.200684
0.870239 0.498779 0.194275
0.983612 0.514893 0.192474
0.286774 0.458984 0.282013
0.317169 0.463593 0.276428
0.367828 0.470398 0.269531
0.429199 0.487457 0.278229
0.518219 0.513916 0.290619
0.638763 0.541595 0.282196
0.756989 0.573120 0.259338
0.878326 0.601227 0.227142
0.995239 0.621521 0.190674
0.355255 0.577057 0.364990
0.385651 0.581268 0.360504
0.431366 0.586884 0.355988
0.495514 0.596893 0.356628
0.570465 0.613922 0.367218
0.656677 0.637665 0.377319
0.765015 0.661224 0.356720
0.874481 0.688690 0.308258
0.986969 0.717590 0.246063
0.426392 0.686249 0.443115
0.456604 0.690369 0.441742
0.499878 0.695679 0.440338
0.563416 0.702850 0.440094
0.628571 0.713654 0.449860
0.699341 0.727020 0.461151
0.774353 0.743958 0.463409
0.863770 0.762268 0.436737
0.955566 0.786499 0.389709
0.499237 0.785095 0.513611
0.528961 0.788788 0.514801
0.569519 0.793182 0.516296
0.624420 0.798737 0.519440
0.685181 0.806000 0.527954
0.744995 0.814117 0.540619
0.801270 0.821808 0.557068
0.851593 0.829224 0.577759
0.906677 0.837189 0.594025
0.062531 0.022583 0.115631
0.084290 0.035736 0.137909
0.152161 0.048767 0.150696
0.265442 0.063690 0.156708
0.394836 0.084320 0.165619
0.521484 0.107910 0.182190
0.641418 0.134369 0.205627
0.755127 0.163574 0.233490
0.861969 0.192291 0.263092
0.072571 0.096405 0.135132
0.106354 0.103363 0.153412
0.163055 0.118378 0.172546
0.280029 0.131958 0.173157
0.414978 0.150513 0.178436
0.543579 0.173248 0.194458
0.663910 0.200500 0.218140
0.775757 0.229614 0.245026
0.880981 0.258057 0.273376
0.106171 0.166748 0.175385
0.137756 0.174408 0.182129
0.180328 0.191528 0.196960
0.296112 0.209351 0.198334
0.436279 0.228668 0.200653
0.570435 0.252594 0.214111
0.691833 0.279541 0.235626
0.802582 0.306580 0.259644
0.906891 0.332672 0.283325
0.164642 0.245422 0.204224
0.193970 0.252594 0.203644
0.231842 0.268555 0.214172
0.307343 0.294098 0.232513
0.452911 0.320648 0.232422
0.593475 0.348236 0.242554
0.719818 0.374451 0.257629
0.834290 0.398865 0.275085
0.939514 0.419159 0.291107
0.216064 0.343628 0.252014
0.244568 0.350098 0.249756
0.291199 0.361816 0.251312
0.359100 0.386047 0.266937
0.474487 0.417633 0.278717
0.608063 0.447174 0.279053
0.735504 0.475739 0.284271
0.858765 0.499878 0.290222
0.971954 0.518402 0.295898
0.277496 0.459106 0.320740
0.306793 0.464447 0.317749
0.356689 0.471985 0.314362
0.420807 0.488464 0.321655
0.509521 0.515198 0.338074
0.627258 0.544312 0.341766
0.747253 0.574921 0.333710
0.870239 0.602325 0.319244
0.988831 0.623199 0.301697
0.345917 0.576416 0.398193
0.375671 0.581055 0.395325
0.421082 0.587036 0.392365
0.489044 0.596497 0.391968
0.563660 0.614227 0.404358
0.650879 0.638855 0.420044
0.758118 0.663879 0.413879
0.868317 0.691711 0.383453
0.982941 0.720734 0.345642
0.418396 0.685059 0.471924
0.448303 0.689209 0.471130
0.491913 0.694580 0.470795
0.556152 0.701599 0.470734
0.623260 0.712555 0.479919
0.694641 0.726776 0.493225
0.769470 0.745331 0.502472
0.859955 0.765045 0.487823
0.952911 0.790222 0.456390
0.493896 0.782959 0.537842
0.523682 0.786652 0.539215
0.564545 0.791107 0.541199
0.619202 0.796722 0.544647
0.681000 0.804077 0.552338
0.741547 0.812927 0.565765
0.798645 0.821747 0.582642
0.849976 0.830170 0.601898
0.905823 0.839203 0.615906
0.083435 0.042969 0.179749
0.100220 0.051636 0.197754
0.143890 0.067932 0.218658
0.247345 0.080322 0.223236
0.375946 0.098938 0.229065
0.503021 0.124023 0.243469
0.621796 0.152924 0.265900
0.734344 0.184143 0.295319
0.839539 0.214325 0.327698
0.106323 0.107910 0.192444
0.125732 0.114655 0.208466
0.162018 0.128601 0.232452
0.257477 0.143036 0.240021
0.390289 0.159363 0.241425
0.520172 0.182617 0.254791
0.640411 0.211548 0.278717
0.751831 0.243134 0.308350
0.856476 0.273834 0.340515
0.116119 0.176758 0.223663
0.141022 0.184113 0.229492
0.185852 0.196442 0.245239
0.270142 0.214996 0.263763
0.409149 0.232208 0.262390
0.544830 0.255585 0.275513
0.666504 0.284454 0.299652
0.776611 0.313721 0.327545
0.881012 0.342987 0.356201
0.142731 0.253906 0.264221
0.168732 0.262115 0.270508
0.219177 0.274719 0.280121
0.288422 0.298981 0.295837
0.430603 0.321411 0.298218
0.572266 0.347412 0.310028
0.696442 0.374725 0.330292
0.808685 0.401794 0.352753
0.913849 0.425476 0.374084
0.206909 0.345032 0.305542
0.233368 0.352783 0.307373
0.283661 0.364594 0.309753
0.348785 0.388947 0.325562
0.453430 0.420715 0.344727
0.589172 0.445984 0.349609
0.718750 0.474670 0.364380
0.839172 0.500397 0.378357
0.950134 0.521820 0.391357
0.268768 0.458374 0.366669
0.296631 0.464752 0.366486
0.343353 0.474091 0.366882
0.412415 0.490906 0.374390
0.499725 0.518677 0.393829
0.613037 0.547241 0.405151
0.733124 0.574341 0.407135
0.856293 0.601074 0.407166
0.975403 0.624054 0.406250
0.337372 0.575104 0.438202
0.366669 0.580414 0.437775
0.410400 0.587341 0.437714
0.480774 0.597107 0.438019
0.556641 0.615601 0.451172
0.644714 0.641235 0.470551
0.748627 0.666840 0.474335
0.859436 0.693451 0.460602
0.975128 0.722015 0.442017
0.410614 0.683228 0.507202
0.440399 0.687561 0.507355
0.482971 0.693115 0.507874
0.546570 0.700775 0.510010
0.617645 0.712006 0.518036
0.689758 0.726959 0.533142
0.765137 0.746643 0.547089
0.854584 0.767792 0.542999
0.948547 0.793488 0.525665
0.488556 0.781006 0.569336
0.518860 0.784821 0.570862
0.558960 0.789368 0.573303
0.613647 0.795319 0.577301
0.675934 0.802734 0.584839
0.737122 0.811798 0.598480
0.795532 0.821625 0.615601
0.847931 0.831329 0.634583
0.903748 0.841705 0.647552
0.111176 0.068848 0.249146
0.125305 0.073303 0.261139
0.154938 0.085480 0.281311
0.229736 0.102570 0.297058
0.355225 0.118713 0.299988
0.485229 0.144073 0.311371
0.604492 0.175751 0.332306
0.713287 0.211212 0.359955
0.813446 0.245575 0.390686
0.134796 0.127472 0.258484
0.148224 0.132812 0.270905
0.176575 0.142883 0.289642
0.236237 0.160950 0.312103
0.363983 0.174713 0.312042
0.497223 0.197052 0.321381
0.618622 0.227905 0.343323
0.727081 0.262634 0.372162
0.827850 0.297089 0.403595
0.123291 0.196014 0.284210
0.153778 0.199921 0.288788
0.198914 0.207245 0.302429
0.256226 0.225586 0.328247
0.378204 0.242188 0.333374
0.516663 0.263794 0.340698
0.639923 0.294159 0.363861
0.747803 0.326263 0.391968
0.848663 0.358582 0.421967
0.153473 0.264191 0.317017
0.174652 0.271942 0.324158
0.216980 0.284271 0.332092
0.286285 0.303680 0.351379
0.400482 0.327728 0.368500
0.544800 0.351654 0.376984
0.667999 0.379242 0.396942
0.777618 0.407227 0.422058
0.879852 0.433899 0.446533
0.187317 0.351715 0.362671
0.211121 0.360687 0.369720
0.254730 0.374329 0.379730
0.334320 0.394928 0.395142
0.429626 0.426422 0.416718
0.570007 0.448761 0.422058
0.696472 0.475403 0.438293
0.810852 0.501251 0.456726
0.917633 0.524689 0.474854
0.261047 0.458282 0.422333
0.287354 0.465973 0.425415
0.330109 0.477600 0.431000
0.404175 0.494720 0.437897
0.488007 0.523529 0.458466
0.594696 0.548523 0.471680
0.715942 0.572357 0.479462
0.836639 0.599396 0.490875
0.950684 0.623230 0.499756
0.332367 0.572815 0.486542
0.359894 0.579102 0.488098
0.400696 0.587555 0.490997
0.468597 0.599243 0.494965
0.548676 0.618439 0.507843
0.637634 0.644501 0.528168
0.737396 0.668518 0.537567
0.846863 0.692200 0.535065
0.960724 0.719360 0.530701
0.406555 0.680603 0.550751
0.435059 0.685577 0.551819
0.475952 0.691711 0.553528
0.537598 0.700287 0.557007
0.611725 0.712250 0.565704
0.684998 0.728638 0.581482
0.760681 0.749512 0.599121
0.847687 0.770325 0.602020
0.940948 0.794678 0.596344
0.485779 0.778870 0.608582
0.516144 0.782898 0.610199
0.555542 0.787598 0.612823
0.608185 0.793610 0.617004
0.670746 0.801178 0.624756
0.732605 0.811157 0.638855
0.791870 0.821960 0.656860
0.845703 0.833191 0.675934
0.900970 0.845062 0.689636
0.144775 0.099426 0.320160
0.154327 0.102539 0.329651
0.176239 0.109802 0.346497
0.222565 0.127747 0.371460
0.331116 0.144196 0.378876
0.465607 0.167908 0.387970
0.589020 0.201935 0.407959
0.697144 0.240417 0.432922
0.792664 0.278717 0.459045
0.165985 0.153992 0.328430
0.176361 0.157501 0.337524
0.198029 0.164154 0.352722
0.242310 0.178680 0.376282
0.336853 0.197479 0.391510
0.473969 0.218231 0.397644
0.599792 0.250305 0.418060
0.707520 0.286621 0.443390
0.803711 0.323547 0.470459
0.171295 0.214630 0.347290
0.190521 0.218048 0.352844
0.217834 0.225006 0.365784
0.265472 0.239197 0.388763
0.348450 0.260712 0.411560
0.488983 0.281342 0.416962
0.616364 0.310516 0.435852
0.723206 0.343811 0.460632
0.819916 0.377930 0.487244
0.167664 0.283295 0.381439
0.183350 0.290314 0.388977
0.212341 0.302155 0.398560
0.293274 0.313690 0.411591
0.377991 0.339417 0.441620
0.513916 0.362671 0.451050
0.640930 0.388611 0.466583
0.748505 0.417877 0.489868
0.844818 0.447174 0.513000
0.199646 0.362122 0.420563
0.219879 0.370605 0.428772
0.256592 0.383881 0.440033
0.325104 0.405273 0.455505
0.420959 0.431976 0.479828
0.545013 0.459290 0.498962
0.671906 0.483459 0.511292
0.780060 0.507385 0.528015
0.880157 0.530029 0.545959
0.248779 0.461761 0.475555
0.272064 0.470612 0.482819
0.310486 0.483673 0.493225
0.376709 0.503479 0.508698
0.476776 0.528717 0.526367
0.578796 0.557465 0.548248
0.699402 0.576813 0.554810
0.812225 0.600739 0.568054
0.916382 0.622467 0.579773
0.319122 0.570953 0.545227
0.350739 0.578033 0.548462
0.389313 0.588745 0.554138
0.453461 0.602844 0.561859
0.539490 0.622498 0.572571
0.629089 0.649231 0.592987
0.723328 0.667694 0.600128
0.830902 0.689728 0.606842
0.938171 0.714722 0.613647
0.407104 0.676636 0.600098
0.433746 0.682281 0.602783
0.472198 0.689514 0.606140
0.529541 0.699677 0.611908
0.604370 0.713074 0.620026
0.679413 0.731415 0.636505
0.756378 0.752808 0.655701
0.839417 0.772125 0.662659
0.929321 0.793457 0.664917
0.488831 0.775177 0.653534
0.518524 0.779694 0.655182
0.555023 0.785034 0.658264
0.604828 0.791565 0.662598
0.666901 0.799683 0.669861
0.729126 0.810760 0.684235
0.789764 0.823059 0.702698
0.843933 0.836273 0.723267
0.898193 0.849915 0.737488
0.179443 0.134369 0.393280
0.187103 0.136444 0.399841
0.203857 0.140717 0.412964
0.240356 0.151886 0.434845
0.308502 0.175781 0.462036
0.441650 0.196381 0.469299
0.573730 0.230865 0.488129
0.685364 0.271179 0.513550
0.781799 0.311737 0.537567
0.197693 0.185577 0.402283
0.204956 0.188477 0.409119
0.220886 0.193756 0.421631
0.258148 0.203827 0.441803
0.324890 0.224060 0.468140
0.448547 0.246490 0.480652
0.582733 0.277985 0.498993
0.694489 0.315216 0.523682
0.790833 0.352814 0.548065
0.208130 0.241943 0.419067
0.221100 0.244965 0.424194
0.243317 0.250580 0.434357
0.280823 0.262299 0.454468
0.347290 0.282440 0.481110
0.461121 0.307281 0.500214
0.595764 0.335541 0.515839
0.707184 0.368744 0.539215
0.803223 0.402435 0.562408
0.189941 0.309418 0.449677
0.211884 0.314056 0.456177
0.247040 0.321350 0.465149
0.308685 0.332733 0.477661
0.381500 0.355255 0.506134
0.483368 0.383301 0.532990
0.617157 0.407623 0.545013
0.727448 0.436615 0.564575
0.821930 0.464569 0.583923
0.216705 0.381256 0.486969
0.233429 0.389374 0.495483
0.263397 0.402008 0.507660
0.316010 0.422363 0.524475
0.420868 0.442322 0.543091
0.521759 0.471863 0.573669
0.646729 0.495422 0.585938
0.755829 0.518738 0.600037
0.850708 0.541473 0.615265
0.261444 0.469513 0.534424
0.282227 0.478149 0.542603
0.315582 0.490997 0.553894
0.372192 0.511078 0.570892
0.460236 0.537292 0.590302
0.568146 0.564331 0.615723
0.681580 0.589508 0.633698
0.789581 0.609863 0.642853
0.884033 0.627869 0.652130
0.323334 0.570740 0.591614
0.347321 0.579132 0.598267
0.381104 0.590210 0.607452
0.435242 0.606445 0.620728
0.517273 0.627930 0.637207
0.620941 0.653076 0.654938
0.713654 0.675873 0.674835
0.816284 0.694092 0.682007
0.910950 0.713287 0.689728
0.398895 0.672821 0.651398
0.424225 0.679352 0.656036
0.458038 0.687866 0.662537
0.509186 0.700226 0.672333
0.584717 0.716156 0.685730
0.672272 0.734558 0.697205
0.752411 0.756927 0.715424
0.831238 0.771759 0.720886
0.916260 0.790558 0.729492
0.495239 0.768188 0.702240
0.523010 0.773743 0.704224
0.557343 0.780029 0.707214
0.604462 0.787872 0.711487
0.664917 0.797546 0.718475
0.728485 0.810303 0.731201
0.791412 0.825287 0.749390
0.845642 0.841034 0.769897
0.898071 0.856049 0.785706
0.211670 0.172424 0.467560
0.217255 0.174286 0.472656
0.230652 0.177826 0.483398
0.261230 0.185120 0.501678
0.317688 0.201233 0.527466
0.414490 0.229645 0.551910
0.555206 0.263062 0.569336
0.675446 0.304596 0.595490
0.777557 0.346497 0.622192
0.231781 0.220581 0.475922
0.238434 0.223358 0.481079
0.252747 0.227692 0.491089
0.282318 0.235779 0.509155
0.335449 0.251953 0.535095
0.425018 0.279877 0.564270
0.563324 0.310425 0.581604
0.684174 0.348877 0.607086
0.786011 0.387177 0.632202
0.242584 0.275848 0.492889
0.253357 0.278992 0.497437
0.274109 0.283478 0.505096
0.305145 0.293732 0.523895
0.362122 0.310120 0.548920
0.448761 0.337311 0.579865
0.575714 0.367188 0.600525
0.696075 0.400970 0.623138
0.797180 0.434387 0.645782
0.240204 0.338989 0.521576
0.253784 0.344269 0.528656
0.279694 0.351776 0.537933
0.329285 0.362396 0.550537
0.392792 0.380890 0.575287
0.480469 0.406189 0.603851
0.595490 0.435791 0.628021
0.713989 0.464386 0.645966
0.813080 0.492310 0.665039
0.236725 0.409546 0.557190
0.249664 0.417175 0.565399
0.278778 0.428070 0.576630
0.340942 0.442566 0.591858
0.428467 0.460663 0.608948
0.518799 0.487335 0.639496
0.624390 0.515991 0.665161
0.739258 0.539062 0.677979
0.836243 0.561523 0.692139
0.277802 0.485687 0.598755
0.296234 0.493713 0.607208
0.324951 0.505676 0.619049
0.373138 0.524414 0.636108
0.444946 0.549957 0.656494
0.561157 0.572205 0.677979
0.663513 0.600525 0.704590
0.771332 0.621796 0.716522
0.865265 0.638824 0.724762
0.333038 0.574127 0.648102
0.354889 0.582550 0.655731
0.385315 0.593567 0.665588
0.432404 0.609619 0.679688
0.505066 0.631866 0.698120
0.600067 0.658905 0.717285
0.705963 0.683472 0.740997
0.802917 0.704865 0.755463
0.892212 0.720673 0.761261
0.405548 0.667084 0.700714
0.428955 0.674164 0.705994
0.460083 0.683472 0.713104
0.507416 0.697205 0.723114
0.574982 0.715393 0.736328
0.661163 0.736664 0.751221
0.746796 0.760071 0.769348
0.828156 0.777924 0.785461
0.906799 0.795715 0.796539
0.489777 0.758026 0.748444
0.516083 0.764526 0.751587
0.549347 0.772430 0.755676
0.595428 0.782379 0.760834
0.656189 0.794891 0.768372
0.726074 0.810272 0.779510
0.793457 0.828735 0.796112
0.852081 0.847809 0.814667
0.904327 0.865692 0.832520
0.247711 0.210358 0.538177
0.252655 0.212372 0.541901
0.263489 0.215759 0.550598
0.286743 0.221863 0.567505
0.330505 0.234985 0.593445
0.411011 0.260101 0.624146
0.533539 0.296356 0.649506
0.665100 0.339569 0.676636
0.774414 0.382904 0.704987
0.266968 0.258270 0.549408
0.272491 0.261047 0.553589
0.284058 0.265656 0.562286
0.308044 0.272858 0.578461
0.354126 0.285309 0.602448
0.431580 0.309265 0.633423
0.541962 0.345581 0.664398
0.674103 0.384186 0.689209
0.783295 0.423248 0.715942
0.278412 0.313385 0.568787
0.287476 0.316925 0.573090
0.306183 0.321899 0.580200
0.334808 0.330872 0.595459
0.380188 0.345306 0.619598
0.455658 0.367737 0.649994
0.558380 0.401520 0.683289
0.685791 0.436279 0.706848
0.794617 0.470062 0.730072
0.282562 0.375580 0.596710
0.294342 0.380493 0.602844
0.315735 0.387878 0.612030
0.353546 0.398254 0.625824
0.411774 0.411621 0.644531
0.486847 0.434235 0.673767
0.586029 0.465240 0.705750
0.702820 0.496948 0.729248
0.810333 0.525787 0.749084
0.282104 0.440552 0.627686
0.298340 0.446960 0.635559
0.324158 0.456390 0.646362
0.367126 0.469788 0.661621
0.435791 0.486115 0.679352
0.522430 0.507812 0.704071
0.620300 0.536560 0.734070
0.727325 0.565369 0.757935
0.831421 0.588776 0.773224
0.295380 0.507874 0.665222
0.311554 0.515320 0.673431
0.335693 0.526459 0.684998
0.376556 0.543243 0.700745
0.457336 0.561401 0.718842
0.558472 0.583374 0.738617
0.658875 0.611633 0.766968
0.757629 0.637909 0.789520
0.856903 0.656982 0.800720
0.340576 0.582306 0.708405
0.360321 0.590027 0.716064
0.387634 0.600586 0.726257
0.429077 0.615723 0.740234
0.493164 0.637115 0.757904
0.593201 0.661560 0.776794
0.698639 0.687347 0.799347
0.792145 0.711304 0.819275
0.883118 0.728302 0.829254
0.405090 0.662445 0.754150
0.427124 0.669830 0.760529
0.456665 0.679749 0.768127
0.500702 0.693848 0.778290
0.564240 0.713074 0.791046
0.646973 0.737122 0.806030
0.742737 0.761841 0.823578
0.828094 0.784058 0.841858
0.903137 0.801544 0.854828
0.486206 0.744537 0.796600
0.511292 0.751770 0.800079
0.544525 0.760895 0.804260
0.591400 0.772949 0.809235
0.654175 0.788849 0.815796
0.726929 0.809052 0.825043
0.800598 0.832184 0.837769
0.860931 0.855408 0.856567
0.915009 0.873993 0.875763
