lut/retro-80s/Back to the Future (1985) - Standard.cube
# Created by Benjamin (IWLTBAP): https://luts.iwltbap.com
# Copyright: (C) Copyright 2018 Triune Films and IWLTBAP SAS
# Cannot be resold, shared or otherwise redistributed
TITLE "Triune Films 80s Retro LUTs (Rec.709, sRGB, DCI-P3)"
LUT_3D_SIZE 5
0.007721 0.006012 0.013245
0.178375 0.025574 0.027283
0.433350 0.068573 0.045898
0.674835 0.117737 0.076935
0.891205 0.174347 0.121826
0.118591 0.156219 0.061279
0.203217 0.184387 0.081482
0.473297 0.231293 0.067474
0.725830 0.278534 0.087891
0.936859 0.322479 0.119598
0.233002 0.343628 0.164246
0.303406 0.360779 0.159454
0.504486 0.412415 0.158783
0.755951 0.476532 0.115082
0.989990 0.512421 0.086609
0.363647 0.577148 0.335236
0.440765 0.587006 0.323975
0.576660 0.614532 0.335297
0.770447 0.658295 0.302979
0.989227 0.714386 0.145966
0.504211 0.787170 0.493561
0.574310 0.795288 0.495758
0.688690 0.807526 0.506989
0.803497 0.821960 0.535797
0.907562 0.835358 0.574097
0.062531 0.022583 0.115631
0.152161 0.048767 0.150696
0.394836 0.084320 0.165619
0.641418 0.134369 0.205627
0.861969 0.192291 0.263092
0.106171 0.166748 0.175385
0.180328 0.191528 0.196960
0.436279 0.228668 0.200653
0.691833 0.279541 0.235626
0.906891 0.332672 0.283325
0.216064 0.343628 0.252014
0.291199 0.361816 0.251312
0.474487 0.417633 0.278717
0.735504 0.475739 0.284271
0.971954 0.518402 0.295898
0.345917 0.576416 0.398193
0.421082 0.587036 0.392365
0.563660 0.614227 0.404358
0.758118 0.663879 0.413879
0.982941 0.720734 0.345642
0.493896 0.782959 0.537842
0.564545 0.791107 0.541199
0.681000 0.804077 0.552338
0.798645 0.821747 0.582642
0.905823 0.839203 0.615906
0.111176 0.068848 0.249146
0.154938 0.085480 0.281311
0.355225 0.118713 0.299988
0.604492 0.175751 0.332306
0.813446 0.245575 0.390686
0.123291 0.196014 0.284210
0.198914 0.207245 0.302429
0.378204 0.242188 0.333374
0.639923 0.294159 0.363861
0.848663 0.358582 0.421967
0.187317 0.351715 0.362671
0.254730 0.374329 0.379730
0.429626 0.426422 0.416718
0.696472 0.475403 0.438293
0.917633 0.524689 0.474854
0.332367 0.572815 0.486542
0.400696 0.587555 0.490997
0.548676 0.618439 0.507843
0.737396 0.668518 0.537567
0.960724 0.719360 0.530701
0.485779 0.778870 0.608582
0.555542 0.787598 0.612823
0.670746 0.801178 0.624756
0.791870 0.821960 0.656860
0.900970 0.845062 0.689636
0.179443 0.134369 0.393280
0.203857 0.140717 0.412964
0.308502 0.175781 0.462036
0.573730 0.230865 0.488129
0.781799 0.311737 0.537567
0.208130 0.241943 0.419067
0.243317 0.250580 0.434357
0.347290 0.282440 0.481110
0.595764 0.335541 0.515839
0.803223 0.402435 0.562408
0.216705 0.381256 0.486969
0.263397 0.402008 0.507660
0.420868 0.442322 0.543091
0.646729 0.495422 0.585938
0.850708 0.541473 0.615265
0.323334 0.570740 0.591614
0.381104 0.590210 0.607452
0.517273 0.627930 0.637207
0.713654 0.675873 0.674835
0.910950 0.713287 0.689728
0.495239 0.768188 0.702240
0.557343 0.780029 0.707214
0.664917 0.797546 0.718475
0.791412 0.825287 0.749390
0.898071 0.856049 0.785706
0.247711 0.210358 0.538177
0.263489 0.215759 0.550598
0.330505 0.234985 0.593445
0.533539 0.296356 0.649506
0.774414 0.382904 0.704987
0.278412 0.313385 0.568787
0.306183 0.321899 0.580200
0.380188 0.345306 0.619598
0.558380 0.401520 0.683289
0.794617 0.470062 0.730072
0.282104 0.440552 0.627686
0.324158 0.456390 0.646362
0.435791 0.486115 0.679352
0.620300 0.536560 0.734070
0.831421 0.588776 0.773224
0.340576 0.582306 0.708405
0.387634 0.600586 0.726257
0.493164 0.637115 0.757904
0.698639 0.687347 0.799347
0.883118 0.728302 0.829254
0.486206 0.744537 0.796600
0.544525 0.760895 0.804260
0.654175 0.788849 0.815796
0.800598 0.832184 0.837769
0.915009 0.873993 0.875763
