lut/retro-80s/Batman (1989) - Standard.cube
# Created by Benjamin (IWLTBAP): https://luts.iwltbap.com
# Copyright: (C) Copyright 2018 Triune Films and IWLTBAP SAS
# Cannot be resold, shared or otherwise redistributed
TITLE "Triune Films 80s Retro LUTs (Rec.709, sRGB, DCI-P3)"
LUT_3D_SIZE 5
0.000000 0.000000 0.000793
0.140137 0.057281 0.055695
0.363861 0.095917 0.088593
0.599976 0.116119 0.097351
0.835022 0.151520 0.126495
0.000000 0.164764 0.044861
0.211273 0.230957 0.049500
0.491425 0.270996 0.063629
0.729309 0.300415 0.098694
0.955170 0.347626 0.174988
0.052246 0.375366 0.096527
0.235016 0.433014 0.114532
0.514709 0.509369 0.071838
0.762085 0.518768 0.051575
1.000000 0.551422 0.151733
0.170013 0.581299 0.173218
0.323944 0.639008 0.199646
0.552002 0.717834 0.185699
0.768555 0.762299 0.100098
1.000000 0.755798 0.033966
0.261719 0.786499 0.237549
0.396667 0.840729 0.268646
0.603821 0.900482 0.256195
0.807037 0.966827 0.259277
0.998474 0.996643 0.168182
0.000000 0.028046 0.123932
0.123932 0.043945 0.153015
0.320740 0.104584 0.175812
0.570892 0.131561 0.196808
0.823395 0.169678 0.231537
0.000000 0.187531 0.180695
0.163849 0.225403 0.207336
0.458740 0.274200 0.233643
0.700958 0.306396 0.249573
0.930573 0.355133 0.298309
0.011810 0.394623 0.240601
0.201752 0.438446 0.263031
0.508179 0.509003 0.275177
0.761597 0.519165 0.271088
1.000000 0.559631 0.344025
0.153137 0.603119 0.315216
0.308075 0.653595 0.347778
0.537872 0.716339 0.347504
0.767395 0.762573 0.302734
1.000000 0.755341 0.268707
0.239441 0.808533 0.378082
0.380554 0.858459 0.418365
0.587860 0.902130 0.400970
0.805573 0.968567 0.402008
0.998779 0.997528 0.363373
0.000000 0.058655 0.264191
0.100952 0.048157 0.298462
0.268066 0.106171 0.336243
0.510620 0.151947 0.356354
0.740448 0.204895 0.368927
0.000000 0.218353 0.354187
0.136963 0.246338 0.388397
0.347778 0.289246 0.429352
0.622711 0.330536 0.443542
0.848022 0.384033 0.467804
0.000000 0.430145 0.418671
0.185730 0.467834 0.454865
0.461090 0.519928 0.502106
0.744598 0.550049 0.520508
0.972015 0.589691 0.555481
0.101379 0.630402 0.479736
0.277100 0.678680 0.519165
0.515228 0.723053 0.541718
0.766144 0.764893 0.537811
1.000000 0.759094 0.517395
0.156586 0.836395 0.542389
0.337372 0.884125 0.585327
0.558563 0.912048 0.577789
0.793610 0.964264 0.592255
0.997864 0.997345 0.582733
0.000000 0.080475 0.390045
0.103119 0.079346 0.426056
0.228699 0.124451 0.471710
0.436890 0.175171 0.530792
0.699402 0.236511 0.566437
0.000000 0.239136 0.493530
0.137024 0.266327 0.533295
0.293854 0.309479 0.579529
0.555359 0.359283 0.636322
0.801697 0.420380 0.661743
0.000000 0.459381 0.617249
0.196167 0.488281 0.650696
0.412750 0.529449 0.681732
0.684692 0.577393 0.719666
0.893494 0.626404 0.737610
0.000000 0.662018 0.648590
0.231750 0.705963 0.692444
0.493164 0.743561 0.730347
0.761414 0.787567 0.770020
0.978882 0.816772 0.795288
0.000000 0.848999 0.700562
0.235748 0.907654 0.747559
0.519531 0.939636 0.761932
0.788086 0.971649 0.796051
0.996490 0.997284 0.825409
0.000000 0.098267 0.512482
0.111298 0.101959 0.557404
0.220856 0.140869 0.596649
0.394928 0.190796 0.664490
0.644562 0.256836 0.733856
0.000000 0.263275 0.635651
0.129700 0.285614 0.677246
0.281738 0.325500 0.715302
0.514648 0.373810 0.779724
0.766296 0.440674 0.826630
0.000000 0.469971 0.765778
0.148621 0.498077 0.804016
0.388641 0.537018 0.836639
0.655945 0.587524 0.877808
0.874634 0.646942 0.901001
0.000000 0.697235 0.861755
0.126129 0.728058 0.904663
0.478271 0.750793 0.933716
0.740662 0.788483 0.940521
0.949677 0.841614 0.955933
0.000000 0.877380 0.865631
0.038635 0.928070 0.916748
0.429871 0.966522 0.954071
0.746979 0.988220 0.976440
1.000000 1.000000 1.000000
