lut/retro-80s/Batman (1989) - Standard.cube
# Created by Benjamin (IWLTBAP): https://luts.iwltbap.com
# Copyright: (C) Copyright 2018 Triune Films and IWLTBAP SAS
# Cannot be resold, shared or otherwise redistributed
TITLE "Triune Films 80s Retro LUTs (Rec.709, sRGB, DCI-P3)"
LUT_3D_SIZE 33
0.000000 0.000000 0.000793
0.014618 0.007507 0.007507
0.029785 0.014496 0.014160
0.045013 0.021576 0.021301
0.061371 0.028809 0.028107
0.078491 0.036163 0.035400
0.097229 0.043365 0.042419
0.117676 0.050323 0.049011
0.140137 0.057281 0.055695
0.164093 0.063995 0.061920
0.190277 0.070465 0.067932
0.217590 0.076141 0.073059
0.246033 0.081238 0.077606
0.275208 0.085785 0.081299
0.304657 0.089478 0.084320
0.334320 0.092804 0.086853
0.363861 0.095917 0.088593
0.393372 0.098846 0.090210
0.422913 0.101288 0.091492
0.452362 0.103821 0.092529
0.481903 0.106232 0.093292
0.511444 0.108490 0.094269
0.540985 0.110809 0.095184
0.570526 0.113373 0.096100
0.599976 0.116119 0.097351
0.629456 0.119049 0.098907
0.658905 0.122253 0.100922
0.688354 0.125854 0.103333
0.717834 0.130005 0.106537
0.747192 0.134521 0.110291
0.776550 0.139587 0.114868
0.805939 0.145355 0.120239
0.835022 0.151520 0.126495
0.000000 0.017456 0.005432
0.016815 0.022461 0.007355
0.033295 0.027252 0.014832
0.050293 0.032776 0.022278
0.067719 0.039490 0.029083
0.086487 0.046417 0.036835
0.106934 0.053162 0.043976
0.129028 0.060944 0.050964
0.152954 0.068146 0.057648
0.178375 0.074951 0.064056
0.205719 0.081543 0.069489
0.233887 0.087463 0.074524
0.262787 0.092773 0.078674
0.292175 0.097687 0.081940
0.321777 0.101990 0.084808
0.351440 0.105713 0.086945
0.381104 0.109222 0.088684
0.410767 0.112579 0.090271
0.440399 0.115570 0.091553
0.470001 0.118500 0.092407
0.499664 0.121490 0.093445
0.529327 0.124329 0.094452
0.558990 0.127289 0.095459
0.588623 0.130371 0.096710
0.618286 0.133606 0.098419
0.647888 0.137177 0.100433
0.677460 0.140900 0.102936
0.707001 0.144989 0.106079
0.736511 0.149750 0.109955
0.765930 0.154816 0.114410
0.795227 0.160492 0.119873
0.824585 0.166748 0.126160
0.853485 0.173584 0.133301
0.000000 0.035645 0.009613
0.015594 0.041656 0.001862
0.035400 0.046204 0.013947
0.053894 0.050934 0.021637
0.073547 0.056671 0.028961
0.094482 0.062561 0.036163
0.116699 0.069336 0.043793
0.140564 0.076263 0.051178
0.166107 0.083405 0.058167
0.192993 0.090302 0.064514
0.221375 0.096924 0.070099
0.250488 0.102783 0.075043
0.279938 0.108124 0.078735
0.309570 0.113220 0.082001
0.339294 0.117645 0.084717
0.369019 0.121704 0.086670
0.398682 0.125610 0.088379
0.428345 0.129272 0.089844
0.458008 0.132690 0.091064
0.487701 0.135986 0.092194
0.517426 0.139374 0.093384
0.547119 0.142578 0.094543
0.576843 0.145905 0.095734
0.606537 0.149445 0.097382
0.636322 0.153168 0.099518
0.666016 0.157104 0.102234
0.695679 0.161346 0.105225
0.725250 0.165955 0.108887
0.754761 0.171021 0.113617
0.784180 0.176636 0.118988
0.813416 0.182739 0.125397
0.842651 0.189453 0.132538
0.871460 0.196777 0.140533
0.000000 0.054016 0.014923
0.009430 0.060822 0.002411
0.034760 0.066315 0.009491
0.056183 0.071747 0.020599
0.078125 0.077332 0.027954
0.101501 0.083038 0.034821
0.126373 0.089386 0.042145
0.152252 0.096008 0.049561
0.179443 0.102631 0.056854
0.207947 0.109253 0.063507
0.237488 0.115662 0.069061
0.267426 0.121460 0.073761
0.297424 0.126801 0.077698
0.327332 0.131744 0.080658
0.357086 0.136383 0.083252
0.386780 0.140564 0.085388
0.416382 0.144592 0.087006
0.445984 0.148376 0.088684
0.475525 0.152069 0.089996
0.505157 0.155609 0.091248
0.534790 0.159180 0.092651
0.564453 0.162811 0.094086
0.594116 0.166412 0.095734
0.623840 0.170227 0.097748
0.653564 0.174194 0.100464
0.683228 0.178436 0.103455
0.712860 0.183044 0.107422
0.742432 0.187927 0.111725
0.771881 0.193359 0.117096
0.801208 0.199280 0.123474
0.830322 0.205719 0.130646
0.859436 0.212921 0.138794
0.888031 0.220490 0.147644
0.000000 0.073639 0.020691
0.005707 0.080536 0.009949
0.033630 0.087189 0.005005
0.056244 0.093079 0.018372
0.080048 0.099548 0.027222
0.105957 0.105988 0.033844
0.133636 0.112305 0.040344
0.162415 0.118744 0.047028
0.192108 0.125153 0.053619
0.222412 0.131409 0.060516
0.253296 0.137390 0.066071
0.284210 0.143127 0.070740
0.314819 0.148315 0.074860
0.345215 0.153107 0.078064
0.375061 0.157654 0.080811
0.404694 0.161926 0.082916
0.434204 0.165955 0.084778
0.463623 0.169922 0.086456
0.493042 0.173523 0.087921
0.522491 0.177307 0.089569
0.551941 0.181030 0.091248
0.581421 0.184784 0.093231
0.610962 0.188599 0.095215
0.640564 0.192566 0.097839
0.670105 0.196777 0.100952
0.699646 0.201172 0.104736
0.729156 0.205963 0.109161
0.758575 0.211090 0.114319
0.787903 0.216736 0.120422
0.817078 0.222839 0.127594
0.846069 0.229523 0.135559
0.874939 0.236847 0.144592
0.903351 0.244812 0.154419
0.000000 0.094299 0.026459
0.004547 0.101807 0.015961
0.031189 0.109222 0.001068
0.055359 0.115479 0.013763
0.080139 0.122131 0.026215
0.108002 0.129669 0.033478
0.138092 0.136993 0.038910
0.169373 0.143860 0.044983
0.201813 0.150299 0.050690
0.234680 0.156525 0.056000
0.267517 0.162231 0.061096
0.299591 0.167511 0.066040
0.331085 0.172546 0.070099
0.362000 0.177277 0.073456
0.392212 0.181641 0.076477
0.422028 0.185791 0.078949
0.451538 0.189728 0.081238
0.480927 0.193604 0.083191
0.510132 0.197388 0.085144
0.539429 0.201141 0.087097
0.568695 0.204865 0.089294
0.597992 0.208679 0.091583
0.627319 0.212555 0.094330
0.656677 0.216614 0.097321
0.686035 0.220917 0.101227
0.715393 0.225464 0.105499
0.744690 0.230316 0.110687
0.773895 0.235565 0.116669
0.803009 0.241241 0.123566
0.831879 0.247406 0.131409
0.860657 0.254150 0.140137
0.889282 0.261658 0.149902
0.917358 0.269653 0.160431
0.000000 0.116699 0.032471
0.000183 0.124298 0.022827
0.027679 0.132599 0.000000
0.054840 0.138702 0.012695
0.079926 0.145538 0.026184
0.107483 0.153412 0.033508
0.139282 0.162048 0.039062
0.173157 0.169983 0.043884
0.207794 0.177124 0.048492
0.242981 0.183533 0.052643
0.278107 0.189209 0.056335
0.312012 0.194336 0.060089
0.344727 0.199036 0.064087
0.376434 0.203491 0.067535
0.407318 0.207733 0.070801
0.437592 0.211761 0.073669
0.467377 0.215576 0.076355
0.496887 0.219330 0.078766
0.526184 0.223083 0.081268
0.555450 0.226776 0.083862
0.584625 0.230499 0.086456
0.613831 0.234283 0.089447
0.643036 0.238159 0.092712
0.672211 0.242249 0.096558
0.701324 0.246490 0.101044
0.730499 0.251007 0.106140
0.759552 0.255859 0.112000
0.788544 0.261108 0.118683
0.817352 0.266754 0.126282
0.845978 0.272888 0.134918
0.874451 0.279694 0.144318
0.902771 0.287170 0.154724
0.930542 0.295166 0.165924
0.000000 0.140198 0.038757
0.000153 0.148010 0.030823
0.017365 0.156738 0.013245
0.054199 0.162994 0.015533
0.079956 0.169647 0.027924
0.107117 0.177521 0.035217
0.138580 0.186523 0.040985
0.174011 0.195923 0.044586
0.210907 0.204285 0.047852
0.248016 0.211395 0.050842
0.284790 0.217407 0.053528
0.320618 0.222595 0.055511
0.354919 0.227142 0.058075
0.387726 0.231323 0.061005
0.419495 0.235352 0.064148
0.450470 0.239136 0.067352
0.480927 0.242859 0.070404
0.510834 0.246460 0.073364
0.540466 0.250092 0.076263
0.569946 0.253693 0.079407
0.599304 0.257355 0.082825
0.628540 0.261047 0.086548
0.657715 0.264862 0.090454
0.686859 0.268860 0.094971
0.715912 0.273071 0.100250
0.744873 0.277557 0.106232
0.773773 0.282349 0.112732
0.802551 0.287476 0.120148
0.831146 0.293091 0.128510
0.859528 0.299255 0.137756
0.887665 0.305908 0.147980
0.915680 0.313293 0.159058
0.943146 0.321198 0.170807
0.000000 0.164764 0.044861
0.000122 0.172821 0.037506
0.017609 0.181580 0.025452
0.054565 0.188049 0.026489
0.080444 0.194458 0.033020
0.107208 0.202209 0.038788
0.137970 0.211212 0.044159
0.172943 0.221069 0.047577
0.211273 0.230957 0.049500
0.250397 0.239349 0.050873
0.288818 0.246094 0.052032
0.325836 0.251648 0.053101
0.361481 0.256287 0.054108
0.395660 0.260193 0.055420
0.428375 0.263947 0.057587
0.460236 0.267487 0.060455
0.491425 0.270996 0.063629
0.522095 0.274445 0.067108
0.552338 0.277924 0.070526
0.582275 0.281403 0.074249
0.612000 0.284973 0.078278
0.641541 0.288605 0.082703
0.670959 0.292358 0.087494
0.700165 0.296265 0.092682
0.729309 0.300415 0.098694
0.758301 0.304749 0.105408
0.787079 0.309387 0.112885
0.815765 0.314514 0.120972
0.844177 0.319977 0.130066
0.872406 0.325989 0.140015
0.900299 0.332550 0.150818
0.928009 0.339813 0.162567
0.955170 0.347626 0.174988
0.000000 0.190277 0.050842
0.000122 0.198608 0.044281
0.018555 0.207153 0.035095
0.056824 0.213501 0.036407
0.082153 0.219727 0.041199
0.108429 0.227234 0.044739
0.138062 0.236115 0.048981
0.172119 0.246246 0.052002
0.210175 0.256714 0.053925
0.250549 0.266693 0.053864
0.290619 0.274658 0.052856
0.328888 0.280853 0.052429
0.365509 0.285828 0.052246
0.400574 0.289978 0.052582
0.434235 0.293365 0.053009
0.466888 0.296509 0.054352
0.498810 0.299683 0.056946
0.530243 0.302917 0.060181
0.561249 0.306244 0.064056
0.591888 0.309601 0.068146
0.622223 0.313049 0.072815
0.652283 0.316559 0.077820
0.682129 0.320221 0.083344
0.711731 0.324005 0.089478
0.741058 0.328033 0.096344
0.770233 0.332275 0.103760
0.799133 0.336884 0.111938
0.827789 0.341766 0.120819
0.856232 0.347137 0.130646
0.884338 0.353058 0.141296
0.912079 0.359467 0.152740
0.939606 0.366577 0.165100
0.966522 0.374146 0.178101
0.000000 0.216370 0.057068
0.003326 0.224884 0.050720
0.021179 0.233154 0.044006
0.060669 0.239136 0.046906
0.085297 0.245453 0.050140
0.110260 0.252594 0.052979
0.139069 0.261353 0.055725
0.172089 0.271362 0.058441
0.209381 0.282196 0.059845
0.249603 0.293030 0.059570
0.290863 0.302490 0.057159
0.330383 0.309784 0.054474
0.367859 0.315399 0.052551
0.403534 0.319794 0.051514
0.437775 0.323395 0.051025
0.470917 0.326294 0.050995
0.503326 0.329010 0.051849
0.535309 0.331757 0.054077
0.566895 0.334717 0.057373
0.598267 0.337769 0.061523
0.629333 0.341034 0.066559
0.660065 0.344452 0.072021
0.690491 0.347992 0.078156
0.720612 0.351685 0.084991
0.750519 0.355591 0.092438
0.779999 0.359772 0.100677
0.809204 0.364197 0.109528
0.838104 0.369019 0.119232
0.866669 0.374237 0.129730
0.894806 0.379974 0.140991
0.922577 0.386261 0.153076
0.950012 0.393158 0.166077
0.976807 0.400635 0.179657
0.000000 0.242950 0.063080
0.006958 0.251526 0.057831
0.034576 0.259277 0.053925
0.066345 0.265045 0.057220
0.089722 0.271118 0.059845
0.113922 0.278107 0.062256
0.141418 0.286560 0.064117
0.173279 0.296448 0.066010
0.209656 0.307434 0.067200
0.249298 0.318756 0.067017
0.290497 0.329285 0.064514
0.330933 0.338104 0.059875
0.369263 0.344666 0.055664
0.405457 0.349609 0.052673
0.440063 0.353394 0.050781
0.473480 0.356415 0.049744
0.506195 0.358978 0.049530
0.538361 0.361206 0.050079
0.570251 0.363556 0.051941
0.601990 0.366150 0.055237
0.633636 0.369019 0.059784
0.664978 0.372192 0.065399
0.696075 0.375549 0.071838
0.726868 0.379120 0.078979
0.757324 0.382904 0.087128
0.787445 0.386932 0.095886
0.817078 0.391235 0.105377
0.846344 0.395905 0.115723
0.875244 0.401001 0.126801
0.903656 0.406586 0.138794
0.931580 0.412659 0.151520
0.959076 0.419464 0.165100
0.985901 0.426758 0.179321
0.000000 0.269714 0.068848
0.009338 0.278259 0.064453
0.047852 0.285187 0.064575
0.073303 0.290924 0.067902
0.095367 0.296936 0.070007
0.118622 0.303650 0.071838
0.145264 0.311859 0.073517
0.176117 0.321503 0.074951
0.211334 0.332489 0.075592
0.250153 0.344116 0.075317
0.290894 0.355408 0.072998
0.331329 0.365356 0.068481
0.370178 0.373383 0.062286
0.406891 0.379089 0.056824
0.441711 0.383331 0.052795
0.475250 0.386505 0.050323
0.508057 0.389038 0.048859
0.540344 0.391205 0.048492
0.572296 0.393097 0.048981
0.604034 0.394989 0.050537
0.635803 0.397186 0.053741
0.667572 0.399811 0.058502
0.699127 0.402893 0.064697
0.730499 0.406158 0.071869
0.761597 0.409760 0.080139
0.792358 0.413635 0.089233
0.822632 0.417786 0.099243
0.852448 0.422302 0.110016
0.881775 0.427246 0.121674
0.910583 0.432648 0.134247
0.938873 0.438568 0.147552
0.966583 0.445129 0.161743
0.993591 0.452271 0.176514
0.000000 0.296539 0.074371
0.024750 0.304871 0.071777
0.059235 0.311035 0.075195
0.081451 0.316956 0.078156
0.102509 0.322815 0.080139
0.125061 0.329376 0.081604
0.150818 0.337311 0.083099
0.180695 0.346680 0.084229
0.214691 0.357544 0.085022
0.252441 0.369293 0.084747
0.292389 0.381104 0.082458
0.332428 0.391876 0.078094
0.371277 0.401031 0.071960
0.408295 0.408142 0.064575
0.443207 0.413055 0.057922
0.476685 0.416595 0.053314
0.509430 0.419220 0.050201
0.541656 0.421326 0.048523
0.573547 0.423096 0.047974
0.605255 0.424622 0.048492
0.636841 0.426117 0.049866
0.668457 0.427917 0.052704
0.700226 0.430267 0.057495
0.731964 0.433105 0.064087
0.763550 0.436340 0.071991
0.794861 0.439941 0.080963
0.825806 0.443878 0.091064
0.856262 0.448181 0.102081
0.886139 0.452911 0.114105
0.915497 0.458099 0.127045
0.944244 0.463837 0.140839
0.972412 0.470154 0.155518
0.999329 0.477386 0.171967
0.001526 0.323456 0.079346
0.045654 0.330719 0.081635
0.070343 0.336975 0.085571
0.090820 0.342926 0.088501
0.110840 0.348816 0.090424
0.132751 0.355225 0.091705
0.157776 0.362823 0.092957
0.186859 0.371918 0.093933
0.219940 0.382568 0.094574
0.256470 0.394257 0.094391
0.295380 0.406342 0.092682
0.334686 0.417786 0.088715
0.373108 0.427917 0.082855
0.410004 0.436218 0.075409
0.444977 0.442413 0.066864
0.478241 0.446503 0.059326
0.510742 0.449402 0.054016
0.542725 0.451538 0.050537
0.574432 0.453217 0.048584
0.605957 0.454590 0.047943
0.637451 0.455811 0.048401
0.668823 0.457001 0.049652
0.700256 0.458374 0.052185
0.731934 0.460358 0.056671
0.763702 0.462921 0.063324
0.795349 0.466064 0.071594
0.826752 0.469604 0.081177
0.857819 0.473572 0.091980
0.888367 0.477997 0.103973
0.918304 0.482941 0.117065
0.947632 0.488403 0.131104
0.976318 0.494476 0.146149
1.000000 0.504120 0.172577
0.030090 0.349854 0.086823
0.060608 0.356445 0.091522
0.082184 0.362946 0.095459
0.101349 0.369019 0.098511
0.120575 0.375000 0.100464
0.141876 0.381226 0.101654
0.166321 0.388550 0.102875
0.194672 0.397339 0.103699
0.226715 0.407715 0.104553
0.262238 0.419281 0.104584
0.299866 0.431427 0.102966
0.338104 0.443237 0.099701
0.375946 0.454102 0.094330
0.412445 0.463440 0.087189
0.447266 0.470825 0.078705
0.480316 0.476135 0.069244
0.512390 0.479523 0.061005
0.543945 0.481812 0.055237
0.575287 0.483490 0.051300
0.606476 0.484711 0.049072
0.637695 0.485718 0.048218
0.668945 0.486694 0.048523
0.700195 0.487640 0.049744
0.731415 0.488678 0.051849
0.762817 0.490143 0.055725
0.794464 0.492432 0.062103
0.826080 0.495331 0.070374
0.857513 0.498779 0.080231
0.888580 0.502716 0.091553
0.919159 0.507233 0.104279
0.949097 0.512329 0.118195
0.978027 0.518250 0.134247
1.000000 0.528625 0.165619
0.052246 0.375366 0.096527
0.074890 0.382233 0.101288
0.094086 0.388977 0.105469
0.112610 0.395264 0.108551
0.131378 0.401245 0.110748
0.152222 0.407410 0.111847
0.176208 0.414551 0.112854
0.203766 0.422943 0.113861
0.235016 0.433014 0.114532
0.269379 0.444275 0.114624
0.305786 0.456360 0.113617
0.342834 0.468384 0.110931
0.379700 0.479706 0.106293
0.415619 0.489868 0.099731
0.450134 0.498352 0.091614
0.483063 0.504852 0.082031
0.514709 0.509369 0.071838
0.545746 0.512115 0.063019
0.576538 0.513916 0.056641
0.607239 0.515076 0.052338
0.638062 0.515930 0.049713
0.668976 0.516632 0.048584
0.699982 0.517334 0.048767
0.731049 0.518036 0.049835
0.762085 0.518768 0.051575
0.793213 0.519806 0.054626
0.824646 0.521698 0.060333
0.856140 0.524323 0.068298
0.887482 0.527588 0.078156
0.918488 0.531464 0.089722
0.949005 0.535980 0.102875
0.977356 0.541992 0.121735
1.000000 0.551422 0.151733
0.068939 0.400909 0.106262
0.088776 0.408020 0.110962
0.106842 0.415039 0.115479
0.124634 0.421570 0.118774
0.143158 0.427643 0.120911
0.163544 0.433777 0.122162
0.187286 0.440674 0.123199
0.214203 0.448822 0.123932
0.244568 0.458405 0.124695
0.277740 0.469391 0.125031
0.312958 0.481232 0.124329
0.348755 0.493256 0.122131
0.384491 0.504944 0.118378
0.419586 0.515656 0.112579
0.453613 0.525024 0.105011
0.486267 0.532623 0.095825
0.517761 0.538361 0.085449
0.548248 0.542206 0.074615
0.578400 0.544373 0.065247
0.608490 0.545624 0.058289
0.638763 0.546387 0.053528
0.669220 0.546906 0.050507
0.699860 0.547302 0.049103
0.730652 0.547760 0.048950
0.761536 0.548218 0.049652
0.792419 0.548737 0.051117
0.823303 0.549408 0.053314
0.854431 0.550812 0.058014
0.885712 0.553101 0.065247
0.916870 0.556091 0.074738
0.947784 0.559814 0.086243
0.976044 0.565247 0.105377
1.000000 0.573242 0.132416
0.084259 0.426514 0.115753
0.102539 0.433960 0.120575
0.119934 0.441132 0.125214
0.137268 0.447876 0.128906
0.155396 0.454132 0.131348
0.175751 0.460327 0.132904
0.199127 0.466980 0.133728
0.225616 0.474854 0.134460
0.255035 0.484009 0.135010
0.287140 0.494537 0.135376
0.321075 0.506073 0.135101
0.355652 0.517944 0.133423
0.390259 0.529694 0.130219
0.424408 0.540833 0.125366
0.457733 0.550903 0.118713
0.489990 0.559448 0.110107
0.521240 0.566376 0.100159
0.551575 0.571442 0.089172
0.581146 0.574615 0.077606
0.610474 0.576202 0.067596
0.640076 0.577057 0.060120
0.669922 0.577454 0.054810
0.700073 0.577667 0.051361
0.730438 0.577820 0.049561
0.761017 0.577972 0.048920
0.791718 0.578217 0.049194
0.822449 0.578522 0.050201
0.853180 0.578979 0.051819
0.883972 0.579865 0.054993
0.914978 0.581665 0.061096
0.945953 0.584320 0.069885
0.974579 0.588593 0.086487
1.000000 0.594879 0.109619
0.098877 0.452209 0.125061
0.116425 0.459869 0.130341
0.133179 0.467316 0.135193
0.150360 0.474335 0.139069
0.168610 0.480835 0.141907
0.188690 0.486969 0.143463
0.211731 0.493530 0.144287
0.237549 0.500977 0.145050
0.266205 0.509705 0.145599
0.297211 0.519745 0.146027
0.329803 0.530884 0.145721
0.363190 0.542511 0.144714
0.396698 0.554230 0.142120
0.429962 0.565582 0.138031
0.462524 0.576141 0.132263
0.494263 0.585510 0.124542
0.525208 0.593414 0.115265
0.555328 0.599609 0.104584
0.584686 0.604034 0.092987
0.613373 0.606628 0.080750
0.642090 0.607788 0.070099
0.671265 0.608246 0.062073
0.700775 0.608337 0.056305
0.730652 0.608276 0.052338
0.760803 0.608124 0.049866
0.791199 0.608063 0.048645
0.821716 0.608093 0.048309
0.852295 0.608215 0.048737
0.882874 0.608429 0.049652
0.913422 0.608917 0.051483
0.944153 0.610199 0.056000
0.973236 0.612915 0.067963
1.000000 0.617310 0.085876
0.113586 0.477997 0.134583
0.130188 0.485779 0.140045
0.146942 0.493561 0.145203
0.164001 0.500763 0.149414
0.182129 0.507477 0.152618
0.201965 0.513763 0.154388
0.224640 0.520111 0.155396
0.249939 0.527222 0.155853
0.277802 0.535492 0.156342
0.307770 0.545044 0.156738
0.339081 0.555664 0.156647
0.371216 0.566986 0.155762
0.403717 0.578522 0.153931
0.436066 0.589966 0.150513
0.467957 0.600861 0.145660
0.499176 0.610840 0.138855
0.529724 0.619598 0.130402
0.559540 0.626862 0.120453
0.588654 0.632446 0.109131
0.617096 0.636261 0.096893
0.645142 0.638367 0.084106
0.673401 0.639099 0.072876
0.702179 0.639252 0.064301
0.731415 0.639069 0.057861
0.761017 0.638702 0.053131
0.790985 0.638367 0.049988
0.821228 0.638092 0.048065
0.851593 0.637909 0.046997
0.882019 0.637817 0.046570
0.912476 0.637817 0.046661
0.942902 0.638031 0.047485
0.972198 0.639008 0.053253
1.000000 0.641418 0.064728
0.127777 0.503784 0.144135
0.144409 0.511749 0.149963
0.160858 0.519714 0.155396
0.177856 0.527222 0.159973
0.195831 0.534149 0.163361
0.215546 0.540497 0.165527
0.237793 0.546783 0.166473
0.262451 0.553528 0.167023
0.289490 0.561340 0.167145
0.318420 0.570343 0.167419
0.348724 0.580505 0.167419
0.379700 0.591370 0.166748
0.411133 0.602692 0.165283
0.442657 0.614075 0.162628
0.473907 0.625183 0.158478
0.504578 0.635590 0.152679
0.534698 0.645020 0.145233
0.564209 0.653168 0.136139
0.593048 0.659821 0.125519
0.621246 0.664795 0.113678
0.649017 0.668091 0.100952
0.676514 0.669769 0.087616
0.704376 0.670197 0.075836
0.732819 0.670074 0.066589
0.761841 0.669647 0.059357
0.791260 0.669067 0.053864
0.821075 0.668518 0.049896
0.851166 0.668030 0.047119
0.881378 0.667633 0.045105
0.911682 0.667328 0.043671
0.942047 0.667114 0.042786
0.971619 0.667175 0.044769
1.000000 0.667877 0.049927
0.142090 0.529602 0.153900
0.158478 0.537720 0.159729
0.174866 0.545868 0.165436
0.191681 0.553589 0.170441
0.209503 0.560730 0.174194
0.229126 0.567230 0.176575
0.250946 0.573456 0.177704
0.275055 0.579956 0.178009
0.301178 0.587219 0.178131
0.329132 0.595673 0.178070
0.358490 0.605286 0.177979
0.388489 0.615753 0.177582
0.418976 0.626801 0.176483
0.449646 0.638031 0.174286
0.480194 0.649200 0.170868
0.510406 0.659851 0.165894
0.540131 0.669769 0.159424
0.569275 0.678680 0.151306
0.597839 0.686249 0.141693
0.625793 0.692261 0.130615
0.653290 0.696686 0.118408
0.680481 0.699554 0.105225
0.707520 0.700897 0.091400
0.735046 0.701050 0.078979
0.763306 0.700684 0.068909
0.792084 0.700043 0.060852
0.821381 0.699310 0.054474
0.851074 0.698608 0.049530
0.881042 0.697906 0.045685
0.911163 0.697296 0.042542
0.941406 0.696808 0.040039
0.971222 0.696411 0.039520
1.000000 0.696320 0.041687
0.156281 0.555481 0.163635
0.172363 0.563660 0.169647
0.188812 0.571960 0.175537
0.205627 0.579865 0.180695
0.223236 0.587250 0.184937
0.242401 0.593903 0.187592
0.263824 0.600037 0.188904
0.287323 0.606232 0.189209
0.312744 0.613098 0.189026
0.339844 0.621002 0.188721
0.368134 0.630035 0.188599
0.397369 0.640106 0.188110
0.427032 0.650757 0.187225
0.456940 0.661865 0.185486
0.486877 0.672943 0.182739
0.516602 0.683746 0.178558
0.545929 0.694000 0.172913
0.574738 0.703430 0.165802
0.603058 0.711792 0.157288
0.630676 0.718781 0.147247
0.657898 0.724243 0.135895
0.684784 0.728180 0.123352
0.711487 0.730682 0.109863
0.738190 0.731750 0.095551
0.765503 0.731659 0.082245
0.793518 0.731140 0.071350
0.822205 0.730377 0.062347
0.851410 0.729492 0.054932
0.881012 0.728607 0.048828
0.910889 0.727753 0.043732
0.940979 0.726990 0.039429
0.970947 0.726288 0.036560
1.000000 0.725708 0.036407
0.170013 0.581299 0.173218
0.186279 0.589661 0.179474
0.202576 0.598022 0.185577
0.219177 0.606079 0.191040
0.236603 0.613617 0.195435
0.255524 0.620422 0.198425
0.276337 0.626587 0.199860
0.299225 0.632568 0.200073
0.323944 0.639008 0.199646
0.350250 0.646301 0.199249
0.377716 0.654816 0.198761
0.406128 0.664398 0.198334
0.435089 0.674713 0.197571
0.464417 0.685516 0.196228
0.493774 0.696503 0.193909
0.523041 0.707397 0.190491
0.552002 0.717834 0.185699
0.580536 0.727661 0.179657
0.608521 0.736572 0.172150
0.635956 0.744324 0.163361
0.662872 0.750763 0.153137
0.689423 0.755737 0.141571
0.715820 0.759308 0.128906
0.742126 0.761475 0.115082
0.768555 0.762299 0.100098
0.795685 0.762115 0.085968
0.823608 0.761475 0.074097
0.852203 0.760620 0.064026
0.881348 0.759644 0.055298
0.910889 0.758636 0.047852
0.940765 0.757660 0.041473
0.970825 0.756744 0.036072
1.000000 0.755798 0.033966
0.183624 0.607117 0.183014
0.199738 0.615448 0.189209
0.216003 0.623962 0.195404
0.232422 0.632141 0.200897
0.249634 0.639862 0.205536
0.268127 0.646851 0.208740
0.288391 0.652954 0.210358
0.310577 0.658752 0.210571
0.334686 0.664825 0.210083
0.360291 0.671661 0.209320
0.387146 0.679626 0.208710
0.414856 0.688660 0.208191
0.443207 0.698578 0.207397
0.471954 0.709106 0.206238
0.500885 0.719910 0.204437
0.529694 0.730713 0.201508
0.558289 0.741333 0.197693
0.586517 0.751373 0.192596
0.614288 0.760712 0.186218
0.641479 0.769043 0.178558
0.668121 0.776245 0.169647
0.694397 0.782196 0.159454
0.720428 0.786743 0.147858
0.746399 0.789978 0.135010
0.772369 0.791901 0.120728
0.798615 0.792603 0.105042
0.825653 0.792328 0.089966
0.853546 0.791687 0.076996
0.882111 0.790771 0.065582
0.911224 0.789764 0.055450
0.940796 0.788666 0.046631
0.970734 0.787628 0.038879
1.000000 0.786407 0.034454
0.196838 0.632904 0.192444
0.212708 0.641266 0.198639
0.228851 0.649780 0.204773
0.245178 0.658081 0.210388
0.262085 0.665955 0.215179
0.280182 0.673035 0.218658
0.299988 0.679230 0.220337
0.321655 0.684937 0.220703
0.345032 0.690613 0.219971
0.370117 0.696991 0.219055
0.396362 0.704437 0.218048
0.423553 0.712952 0.217407
0.451324 0.722382 0.216736
0.479553 0.732605 0.215729
0.507996 0.743195 0.214233
0.536469 0.753906 0.211914
0.564789 0.764496 0.208740
0.592712 0.774750 0.204590
0.620270 0.784332 0.199341
0.647186 0.793121 0.192871
0.673645 0.800903 0.185364
