lut/retro-80s/Batman (1989) - Standard.cube
# Created by Benjamin (IWLTBAP): https://luts.iwltbap.com
# Copyright: (C) Copyright 2018 Triune Films and IWLTBAP SAS
# Cannot be resold, shared or otherwise redistributed
TITLE "Triune Films 80s Retro LUTs (Rec.709, sRGB, DCI-P3)"
LUT_3D_SIZE 9
0.000000 0.000000 0.000793
0.061371 0.028809 0.028107
0.140137 0.057281 0.055695
0.246033 0.081238 0.077606
0.363861 0.095917 0.088593
0.481903 0.106232 0.093292
0.599976 0.116119 0.097351
0.717834 0.130005 0.106537
0.835022 0.151520 0.126495
0.000000 0.073639 0.020691
0.080048 0.099548 0.027222
0.192108 0.125153 0.053619
0.314819 0.148315 0.074860
0.434204 0.165955 0.084778
0.551941 0.181030 0.091248
0.670105 0.196777 0.100952
0.787903 0.216736 0.120422
0.903351 0.244812 0.154419
0.000000 0.164764 0.044861
0.080444 0.194458 0.033020
0.211273 0.230957 0.049500
0.361481 0.256287 0.054108
0.491425 0.270996 0.063629
0.612000 0.284973 0.078278
0.729309 0.300415 0.098694
0.844177 0.319977 0.130066
0.955170 0.347626 0.174988
0.000000 0.269714 0.068848
0.095367 0.296936 0.070007
0.211334 0.332489 0.075592
0.370178 0.373383 0.062286
0.508057 0.389038 0.048859
0.635803 0.397186 0.053741
0.761597 0.409760 0.080139
0.881775 0.427246 0.121674
0.993591 0.452271 0.176514
0.052246 0.375366 0.096527
0.131378 0.401245 0.110748
0.235016 0.433014 0.114532
0.379700 0.479706 0.106293
0.514709 0.509369 0.071838
0.638062 0.515930 0.049713
0.762085 0.518768 0.051575
0.887482 0.527588 0.078156
1.000000 0.551422 0.151733
0.113586 0.477997 0.134583
0.182129 0.507477 0.152618
0.277802 0.535492 0.156342
0.403717 0.578522 0.153931
0.529724 0.619598 0.130402
0.645142 0.638367 0.084106
0.761017 0.638702 0.053131
0.882019 0.637817 0.046570
1.000000 0.641418 0.064728
0.170013 0.581299 0.173218
0.236603 0.613617 0.195435
0.323944 0.639008 0.199646
0.435089 0.674713 0.197571
0.552002 0.717834 0.185699
0.662872 0.750763 0.153137
0.768555 0.762299 0.100098
0.881348 0.759644 0.055298
1.000000 0.755798 0.033966
0.221283 0.684204 0.210266
0.285278 0.717499 0.232513
0.364319 0.742004 0.238159
0.467133 0.770111 0.233398
0.577850 0.810181 0.228210
0.685181 0.848206 0.213898
0.785614 0.873230 0.183044
0.887207 0.882050 0.122528
1.000000 0.879974 0.058807
0.261719 0.786499 0.237549
0.323181 0.817596 0.258636
0.396667 0.840729 0.268646
0.496155 0.865417 0.258148
0.603821 0.900482 0.256195
0.709564 0.937408 0.259430
0.807037 0.966827 0.259277
0.899994 0.986145 0.236877
0.998474 0.996643 0.168182
0.000000 0.012207 0.056580
0.057709 0.020020 0.071259
0.131287 0.056549 0.086914
0.230377 0.083710 0.107758
0.349854 0.100555 0.122894
0.474854 0.111359 0.131775
0.599792 0.121521 0.139404
0.723358 0.136230 0.151672
0.845093 0.160583 0.175171
0.000000 0.082458 0.078888
0.067963 0.099854 0.090088
0.172852 0.124451 0.107330
0.296539 0.149078 0.123413
0.419189 0.167938 0.133179
0.540253 0.183746 0.140686
0.660889 0.199921 0.150940
0.780731 0.220154 0.169281
0.898071 0.248932 0.201599
0.000000 0.171875 0.104462
0.072083 0.196960 0.111298
0.203094 0.230530 0.124054
0.357300 0.255737 0.133789
0.486938 0.271759 0.141144
0.606628 0.286560 0.149933
0.723541 0.302612 0.164490
0.838593 0.322754 0.189972
0.950043 0.350891 0.230377
0.000000 0.276459 0.133514
0.088623 0.301544 0.140747
0.200348 0.332458 0.146210
0.366180 0.373352 0.148224
0.507782 0.389069 0.145538
0.636078 0.398254 0.150574
0.761444 0.412109 0.168671
0.880676 0.430389 0.200928
0.991760 0.456085 0.248779
0.042969 0.383118 0.162781
0.124664 0.407898 0.177551
0.224426 0.435150 0.180878
0.372437 0.479919 0.183624
0.513550 0.509888 0.167053
0.638245 0.516205 0.153534
0.762543 0.519257 0.155853
0.888397 0.529724 0.179657
1.000000 0.555084 0.246490
0.107544 0.486816 0.199036
0.176056 0.515717 0.219421
0.270294 0.540161 0.223114
0.397064 0.579803 0.225830
0.527161 0.620361 0.214417
0.645111 0.639191 0.181915
0.761322 0.639069 0.159637
0.882263 0.638092 0.157349
1.000000 0.642639 0.178864
0.166351 0.590790 0.237274
0.233154 0.622772 0.261627
0.320129 0.645630 0.266205
0.430725 0.677490 0.265656
0.549103 0.718872 0.259979
0.662659 0.752075 0.237091
0.769226 0.763397 0.197052
0.881622 0.759979 0.165039
1.000000 0.755829 0.151398
0.218689 0.693787 0.272583
0.282593 0.726837 0.296661
0.361938 0.749695 0.303162
0.464447 0.774292 0.298431
0.575439 0.811951 0.295471
0.685089 0.849976 0.285278
0.787231 0.875305 0.263153
0.888153 0.883240 0.219482
1.000000 0.880188 0.171906
0.257843 0.795868 0.298523
0.319580 0.825928 0.322205
0.394562 0.847656 0.334137
0.494812 0.869934 0.323212
0.602509 0.903107 0.319641
0.710388 0.939789 0.321411
0.809875 0.969208 0.325409
0.902008 0.987640 0.315674
0.998840 0.997192 0.264709
0.000000 0.028046 0.123932
0.050995 0.000000 0.139221
0.123932 0.043945 0.153015
0.213776 0.079132 0.165131
0.320740 0.104584 0.175812
0.443085 0.120209 0.185974
0.570892 0.131561 0.196808
0.698059 0.146057 0.210358
0.823395 0.169678 0.231537
0.000000 0.097717 0.153809
0.050873 0.106812 0.170105
0.144897 0.125275 0.180603
0.256378 0.149933 0.192230
0.379883 0.172485 0.199768
0.506409 0.189819 0.208099
0.631104 0.206268 0.218994
0.754150 0.226349 0.234985
0.874390 0.254517 0.261261
0.000000 0.187531 0.180695
0.061127 0.207458 0.197083
0.163849 0.225403 0.207336
0.317047 0.254425 0.225922
0.458740 0.274200 0.233643
0.582458 0.289703 0.239410
0.700958 0.306396 0.249573
0.817474 0.327057 0.267609
0.930573 0.355133 0.298309
0.000000 0.287567 0.208435
0.077698 0.311707 0.223145
0.173981 0.332123 0.231384
0.346771 0.370880 0.250122
0.501984 0.388062 0.257355
0.631897 0.400299 0.263550
0.754852 0.415710 0.275116
0.871643 0.434875 0.296326
0.981323 0.461060 0.332062
0.011810 0.394623 0.240601
0.111786 0.419220 0.258209
0.201752 0.438446 0.263031
0.351990 0.477783 0.275513
0.508179 0.509003 0.275177
0.636261 0.514832 0.268066
0.761597 0.519165 0.271088
0.888000 0.533295 0.291992
1.000000 0.559631 0.344025
0.092682 0.498993 0.276855
0.162567 0.527344 0.299805
0.253265 0.546051 0.304413
0.380035 0.579346 0.311066
0.518097 0.618469 0.310455
0.642242 0.638092 0.290009
0.759918 0.637756 0.273132
0.881622 0.637360 0.272339
1.000000 0.645020 0.296844
0.153137 0.603119 0.315216
0.221283 0.634705 0.341980
0.308075 0.653595 0.347778
0.417175 0.678955 0.347870
0.537872 0.716339 0.347504
0.657135 0.750061 0.333893
0.767395 0.762573 0.302734
0.880890 0.759216 0.277863
1.000000 0.755341 0.268707
0.204926 0.706268 0.350739
0.269653 0.738892 0.377594
0.350403 0.759033 0.385742
0.451843 0.777618 0.380188
0.562653 0.809601 0.378326
0.676544 0.846802 0.372162
0.784332 0.874420 0.355103
0.887543 0.883179 0.321411
1.000000 0.880005 0.284668
0.239441 0.808533 0.378082
0.302795 0.838470 0.404480
0.380554 0.858459 0.418365
0.481140 0.875427 0.406311
0.587860 0.902130 0.400970
0.698914 0.936829 0.400055
0.805573 0.968567 0.402008
0.901642 0.988251 0.399445
0.998779 0.997528 0.363373
0.000000 0.044556 0.196289
0.038177 0.000000 0.214142
0.110779 0.034210 0.229370
0.194275 0.073151 0.242432
0.298859 0.102203 0.253448
0.415680 0.124908 0.259338
0.533630 0.144226 0.264282
0.656860 0.161591 0.275970
0.782776 0.185089 0.295349
0.000000 0.114380 0.230652
0.028320 0.119965 0.251801
0.122925 0.135712 0.265228
0.219788 0.156860 0.281128
0.343201 0.179382 0.291595
0.470734 0.199615 0.294678
0.591431 0.219299 0.299225
0.713196 0.239929 0.312256
0.834930 0.267151 0.333893
0.000000 0.207642 0.276062
0.057861 0.222626 0.296204
0.144348 0.234924 0.302979
0.257263 0.256500 0.319427
0.401001 0.279266 0.330627
0.534943 0.298462 0.333099
0.658478 0.316406 0.340332
0.778107 0.337402 0.355347
0.894348 0.365387 0.379669
0.000000 0.308014 0.298615
0.076385 0.329376 0.318787
0.162567 0.344635 0.331329
0.293549 0.369904 0.350677
0.468170 0.395844 0.369843
0.608612 0.411774 0.376709
0.730927 0.426697 0.384521
0.846680 0.445343 0.399384
0.956573 0.471436 0.425354
0.000000 0.409027 0.325928
0.102661 0.434021 0.347107
0.184845 0.450714 0.356171
0.320801 0.479828 0.375092
0.495087 0.510620 0.390167
0.633209 0.516907 0.389038
0.760925 0.526306 0.395538
0.884491 0.543304 0.412933
0.998138 0.567566 0.444000
0.074585 0.513611 0.360626
0.149750 0.541443 0.385345
0.237305 0.558319 0.392212
0.360138 0.583954 0.403839
0.506500 0.619171 0.415100
0.640045 0.639130 0.406769
0.759521 0.638458 0.393646
0.881287 0.638184 0.393005
1.000000 0.651703 0.420990
0.134949 0.617065 0.397400
0.206146 0.648041 0.425354
0.294067 0.665924 0.432739
0.402802 0.685120 0.435883
0.526245 0.716461 0.441772
0.651733 0.748840 0.438141
0.766388 0.762634 0.416840
0.880249 0.758728 0.395233
1.000000 0.754547 0.387024
0.183868 0.719910 0.432190
0.251709 0.752014 0.460388
0.335541 0.771423 0.469971
0.438568 0.784912 0.466248
0.549866 0.810150 0.466461
0.667389 0.843964 0.465698
0.780487 0.872711 0.455261
0.886780 0.883026 0.429443
1.000000 0.879486 0.398285
0.210632 0.822510 0.460205
0.278931 0.851990 0.487610
0.362213 0.871216 0.502380
0.466064 0.884186 0.492554
0.573029 0.904236 0.486969
0.686066 0.933868 0.487366
0.798523 0.965942 0.490753
0.900055 0.987762 0.491516
0.998535 0.997711 0.465576
0.000000 0.058655 0.264191
0.001587 0.028137 0.283478
0.100952 0.048157 0.298462
0.173462 0.078308 0.317139
0.268066 0.106171 0.336243
0.386444 0.130432 0.350464
0.510620 0.151947 0.356354
0.627258 0.175354 0.359711
0.740448 0.204895 0.368927
0.000000 0.128815 0.301392
0.017853 0.133087 0.323486
0.112732 0.148865 0.339355
0.192078 0.168762 0.361572
0.301605 0.191650 0.383179
0.435303 0.213409 0.397400
0.565460 0.233795 0.401794
0.681641 0.257660 0.405884
0.793060 0.287811 0.418060
0.000000 0.218353 0.354187
0.056580 0.232025 0.375671
0.136963 0.246338 0.388397
0.221466 0.266510 0.407379
0.347778 0.289246 0.429352
0.492950 0.310455 0.440704
0.622711 0.330536 0.443542
0.736725 0.354828 0.450439
0.848022 0.384033 0.467804
0.000000 0.329407 0.402985
0.087677 0.346649 0.423340
0.174774 0.359436 0.437866
0.265045 0.377655 0.449341
0.409210 0.402863 0.471710
0.558594 0.423401 0.481903
0.684052 0.442139 0.485901
0.799438 0.462494 0.496613
0.910400 0.488464 0.517242
0.000000 0.430145 0.418671
0.100983 0.452759 0.440704
0.185730 0.467834 0.454865
0.303345 0.490448 0.476410
0.461090 0.519928 0.502106
0.616180 0.537292 0.514221
0.744598 0.550049 0.520508
0.862640 0.566193 0.532623
0.972015 0.589691 0.555481
0.036774 0.527344 0.444305
0.134705 0.554657 0.470154
0.223907 0.571869 0.482300
0.342499 0.595825 0.499542
0.490845 0.626434 0.522919
0.635254 0.645081 0.528076
0.758606 0.643402 0.518677
0.882599 0.650665 0.525543
0.999908 0.671112 0.552795
0.101379 0.630402 0.479736
0.183746 0.660492 0.508148
0.277100 0.678680 0.519165
0.387604 0.697388 0.526855
0.515228 0.723053 0.541718
0.647430 0.751526 0.550354
0.766144 0.764893 0.537811
0.881012 0.761719 0.520905
1.000000 0.759094 0.517395
0.145660 0.733032 0.513855
0.223969 0.764343 0.542480
0.315887 0.784027 0.554565
0.422943 0.797272 0.554199
0.538269 0.816742 0.560303
0.660889 0.844818 0.567963
0.778168 0.872009 0.565613
0.887024 0.883911 0.548004
0.999786 0.881165 0.523865
0.156586 0.836395 0.542389
0.241730 0.865082 0.569794
0.337372 0.884125 0.585327
0.446838 0.897186 0.579071
0.558563 0.912048 0.577789
0.676605 0.935394 0.583435
0.793610 0.964264 0.592255
0.899139 0.986603 0.598236
0.997864 0.997345 0.582733
0.000000 0.070526 0.328217
0.002686 0.051575 0.347595
0.099792 0.064606 0.362274
0.162720 0.089691 0.382996
0.242310 0.115204 0.407715
0.348541 0.140381 0.432709
0.475311 0.163818 0.451355
0.603912 0.188538 0.460510
0.721741 0.220154 0.466095
0.000000 0.141235 0.368469
0.027283 0.144928 0.390137
0.113281 0.160400 0.407135
0.180267 0.180145 0.430634
0.271790 0.203217 0.458099
0.392944 0.227173 0.484802
0.530243 0.250427 0.502808
0.659149 0.275421 0.511353
0.772888 0.307251 0.518677
0.000000 0.228577 0.424744
0.061737 0.241455 0.446899
0.136200 0.256409 0.462830
0.206573 0.276733 0.481934
0.311310 0.299988 0.509796
0.448425 0.323944 0.534973
0.589813 0.346771 0.548584
0.713043 0.371613 0.555359
0.820435 0.403442 0.564789
0.000000 0.337219 0.487122
0.089722 0.353577 0.507294
0.171600 0.366791 0.522034
0.251099 0.385620 0.534668
0.367310 0.410339 0.559021
0.515656 0.433533 0.580811
0.650940 0.453827 0.589325
0.765625 0.476624 0.595093
0.867706 0.507324 0.607239
0.000000 0.451874 0.526489
0.102814 0.470001 0.546143
0.199738 0.482635 0.561981
0.307678 0.499023 0.579712
0.433319 0.525513 0.597961
0.581451 0.550385 0.617920
0.708191 0.568420 0.626312
0.818542 0.588715 0.634247
0.921906 0.613800 0.650024
0.000000 0.548065 0.535309
0.114716 0.572723 0.559540
0.216278 0.588257 0.574768
0.333099 0.608490 0.594849
0.476410 0.634979 0.620911
0.623138 0.661041 0.643158
0.751495 0.672363 0.650604
0.868958 0.684998 0.659241
0.977417 0.705841 0.679382
0.000488 0.641235 0.559052
0.148285 0.671326 0.587891
0.255920 0.689819 0.603119
0.372253 0.709320 0.617462
0.503632 0.734344 0.638000
0.642365 0.759857 0.659485
0.765167 0.772217 0.660004
0.880585 0.768585 0.648132
0.998383 0.775208 0.657013
0.025146 0.744446 0.593567
0.176392 0.775421 0.622467
0.288025 0.795410 0.637634
0.404999 0.809875 0.643097
0.525635 0.829285 0.654327
0.655396 0.851532 0.671204
0.777435 0.874542 0.679718
0.887299 0.886292 0.669769
0.998779 0.884888 0.653320
0.000000 0.846558 0.623657
0.170929 0.877441 0.650574
0.299988 0.896240 0.666901
0.422241 0.910828 0.666534
0.541565 0.926117 0.670135
0.668579 0.943573 0.682800
0.791687 0.966064 0.698425
0.899719 0.986145 0.710052
0.996979 0.996979 0.705475
0.000000 0.080475 0.390045
0.003754 0.065857 0.412048
0.103119 0.079346 0.426056
0.160095 0.101166 0.444641
0.228699 0.124451 0.471710
0.320801 0.149872 0.501251
0.436890 0.175171 0.530792
0.569489 0.202515 0.553284
0.699402 0.236511 0.566437
0.000000 0.152893 0.435333
0.037323 0.156616 0.456635
0.117310 0.171417 0.473969
0.177399 0.190704 0.495758
0.257446 0.213226 0.524719
0.363251 0.237793 0.556213
0.492950 0.263275 0.585876
0.628265 0.291107 0.606018
0.752319 0.325348 0.618103
0.000000 0.239136 0.493530
0.064301 0.251465 0.516083
0.137024 0.266327 0.533295
0.203247 0.286072 0.552032
0.293854 0.309479 0.579529
0.415741 0.334076 0.610718
0.555359 0.359283 0.636322
0.686462 0.386627 0.651306
0.801697 0.420380 0.661743
0.000000 0.344147 0.561096
0.085205 0.360291 0.581970
0.166656 0.373810 0.596741
0.244049 0.392670 0.610657
0.343506 0.417236 0.632660
0.482147 0.441711 0.662323
0.622192 0.465057 0.681274
0.743530 0.489868 0.691162
0.849274 0.521545 0.700470
0.000000 0.459381 0.617249
0.093414 0.476471 0.636444
0.196167 0.488281 0.650696
0.297211 0.504303 0.665863
0.412750 0.529449 0.681732
0.553741 0.556488 0.704956
0.684692 0.577393 0.719666
0.795807 0.598602 0.727753
0.893494 0.626404 0.737610
0.000000 0.571014 0.644897
0.083984 0.590790 0.666077
0.214905 0.603088 0.681366
0.336456 0.617859 0.699646
0.471252 0.637024 0.719177
0.607391 0.665192 0.734680
0.733002 0.687256 0.749573
0.840820 0.706512 0.759796
0.935791 0.732758 0.774292
0.000000 0.662018 0.648590
0.067017 0.690002 0.676178
0.231750 0.705963 0.692444
0.359314 0.722534 0.709198
0.493164 0.743561 0.730347
0.632080 0.765900 0.751831
0.761414 0.787567 0.770020
0.874542 0.799042 0.778839
0.978882 0.816772 0.795288
0.000000 0.749268 0.668396
0.039703 0.785156 0.700562
0.246277 0.805542 0.718750
0.382751 0.820587 0.729767
0.511200 0.840179 0.745728
0.645508 0.861053 0.764709
0.775208 0.880707 0.783539
0.886963 0.892181 0.786743
0.995789 0.892273 0.780792
0.000000 0.848999 0.700562
0.000000 0.884552 0.729248
0.235748 0.907654 0.747559
0.387451 0.923340 0.753265
0.519531 0.939636 0.761932
0.655304 0.956116 0.776215
0.788086 0.971649 0.796051
0.901764 0.987152 0.815796
0.996490 0.997284 0.825409
0.000000 0.089691 0.451385
0.004761 0.078033 0.477203
0.107880 0.091705 0.490814
0.162384 0.111603 0.507751
0.223053 0.133209 0.533630
0.305756 0.157837 0.564758
0.410461 0.184235 0.599060
0.536682 0.213257 0.631744
0.670410 0.249420 0.655853
0.000000 0.164368 0.503113
0.041992 0.167969 0.524628
0.121429 0.182190 0.542114
0.179077 0.200470 0.562744
0.251068 0.222382 0.589478
0.347504 0.246674 0.622162
0.466919 0.272614 0.656708
0.599701 0.301788 0.686096
0.727905 0.338318 0.705994
0.000000 0.250763 0.563507
0.059326 0.261963 0.586670
0.136505 0.276215 0.604065
0.202911 0.295074 0.622406
0.285889 0.318207 0.646240
0.397522 0.342255 0.678894
0.530334 0.367950 0.710327
0.662537 0.396912 0.733246
0.781708 0.432739 0.748596
0.000000 0.352661 0.632477
0.060699 0.367798 0.654633
0.157654 0.381287 0.668915
0.238434 0.399811 0.683655
0.333008 0.423737 0.703125
0.461914 0.448456 0.734070
0.600830 0.473206 0.759766
0.725189 0.500183 0.775726
0.834320 0.534241 0.787048
0.000000 0.464020 0.694183
0.036804 0.481079 0.714874
0.182220 0.493195 0.728577
0.285645 0.509583 0.743958
0.399353 0.533325 0.759491
0.534027 0.560791 0.781494
0.667511 0.583679 0.801422
0.782013 0.607483 0.812958
0.881805 0.638062 0.822327
0.000336 0.579834 0.741272
0.044434 0.597412 0.761292
0.199768 0.608704 0.777069
0.329224 0.622009 0.793640
0.461212 0.640350 0.808594
0.594025 0.666748 0.818756
0.719147 0.691376 0.832581
0.827911 0.712891 0.843719
0.921234 0.740417 0.854187
0.000000 0.686737 0.759857
0.041992 0.707520 0.782715
0.206970 0.721863 0.800873
0.352234 0.734314 0.817261
0.487762 0.748810 0.833923
0.622925 0.764801 0.847504
0.751282 0.789551 0.855774
0.862366 0.811432 0.868073
0.955322 0.837494 0.882477
0.000000 0.771698 0.758667
0.018433 0.800781 0.787811
0.175873 0.823486 0.810516
0.355042 0.835999 0.823212
0.493805 0.851624 0.838898
0.631744 0.868256 0.855347
0.764893 0.884857 0.870850
0.884186 0.902466 0.885773
0.983154 0.918915 0.902893
0.000000 0.852539 0.772949
0.000488 0.885284 0.802643
0.031067 0.917419 0.828217
0.329132 0.934723 0.839752
0.485840 0.950897 0.852051
0.634094 0.966553 0.866608
0.775574 0.979919 0.882477
0.901733 0.990082 0.904144
0.997131 0.998688 0.929688
0.000000 0.098267 0.512482
0.005707 0.089294 0.543365
0.111298 0.101959 0.557404
0.165771 0.119904 0.573883
0.220856 0.140869 0.596649
0.297516 0.164429 0.628418
0.394928 0.190796 0.664490
0.513153 0.219757 0.701935
0.644562 0.256836 0.733856
0.000000 0.176147 0.572418
0.036743 0.178986 0.595123
0.122284 0.192200 0.612823
0.180481 0.209259 0.632874
0.247955 0.230499 0.655975
0.338776 0.253998 0.688141
0.450867 0.279083 0.724060
0.579132 0.308197 0.757935
0.707428 0.345673 0.783905
0.000000 0.263275 0.635651
0.012634 0.272400 0.660034
0.129700 0.285614 0.677246
0.200256 0.303253 0.694794
0.281738 0.325500 0.715302
0.387085 0.348877 0.746216
0.514648 0.373810 0.779724
0.645874 0.403076 0.807190
0.766296 0.440674 0.826630
0.000000 0.362854 0.703918
0.015869 0.376709 0.726501
0.137512 0.388489 0.742126
0.229156 0.406464 0.757202
0.326935 0.429199 0.775665
0.450195 0.453918 0.803802
0.587372 0.478729 0.832642
0.712921 0.506866 0.852417
0.823456 0.543121 0.865967
0.000000 0.469971 0.765778
0.026642 0.486847 0.786835
0.148621 0.498077 0.804016
0.269104 0.514618 0.820129
0.388641 0.537018 0.836639
0.522095 0.563568 0.856262
0.655945 0.587524 0.877808
0.772736 0.613220 0.891541
0.874634 0.646942 0.901001
0.000000 0.583435 0.821533
0.040405 0.600647 0.841888
0.146881 0.611786 0.861725
0.312256 0.625183 0.878296
0.449463 0.643280 0.892822
0.582642 0.667175 0.901245
0.707825 0.692566 0.911072
0.819946 0.716064 0.922211
0.916351 0.747406 0.930298
0.000000 0.697235 0.861755
0.050232 0.714752 0.882751
0.126129 0.728058 0.904663
0.336365 0.738556 0.920593
0.478271 0.750793 0.933716
0.613251 0.765839 0.940735
0.740662 0.788483 0.940521
0.854156 0.812408 0.947266
0.949677 0.841614 0.955933
0.000000 0.798767 0.872803
0.043365 0.820068 0.896851
0.088593 0.838440 0.920319
0.322906 0.850525 0.937286
0.475952 0.861298 0.950714
0.616241 0.872070 0.962189
0.750641 0.883270 0.969360
0.874390 0.901459 0.969604
0.975433 0.926758 0.978180
0.000000 0.877380 0.865631
0.019989 0.903229 0.891815
0.038635 0.928070 0.916748
0.195679 0.953766 0.941315
0.429871 0.966522 0.954071
0.595215 0.978485 0.966278
0.746979 0.988220 0.976440
0.885254 0.994537 0.985199
1.000000 1.000000 1.000000
