lut/retro-80s/Beetlejuice (1988) - Standard.cube
# Created by Benjamin (IWLTBAP): https://luts.iwltbap.com
# Copyright: (C) Copyright 2018 Triune Films and IWLTBAP SAS
# Cannot be resold, shared or otherwise redistributed
TITLE "Triune Films 80s Retro LUTs (Rec.709, sRGB, DCI-P3)"
LUT_3D_SIZE 5
0.000000 0.000000 0.000000
0.115173 0.020752 0.021637
0.326996 0.033997 0.033386
0.549408 0.038818 0.031342
0.766724 0.044159 0.028656
0.031097 0.102051 0.046661
0.219727 0.189270 0.044403
0.477264 0.227417 0.025665
0.694366 0.231812 0.029205
0.895691 0.240540 0.032959
0.057098 0.290131 0.130096
0.266357 0.376404 0.141724
0.533325 0.490265 0.052734
0.778046 0.519501 0.016296
1.000000 0.520844 0.025238
0.100006 0.529419 0.212769
0.338989 0.614838 0.259583
0.610260 0.714569 0.221313
0.792511 0.776031 0.065887
1.000000 0.786957 0.003845
0.234955 0.772736 0.272461
0.435883 0.843109 0.298126
0.665497 0.919708 0.308441
0.837067 0.983887 0.241211
1.000000 1.000000 0.082367
0.003082 0.002502 0.056305
0.117310 0.028168 0.091644
0.299988 0.041962 0.115448
0.500366 0.040588 0.129089
0.714935 0.044495 0.146393
0.038544 0.128693 0.140961
0.196747 0.169281 0.180847
0.461792 0.210297 0.191620
0.679016 0.233643 0.196777
0.873169 0.254639 0.207123
0.047699 0.325470 0.241882
0.223267 0.380768 0.282471
0.531647 0.494293 0.266479
0.778778 0.520660 0.260620
1.000000 0.521820 0.261658
0.102142 0.556152 0.322052
0.304749 0.621277 0.375916
0.600220 0.719574 0.377838
0.795593 0.780579 0.288330
1.000000 0.787323 0.263641
0.234924 0.791443 0.373627
0.424377 0.854553 0.405029
0.656952 0.924072 0.422791
0.839600 0.989227 0.396973
1.000000 1.000000 0.318237
0.010284 0.010345 0.119690
0.118561 0.029999 0.158417
0.315125 0.043427 0.201141
0.481781 0.046387 0.208832
0.622986 0.052032 0.216309
0.041016 0.159271 0.254883
0.168732 0.182434 0.304077
0.434723 0.188049 0.305328
0.634705 0.219818 0.292297
0.791107 0.258789 0.314545
0.041626 0.353912 0.368652
0.173096 0.398438 0.423004
0.503387 0.454773 0.454559
0.756165 0.501923 0.457855
0.952454 0.520599 0.470001
0.108032 0.578094 0.454834
0.261719 0.630005 0.504883
0.564484 0.706757 0.563934
0.800201 0.778717 0.532867
1.000000 0.787292 0.525665
0.224762 0.797943 0.517090
0.385590 0.856262 0.555695
0.629700 0.914642 0.594025
0.834961 0.981689 0.594391
1.000000 1.000000 0.565247
0.019165 0.019257 0.187012
0.116394 0.033508 0.229156
0.308075 0.044617 0.290344
0.511902 0.050323 0.318695
0.657867 0.064209 0.330872
0.037292 0.193024 0.379669
0.140686 0.209686 0.430511
0.396973 0.196686 0.447266
0.634705 0.209137 0.410522
0.770752 0.245148 0.409485
0.040802 0.383484 0.491425
0.154663 0.429047 0.548279
0.440033 0.463074 0.602905
0.727509 0.482269 0.569855
0.874359 0.513214 0.567322
0.121216 0.593994 0.578369
0.257507 0.647186 0.632294
0.513977 0.711945 0.704041
0.805054 0.767487 0.735535
1.000000 0.787598 0.746460
0.233551 0.809326 0.659180
0.367859 0.862671 0.703827
0.591370 0.915527 0.751007
0.835175 0.964996 0.789276
1.000000 1.000000 0.824585
0.028870 0.027313 0.257965
0.122253 0.039520 0.310547
0.281494 0.045807 0.378174
0.507263 0.053192 0.430725
0.684875 0.071777 0.451813
0.035675 0.221161 0.497345
0.127106 0.233490 0.544586
0.341431 0.207428 0.573395
0.611786 0.204071 0.540344
0.778076 0.247253 0.528809
0.047455 0.424133 0.607819
0.159271 0.464752 0.656342
0.389282 0.476807 0.712677
0.698273 0.470734 0.691559
0.868835 0.504150 0.684052
0.134766 0.606018 0.683350
0.268311 0.660736 0.741547
0.484406 0.718567 0.816376
0.782043 0.766510 0.868530
0.954834 0.792542 0.881195
0.249084 0.817505 0.787445
0.371613 0.869293 0.840424
0.550140 0.916504 0.890656
0.812042 0.964081 0.940552
0.999054 0.999176 0.999756
