lut/retro-80s/Beetlejuice (1988) - Standard.cube
# Created by Benjamin (IWLTBAP): https://luts.iwltbap.com
# Copyright: (C) Copyright 2018 Triune Films and IWLTBAP SAS
# Cannot be resold, shared or otherwise redistributed
TITLE "Triune Films 80s Retro LUTs (Rec.709, sRGB, DCI-P3)"
LUT_3D_SIZE 9
0.000000 0.000000 0.000000
0.043549 0.008667 0.008728
0.115173 0.020752 0.021637
0.214661 0.030121 0.031006
0.326996 0.033997 0.033386
0.439392 0.035706 0.032501
0.549408 0.038818 0.031342
0.658234 0.041931 0.030304
0.766724 0.044159 0.028656
0.011139 0.041779 0.015259
0.075287 0.068481 0.023712
0.177795 0.092926 0.028534
0.288116 0.102875 0.032318
0.400482 0.107819 0.032959
0.510681 0.113281 0.032379
0.618988 0.120117 0.031708
0.724976 0.126129 0.031464
0.829590 0.131134 0.030029
0.031097 0.102051 0.046661
0.100037 0.132874 0.057831
0.219727 0.189270 0.044403
0.356567 0.221069 0.028687
0.477264 0.227417 0.025665
0.588043 0.228851 0.027191
0.694366 0.231812 0.029205
0.796509 0.235748 0.031342
0.895691 0.240540 0.032959
0.050079 0.185730 0.089294
0.124481 0.218628 0.103424
0.244293 0.273529 0.088898
0.385284 0.337921 0.047150
0.515045 0.368073 0.024872
0.638489 0.376038 0.019958
0.753967 0.376312 0.023560
0.861053 0.376160 0.029785
0.962067 0.377502 0.036957
0.057098 0.290131 0.130096
0.137299 0.325714 0.147827
0.266357 0.376404 0.141724
0.412567 0.437286 0.103607
0.533325 0.490265 0.052734
0.653137 0.513245 0.024658
0.778046 0.519501 0.016296
0.900909 0.520691 0.017761
1.000000 0.520844 0.025238
0.065369 0.408112 0.169373
0.153717 0.445435 0.192627
0.292358 0.494202 0.202606
0.448639 0.549561 0.183228
0.566010 0.599548 0.130798
0.665985 0.636841 0.062195
0.783905 0.651703 0.023041
0.911926 0.654938 0.010010
1.000000 0.655640 0.006714
0.100006 0.529419 0.212769
0.199219 0.568085 0.239044
0.338989 0.614838 0.259583
0.492340 0.667847 0.258087
0.610260 0.714569 0.221313
0.696838 0.750427 0.149109
0.792511 0.776031 0.065887
0.913788 0.785309 0.018616
1.000000 0.786957 0.003845
0.164490 0.651733 0.248749
0.264435 0.690125 0.269806
0.391663 0.731964 0.288361
0.529602 0.778839 0.295807
0.645782 0.822906 0.280884
0.732239 0.857361 0.233551
0.813171 0.886230 0.154846
0.916473 0.908020 0.066711
1.000000 0.916565 0.016083
0.234955 0.772736 0.272461
0.326569 0.808655 0.285858
0.435883 0.843109 0.298126
0.554779 0.880798 0.307709
0.665497 0.919708 0.308441
0.757080 0.954010 0.288452
0.837067 0.983887 0.241211
0.925171 1.000000 0.167633
1.000000 1.000000 0.082367
0.000732 0.000732 0.027527
0.046082 0.011169 0.040314
0.112762 0.025574 0.057465
0.206757 0.035065 0.072968
0.316620 0.037354 0.080200
0.426849 0.037506 0.082764
0.534760 0.039032 0.085388
0.643250 0.041656 0.088318
0.753143 0.044403 0.090698
0.015869 0.049103 0.051422
0.071838 0.065552 0.067505
0.166046 0.089172 0.086578
0.280914 0.102264 0.094696
0.396576 0.108185 0.095886
0.507751 0.114960 0.096680
0.615509 0.122986 0.098145
0.720551 0.130341 0.099945
0.824310 0.136688 0.101288
0.035126 0.114685 0.090851
0.099915 0.137085 0.108795
0.218689 0.190002 0.120850
0.358917 0.222443 0.120605
0.478149 0.226074 0.116119
0.588409 0.229065 0.114288
0.693817 0.234497 0.114532
0.794525 0.240753 0.115845
0.892303 0.247284 0.117706
0.049194 0.201782 0.138672
0.118683 0.227417 0.156982
0.237488 0.275604 0.158875
0.385437 0.341492 0.140259
0.517365 0.370667 0.131592
0.639954 0.377106 0.129669
0.753937 0.377563 0.129822
0.859528 0.378571 0.132141
0.959229 0.381134 0.136017
0.053741 0.307434 0.180664
0.127472 0.336578 0.200928
0.253357 0.381165 0.206573
0.407654 0.441559 0.183990
0.534546 0.494843 0.153198
0.654694 0.515747 0.138885
0.779236 0.520874 0.134979
0.901337 0.521881 0.135315
1.000000 0.522491 0.138824
0.064453 0.424286 0.218872
0.147552 0.456573 0.243622
0.281433 0.500549 0.260834
0.441956 0.554871 0.251740
0.567261 0.605774 0.213226
0.668365 0.641083 0.165253
0.785339 0.653473 0.140869
0.912872 0.655853 0.133759
1.000000 0.656403 0.132385
0.104950 0.543976 0.259216
0.200348 0.578979 0.286438
0.335358 0.622498 0.310242
0.489075 0.673981 0.314880
0.612061 0.721313 0.287201
0.700897 0.756531 0.231262
0.795074 0.779297 0.170593
0.914825 0.786530 0.139771
1.000000 0.787354 0.132568
0.172302 0.665344 0.290802
0.269897 0.700989 0.313324
0.393921 0.740784 0.333191
0.530731 0.785980 0.343323
0.648499 0.829407 0.334015
0.736542 0.863617 0.298370
0.817078 0.891052 0.238739
0.918396 0.910461 0.174500
1.000000 0.917206 0.142151
0.242889 0.786560 0.310364
0.333984 0.819946 0.326141
0.441833 0.852966 0.338806
0.559357 0.888947 0.349457
0.669647 0.926178 0.354156
0.761353 0.959473 0.342987
0.841156 0.988373 0.310699
0.927826 1.000000 0.258698
1.000000 1.000000 0.199860
0.003082 0.002502 0.056305
0.049622 0.013550 0.071136
0.117310 0.028168 0.091644
0.205719 0.038269 0.108612
0.299988 0.041962 0.115448
0.398590 0.040802 0.121338
0.500366 0.040588 0.129089
0.605957 0.042145 0.137939
0.714935 0.044495 0.146393
0.021423 0.058258 0.092041
0.074554 0.071747 0.110260
0.157257 0.087708 0.130066
0.265808 0.098816 0.140778
0.377594 0.105316 0.143463
0.487640 0.113983 0.148987
0.593994 0.124207 0.156494
0.697235 0.133667 0.164032
0.799133 0.141602 0.171265
0.038544 0.128693 0.140961
0.097107 0.145844 0.162109
0.196747 0.169281 0.180847
0.335297 0.197449 0.192230
0.461792 0.210297 0.191620
0.574219 0.221527 0.192963
0.679016 0.233643 0.196777
0.777740 0.244843 0.201630
0.873169 0.254639 0.207123
0.046661 0.218811 0.195435
0.106903 0.238831 0.216919
0.216370 0.269104 0.233704
0.375336 0.331543 0.240387
0.515656 0.367279 0.244537
0.636536 0.372528 0.241699
0.746429 0.374756 0.239716
0.847900 0.378448 0.240601
0.944275 0.383484 0.243561
0.047699 0.325470 0.241882
0.109863 0.348236 0.263397
0.223267 0.380768 0.282471
0.387726 0.435852 0.280518
0.531647 0.494293 0.266479
0.654572 0.516541 0.261658
0.778778 0.520660 0.260620
0.897858 0.521057 0.260162
1.000000 0.521820 0.261658
0.059753 0.440613 0.282196
0.130157 0.466156 0.306152
0.248108 0.500336 0.331573
0.413452 0.550293 0.339661
0.559387 0.605835 0.315552
0.668121 0.643036 0.281769
0.785553 0.654053 0.266907
0.912933 0.655792 0.263367
1.000000 0.656250 0.262756
0.102142 0.556152 0.322052
0.184479 0.585297 0.347717
0.304749 0.621277 0.375916
0.460144 0.668854 0.393372
0.600220 0.719574 0.377838
0.700073 0.758484 0.333893
0.795593 0.780579 0.288330
0.915100 0.786713 0.267609
1.000000 0.787323 0.263641
0.167694 0.672913 0.353119
0.254913 0.704712 0.376038
0.369415 0.740173 0.398956
0.507477 0.782043 0.415955
0.635712 0.826538 0.413513
0.733521 0.864075 0.386444
0.817657 0.892517 0.341309
0.918884 0.911163 0.293274
1.000000 0.917328 0.270630
0.234924 0.791443 0.373627
0.320679 0.823303 0.391510
0.424377 0.854553 0.405029
0.542389 0.887939 0.416077
0.656952 0.924072 0.422791
0.754913 0.958740 0.417938
0.839600 0.989227 0.396973
0.928040 1.000000 0.360229
1.000000 1.000000 0.318237
0.006287 0.006317 0.087158
0.051941 0.016052 0.102814
0.119873 0.028961 0.125488
0.211578 0.039124 0.146912
0.306335 0.042633 0.156982
0.391785 0.043030 0.159210
0.471802 0.044128 0.161407
0.561890 0.045288 0.171814
0.660980 0.046570 0.185669
0.026978 0.069275 0.137085
0.075958 0.079865 0.155182
0.154968 0.091339 0.176300
0.264130 0.098877 0.189789
0.375092 0.103241 0.191193
0.473663 0.110962 0.190369
0.565491 0.122528 0.194916
0.659515 0.133820 0.207672
0.755188 0.143402 0.222260
0.040588 0.143463 0.195801
0.092682 0.157623 0.218842
0.183075 0.172577 0.241821
0.314209 0.183777 0.249817
0.442474 0.192078 0.242401
0.549713 0.207001 0.238983
0.649567 0.227844 0.249329
0.744385 0.246063 0.263367
0.836456 0.260498 0.277161
0.043945 0.234283 0.255310
0.095642 0.252350 0.279572
0.192322 0.274170 0.304871
0.345184 0.299866 0.315033
0.499634 0.331238 0.317749
0.619568 0.349884 0.318054
0.723694 0.364594 0.322998
0.820374 0.376801 0.329895
0.913422 0.387085 0.337250
0.043549 0.341095 0.305634
0.096802 0.361786 0.328461
0.194336 0.387421 0.354553
0.356018 0.423645 0.370483
0.524841 0.482269 0.375000
0.653778 0.512177 0.380829
0.774323 0.517059 0.379700
0.886871 0.518768 0.377899
0.992188 0.521149 0.378571
0.058502 0.455139 0.348541
0.119537 0.477875 0.371399
0.219727 0.505432 0.399261
0.378601 0.544434 0.423889
0.547913 0.598541 0.421631
0.669312 0.641235 0.401642
0.785919 0.653839 0.393921
0.912415 0.655548 0.392944
1.000000 0.656006 0.392334
0.103271 0.567535 0.388672
0.174255 0.593201 0.412109
0.277405 0.623352 0.440643
0.427032 0.663422 0.470428
0.585052 0.713196 0.475647
0.699921 0.756989 0.445099
0.797028 0.780701 0.410309
0.915314 0.786713 0.396606
1.000000 0.787231 0.394989
0.165405 0.679749 0.421326
0.241516 0.708496 0.443420
0.343811 0.740173 0.467865
0.479950 0.777313 0.493530
0.620087 0.819946 0.504578
0.729553 0.860809 0.487091
0.817963 0.892090 0.450989
0.919189 0.911255 0.415283
1.000000 0.917450 0.399567
0.226349 0.793854 0.446014
0.304230 0.824402 0.465302
0.401978 0.854706 0.481445
0.520966 0.885193 0.496368
0.641449 0.918427 0.507599
0.745789 0.953918 0.507141
0.835846 0.987366 0.491974
0.927155 1.000000 0.465393
1.000000 1.000000 0.437531
0.010284 0.010345 0.119690
0.053864 0.019257 0.135651
0.118561 0.029999 0.158417
0.212646 0.039948 0.184906
0.315125 0.043427 0.201141
0.404968 0.044128 0.206635
0.481781 0.046387 0.208832
0.551666 0.049286 0.210754
0.622986 0.052032 0.216309
0.030823 0.080627 0.185364
0.076172 0.089142 0.203583
0.149963 0.096466 0.224670
0.259857 0.100861 0.240936
0.377167 0.102295 0.243683
0.477844 0.108002 0.241608
0.563416 0.118835 0.242065
0.638824 0.130402 0.245331
0.713287 0.141174 0.254211
0.041016 0.159271 0.254883
0.087341 0.172058 0.279297
0.168732 0.182434 0.304077
0.297943 0.186646 0.315765
0.434723 0.188049 0.305328
0.545013 0.199524 0.293274
0.634705 0.219818 0.292297
0.712585 0.240387 0.298706
0.791107 0.258789 0.314545
0.040802 0.249451 0.317047
0.086548 0.267761 0.343658
0.170349 0.285645 0.373199
0.315491 0.300507 0.391449
0.478210 0.310730 0.381531
0.602142 0.326447 0.365723
0.694794 0.348907 0.364014
0.779480 0.371155 0.377106
0.865051 0.388947 0.394562
0.041626 0.353912 0.368652
0.089630 0.375458 0.393646
0.173096 0.398438 0.423004
0.321594 0.425720 0.449493
0.503387 0.454773 0.454559
0.646881 0.485229 0.455811
0.756165 0.501923 0.457855
0.855927 0.512329 0.462952
0.952454 0.520599 0.470001
0.060364 0.466858 0.413696
0.116913 0.489929 0.437286
0.202850 0.514709 0.465149
0.345673 0.547455 0.496887
0.527039 0.587830 0.514832
0.670166 0.633270 0.514252
0.785980 0.651398 0.516052
0.907501 0.654114 0.514984
1.000000 0.655457 0.513794
0.108032 0.578094 0.454834
0.172760 0.603058 0.477844
0.261719 0.630005 0.504883
0.396912 0.664764 0.538422
0.564484 0.706757 0.563934
0.700470 0.750824 0.556396
0.800201 0.778717 0.532867
0.915619 0.786316 0.525116
1.000000 0.787292 0.525665
0.168671 0.687500 0.489319
0.236847 0.714813 0.511200
0.327026 0.743652 0.535370
0.454407 0.777313 0.564636
0.603027 0.814545 0.589935
0.727478 0.854065 0.590515
0.820648 0.888489 0.565308
0.920288 0.909882 0.539276
1.000000 0.917084 0.530609
0.224762 0.797943 0.517090
0.295410 0.827057 0.537201
0.385590 0.856262 0.555695
0.502411 0.885712 0.575134
0.629700 0.914642 0.594025
0.741577 0.946930 0.602478
0.834961 0.981689 0.594391
0.926788 1.000000 0.576477
1.000000 1.000000 0.565247
0.015137 0.014374 0.152832
0.056793 0.022461 0.170013
0.116699 0.031342 0.192627
0.207611 0.039948 0.222473
0.316162 0.043854 0.245941
0.416077 0.045410 0.256989
0.499481 0.048645 0.262482
0.570648 0.053192 0.266174
0.635162 0.058167 0.269287
0.033386 0.090790 0.235138
0.075958 0.098358 0.255157
0.143280 0.103027 0.275940
0.249146 0.104462 0.294739
0.372833 0.103333 0.301025
0.482788 0.106934 0.299011
0.571930 0.116699 0.298615
0.645264 0.127899 0.300568
0.709747 0.139679 0.303802
0.039581 0.176086 0.317017
0.081543 0.188599 0.342651
0.153748 0.195374 0.367676
0.276093 0.195068 0.383575
0.421082 0.190857 0.375153
0.542755 0.195892 0.356018
0.634430 0.212677 0.347443
0.707550 0.231750 0.348145
0.771149 0.250244 0.353302
0.037598 0.267120 0.380585
0.079498 0.286224 0.408569
0.152252 0.301666 0.439117
0.283966 0.311493 0.463898
0.453247 0.313324 0.458374
0.592377 0.320129 0.431976
0.687195 0.339813 0.418030
0.760651 0.362030 0.418823
0.826294 0.382629 0.426971
0.040375 0.366882 0.430389
0.086945 0.390015 0.457214
0.160309 0.412170 0.487823
0.290833 0.435272 0.519989
0.472748 0.454803 0.532776
0.631409 0.470428 0.519348
0.737152 0.487213 0.506866
0.818542 0.503326 0.506073
0.897919 0.518555 0.518616
0.063873 0.476166 0.475708
0.119354 0.500885 0.501007
0.196320 0.525452 0.529327
0.320923 0.555054 0.563568
0.498077 0.589233 0.592468
0.664307 0.619141 0.598236
0.782135 0.639801 0.598907
0.885010 0.648315 0.599854
0.984650 0.654358 0.606049
0.114532 0.587036 0.518738
0.176605 0.612793 0.543121
0.255981 0.638763 0.569885
0.374451 0.670166 0.603577
0.537659 0.707794 0.638184
0.695038 0.743713 0.653290
0.804047 0.773926 0.648560
0.914490 0.784912 0.649139
1.000000 0.787231 0.651154
0.174561 0.695648 0.556885
0.238129 0.722443 0.579895
0.318237 0.749481 0.604034
0.432343 0.780182 0.633453
0.579620 0.814270 0.665131
0.720734 0.847656 0.683960
0.824585 0.881195 0.677826
0.921417 0.906250 0.662964
1.000000 0.916016 0.661957
0.227478 0.803223 0.588593
0.292297 0.831207 0.609985
0.373657 0.858887 0.629883
0.483032 0.887024 0.651489
0.612976 0.914551 0.675018
0.736023 0.941345 0.693268
0.836243 0.972687 0.697784
0.927002 1.000000 0.691559
1.000000 1.000000 0.697357
0.019165 0.019257 0.187012
0.060913 0.026489 0.206360
0.116394 0.033508 0.229156
0.199860 0.040771 0.260559
0.308075 0.044617 0.290344
0.417725 0.046478 0.308655
0.511902 0.050323 0.318695
0.589874 0.056641 0.325378
0.657867 0.064209 0.330872
0.035431 0.099121 0.285126
0.076111 0.106903 0.308105
0.137512 0.109650 0.329346
0.234680 0.108429 0.349792
0.358612 0.105774 0.360626
0.479095 0.107544 0.360657
0.578308 0.116821 0.360077
0.655884 0.128815 0.362457
0.720459 0.142242 0.365997
0.037292 0.193024 0.379669
0.076447 0.205780 0.406219
0.140686 0.209686 0.430511
0.251282 0.205231 0.449310
0.396973 0.196686 0.447266
0.532654 0.196198 0.426208
0.634705 0.209137 0.410522
0.709778 0.226593 0.407013
0.770752 0.245148 0.409485
0.034943 0.288208 0.444824
0.074951 0.307892 0.472595
0.139282 0.320923 0.501617
0.254974 0.325806 0.529327
0.420593 0.322266 0.533386
0.575989 0.320923 0.505554
0.682465 0.333435 0.479614
0.756256 0.352509 0.472015
0.817535 0.372986 0.476379
0.040802 0.383484 0.491425
0.086853 0.407715 0.518494
0.154663 0.429047 0.548279
0.268646 0.448425 0.581848
0.440033 0.463074 0.602905
0.611359 0.471497 0.591553
0.727509 0.482269 0.569855
0.806793 0.496460 0.561615
0.874359 0.513214 0.567322
0.067780 0.485687 0.534210
0.123932 0.511902 0.560455
0.196899 0.536865 0.589142
0.307098 0.564667 0.624115
0.471558 0.595459 0.658539
0.645630 0.620392 0.672211
0.771088 0.634918 0.665649
0.860474 0.643707 0.658966
0.936584 0.654266 0.662903
0.121216 0.593994 0.578369
0.182861 0.620941 0.604401
0.257507 0.647186 0.632294
0.362579 0.676880 0.666077
0.513977 0.711945 0.704041
0.678223 0.745026 0.730743
0.805054 0.767487 0.735535
0.904388 0.780090 0.738190
1.000000 0.787598 0.746460
0.182007 0.702789 0.621521
0.243164 0.729767 0.646484
0.316650 0.756073 0.671875
0.417480 0.784546 0.701050
0.555908 0.816437 0.734406
0.704468 0.847748 0.762085
0.825134 0.873901 0.772980
0.920959 0.900085 0.776367
1.000000 0.913818 0.788544
0.233551 0.809326 0.659180
0.294373 0.836517 0.682404
0.367859 0.862671 0.703827
0.465485 0.889099 0.726044
0.591370 0.915527 0.751007
0.722717 0.940826 0.774261
0.835175 0.964996 0.789276
0.927460 0.995209 0.798859
1.000000 1.000000 0.824585
0.024017 0.023285 0.221863
0.065796 0.030518 0.244537
0.118286 0.036316 0.268616
0.193390 0.041901 0.300232
0.294739 0.045013 0.334137
0.408600 0.047241 0.359589
0.514191 0.051849 0.375366
0.601562 0.059906 0.385284
0.674438 0.068451 0.392151
0.037689 0.105438 0.333984
0.076935 0.113861 0.360199
0.133698 0.115265 0.382294
0.221527 0.112183 0.403473
0.338745 0.108063 0.418549
0.464478 0.108246 0.422180
0.575500 0.116852 0.422333
0.661987 0.130188 0.424927
0.730164 0.146576 0.428528
0.035675 0.208466 0.440216
0.073486 0.221313 0.466858
0.131805 0.222961 0.489746
0.230133 0.214722 0.509399
0.368164 0.202789 0.514160
0.511688 0.197693 0.496521
0.627411 0.207062 0.476196
0.710999 0.224548 0.468719
0.774841 0.246033 0.470276
0.033813 0.310394 0.507294
0.073639 0.329620 0.533508
0.133118 0.340027 0.559753
0.234375 0.339935 0.586792
0.387390 0.330902 0.598969
0.550476 0.322876 0.577240
0.672302 0.328979 0.544586
0.754242 0.345795 0.530151
0.817596 0.368378 0.533661
0.042938 0.403534 0.550873
0.090179 0.427765 0.576630
0.155243 0.447540 0.604218
0.256744 0.462585 0.636139
0.411652 0.471191 0.661926
0.585510 0.473541 0.657501
0.715424 0.477936 0.632721
0.801331 0.488922 0.619385
0.868835 0.507812 0.625122
0.073273 0.497833 0.589661
0.130585 0.524475 0.615540
0.201813 0.549530 0.643890
0.302368 0.575104 0.678131
0.451111 0.601624 0.714569
0.623810 0.622620 0.734222
0.758789 0.633698 0.730774
0.849976 0.640930 0.723633
0.921387 0.654327 0.728027
0.127869 0.599762 0.632690
0.189880 0.627502 0.659973
0.262573 0.654388 0.689240
0.358856 0.683136 0.723694
0.496826 0.715942 0.762817
0.659821 0.747375 0.794830
0.794525 0.767975 0.807861
0.890472 0.778534 0.808746
0.966125 0.789886 0.814453
0.189301 0.707428 0.680725
0.249695 0.734924 0.707794
0.319763 0.761169 0.735168
0.410492 0.788513 0.765259
0.536713 0.818726 0.799042
0.686035 0.849243 0.830505
0.816010 0.873840 0.849976
0.915741 0.891327 0.858490
1.000000 0.907043 0.881104
0.241394 0.814667 0.725983
0.299896 0.841553 0.751251
0.367859 0.866730 0.774719
0.454010 0.891418 0.797852
0.569214 0.916565 0.822937
0.703369 0.941284 0.848297
0.826294 0.964172 0.868500
0.926239 0.984924 0.885956
1.000000 1.000000 0.931488
0.028870 0.027313 0.257965
0.071442 0.034546 0.284485
0.122253 0.039520 0.310547
0.190247 0.042725 0.342133
0.281494 0.045807 0.378174
0.392792 0.047974 0.409180
0.507263 0.053192 0.430725
0.605774 0.061249 0.444336
0.684875 0.071777 0.451813
0.040283 0.109955 0.381195
0.079041 0.118408 0.410065
0.132874 0.119385 0.433258
0.212280 0.114838 0.454865
0.319519 0.109741 0.472778
0.443420 0.108612 0.480743
0.563843 0.116089 0.482758
0.661896 0.130219 0.485626
0.736481 0.149506 0.488342
0.035675 0.221161 0.497345
0.072510 0.233643 0.523285
0.127106 0.233490 0.544586
0.214905 0.222321 0.563538
0.341431 0.207428 0.573395
0.484711 0.198486 0.562103
0.611786 0.204071 0.540344
0.707336 0.221649 0.528839
0.778076 0.247253 0.528809
0.034332 0.330414 0.566406
0.074677 0.348389 0.590485
0.131500 0.356018 0.613617
0.221558 0.351349 0.638184
0.359192 0.337006 0.655151
0.520569 0.322968 0.641968
0.655029 0.323212 0.607697
0.749176 0.338898 0.587830
0.819641 0.366089 0.591217
0.047455 0.424133 0.607819
0.096008 0.447021 0.631439
0.159271 0.464752 0.656342
0.251465 0.475159 0.685364
0.389282 0.476807 0.712677
0.557465 0.472046 0.714996
0.698273 0.470734 0.691559
0.795319 0.480286 0.676178
0.868835 0.504150 0.684052
0.080933 0.512146 0.642548
0.138611 0.538147 0.667145
0.208557 0.562378 0.694550
0.301758 0.585297 0.727570
0.435333 0.606079 0.763977
0.600800 0.620972 0.787445
0.743469 0.628357 0.788025
0.842743 0.635193 0.783173
0.916992 0.653809 0.790741
0.134766 0.606018 0.683350
0.196838 0.633759 0.711212
0.268311 0.660736 0.741547
0.358734 0.688538 0.776733
0.484406 0.718567 0.816376
0.641479 0.747162 0.850708
0.782043 0.766510 0.868530
0.881866 0.777191 0.873962
0.954834 0.792542 0.881195
0.195709 0.709778 0.734772
0.256134 0.737549 0.763733
0.324402 0.764099 0.793182
0.408234 0.790741 0.824707
0.522614 0.819672 0.859314
0.667664 0.849548 0.892456
0.804321 0.873901 0.916351
0.907013 0.890045 0.930023
0.982086 0.905457 0.944489
0.249084 0.817505 0.787445
0.306946 0.844482 0.814789
0.371613 0.869293 0.840424
0.448608 0.892792 0.865112
0.550140 0.916504 0.890656
0.680084 0.940948 0.916962
0.812042 0.964081 0.940552
0.920624 0.983734 0.961609
0.999054 0.999176 0.999756
