lut/retro-80s/Beetlejuice (1988) - Standard.cube
# Created by Benjamin (IWLTBAP): https://luts.iwltbap.com
# Copyright: (C) Copyright 2018 Triune Films and IWLTBAP SAS
# Cannot be resold, shared or otherwise redistributed
TITLE "Triune Films 80s Retro LUTs (Rec.709, sRGB, DCI-P3)"
LUT_3D_SIZE 33
0.000000 0.000000 0.000000
0.009277 0.001190 0.001190
0.019836 0.003571 0.003571
0.031219 0.005981 0.006012
0.043549 0.008667 0.008728
0.058563 0.011597 0.011719
0.075531 0.014709 0.015320
0.094360 0.018036 0.018524
0.115173 0.020752 0.021637
0.137665 0.024170 0.025055
0.162262 0.026642 0.027527
0.187866 0.028564 0.029449
0.214661 0.030121 0.031006
0.242126 0.031342 0.032257
0.270111 0.032104 0.032959
0.298553 0.033386 0.033356
0.326996 0.033997 0.033386
0.355377 0.034546 0.033447
0.383545 0.034424 0.033112
0.411591 0.034943 0.032837
0.439392 0.035706 0.032501
0.467041 0.036682 0.032227
0.494568 0.037140 0.031921
0.522064 0.038239 0.031647
0.549408 0.038818 0.031342
0.576721 0.039673 0.031067
0.603973 0.040497 0.030823
0.631165 0.041534 0.030548
0.658234 0.041931 0.030304
0.685303 0.042450 0.029816
0.712433 0.043060 0.029144
0.739716 0.043365 0.028870
0.766724 0.044159 0.028656
0.002014 0.009247 0.002380
0.012848 0.012085 0.004303
0.025085 0.015137 0.007019
0.037964 0.017731 0.009430
0.052216 0.021393 0.012115
0.068604 0.024658 0.015137
0.086700 0.028503 0.018005
0.107056 0.032074 0.021301
0.129059 0.035492 0.023956
0.152740 0.038574 0.026550
0.178162 0.041321 0.028839
0.204468 0.043610 0.030457
0.231537 0.045410 0.031982
0.259277 0.046936 0.032928
0.287476 0.047882 0.033386
0.315857 0.049164 0.033783
0.344269 0.049805 0.033478
0.372559 0.050507 0.033173
0.400665 0.051666 0.032898
0.428589 0.052338 0.032654
0.456360 0.053192 0.032349
0.483978 0.054382 0.032074
0.511505 0.055542 0.031769
0.538879 0.056702 0.031525
0.566162 0.057831 0.031769
0.593353 0.058960 0.031525
0.620483 0.059937 0.031219
0.647491 0.060944 0.030975
0.674408 0.061829 0.030762
0.701324 0.062744 0.029968
0.728241 0.063263 0.029724
0.755341 0.064087 0.029480
0.782135 0.064545 0.029266
0.004364 0.019348 0.006073
0.015839 0.023071 0.008362
0.029175 0.027832 0.010376
0.044342 0.032013 0.012939
0.060974 0.036011 0.015167
0.079407 0.040222 0.018188
0.099487 0.044189 0.020874
0.121033 0.048096 0.023254
0.144104 0.051819 0.025909
0.168732 0.055084 0.028198
0.194733 0.058258 0.029907
0.221710 0.060394 0.031525
0.249207 0.062195 0.032806
0.277283 0.063843 0.033722
0.305481 0.065125 0.033661
0.333862 0.066101 0.034088
0.362122 0.067322 0.033844
0.390320 0.068298 0.033569
0.418274 0.069458 0.033325
0.446136 0.070496 0.033051
0.473785 0.071777 0.032806
0.501312 0.073334 0.032562
0.528778 0.074554 0.032257
0.556061 0.075989 0.032043
0.583282 0.077271 0.031769
0.610321 0.078735 0.031525
0.637329 0.080017 0.031250
0.664246 0.081238 0.031006
0.690918 0.082275 0.030792
0.717621 0.083313 0.030518
0.744293 0.084473 0.030304
0.771210 0.085144 0.030060
0.797821 0.086029 0.029816
0.007385 0.029968 0.010193
0.019440 0.034210 0.012604
0.033142 0.039520 0.014984
0.050018 0.046326 0.017120
0.069092 0.052277 0.018646
0.090302 0.057831 0.020813
0.112823 0.062592 0.023163
0.136292 0.067017 0.025360
0.160492 0.070618 0.027222
0.186096 0.073944 0.029175
0.212891 0.077087 0.030792
0.240265 0.079224 0.031830
0.268127 0.081055 0.032898
0.296204 0.082703 0.033600
0.324463 0.083832 0.033569
0.352692 0.085083 0.033630
0.380798 0.086334 0.033478
0.408783 0.087402 0.033234
0.436584 0.088745 0.033051
0.464233 0.090210 0.032837
0.491791 0.091553 0.032623
0.519226 0.093201 0.032379
0.546570 0.094849 0.032593
0.573761 0.096436 0.032349
0.600830 0.097839 0.032135
0.627716 0.099487 0.031860
0.654510 0.101013 0.031647
0.681183 0.102386 0.031403
0.707703 0.103577 0.031189
0.734192 0.104858 0.030975
0.760590 0.105896 0.030762
0.787262 0.107086 0.030090
0.813568 0.108063 0.029877
0.011139 0.041779 0.015259
0.023621 0.046204 0.018097
0.038086 0.052155 0.020447
0.054413 0.059509 0.022278
0.075287 0.068481 0.023712
0.099213 0.076569 0.024872
0.124725 0.083069 0.025787
0.151062 0.088623 0.027008
0.177795 0.092926 0.028534
0.204590 0.096069 0.029724
0.232086 0.098999 0.030853
0.259949 0.101166 0.031799
0.288116 0.102875 0.032318
0.316345 0.104218 0.032440
0.344482 0.105499 0.032562
0.372589 0.106689 0.033020
0.400482 0.107819 0.032959
0.428223 0.109070 0.032837
0.455872 0.110352 0.032715
0.483276 0.111664 0.032562
0.510681 0.113281 0.032379
0.537933 0.114868 0.032227
0.565063 0.116699 0.032043
0.592072 0.118317 0.031921
0.618988 0.120117 0.031708
0.645660 0.121735 0.031830
0.672272 0.123169 0.031891
0.698669 0.124786 0.031677
0.724976 0.126129 0.031464
0.751160 0.127441 0.031250
0.777283 0.128693 0.030701
0.803589 0.129913 0.030334
0.829590 0.131134 0.030029
0.015228 0.054626 0.021332
0.028534 0.059998 0.024353
0.043121 0.065979 0.027069
0.059937 0.073639 0.029388
0.080170 0.083221 0.030823
0.105743 0.094513 0.030487
0.133911 0.104218 0.030090
0.162903 0.111511 0.030090
0.192657 0.117401 0.030029
0.222198 0.121826 0.029877
0.251312 0.124603 0.030548
0.279938 0.126892 0.030792
0.308502 0.128540 0.031067
0.336945 0.129791 0.031250
0.365112 0.130676 0.031372
0.393097 0.131622 0.031464
0.420807 0.132599 0.031555
0.448395 0.133575 0.031555
0.475830 0.134857 0.031525
0.503082 0.136200 0.031433
0.530243 0.137634 0.031433
0.557281 0.139313 0.031342
0.584198 0.140991 0.031708
0.611023 0.142578 0.031708
0.637665 0.144226 0.031616
0.664185 0.145782 0.031433
0.690491 0.147308 0.031281
0.716614 0.149017 0.031128
0.742584 0.150299 0.031006
0.768494 0.151733 0.030975
0.794281 0.153168 0.031189
0.820251 0.154541 0.031036
0.845886 0.155731 0.030853
0.020264 0.069214 0.028656
0.033875 0.074646 0.031799
0.049133 0.080841 0.035248
0.066040 0.088745 0.037628
0.086334 0.098480 0.038849
0.111023 0.110504 0.038422
0.140839 0.123688 0.036438
0.172333 0.134521 0.034241
0.204102 0.142548 0.032898
0.236023 0.148590 0.031799
0.267731 0.153107 0.030365
0.298248 0.155975 0.029877
0.327759 0.157745 0.029663
0.356720 0.158875 0.029572
0.385223 0.159668 0.029816
0.413269 0.160370 0.029541
0.441010 0.161163 0.029602
0.468536 0.161926 0.029785
0.495880 0.162872 0.029877
0.522980 0.163879 0.030121
0.550049 0.165131 0.030243
0.576935 0.166473 0.030609
0.603729 0.167969 0.030792
0.630310 0.169312 0.030701
0.656769 0.170837 0.031219
0.682953 0.172363 0.031189
0.709015 0.173798 0.031067
0.734863 0.175262 0.031128
0.760529 0.176758 0.031036
0.786041 0.178040 0.031311
0.811493 0.179443 0.031311
0.837036 0.180817 0.031189
0.862335 0.182251 0.031067
0.025696 0.084961 0.037201
0.039948 0.090637 0.040588
0.055298 0.097229 0.044006
0.072723 0.105225 0.046356
0.092987 0.115082 0.048004
0.117249 0.127106 0.047791
0.146362 0.140961 0.045349
0.179138 0.155334 0.041107
0.213135 0.167114 0.037292
0.246796 0.175476 0.034515
0.280090 0.181793 0.031738
0.312805 0.186371 0.029877
0.344238 0.189362 0.028381
0.374298 0.190948 0.027740
0.403503 0.191895 0.027771
0.432129 0.192474 0.027557
0.460236 0.192902 0.027832
0.487915 0.193481 0.027924
0.515320 0.194031 0.028168
0.542511 0.194763 0.028687
0.569550 0.195618 0.029083
0.596375 0.196594 0.029297
0.623077 0.197754 0.029541
0.649567 0.198914 0.029999
0.675781 0.200073 0.030182
0.701782 0.201263 0.030609
0.727570 0.202545 0.030884
0.753204 0.203857 0.031067
0.778564 0.205139 0.031311
0.803741 0.206421 0.031433
0.828827 0.207703 0.031464
0.854034 0.209076 0.031891
0.878998 0.210449 0.031799
0.031097 0.102051 0.046661
0.046021 0.108154 0.050415
0.061981 0.114960 0.053894
0.079346 0.123016 0.056763
0.100037 0.132874 0.057831
0.124237 0.144928 0.057648
0.152679 0.158844 0.055237
0.184814 0.173981 0.050598
0.219727 0.189270 0.044403
0.255188 0.201477 0.039093
0.289917 0.210175 0.034576
0.323700 0.216461 0.031219
0.356567 0.221069 0.028687
0.388458 0.224365 0.026917
0.418976 0.226044 0.025970
0.448486 0.226898 0.025757
0.477264 0.227417 0.025665
0.505524 0.227722 0.026001
0.533295 0.228058 0.026428
0.560791 0.228455 0.026855
0.588043 0.228851 0.027191
0.615021 0.229431 0.027924
0.641754 0.230103 0.028198
0.668213 0.230896 0.028900
0.694366 0.231812 0.029205
0.720306 0.232635 0.029968
0.745911 0.233612 0.030182
0.771332 0.234619 0.030762
0.796509 0.235748 0.031342
0.821411 0.236847 0.031860
0.846191 0.238037 0.032196
0.871063 0.239227 0.032562
0.895691 0.240540 0.032959
0.036926 0.120941 0.056946
0.051666 0.127167 0.060883
0.067902 0.134125 0.064545
0.086029 0.142426 0.067413
0.106995 0.152222 0.068939
0.131165 0.163940 0.068756
0.159454 0.177856 0.065918
0.191132 0.193115 0.060852
0.225525 0.209198 0.054108
0.261627 0.224884 0.046173
0.297607 0.237305 0.039307
0.332397 0.246124 0.034027
0.366028 0.252441 0.030304
0.398804 0.257050 0.027283
0.430695 0.260376 0.025421
0.461609 0.262390 0.024109
0.491425 0.263458 0.023773
0.520538 0.263916 0.023926
0.549133 0.264099 0.024323
0.577148 0.264282 0.024872
0.604828 0.264435 0.025360
0.632141 0.264679 0.026031
0.659119 0.264954 0.026642
0.685791 0.265381 0.027466
0.712036 0.265747 0.028320
0.738007 0.266327 0.029175
0.763641 0.266968 0.029938
0.788971 0.267670 0.030670
0.814056 0.268494 0.031372
0.838837 0.269379 0.032104
0.863464 0.270325 0.032745
0.888153 0.271454 0.033661
0.912506 0.272583 0.034363
0.041992 0.141266 0.067322
0.057037 0.147705 0.071594
0.073944 0.154846 0.075531
0.092346 0.163055 0.078644
0.113342 0.172943 0.080475
0.137878 0.184509 0.080292
0.166290 0.198151 0.077332
0.197632 0.213440 0.072357
0.231628 0.229706 0.065033
0.267395 0.246124 0.056396
0.303650 0.261841 0.046783
0.339203 0.274139 0.039154
0.373505 0.282959 0.033264
0.406769 0.289276 0.029114
0.439148 0.293823 0.026215
0.470825 0.297211 0.023987
0.501892 0.299469 0.022705
0.532104 0.300659 0.022278
0.561584 0.301270 0.022186
0.590576 0.301483 0.022614
0.618988 0.301575 0.023315
0.646881 0.301575 0.024139
0.674377 0.301636 0.025055
0.701447 0.301666 0.026031
0.728088 0.301788 0.027039
0.754333 0.302002 0.028046
0.780182 0.302338 0.029022
0.805664 0.302734 0.030243
0.830811 0.303192 0.031189
0.855652 0.303864 0.032440
0.880310 0.304596 0.033508
0.904907 0.305481 0.034576
0.929260 0.306335 0.035736
0.046448 0.162750 0.078522
0.061920 0.169373 0.082642
0.079071 0.177002 0.086823
0.097931 0.185303 0.090088
0.119263 0.195038 0.092072
0.144226 0.206512 0.091797
0.172699 0.219910 0.089325
0.204132 0.234985 0.084198
0.238068 0.251099 0.076843
0.273438 0.267761 0.067535
0.309357 0.284332 0.057343
0.345032 0.299713 0.046875
0.379669 0.311676 0.038696
0.413177 0.320282 0.032715
0.445831 0.326508 0.028259
0.477844 0.330963 0.025299
0.509308 0.334259 0.023132
0.540375 0.336578 0.021759
0.570892 0.338013 0.020966
0.600861 0.338745 0.020935
0.630219 0.339020 0.021332
0.658936 0.339111 0.022278
0.687134 0.339020 0.023102
0.714874 0.338959 0.024170
0.742157 0.338867 0.025391
0.768951 0.338837 0.026581
0.795227 0.338898 0.028046
0.821075 0.339111 0.029572
0.846588 0.339355 0.031006
0.871735 0.339722 0.032410
0.896637 0.340240 0.033783
0.921387 0.340851 0.035309
0.945831 0.341522 0.036713
0.050079 0.185730 0.089294
0.065979 0.192657 0.093719
0.083405 0.200317 0.098114
0.102753 0.208893 0.101593
0.124481 0.218628 0.103424
0.149750 0.230042 0.103668
0.178558 0.243103 0.101257
0.210388 0.257721 0.096191
0.244293 0.273529 0.088898
0.279755 0.290161 0.079651
0.315552 0.306946 0.068787
0.350830 0.323059 0.057770
0.385284 0.337921 0.047150
0.418823 0.349457 0.038483
0.451447 0.357758 0.032288
0.483459 0.363739 0.027863
0.515045 0.368073 0.024872
0.546356 0.371246 0.022614
0.577423 0.373566 0.020874
0.608154 0.375153 0.020172
0.638489 0.376038 0.019958
0.668213 0.376404 0.020325
0.697296 0.376465 0.021057
0.725861 0.376404 0.022095
0.753967 0.376312 0.023560
0.781525 0.376221 0.024780
0.808533 0.376099 0.026459
0.834991 0.376099 0.028229
0.861053 0.376160 0.029785
0.886749 0.376312 0.031708
0.912109 0.376648 0.033264
0.937256 0.377014 0.035156
0.962067 0.377502 0.036957
0.052979 0.209961 0.100067
0.069000 0.217194 0.104614
0.086853 0.225128 0.108978
0.106506 0.233704 0.112701
0.128754 0.243561 0.114929
0.154510 0.254883 0.115326
0.183685 0.267639 0.113037
0.215912 0.281830 0.108398
0.250275 0.297302 0.101593
0.286011 0.313568 0.092407
0.321930 0.330261 0.081451
0.357178 0.346649 0.069916
0.391235 0.362152 0.058411
0.424316 0.376312 0.047424
0.456573 0.387268 0.038879
0.488312 0.395142 0.032379
0.519745 0.400848 0.027863
0.550995 0.404999 0.024597
0.582123 0.408020 0.022064
0.613190 0.410248 0.020508
0.644104 0.411835 0.019348
0.674713 0.412903 0.019012
0.704834 0.413361 0.019287
0.734344 0.413483 0.020142
0.763367 0.413483 0.021332
0.791809 0.413391 0.022736
0.819763 0.413269 0.024200
0.847168 0.413177 0.026001
0.874023 0.413147 0.027832
0.900421 0.413177 0.029968
0.926483 0.413300 0.032043
0.952301 0.413513 0.034058
0.977722 0.413788 0.036285
0.054810 0.235535 0.110291
0.071777 0.242981 0.115387
0.089508 0.251099 0.119843
0.109528 0.259857 0.123627
0.132263 0.269806 0.126038
0.158356 0.280914 0.126892
0.188232 0.293579 0.125183
0.220947 0.307404 0.120972
0.255920 0.322327 0.114502
0.292206 0.338196 0.105652
0.328461 0.354523 0.095276
0.363800 0.370758 0.083771
0.397797 0.386597 0.071838
0.430511 0.401398 0.059814
0.461975 0.414612 0.048645
0.492981 0.424774 0.039642
0.523926 0.432220 0.032928
0.554901 0.437622 0.028107
0.585876 0.441559 0.024536
0.616882 0.444366 0.021912
0.647919 0.446411 0.020264
0.678955 0.447998 0.018860
0.709839 0.449036 0.018219
0.740326 0.449646 0.018280
0.770355 0.449890 0.019043
0.799835 0.449921 0.020142
0.828766 0.449890 0.021515
0.857208 0.449829 0.023193
0.885101 0.449738 0.025055
0.912476 0.449707 0.027161
0.939423 0.449799 0.029358
0.966095 0.449921 0.031708
0.992340 0.450012 0.034027
0.056274 0.262299 0.120453
0.073303 0.270081 0.125427
0.091431 0.278412 0.130310
0.111755 0.287354 0.134216
0.134857 0.297302 0.137115
0.161591 0.308380 0.138123
0.192078 0.320740 0.137115
0.225464 0.334259 0.133728
0.261200 0.348785 0.127808
0.298157 0.364075 0.119934
0.335022 0.379913 0.109863
0.370819 0.395844 0.098816
0.404938 0.411560 0.086761
0.437347 0.426575 0.074402
0.468292 0.440399 0.062195
0.498230 0.452606 0.050415
0.528229 0.462097 0.040863
0.558472 0.468994 0.033752
0.588989 0.473999 0.028625
0.619781 0.477600 0.024536
0.650726 0.480225 0.021790
0.681854 0.482147 0.019745
0.713043 0.483521 0.018341
0.744141 0.484558 0.017334
0.775116 0.485199 0.017029
0.805573 0.485504 0.017487
0.835510 0.485596 0.018585
0.864990 0.485626 0.019897
0.894043 0.485596 0.021515
0.922607 0.485596 0.023438
0.950562 0.485626 0.025574
0.978271 0.485687 0.027832
1.000000 0.485748 0.030151
0.057098 0.290131 0.130096
0.074493 0.298096 0.135284
0.093170 0.306641 0.140259
0.113739 0.315735 0.144592
0.137299 0.325714 0.147827
0.164398 0.336761 0.149414
0.195557 0.349030 0.149139
0.229858 0.362274 0.146545
0.266357 0.376404 0.141724
0.304047 0.391235 0.134644
0.341736 0.406494 0.125671
0.378082 0.421997 0.115234
0.412567 0.437286 0.103607
0.444916 0.452240 0.091064
0.475433 0.466278 0.078125
0.504639 0.479065 0.065216
0.533325 0.490265 0.052734
0.562531 0.499023 0.042511
0.592255 0.505402 0.034943
0.622437 0.509918 0.029053
0.653137 0.513245 0.024658
0.684143 0.515625 0.021515
0.715332 0.517334 0.019257
0.746643 0.518585 0.017517
0.778046 0.519501 0.016296
0.809387 0.520111 0.015625
0.840302 0.520416 0.015839
0.870789 0.520599 0.016571
0.900909 0.520691 0.017761
0.930603 0.520721 0.019226
0.959778 0.520752 0.021088
0.988586 0.520782 0.023132
1.000000 0.520844 0.025238
0.058350 0.318817 0.139526
0.075653 0.326935 0.145111
0.094788 0.335663 0.150269
0.115906 0.344849 0.154877
0.139862 0.354889 0.158630
0.167480 0.365967 0.160919
0.199249 0.378143 0.161469
0.234222 0.391144 0.160004
0.271576 0.404999 0.156250
0.310089 0.419434 0.150238
0.348633 0.434235 0.142365
0.385681 0.449158 0.132812
0.420654 0.464020 0.121918
0.453217 0.478546 0.109589
0.483521 0.492523 0.096252
0.512054 0.505493 0.082520
0.539856 0.517273 0.068665
0.567535 0.527557 0.055359
0.596039 0.535553 0.044342
0.625366 0.541321 0.035828
0.655426 0.545441 0.029419
0.686096 0.548462 0.024628
0.717163 0.550568 0.021088
0.748535 0.552094 0.018463
0.780090 0.553162 0.016541
0.811676 0.553925 0.015015
0.843384 0.554474 0.013977
0.874786 0.554840 0.013794
0.905823 0.554993 0.014282
0.936523 0.555115 0.015137
0.966827 0.555176 0.016449
0.996826 0.555237 0.018036
1.000000 0.555298 0.019897
0.059326 0.348206 0.149109
0.077576 0.356445 0.154816
0.097015 0.365295 0.160370
0.118347 0.374603 0.165344
0.142944 0.384766 0.169586
0.171173 0.395752 0.172546
0.203552 0.407867 0.174072
0.239227 0.420746 0.173615
0.277313 0.434296 0.171173
0.316620 0.448425 0.166718
0.355988 0.462860 0.159821
0.393768 0.477356 0.151398
0.429260 0.491730 0.141205
0.462128 0.505829 0.129608
0.492371 0.519409 0.116577
0.520508 0.532318 0.102112
0.547455 0.544281 0.087280
0.574036 0.555054 0.072296
0.600922 0.564453 0.057953
0.628937 0.571625 0.045868
0.658051 0.576813 0.036682
0.688080 0.580566 0.029633
0.718811 0.583221 0.024353
0.750000 0.585114 0.020355
0.781586 0.586395 0.017426
0.813324 0.587280 0.015137
0.845215 0.587921 0.013458
0.877167 0.588409 0.012268
0.909027 0.588715 0.011658
0.940613 0.588867 0.011749
0.971832 0.588989 0.012329
1.000000 0.589081 0.013306
1.000000 0.589172 0.014648
0.061676 0.377960 0.159027
0.080444 0.386505 0.165009
0.100281 0.395355 0.170746
0.122345 0.404846 0.176117
0.147400 0.414948 0.180908
0.176331 0.425964 0.184753
0.209290 0.437958 0.187195
0.245453 0.450745 0.187775
0.284149 0.464172 0.186646
0.324158 0.478058 0.183533
0.364075 0.492126 0.178467
0.402557 0.506317 0.171204
0.438599 0.520294 0.161987
0.471832 0.533997 0.150970
0.502167 0.547180 0.138275
0.529907 0.559753 0.123810
0.556244 0.571655 0.108276
0.581787 0.582642 0.092041
0.607422 0.592438 0.075928
0.633636 0.600891 0.060303
0.661438 0.607330 0.047302
0.690491 0.612000 0.037323
0.720520 0.615326 0.029663
0.751373 0.617645 0.023804
0.782776 0.619232 0.019379
0.814514 0.620300 0.016113
0.846466 0.621063 0.013641
0.878601 0.621582 0.011810
0.910828 0.621918 0.010345
0.942993 0.622192 0.009491
0.975037 0.622345 0.009216
1.000000 0.622467 0.009460
1.000000 0.622559 0.010071
0.065369 0.408112 0.169373
0.084503 0.416687 0.175293
0.105377 0.425812 0.181519
0.128021 0.435272 0.187378
0.153717 0.445435 0.192627
0.183105 0.456451 0.197144
0.216644 0.468292 0.200623
0.253296 0.480957 0.202454
0.292358 0.494202 0.202606
0.332825 0.507935 0.200928
0.373230 0.521912 0.197021
0.412140 0.535797 0.191284
0.448639 0.549561 0.183228
0.482208 0.562897 0.173096
0.512665 0.575745 0.160889
0.540253 0.587921 0.146698
0.566010 0.599548 0.130798
0.590698 0.610382 0.113892
0.615204 0.620422 0.096405
0.640045 0.629272 0.078979
0.665985 0.636841 0.062195
0.693665 0.642639 0.048401
0.722717 0.646820 0.037689
0.752899 0.649719 0.029358
0.783905 0.651703 0.023041
0.815491 0.653015 0.018250
0.847443 0.653931 0.014709
0.879578 0.654541 0.012024
0.911926 0.654938 0.010010
0.944336 0.655243 0.008484
0.976776 0.655426 0.007446
1.000000 0.655548 0.006897
1.000000 0.655640 0.006714
0.071075 0.438385 0.179962
0.090637 0.447113 0.186218
0.112244 0.456299 0.192719
0.135651 0.465820 0.198944
0.161865 0.476013 0.204620
0.191895 0.486938 0.209900
0.225800 0.498749 0.214050
0.262817 0.511292 0.217041
0.302063 0.524384 0.218384
0.342712 0.538055 0.217926
0.383301 0.551819 0.215485
0.422424 0.565613 0.210968
0.459229 0.579132 0.204193
0.493103 0.592255 0.195099
0.523743 0.604797 0.183746
0.551239 0.616669 0.169983
0.576660 0.627930 0.154358
0.600647 0.638580 0.137024
0.624084 0.648560 0.118774
0.647705 0.657562 0.099915
0.672180 0.665588 0.081390
0.697968 0.672363 0.063751
0.725677 0.677551 0.049103
0.754883 0.681244 0.037720
0.785248 0.683777 0.028778
0.816406 0.685455 0.022003
0.848175 0.686584 0.016907
0.880310 0.687317 0.013184
0.912659 0.687805 0.010437
0.945160 0.688141 0.008301
0.977753 0.688324 0.006714
1.000000 0.688477 0.005554
1.000000 0.688568 0.004761
0.078400 0.468689 0.190765
0.098846 0.477570 0.197327
0.121094 0.486877 0.204071
0.145416 0.496460 0.210510
0.172394 0.506592 0.216644
0.202759 0.517517 0.222412
0.236969 0.529236 0.227295
0.273987 0.541626 0.231049
0.313263 0.554626 0.233643
0.353729 0.568085 0.234192
0.394226 0.581757 0.233032
0.433380 0.595459 0.229706
0.470215 0.608887 0.224121
0.504272 0.621826 0.216187
0.535065 0.634186 0.205750
0.562653 0.645813 0.192963
0.587830 0.656738 0.177795
0.611328 0.667114 0.160828
0.633942 0.676849 0.142212
0.656433 0.685883 0.122681
0.679535 0.694092 0.102814
0.703888 0.701324 0.083282
0.729706 0.707458 0.064789
0.757538 0.712036 0.049530
0.786926 0.715271 0.037354
0.817535 0.717499 0.028046
0.848907 0.718964 0.020874
0.880829 0.719940 0.015564
0.913177 0.720520 0.011719
0.945679 0.720886 0.008789
0.978302 0.721161 0.006653
1.000000 0.721313 0.005035
1.000000 0.721405 0.003876
0.087860 0.499054 0.201843
0.109589 0.508057 0.208557
0.132507 0.517487 0.215271
0.157288 0.527161 0.221832
0.184845 0.537354 0.228363
0.215576 0.548218 0.234406
0.249817 0.559753 0.239746
0.286652 0.571960 0.244202
0.325623 0.584808 0.247437
0.365845 0.598083 0.249207
0.405792 0.611633 0.248932
0.444702 0.625214 0.246765
0.481384 0.638550 0.242279
0.515442 0.651428 0.235565
0.546448 0.663666 0.226501
0.574036 0.675079 0.214630
0.599152 0.685791 0.200409
0.622375 0.695831 0.184052
0.644379 0.705353 0.165833
0.665924 0.714172 0.146210
0.687866 0.722412 0.125580
0.710846 0.729889 0.104889
0.735199 0.736450 0.084656
0.761200 0.742004 0.065552
0.789337 0.746094 0.049500
0.819000 0.748962 0.036896
0.849762 0.750946 0.027161
0.881348 0.752228 0.019745
0.913513 0.753082 0.014252
0.945953 0.753540 0.010254
0.978607 0.753876 0.007294
1.000000 0.754059 0.005157
1.000000 0.754211 0.003601
0.100006 0.529419 0.212769
0.122498 0.538635 0.219208
0.146027 0.548126 0.225922
0.171448 0.557922 0.232544
0.199219 0.568085 0.239044
0.230194 0.578827 0.245209
0.264038 0.590179 0.250916
0.300537 0.602264 0.255798
0.338989 0.614838 0.259583
0.378448 0.627930 0.262024
0.417664 0.641266 0.262726
0.456024 0.654694 0.261414
0.492340 0.667847 0.258087
0.526276 0.680664 0.252594
0.557251 0.692780 0.244659
0.585052 0.704041 0.234344
0.610260 0.714569 0.221313
0.633392 0.724457 0.206116
0.655029 0.733673 0.188782
0.675873 0.742310 0.169678
0.696838 0.750427 0.149109
0.718536 0.758026 0.127869
0.741547 0.764954 0.106537
0.766113 0.770966 0.085693
0.792511 0.776031 0.065887
0.820923 0.779785 0.049408
0.850922 0.782379 0.036377
0.881958 0.784180 0.026306
0.913788 0.785309 0.018616
0.946106 0.786072 0.012939
0.978699 0.786499 0.008911
1.000000 0.786774 0.005981
1.000000 0.786957 0.003845
0.114288 0.559967 0.222931
0.137085 0.569275 0.229370
0.161255 0.578918 0.235779
0.187042 0.588684 0.242340
0.214935 0.598816 0.248657
0.245636 0.609375 0.254822
0.279236 0.620605 0.260406
0.314972 0.632294 0.265503
0.352509 0.644653 0.269653
0.391113 0.657410 0.272552
0.429535 0.670471 0.273865
0.466949 0.683594 0.273560
0.502838 0.696625 0.271240
0.536499 0.709229 0.266876
0.567444 0.721252 0.260254
0.595306 0.732422 0.251404
0.620697 0.742889 0.240082
0.643890 0.752563 0.226288
0.665436 0.761627 0.210236
0.685883 0.770081 0.192200
0.706085 0.778076 0.172333
0.726776 0.785675 0.151245
0.748596 0.792786 0.129547
0.771820 0.799225 0.107666
0.796844 0.804871 0.086365
0.823639 0.809570 0.066132
0.852478 0.813049 0.049194
0.882782 0.815521 0.035828
0.914154 0.817169 0.025421
0.946198 0.818268 0.017517
0.978668 0.818939 0.011780
1.000000 0.819366 0.007721
1.000000 0.819641 0.004822
0.130035 0.590576 0.232513
0.153198 0.599915 0.238525
0.177612 0.609619 0.244812
0.203339 0.619354 0.250763
0.231262 0.629456 0.256958
0.261688 0.639893 0.262909
0.294647 0.650818 0.268433
0.329559 0.662262 0.273376
0.365997 0.674164 0.277679
0.403503 0.686554 0.280853
0.440918 0.699249 0.282776
0.477478 0.712006 0.283142
0.512604 0.724731 0.281830
0.545868 0.737122 0.278595
0.576660 0.749054 0.273346
0.604645 0.760101 0.265900
0.630219 0.770447 0.256195
0.653564 0.780060 0.244232
0.675201 0.788940 0.229797
0.695526 0.797272 0.213165
0.715332 0.805176 0.194458
