lut/retro-80s/Big Trouble In Little China (1986) - Standard.cube
# Created by Benjamin (IWLTBAP): https://luts.iwltbap.com
# Copyright: (C) Copyright 2018 Triune Films and IWLTBAP SAS
# Cannot be resold, shared or otherwise redistributed
TITLE "Triune Films 80s Retro LUTs (Rec.709, sRGB, DCI-P3)"
LUT_3D_SIZE 33
0.000824 0.000824 0.000000
0.015350 0.006958 0.002167
0.033447 0.013947 0.004791
0.055542 0.022003 0.006805
0.081116 0.030243 0.008789
0.109406 0.037170 0.010620
0.137543 0.041382 0.010376
0.164978 0.043335 0.009369
0.192017 0.044647 0.008392
0.221100 0.047760 0.008972
0.251556 0.051422 0.010925
0.280487 0.055634 0.012939
0.308167 0.059998 0.014923
0.335083 0.064545 0.017609
0.361847 0.070038 0.020538
0.388275 0.075531 0.022766
0.414886 0.081940 0.025757
0.441925 0.089996 0.028748
0.469086 0.098145 0.032501
0.496643 0.106964 0.036743
0.524506 0.117981 0.042633
0.552734 0.129517 0.048676
0.581329 0.141998 0.055786
0.609711 0.155487 0.064758
0.637787 0.169434 0.074921
0.665497 0.184723 0.087311
0.692841 0.200775 0.101471
0.719604 0.217743 0.116913
0.745758 0.235870 0.135071
0.771423 0.254669 0.154358
0.796295 0.274323 0.175079
0.821014 0.294708 0.197021
0.844818 0.314423 0.218475
0.007996 0.020081 0.003357
0.020630 0.022278 0.003357
0.041351 0.029236 0.006165
0.065399 0.037292 0.009338
0.091919 0.045166 0.011597
0.121033 0.051300 0.012787
0.150238 0.054382 0.013184
0.177948 0.056061 0.011749
0.204681 0.056854 0.010376
0.232788 0.058929 0.010773
0.261993 0.061432 0.011932
0.289703 0.065155 0.014099
0.316650 0.069092 0.016418
0.343048 0.072998 0.018738
0.369019 0.077637 0.020905
0.394928 0.083405 0.023743
0.421234 0.089813 0.026733
0.447876 0.097260 0.030334
0.474640 0.104950 0.033722
0.501831 0.114136 0.038544
0.529358 0.124786 0.043762
0.557343 0.135834 0.049713
0.585449 0.148224 0.057281
0.613434 0.161469 0.066223
0.641327 0.175018 0.076843
0.668762 0.190063 0.088806
0.695770 0.205841 0.102844
0.722321 0.222687 0.118713
0.748383 0.240540 0.136658
0.773743 0.259003 0.156097
0.798553 0.278412 0.176727
0.823151 0.298401 0.198578
0.846863 0.317841 0.219879
0.016022 0.041687 0.008698
0.031097 0.043365 0.007690
0.049774 0.046356 0.007965
0.073975 0.052826 0.010681
0.102173 0.060272 0.013580
0.131958 0.065491 0.015137
0.161743 0.068359 0.014923
0.189880 0.069122 0.013397
0.216827 0.069305 0.012024
0.244293 0.070862 0.011810
0.272400 0.072968 0.013275
0.299377 0.076111 0.015289
0.325653 0.079010 0.017731
0.351501 0.082550 0.019714
0.376953 0.087372 0.022583
0.402557 0.092499 0.025116
0.428406 0.098511 0.028107
0.454620 0.105530 0.031311
0.481049 0.113464 0.035645
0.507812 0.122406 0.039886
0.535004 0.132629 0.045654
0.562561 0.143433 0.051758
0.590302 0.155609 0.059113
0.617920 0.168274 0.067902
0.645477 0.181793 0.078583
0.672577 0.196350 0.090851
0.699371 0.211823 0.104675
0.725677 0.228455 0.120819
0.751404 0.245880 0.138489
0.776489 0.264130 0.158020
0.801178 0.283203 0.178680
0.825684 0.302887 0.200317
0.849304 0.322083 0.221497
0.025635 0.065186 0.014648
0.043213 0.066986 0.013489
0.061279 0.068176 0.012146
0.083252 0.071289 0.011963
0.111755 0.077515 0.014954
0.143158 0.083099 0.016602
0.173920 0.085632 0.016632
0.202515 0.085876 0.014923
0.229919 0.085510 0.013550
0.257263 0.086151 0.013336
0.284607 0.087585 0.014893
0.310913 0.089813 0.017273
0.336578 0.092865 0.019257
0.361908 0.095978 0.021240
0.387054 0.100220 0.024109
0.412262 0.104919 0.027100
0.437683 0.110413 0.030090
0.463287 0.117249 0.033600
0.489380 0.124878 0.037598
0.515778 0.133545 0.042267
0.542480 0.143127 0.047760
0.569427 0.153870 0.053986
0.596710 0.165405 0.061829
0.623901 0.177704 0.070740
0.650940 0.190948 0.081390
0.677673 0.205017 0.093567
0.704010 0.219971 0.107605
0.730042 0.236023 0.123413
0.755463 0.253113 0.141144
0.780304 0.271118 0.160675
0.804749 0.289703 0.181183
0.829102 0.308960 0.202728
0.852631 0.327911 0.223938
0.036621 0.089874 0.019928
0.055786 0.091919 0.018036
0.074677 0.093506 0.016388
0.096130 0.095337 0.015411
0.121918 0.098267 0.015228
0.153809 0.103668 0.017883
0.185547 0.106384 0.017639
0.215546 0.106934 0.016205
0.243744 0.106293 0.014801
0.271240 0.106171 0.014618
0.298065 0.107208 0.016449
0.324249 0.108795 0.018890
0.349548 0.110748 0.021240
0.374573 0.113342 0.023254
0.399445 0.116913 0.026093
0.424164 0.121399 0.029083
0.449097 0.126709 0.032501
0.474274 0.132782 0.036377
0.499664 0.139862 0.040344
0.525696 0.148010 0.045258
0.551880 0.157410 0.050812
0.578430 0.167450 0.057434
0.604950 0.178192 0.065216
0.631561 0.190277 0.074585
0.658051 0.202850 0.084961
0.684296 0.216309 0.097046
0.710175 0.230743 0.111328
0.735809 0.246338 0.126923
0.760834 0.262878 0.144897
0.785370 0.280273 0.164185
0.809509 0.298401 0.184570
0.833588 0.316986 0.205994
0.856903 0.335388 0.227112
0.048065 0.115753 0.022888
0.066650 0.118347 0.020905
0.086639 0.120148 0.018982
0.109711 0.122162 0.017456
0.135834 0.124603 0.017181
0.163788 0.126831 0.017181
0.196533 0.131165 0.017914
0.227539 0.132507 0.017120
0.256683 0.131683 0.015747
0.284729 0.131134 0.015594
0.312012 0.131500 0.018463
0.338165 0.132385 0.020782
0.363617 0.133759 0.023743
0.388489 0.135803 0.026123
0.413239 0.139038 0.029053
0.437866 0.142365 0.032074
0.462585 0.147125 0.035461
0.487244 0.152802 0.040009
0.512146 0.159027 0.044220
0.537323 0.166473 0.049652
0.563171 0.175079 0.055084
0.589111 0.184601 0.061737
0.615051 0.194916 0.069977
0.640839 0.205872 0.079102
0.666870 0.217560 0.089691
0.692444 0.230591 0.101898
0.717804 0.244324 0.115875
0.742859 0.259216 0.131653
0.767365 0.275024 0.149536
0.791656 0.291748 0.168640
0.815521 0.309143 0.188873
0.839355 0.327209 0.210083
0.862579 0.344849 0.230713
0.057587 0.142151 0.022369
0.077301 0.145172 0.020569
0.097595 0.147491 0.019012
0.121704 0.149719 0.017456
0.149597 0.152039 0.016663
0.178619 0.154663 0.016663
0.207397 0.157440 0.016663
0.237885 0.159912 0.016479
0.268005 0.160828 0.015747
0.296631 0.160980 0.016571
0.324738 0.161011 0.019653
0.351562 0.161163 0.023010
0.377594 0.161926 0.026001
0.402924 0.163177 0.029236
0.427856 0.165466 0.032288
0.452423 0.168365 0.036255
0.476837 0.172302 0.039917
0.501373 0.177124 0.044342
0.526031 0.182678 0.048981
0.550873 0.189331 0.054474
0.575928 0.197052 0.060547
0.601257 0.205444 0.067352
0.626587 0.214722 0.075531
0.651886 0.224915 0.084564
0.677002 0.235901 0.095581
0.701996 0.247955 0.107880
0.726807 0.261017 0.121735
0.751282 0.274994 0.137421
0.775452 0.289978 0.154999
0.799194 0.305756 0.173859
0.822754 0.322327 0.193970
0.846375 0.339600 0.214844
0.869385 0.356354 0.235168
0.067017 0.168427 0.019958
0.087158 0.171722 0.018585
0.107910 0.174683 0.017578
0.132568 0.177490 0.016052
0.161926 0.180115 0.014771
0.191956 0.183197 0.014313
0.220703 0.186188 0.014679
0.248779 0.188873 0.014679
0.277802 0.191162 0.015106
0.306854 0.192535 0.017120
0.335632 0.193115 0.020813
0.363373 0.193604 0.025085
0.390259 0.194031 0.029419
0.416351 0.194641 0.033112
0.441925 0.196045 0.036713
0.466949 0.198334 0.040863
0.491669 0.201294 0.045258
0.516083 0.205231 0.050171
0.540558 0.210052 0.055176
0.565216 0.215729 0.060730
0.589905 0.222168 0.067261
0.614624 0.229645 0.074493
0.639313 0.237915 0.082581
0.663940 0.247162 0.092163
0.688477 0.257172 0.102661
0.712738 0.268219 0.114960
0.736969 0.280334 0.128784
0.760956 0.293335 0.144348
0.784637 0.307343 0.161560
0.808014 0.322144 0.180237
0.831238 0.337708 0.199799
0.854675 0.354004 0.220276
0.877441 0.370026 0.240112
0.077118 0.194458 0.018188
0.095673 0.198486 0.017181
0.117554 0.201721 0.015839
0.142975 0.205322 0.014587
0.171936 0.208923 0.012787
0.203278 0.212219 0.011932
0.233246 0.216034 0.012665
0.261261 0.219299 0.013092
0.288116 0.221863 0.013916
0.316498 0.224487 0.015869
0.344879 0.226166 0.020752
0.373260 0.227325 0.026520
0.401123 0.227997 0.031555
0.428009 0.228851 0.037079
0.454437 0.229889 0.041718
0.480377 0.231598 0.046234
0.505798 0.233765 0.051392
0.530640 0.236816 0.056854
0.555206 0.240662 0.062195
0.579742 0.245239 0.068420
0.604187 0.250732 0.075073
0.628571 0.257050 0.082581
0.652740 0.264130 0.090759
0.676788 0.272308 0.100494
0.700806 0.281281 0.111206
0.724548 0.291321 0.123413
0.748138 0.302124 0.137054
0.771637 0.314148 0.152435
0.794952 0.327118 0.169281
0.817993 0.340912 0.187347
0.840912 0.355286 0.206268
0.863983 0.370422 0.226074
0.886627 0.385468 0.245300
0.086517 0.221558 0.018768
0.105865 0.225586 0.017792
0.126160 0.229370 0.016418
0.151764 0.233612 0.014435
0.181274 0.237885 0.013184
0.212585 0.242371 0.012177
0.244293 0.246460 0.011719
0.273438 0.250397 0.012695
0.300415 0.253784 0.013702
0.326111 0.256409 0.014679
0.353577 0.259491 0.019897
0.381683 0.261292 0.026855
0.409821 0.262421 0.033264
0.437714 0.263611 0.039917
0.464996 0.265076 0.045837
0.491913 0.266602 0.052002
0.518127 0.268524 0.058044
0.543915 0.270935 0.064148
0.569153 0.273621 0.070374
0.593933 0.277313 0.077087
0.618225 0.281952 0.084412
0.642395 0.287201 0.092072
0.666382 0.293060 0.100739
0.690247 0.300140 0.109955
0.713715 0.307922 0.121002
0.737030 0.316803 0.133240
0.760254 0.326599 0.146606
0.783295 0.337402 0.161530
0.806183 0.349091 0.177612
0.828979 0.361633 0.195099
0.851654 0.374939 0.213348
0.874542 0.388763 0.232300
0.897034 0.402435 0.250549
0.097015 0.249268 0.021729
0.114197 0.253296 0.020538
0.133728 0.257263 0.018890
0.158447 0.261841 0.017517
0.188202 0.266846 0.016235
0.220428 0.271942 0.015106
0.253296 0.277191 0.013550
0.284424 0.281952 0.013977
0.312683 0.286041 0.014954
0.338531 0.289490 0.016754
0.362976 0.292145 0.019714
0.389771 0.294922 0.026215
0.417358 0.296997 0.033966
0.445312 0.298309 0.041229
0.473297 0.299744 0.049561
0.500854 0.301758 0.057465
0.528015 0.303833 0.065399
0.554657 0.306091 0.072723
0.580872 0.308563 0.079895
0.606445 0.311554 0.087036
0.631226 0.315186 0.094727
0.655579 0.319397 0.102936
0.679596 0.324219 0.111755
0.703339 0.330139 0.120941
0.726868 0.336884 0.132050
0.750000 0.344666 0.143951
0.772949 0.353271 0.156799
0.795685 0.362762 0.171082
0.818420 0.373230 0.186676
0.840942 0.384460 0.203247
0.863495 0.396332 0.220551
0.886230 0.408905 0.238556
0.908569 0.421570 0.256195
0.107117 0.277039 0.024719
0.123352 0.281067 0.023712
0.141785 0.284912 0.022217
0.165192 0.289673 0.020905
0.193817 0.295166 0.019897
0.226685 0.300995 0.018402
0.260834 0.307281 0.017426
0.293854 0.313049 0.016968
0.324341 0.318237 0.017944
0.351349 0.322449 0.020081
0.375549 0.325623 0.022217
0.399384 0.328278 0.026367
0.425262 0.330872 0.034027
0.452332 0.332794 0.043549
0.480072 0.334198 0.052795
0.507935 0.335938 0.061646
0.535736 0.338226 0.070587
0.563202 0.340729 0.079742
0.590179 0.343231 0.088165
0.616638 0.346130 0.096588
0.642456 0.349243 0.105286
0.667450 0.352783 0.113831
0.691925 0.356964 0.122955
0.715912 0.361908 0.132721
0.739655 0.367523 0.143616
0.762970 0.374084 0.155212
0.785950 0.381653 0.167694
0.808655 0.389923 0.181244
0.831268 0.399048 0.195923
0.853729 0.408905 0.211395
0.876160 0.419617 0.227844
0.898895 0.430817 0.244781
0.921234 0.442017 0.261353
0.118256 0.304932 0.027679
0.133179 0.308624 0.027191
0.150360 0.312500 0.026215
0.172607 0.317261 0.025177
0.200287 0.323059 0.023407
0.232635 0.329437 0.022491
0.267303 0.336395 0.021912
0.301849 0.343353 0.021790
0.334534 0.349670 0.022491
0.363770 0.354950 0.024536
0.389038 0.359039 0.027374
0.412109 0.362000 0.030731
0.435059 0.364410 0.035858
0.460175 0.366821 0.044708
0.486664 0.368561 0.055359
0.513916 0.370087 0.065002
0.541779 0.371918 0.075195
0.569763 0.374237 0.085358
0.597412 0.376892 0.094971
0.624664 0.380035 0.105011
0.651367 0.383270 0.114716
0.677521 0.386627 0.124237
0.702850 0.390381 0.133972
0.727570 0.394562 0.144073
0.751740 0.399292 0.154663
0.775391 0.404816 0.166077
0.798767 0.411194 0.178192
0.821808 0.418488 0.191254
0.844513 0.426392 0.205048
0.867126 0.434875 0.219421
0.889618 0.444061 0.234650
0.912292 0.454010 0.250610
0.934601 0.464020 0.266052
0.130432 0.332977 0.032074
0.144501 0.336395 0.031189
0.160553 0.340149 0.030548
0.181396 0.344940 0.029877
0.207794 0.350739 0.028168
0.238983 0.357513 0.027771
0.273376 0.364716 0.027161
0.308594 0.372437 0.027466
0.343018 0.380096 0.029083
0.374603 0.386444 0.031616
0.402100 0.391785 0.034729
0.426208 0.395599 0.038727
0.448242 0.398407 0.042999
0.469849 0.400330 0.047760
0.494354 0.402618 0.058380
0.520142 0.404205 0.068787
0.547089 0.405609 0.079102
0.574768 0.407379 0.089844
0.602844 0.409698 0.100342
0.630737 0.412903 0.111389
0.658203 0.416382 0.122437
0.685364 0.419983 0.133026
0.711761 0.423553 0.143585
0.737549 0.427368 0.153931
0.762665 0.431580 0.164764
0.787079 0.436310 0.176117
0.811096 0.441620 0.187927
0.834686 0.447784 0.200378
0.857849 0.454681 0.213531
0.880707 0.461945 0.227020
0.903473 0.469849 0.241058
0.926422 0.478302 0.255798
0.948639 0.487152 0.270355
0.145142 0.361389 0.038818
0.157440 0.364624 0.037872
0.172668 0.368195 0.037201
0.191803 0.372650 0.036713
0.216949 0.378296 0.035706
0.246368 0.384918 0.034851
0.279572 0.392761 0.034882
0.314667 0.400757 0.035797
0.350006 0.408875 0.038391
0.383972 0.416901 0.041412
0.413818 0.423431 0.045410
0.439850 0.428497 0.050018
0.462494 0.432037 0.054352
0.483398 0.434448 0.058960
0.503906 0.436035 0.063599
0.527740 0.438110 0.073639
0.552979 0.439453 0.084229
0.579407 0.440765 0.095032
0.607025 0.442474 0.105377
0.635193 0.444885 0.116486
0.663300 0.448151 0.127625
0.691132 0.451843 0.139221
0.718536 0.455719 0.150787
0.745544 0.459564 0.161926
0.771820 0.463501 0.173218
0.797455 0.467743 0.184387
0.822418 0.472412 0.196014
0.846741 0.477600 0.207855
0.870758 0.483307 0.220459
0.894318 0.489655 0.233398
0.917450 0.496552 0.246674
0.940552 0.503906 0.260468
0.962891 0.511383 0.273926
0.163177 0.390625 0.047302
0.174011 0.393372 0.046722
0.187744 0.396729 0.046417
0.205627 0.400909 0.045990
0.228241 0.406067 0.045319
0.255951 0.412750 0.045349
0.287170 0.420135 0.045837
0.321259 0.428375 0.047516
0.356354 0.436859 0.050568
0.391022 0.445404 0.054016
0.423492 0.453552 0.058655
0.452057 0.459930 0.063751
0.476624 0.464752 0.068756
0.497986 0.467957 0.073059
0.517761 0.470215 0.077026
0.537537 0.471649 0.081757
0.560486 0.473267 0.091064
0.585266 0.474548 0.101562
0.611359 0.475708 0.111481
0.638641 0.477325 0.121552
0.666840 0.479706 0.132385
0.695251 0.482849 0.143646
0.723389 0.486542 0.155365
0.751282 0.490509 0.167053
0.778931 0.494598 0.178894
0.805756 0.498657 0.190216
0.832092 0.502808 0.201752
0.857544 0.507355 0.213501
0.882568 0.512329 0.225586
0.907074 0.517731 0.238068
0.930939 0.523712 0.250641
0.954468 0.530151 0.263794
0.976807 0.536774 0.276978
0.184906 0.420502 0.060211
0.195312 0.423035 0.059937
0.207336 0.425873 0.059662
0.223145 0.429840 0.059296
0.243286 0.434662 0.059021
0.268555 0.440704 0.059052
0.297485 0.447754 0.060577
0.329407 0.455627 0.062347
0.363342 0.464142 0.065765
0.397919 0.472992 0.069916
0.431305 0.481812 0.075104
0.462372 0.489746 0.080994
0.489410 0.496033 0.086395
0.512482 0.500458 0.091095
0.532501 0.503540 0.094543
0.551239 0.505493 0.097656
0.570557 0.506836 0.101593
0.592712 0.508209 0.110199
0.617004 0.509399 0.119751
0.642761 0.510406 0.128448
0.669952 0.511871 0.138123
0.698303 0.514130 0.148346
0.726929 0.517212 0.159332
0.755524 0.520782 0.170807
0.784027 0.524750 0.182343
0.812164 0.528809 0.194000
0.839722 0.532867 0.205414
0.866547 0.537109 0.217072
0.892853 0.541565 0.228973
0.918427 0.546173 0.241028
0.943329 0.551270 0.253204
0.967560 0.556946 0.266083
0.990112 0.563019 0.279236
0.212036 0.451385 0.079498
0.221313 0.453583 0.078766
0.231689 0.456024 0.078278
0.245331 0.459351 0.078125
0.263062 0.463684 0.078125
0.285370 0.469208 0.078217
0.311401 0.475586 0.079620
0.340424 0.482971 0.081543
0.372040 0.491058 0.084686
0.405518 0.499908 0.089355
0.438782 0.508911 0.094696
0.470856 0.517609 0.100830
0.500183 0.525574 0.107025
0.525665 0.531586 0.112122
0.547302 0.535858 0.115845
0.566223 0.538666 0.118378
0.584198 0.540497 0.120239
0.602783 0.541656 0.122925
0.624573 0.543091 0.130585
0.648376 0.544067 0.138214
0.673950 0.544922 0.146210
0.701172 0.546204 0.154663
0.729584 0.548401 0.164062
0.758514 0.551300 0.174438
0.787659 0.554626 0.185242
0.816650 0.558441 0.196320
0.845398 0.562408 0.207581
0.873596 0.566467 0.218964
0.901123 0.570618 0.230591
0.927948 0.574799 0.242401
0.954010 0.579254 0.254395
0.979309 0.584198 0.267090
0.998688 0.589722 0.280884
0.245087 0.482849 0.105743
0.252594 0.484772 0.105164
0.261261 0.486908 0.104370
0.272919 0.489777 0.103912
0.288208 0.493439 0.103455
0.307159 0.498260 0.103455
0.329834 0.503937 0.104126
0.355713 0.510590 0.105743
0.384155 0.518219 0.108429
0.414886 0.526459 0.112366
0.446930 0.535309 0.117432
0.478699 0.544281 0.123169
0.508911 0.552948 0.129333
0.536957 0.560852 0.135345
0.560913 0.566589 0.139282
0.581146 0.570709 0.141846
0.599335 0.573395 0.143219
0.616730 0.575134 0.143860
0.634430 0.576202 0.144348
0.656036 0.577728 0.150787
0.679565 0.578491 0.157379
0.705017 0.579163 0.163910
0.732178 0.580231 0.171051
0.760834 0.582306 0.179810
0.790222 0.585022 0.189056
0.819641 0.588135 0.198975
0.849182 0.591644 0.209137
0.878510 0.595459 0.219879
0.907349 0.599487 0.230988
0.935425 0.603485 0.242462
0.962769 0.607544 0.254181
0.989227 0.611877 0.266785
0.999969 0.616913 0.281342
0.283813 0.514984 0.140045
0.289642 0.516602 0.139221
0.296844 0.518463 0.138733
0.306732 0.520966 0.137878
0.319397 0.524078 0.137085
0.334839 0.528046 0.136169
0.353882 0.533020 0.135803
0.376007 0.538879 0.136230
0.401031 0.545654 0.137756
0.428497 0.553314 0.140259
0.457886 0.561523 0.144104
0.487946 0.570404 0.148895
0.517792 0.579285 0.154114
0.546417 0.587830 0.159698
0.572906 0.595581 0.164917
0.595276 0.601105 0.167664
0.614532 0.605164 0.168793
0.631775 0.607819 0.168243
0.648651 0.609528 0.167633
0.665985 0.610535 0.166809
0.687256 0.611877 0.172058
0.710602 0.612732 0.177185
0.735901 0.613312 0.181854
0.763245 0.614319 0.187744
0.792053 0.616180 0.195038
0.821564 0.618591 0.203217
0.851440 0.621429 0.212006
0.881378 0.624725 0.221436
0.911346 0.628235 0.230957
0.940643 0.632080 0.241699
0.969269 0.636017 0.252960
0.995300 0.640137 0.265442
0.999969 0.644684 0.280914
0.326630 0.547760 0.180054
0.331116 0.548950 0.179138
0.337006 0.550537 0.178101
0.344940 0.552612 0.177124
0.355530 0.555328 0.175903
0.368073 0.558624 0.174255
0.383118 0.562836 0.172943
0.401550 0.567841 0.172058
0.423004 0.573730 0.171967
0.446899 0.580627 0.172974
0.472626 0.588226 0.175079
0.499939 0.596436 0.177948
0.528198 0.605225 0.182068
0.556274 0.613953 0.186676
0.583099 0.622345 0.191193
0.607758 0.629822 0.195099
0.628815 0.635284 0.196564
0.647125 0.639099 0.196014
0.663818 0.641632 0.194550
0.680023 0.643250 0.192322
0.697388 0.644440 0.190643
0.718201 0.645660 0.193390
0.741455 0.646515 0.197052
0.766724 0.647125 0.200256
0.794159 0.648132 0.204498
0.823090 0.649750 0.210205
0.852844 0.651947 0.216980
0.883026 0.654663 0.224579
0.913513 0.657623 0.232666
0.943878 0.660889 0.241547
0.973663 0.664612 0.251617
0.996277 0.668518 0.263733
0.999969 0.672974 0.279846
0.371979 0.580261 0.223145
0.376038 0.581421 0.222229
0.380737 0.582855 0.221252
0.386688 0.584564 0.219757
0.395294 0.586914 0.217957
0.405334 0.589722 0.215942
0.417358 0.593292 0.213684
0.432220 0.597534 0.211609
0.449768 0.602631 0.210175
0.469788 0.608612 0.209503
0.491943 0.615448 0.209595
0.515808 0.622925 0.210571
0.541290 0.631104 0.212677
0.567627 0.639618 0.215607
0.593933 0.648163 0.218933
0.618927 0.656403 0.222473
0.641876 0.663544 0.224976
0.661743 0.668762 0.225067
0.679138 0.672577 0.223511
0.695190 0.674927 0.220612
0.711029 0.676575 0.216858
0.728271 0.677734 0.214203
0.748962 0.679047 0.215363
0.772064 0.679962 0.217285
0.797333 0.680664 0.218567
0.824829 0.681732 0.221191
0.853943 0.683197 0.225281
0.883972 0.685303 0.230682
0.914612 0.687744 0.236694
0.945343 0.690521 0.243774
0.976105 0.693695 0.251953
0.996887 0.697296 0.262817
0.999969 0.701294 0.278046
0.420105 0.612854 0.268463
0.423401 0.613831 0.267303
0.427002 0.615051 0.266296
0.431671 0.616638 0.264618
0.438049 0.618652 0.262390
0.445984 0.621094 0.259766
0.455444 0.624176 0.256866
0.467255 0.627777 0.253662
0.481293 0.632111 0.250793
0.497559 0.637238 0.248505
0.515839 0.643219 0.246887
0.536163 0.649963 0.246155
0.558289 0.657349 0.246185
0.581787 0.665375 0.247070
0.606415 0.673645 0.248840
0.630554 0.681976 0.250977
0.653839 0.689819 0.253204
0.675385 0.696716 0.254608
0.693970 0.701538 0.253143
0.710510 0.705292 0.250763
0.726105 0.707642 0.246735
0.741669 0.709320 0.242065
0.758545 0.710480 0.237396
0.779388 0.712036 0.237793
0.802307 0.713074 0.237091
0.827698 0.713959 0.236725
0.855377 0.714966 0.237762
0.884674 0.716431 0.240173
0.915009 0.718384 0.243713
0.945740 0.720764 0.248596
0.976685 0.723297 0.253601
0.996948 0.726105 0.260559
0.999969 0.729553 0.274933
0.469910 0.645020 0.315277
0.472260 0.645935 0.314148
0.474915 0.646973 0.312836
0.478485 0.648438 0.311188
0.483521 0.650177 0.308716
0.489502 0.652344 0.305298
0.496826 0.655029 0.301636
0.505859 0.658142 0.297638
0.516846 0.661926 0.293671
0.529327 0.666290 0.289764
0.543915 0.671478 0.286499
0.560822 0.677460 0.283905
0.579468 0.684052 0.282043
0.599823 0.691254 0.281036
0.621429 0.699066 0.280731
0.643921 0.707092 0.281372
0.666290 0.715057 0.282318
0.687744 0.722412 0.283081
0.707947 0.729034 0.283752
0.725250 0.733551 0.280975
0.741272 0.737305 0.278168
0.756439 0.739624 0.273163
0.771759 0.741394 0.267426
0.788544 0.742584 0.260895
0.809174 0.744476 0.259216
0.832214 0.745697 0.256989
0.857727 0.746735 0.254852
0.885529 0.747894 0.253998
0.914917 0.749359 0.253632
0.945068 0.751099 0.253754
0.975800 0.753082 0.255219
0.996429 0.755341 0.259430
0.999969 0.758148 0.272583
0.521149 0.676178 0.364410
0.523041 0.677124 0.363312
0.524841 0.678101 0.361786
0.527588 0.679413 0.359619
0.531281 0.681061 0.356903
0.535858 0.683044 0.353180
0.541199 0.685425 0.348877
0.547729 0.688293 0.343964
0.555939 0.691650 0.338776
0.565430 0.695557 0.333618
0.576447 0.700012 0.328247
0.589630 0.705200 0.323700
0.604889 0.711121 0.320068
0.621857 0.717590 0.317169
0.640320 0.724609 0.314972
0.659851 0.732025 0.313599
0.680420 0.739655 0.313080
0.701080 0.747253 0.313049
0.720947 0.754150 0.312592
0.739410 0.760254 0.311707
0.755920 0.764801 0.308868
0.771179 0.768311 0.304901
0.786011 0.770721 0.299072
0.801178 0.772675 0.292084
0.817780 0.774139 0.283539
0.838287 0.775970 0.279297
0.861237 0.777527 0.274353
0.886658 0.778656 0.268433
0.914337 0.779846 0.263397
0.943542 0.781250 0.260101
0.973999 0.782928 0.258362
0.995575 0.784790 0.259613
0.999969 0.787018 0.271942
0.572632 0.706573 0.414703
0.574097 0.707397 0.413605
0.575562 0.708374 0.412201
0.577667 0.709534 0.409943
0.580322 0.711060 0.406982
0.583771 0.712921 0.402954
0.587646 0.715179 0.398132
0.592316 0.717773 0.392670
0.598145 0.720825 0.386383
0.605194 0.724365 0.379913
0.613342 0.728333 0.372864
0.622925 0.732910 0.366333
0.634491 0.738098 0.360504
0.648041 0.743958 0.355560
0.663086 0.750275 0.351379
0.679474 0.757050 0.348114
0.697174 0.764130 0.345581
0.716003 0.771362 0.344025
0.734924 0.778564 0.342712
0.752991 0.784973 0.341187
0.770020 0.790558 0.339172
0.785370 0.794952 0.334930
0.799835 0.798370 0.329315
0.814117 0.800842 0.321716
0.828705 0.802765 0.311249
0.845398 0.804413 0.300385
0.865723 0.806305 0.291962
0.888733 0.808075 0.283936
0.914520 0.809509 0.275757
0.942261 0.810974 0.268890
0.971771 0.812469 0.263397
0.994507 0.814087 0.261719
0.999969 0.815796 0.272980
0.622894 0.735687 0.465393
0.624084 0.736481 0.464172
0.625305 0.737335 0.462799
0.626984 0.738495 0.460876
0.629211 0.739960 0.458130
0.631866 0.741699 0.454163
0.634796 0.743835 0.449219
0.638245 0.746277 0.443268
0.642395 0.749054 0.436584
0.647400 0.752380 0.429108
0.653137 0.755981 0.420685
0.660004 0.760162 0.412384
0.668091 0.764801 0.404083
0.678070 0.770020 0.396729
0.689667 0.775787 0.390381
0.702850 0.781921 0.384796
0.717438 0.788452 0.380280
0.733429 0.795135 0.376709
0.749878 0.802124 0.372955
0.766388 0.808838 0.369110
0.782288 0.814789 0.364777
