lut/retro-80s/Big Trouble In Little China (1986) - Standard.cube
# Created by Benjamin (IWLTBAP): https://luts.iwltbap.com
# Copyright: (C) Copyright 2018 Triune Films and IWLTBAP SAS
# Cannot be resold, shared or otherwise redistributed
TITLE "Triune Films 80s Retro LUTs (Rec.709, sRGB, DCI-P3)"
LUT_3D_SIZE 9
0.000824 0.000824 0.000000
0.081116 0.030243 0.008789
0.192017 0.044647 0.008392
0.308167 0.059998 0.014923
0.414886 0.081940 0.025757
0.524506 0.117981 0.042633
0.637787 0.169434 0.074921
0.745758 0.235870 0.135071
0.844818 0.314423 0.218475
0.036621 0.089874 0.019928
0.121918 0.098267 0.015228
0.243744 0.106293 0.014801
0.349548 0.110748 0.021240
0.449097 0.126709 0.032501
0.551880 0.157410 0.050812
0.658051 0.202850 0.084961
0.760834 0.262878 0.144897
0.856903 0.335388 0.227112
0.077118 0.194458 0.018188
0.171936 0.208923 0.012787
0.288116 0.221863 0.013916
0.401123 0.227997 0.031555
0.505798 0.233765 0.051392
0.604187 0.250732 0.075073
0.700806 0.281281 0.111206
0.794952 0.327118 0.169281
0.886627 0.385468 0.245300
0.118256 0.304932 0.027679
0.200287 0.323059 0.023407
0.334534 0.349670 0.022491
0.435059 0.364410 0.035858
0.541779 0.371918 0.075195
0.651367 0.383270 0.114716
0.751740 0.399292 0.154663
0.844513 0.426392 0.205048
0.934601 0.464020 0.266052
0.184906 0.420502 0.060211
0.243286 0.434662 0.059021
0.363342 0.464142 0.065765
0.489410 0.496033 0.086395
0.570557 0.506836 0.101593
0.669952 0.511871 0.138123
0.784027 0.524750 0.182343
0.892853 0.541565 0.228973
0.990112 0.563019 0.279236
0.326630 0.547760 0.180054
0.355530 0.555328 0.175903
0.423004 0.573730 0.171967
0.528198 0.605225 0.182068
0.628815 0.635284 0.196564
0.697388 0.644440 0.190643
0.794159 0.648132 0.204498
0.913513 0.657623 0.232666
0.999969 0.672974 0.279846
0.521149 0.676178 0.364410
0.531281 0.681061 0.356903
0.555939 0.691650 0.338776
0.604889 0.711121 0.320068
0.680420 0.739655 0.313080
0.755920 0.764801 0.308868
0.817780 0.774139 0.283539
0.914337 0.779846 0.263397
0.999969 0.787018 0.271942
0.713135 0.790314 0.561340
0.718506 0.794037 0.556000
0.727081 0.802582 0.536255
0.737061 0.816925 0.492828
0.759399 0.837585 0.441193
0.803711 0.861359 0.403503
0.858215 0.879944 0.369049
0.921692 0.890472 0.313965
0.999969 0.898376 0.286865
0.739471 0.904297 0.624756
0.757996 0.906952 0.621338
0.777527 0.913055 0.608887
0.798370 0.923004 0.581146
0.818909 0.937592 0.527802
0.841797 0.957336 0.447632
0.879150 0.976715 0.376404
0.936676 0.989838 0.337402
1.000000 0.995544 0.322418
0.014465 0.028595 0.044769
0.081116 0.034943 0.044220
0.202637 0.046631 0.042450
0.321259 0.065582 0.045746
0.424713 0.089752 0.053925
0.530334 0.125244 0.071167
0.639740 0.175049 0.102142
0.746246 0.238342 0.153381
0.845337 0.315002 0.228546
0.014771 0.091339 0.085876
0.091949 0.102631 0.078827
0.237457 0.118256 0.076935
0.358826 0.128143 0.073456
0.460266 0.145294 0.080017
0.560120 0.174011 0.096558
0.662567 0.216431 0.126343
0.763794 0.272369 0.173859
0.860474 0.341675 0.243652
0.023499 0.196930 0.096802
0.108093 0.211121 0.089630
0.265930 0.219360 0.082886
0.399078 0.233246 0.100525
0.508057 0.242249 0.112030
0.606476 0.260223 0.129913
0.701935 0.290039 0.157837
0.796265 0.334137 0.201843
0.889038 0.390106 0.263519
0.053741 0.305359 0.089691
0.137451 0.322540 0.084595
0.308655 0.345886 0.073853
0.429443 0.359650 0.101013
0.540771 0.374023 0.144531
0.651001 0.386139 0.174438
0.751282 0.402557 0.203217
0.844666 0.429810 0.240753
0.935486 0.467224 0.289276
0.122894 0.417328 0.103363
0.195251 0.431122 0.103943
0.339355 0.459839 0.108154
0.483368 0.491730 0.134186
0.569336 0.503357 0.160339
0.669830 0.512329 0.198029
0.783936 0.526672 0.234131
0.892914 0.543518 0.269958
0.989502 0.565399 0.311584
0.270630 0.541534 0.190552
0.304779 0.548126 0.186737
0.392914 0.568176 0.188171
0.517487 0.601440 0.209259
0.627899 0.632782 0.234711
0.697876 0.642212 0.237701
0.794891 0.648071 0.252777
0.914246 0.658936 0.276337
0.999969 0.675262 0.319458
0.479279 0.672852 0.359222
0.483704 0.676178 0.347015
0.519073 0.686920 0.332916
0.583435 0.707733 0.322906
0.673737 0.738098 0.328644
0.756683 0.764008 0.335785
0.819031 0.772980 0.318207
0.915558 0.779785 0.303589
0.999969 0.788330 0.316620
0.689545 0.790649 0.556854
0.688904 0.794678 0.546997
0.698456 0.802704 0.526978
0.713165 0.816650 0.488068
0.744965 0.837372 0.445831
0.799286 0.861572 0.420135
0.858643 0.880127 0.397705
0.922302 0.890137 0.354248
0.999969 0.898895 0.340057
0.731720 0.905212 0.642853
0.749542 0.908722 0.640015
0.768982 0.914856 0.628326
0.788818 0.924866 0.601349
0.808502 0.939728 0.549774
0.833099 0.959137 0.476868
0.875824 0.977661 0.416931
0.936523 0.990143 0.389282
1.000000 0.995514 0.388763
0.015594 0.049866 0.102753
0.087341 0.060059 0.105194
0.209290 0.067413 0.096069
0.338196 0.082306 0.100830
0.444885 0.109619 0.105438
0.544830 0.145966 0.120544
0.647369 0.192932 0.149811
0.749542 0.251465 0.192627
0.847168 0.321350 0.252686
0.005554 0.101807 0.162994
0.065613 0.123932 0.177948
0.221100 0.128662 0.148499
0.365967 0.138916 0.139526
0.473114 0.161346 0.140808
0.569275 0.191223 0.153564
0.666626 0.231049 0.178741
0.764801 0.283325 0.217072
0.861176 0.346832 0.270538
0.002045 0.188385 0.203186
0.037170 0.208191 0.213654
0.218933 0.234924 0.204437
0.393433 0.243835 0.196716
0.512543 0.262085 0.204559
0.612091 0.286011 0.218292
0.705750 0.314972 0.238800
0.799347 0.355255 0.269836
0.893524 0.406433 0.311676
0.006989 0.300629 0.219757
0.038910 0.323639 0.216675
0.217896 0.351257 0.202515
0.412476 0.356628 0.206635
0.537720 0.377350 0.245667
0.649536 0.393188 0.265594
0.749603 0.413208 0.285614
0.843719 0.441223 0.311646
0.935883 0.478027 0.345154
0.032410 0.411224 0.230011
0.080750 0.430573 0.220245
0.254852 0.459808 0.204468
0.459778 0.486298 0.214172
0.564178 0.495331 0.249695
0.668274 0.512878 0.291473
0.782684 0.530518 0.320587
0.891449 0.548676 0.345947
0.987274 0.571838 0.376831
0.143250 0.532257 0.262268
0.196960 0.542603 0.253357
0.326813 0.563019 0.247467
0.491486 0.595459 0.263306
0.622620 0.626312 0.294952
0.696503 0.635162 0.310425
0.795166 0.647217 0.334320
0.914642 0.662201 0.358063
0.999969 0.680664 0.396057
0.368103 0.663727 0.366089
0.388702 0.667938 0.355835
0.444397 0.677765 0.342865
0.543762 0.700897 0.343384
0.661652 0.733917 0.362915
0.756805 0.760559 0.381714
0.820221 0.769043 0.376221
0.917358 0.779755 0.375671
0.999969 0.791412 0.394958
0.621490 0.789276 0.545441
0.623688 0.792755 0.535736
0.627899 0.799957 0.509369
0.661194 0.813782 0.481750
0.716858 0.835449 0.457703
0.791504 0.861084 0.449127
0.859863 0.879730 0.441254
0.923859 0.889130 0.414001
0.999969 0.899994 0.417694
0.706543 0.907410 0.659149
0.724335 0.911102 0.655670
0.738678 0.919220 0.640778
0.758057 0.929169 0.612976
0.780182 0.943726 0.565613
0.815033 0.961945 0.507538
0.871094 0.979126 0.464935
0.936310 0.990692 0.451447
1.000000 0.995056 0.475128
0.022675 0.088318 0.189301
0.081665 0.102020 0.196320
0.225677 0.110229 0.176483
0.345337 0.115723 0.166962
0.463104 0.136780 0.177490
0.565491 0.177155 0.191620
0.663696 0.227753 0.209320
0.760284 0.283234 0.240143
0.854187 0.346008 0.286957
0.006073 0.126678 0.234863
0.046234 0.150818 0.265259
0.212646 0.165558 0.248383
0.367157 0.160553 0.211456
0.486908 0.180359 0.214752
0.585907 0.217010 0.222748
0.678925 0.259979 0.236389
0.772461 0.309692 0.265350
0.865509 0.368225 0.308807
0.000824 0.197205 0.277893
0.016815 0.218018 0.311951
0.158325 0.255371 0.333313
0.380249 0.252686 0.284637
0.520538 0.273010 0.281036
0.621063 0.303467 0.286896
0.710236 0.334381 0.298706
0.800385 0.372772 0.322540
0.892365 0.420807 0.357544
0.000000 0.290009 0.312195
0.007690 0.309204 0.330811
0.100983 0.349243 0.358002
0.386017 0.380524 0.349670
0.541718 0.388184 0.346008
0.652313 0.410706 0.358673
0.749146 0.436981 0.374054
0.842194 0.466187 0.394196
0.935303 0.501678 0.420471
0.003906 0.401978 0.344116
0.017029 0.420959 0.351013
0.114838 0.463013 0.359131
0.388550 0.496246 0.352661
0.556488 0.496796 0.359680
0.667603 0.517578 0.394806
0.780731 0.537689 0.415863
0.886292 0.559174 0.434937
0.981110 0.584839 0.459045
0.041992 0.513153 0.377441
0.075409 0.529938 0.379669
0.195404 0.564331 0.372894
0.423981 0.597809 0.365417
0.608185 0.623444 0.381805
0.694153 0.628082 0.399384
0.795685 0.647186 0.431396
0.913727 0.667053 0.457123
0.999969 0.688599 0.491150
0.209778 0.646637 0.437775
0.245819 0.656647 0.432526
0.335205 0.674469 0.415405
0.489136 0.697571 0.412933
0.643951 0.728943 0.428864
0.754974 0.754517 0.446808
0.820892 0.761292 0.449158
0.919861 0.778046 0.465790
0.999969 0.795807 0.497040
0.476776 0.783569 0.543213
0.489532 0.787506 0.535431
0.524414 0.795441 0.516907
0.592163 0.808929 0.501953
0.686401 0.831573 0.497589
0.784576 0.858276 0.501556
0.861816 0.876709 0.499481
0.926392 0.885651 0.485992
0.999969 0.900757 0.515808
0.645538 0.910309 0.669373
0.663727 0.913849 0.664917
0.680817 0.921417 0.649780
0.700439 0.932587 0.620789
0.739777 0.945892 0.587311
0.796143 0.963379 0.552490
0.867767 0.979767 0.528107
0.936584 0.990021 0.535278
1.000000 0.994110 0.576416
0.028320 0.135406 0.276917
0.074341 0.149506 0.288940
0.224152 0.162292 0.277435
0.363098 0.168304 0.252411
0.468109 0.181915 0.250916
0.578705 0.214783 0.267487
0.676422 0.265198 0.289856
0.770691 0.325531 0.313538
0.864685 0.386688 0.337463
0.010681 0.165070 0.307251
0.042633 0.188751 0.337433
0.188385 0.209564 0.345490
0.377380 0.210114 0.302795
0.488831 0.217804 0.286469
0.596710 0.247955 0.297455
0.690155 0.292633 0.313263
0.781708 0.347595 0.332153
0.874878 0.404480 0.355377
0.002258 0.226440 0.342896
0.017242 0.246124 0.376068
0.130768 0.287018 0.424255
0.373688 0.297760 0.395966
0.520325 0.294556 0.355591
0.629486 0.321594 0.360168
0.719177 0.358398 0.366913
0.806946 0.401367 0.377686
0.897949 0.447662 0.399323
0.000000 0.298828 0.376953
0.005646 0.317474 0.403778
0.077972 0.361176 0.460297
0.334106 0.403076 0.481995
0.536926 0.401367 0.436218
0.658264 0.425354 0.435333
0.752960 0.454865 0.439331
0.842468 0.484497 0.448456
0.932159 0.518341 0.467255
0.001221 0.390381 0.418030
0.004303 0.407013 0.432617
0.057098 0.445801 0.467621
0.279724 0.498871 0.504395
0.551636 0.527222 0.502289
0.675171 0.535034 0.497711
0.780853 0.558044 0.509521
0.880371 0.582947 0.522461
0.973022 0.609497 0.540558
0.019073 0.503723 0.459229
0.029022 0.517792 0.468109
0.098236 0.553497 0.488190
0.302002 0.606445 0.505188
0.568329 0.636780 0.516602
0.691559 0.635010 0.513092
0.795776 0.654663 0.538361
0.909882 0.676575 0.559174
0.999969 0.702057 0.587677
0.098938 0.621460 0.511536
0.124390 0.633575 0.517883
0.214691 0.663940 0.529755
0.381714 0.703583 0.524902
0.603027 0.733063 0.536560
0.747345 0.754303 0.546326
0.820190 0.756653 0.544403
0.921631 0.778870 0.567932
0.999969 0.802734 0.607147
0.310883 0.765869 0.593536
0.336029 0.774597 0.592133
0.396240 0.791656 0.583313
0.507080 0.810516 0.573883
0.654541 0.831360 0.582794
0.776093 0.855499 0.588531
0.861786 0.872925 0.585327
0.927979 0.881439 0.576508
0.999969 0.902374 0.624878
0.524628 0.912140 0.679932
0.548370 0.915924 0.676270
0.579224 0.923401 0.664825
0.625153 0.933655 0.646454
0.697968 0.947266 0.634888
0.782959 0.963318 0.625641
0.867432 0.978607 0.616699
0.937195 0.988403 0.635193
1.000000 0.993469 0.677765
0.052643 0.191315 0.356842
0.094452 0.203796 0.369354
0.217041 0.220490 0.373657
0.375916 0.226837 0.349335
0.485077 0.247131 0.337616
0.580322 0.270325 0.344177
0.681183 0.308807 0.362274
0.774292 0.362518 0.388458
0.863556 0.423981 0.417145
0.032013 0.215698 0.380707
0.067627 0.237823 0.406830
0.184143 0.258972 0.424591
0.373871 0.267059 0.400238
0.502594 0.277588 0.372101
0.595154 0.295715 0.369293
0.693878 0.331146 0.383392
0.784912 0.381775 0.406219
0.873718 0.440063 0.432281
0.011993 0.268127 0.411682
0.035187 0.287689 0.439911
0.142303 0.327606 0.490143
0.349670 0.347595 0.493347
0.528931 0.348724 0.447388
0.625702 0.357239 0.427765
0.721680 0.387146 0.435089
0.809631 0.428864 0.448120
0.897430 0.478638 0.465637
0.002258 0.333069 0.442230
0.011993 0.349731 0.467102
0.094421 0.391083 0.524414
0.312805 0.436798 0.572479
0.535797 0.448059 0.539917
0.655701 0.448273 0.505981
0.754486 0.474335 0.509674
0.843994 0.505341 0.512451
0.931671 0.541290 0.518036
0.002045 0.400330 0.478729
0.006256 0.415222 0.495850
0.060852 0.453918 0.541077
0.261627 0.512482 0.606323
0.521454 0.552246 0.616150
0.673889 0.555573 0.583252
0.780487 0.578644 0.585815
0.875397 0.602692 0.587402
0.965393 0.628265 0.593445
0.016724 0.489807 0.525543
0.022583 0.503876 0.536743
0.069366 0.536743 0.563110
0.246063 0.594910 0.611511
0.490204 0.642303 0.640808
0.694733 0.666962 0.641846
0.800385 0.676056 0.641144
0.901825 0.698944 0.654022
0.992676 0.728271 0.675690
0.080383 0.610901 0.575623
0.092285 0.622070 0.583771
0.151459 0.651642 0.604401
0.307220 0.702271 0.634857
0.514740 0.743896 0.651642
0.723450 0.767395 0.666962
0.817871 0.764587 0.655151
0.919647 0.786011 0.675201
0.999969 0.813385 0.713745
0.232635 0.750549 0.648712
0.257019 0.759979 0.655212
0.318268 0.781219 0.666595
0.418610 0.811859 0.672424
0.583496 0.838928 0.677826
0.751556 0.859619 0.690125
0.856262 0.873444 0.688568
0.928101 0.879761 0.677765
1.000000 0.905579 0.731445
0.389923 0.908569 0.713348
0.418671 0.913483 0.713135
0.464081 0.923706 0.711731
0.543335 0.937256 0.711914
0.656250 0.950897 0.716339
0.770874 0.965179 0.720917
0.864258 0.978180 0.715790
0.937225 0.987701 0.731934
1.000000 0.993530 0.771088
0.108337 0.254150 0.435455
0.143463 0.264069 0.444794
0.233795 0.281555 0.455566
0.378326 0.294830 0.448303
0.505920 0.309387 0.428925
0.593658 0.340698 0.428741
0.677948 0.367584 0.439209
0.772430 0.407440 0.456268
0.862518 0.454529 0.477325
0.091431 0.275635 0.456299
0.127808 0.294037 0.475677
0.214417 0.313080 0.492310
0.366455 0.329407 0.489777
0.514771 0.338104 0.462616
0.606659 0.362793 0.452423
0.688324 0.386139 0.457672
0.782288 0.423584 0.472565
0.872101 0.469452 0.492920
0.058533 0.321930 0.487579
0.093201 0.339844 0.510010
0.191345 0.374512 0.550751
0.340485 0.397003 0.565643
0.523804 0.405701 0.537292
0.634308 0.417297 0.508698
0.712708 0.432953 0.502045
0.805817 0.463898 0.511658
0.893921 0.504883 0.527588
0.018158 0.379730 0.513580
0.042419 0.395660 0.534729
0.143707 0.432709 0.582825
0.321625 0.476044 0.632782
0.518280 0.497498 0.625946
0.663696 0.502960 0.588684
0.745453 0.509460 0.571411
0.837982 0.533112 0.576019
0.924561 0.563873 0.582794
0.008820 0.437469 0.544464
0.021118 0.451233 0.560730
0.100159 0.488403 0.602722
0.286133 0.541870 0.666473
0.506165 0.586060 0.695709
0.679840 0.601166 0.670135
0.775116 0.602051 0.648254
0.867065 0.624023 0.654083
0.953461 0.649658 0.657898
0.023590 0.502441 0.584808
0.031189 0.514893 0.596619
0.084412 0.546967 0.625977
0.261566 0.606171 0.683716
0.470306 0.658691 0.734039
0.683746 0.694641 0.737152
0.796509 0.697418 0.716522
0.891052 0.719177 0.723846
0.978424 0.745728 0.734314
0.078918 0.596985 0.637085
0.090485 0.608704 0.646149
0.147491 0.638916 0.668579
0.293365 0.690247 0.709259
0.455475 0.737579 0.745300
0.670502 0.773315 0.764923
0.817535 0.788818 0.764801
0.914795 0.801636 0.770935
0.999969 0.829041 0.799530
0.229431 0.742798 0.710449
0.247925 0.752258 0.717957
0.301910 0.775238 0.734344
0.391052 0.808868 0.754517
0.514313 0.842773 0.770264
0.696259 0.868256 0.784790
0.839783 0.881561 0.791656
0.924194 0.883728 0.780945
1.000000 0.910034 0.826569
0.371429 0.907288 0.780426
0.400208 0.912292 0.783661
0.438538 0.922729 0.789429
0.497711 0.938049 0.796082
0.601898 0.955963 0.802979
0.734344 0.970459 0.807526
0.850128 0.981171 0.809174
0.934418 0.988739 0.820160
1.000000 0.994354 0.854004
0.179352 0.319580 0.512268
0.205688 0.327972 0.519653
0.273102 0.344666 0.532196
0.388763 0.363159 0.537506
0.520782 0.377319 0.525635
0.615448 0.403900 0.513641
0.688171 0.440063 0.519958
0.765717 0.465607 0.528625
0.853455 0.499634 0.540863
0.172668 0.337921 0.528839
0.202820 0.353302 0.543304
0.265259 0.370239 0.556976
0.378723 0.390289 0.564911
0.520325 0.403809 0.552277
0.623901 0.424591 0.535187
0.696991 0.457275 0.537140
0.773163 0.480225 0.544342
0.861755 0.512756 0.556580
0.156677 0.379608 0.560455
0.188446 0.394257 0.576477
0.260986 0.424347 0.606354
0.364380 0.446259 0.621124
0.516144 0.464081 0.612915
0.642639 0.475647 0.587372
0.719147 0.499115 0.578552
0.792450 0.516846 0.580902
0.880890 0.545105 0.591156
0.095001 0.435455 0.586731
0.134003 0.450470 0.604584
0.230621 0.480865 0.642242
0.361053 0.519012 0.682007
0.508850 0.543915 0.687805
0.662048 0.556671 0.664032
0.752716 0.567200 0.643585
0.822083 0.577087 0.637024
0.908875 0.599487 0.644196
0.048035 0.489075 0.615570
0.084076 0.504547 0.631012
0.188141 0.538788 0.667145
0.335114 0.580719 0.717133
0.508453 0.623505 0.752045
0.673920 0.646332 0.742310
0.785461 0.651703 0.718933
0.854218 0.655273 0.706604
0.936829 0.677399 0.715881
0.052643 0.541656 0.644470
0.073181 0.555267 0.657410
0.153442 0.589081 0.688171
0.311920 0.639954 0.741089
0.484558 0.686981 0.792267
0.679169 0.726990 0.806213
0.807037 0.738037 0.789154
0.882050 0.738617 0.775116
0.961884 0.762665 0.791687
0.108887 0.616089 0.692993
0.126190 0.628265 0.703705
0.197388 0.659515 0.731171
0.328949 0.706055 0.773560
0.469391 0.751862 0.817749
0.660767 0.792938 0.846130
0.817261 0.816254 0.847595
0.902618 0.815247 0.836273
0.986176 0.838318 0.857178
0.269012 0.741791 0.777130
0.282410 0.749817 0.784332
0.322632 0.769867 0.800751
0.398560 0.801270 0.823242
0.497589 0.835510 0.846069
0.651031 0.866394 0.866150
0.807983 0.885956 0.876160
0.916595 0.893738 0.876221
1.000000 0.914246 0.903259
0.380066 0.905487 0.856476
0.405670 0.910065 0.860199
0.435791 0.920166 0.867310
0.484131 0.936676 0.876038
0.568268 0.957092 0.885040
0.692474 0.974762 0.892792
0.820740 0.985504 0.897034
0.925171 0.991394 0.905029
1.000000 0.995514 0.927948
0.251862 0.383118 0.584473
0.272430 0.390411 0.590851
0.324524 0.405823 0.602753
0.415070 0.426666 0.613892
0.532654 0.447174 0.613922
0.637329 0.468567 0.602966
0.709106 0.502716 0.596436
0.772797 0.537903 0.606903
0.839874 0.555237 0.611115
0.252136 0.399811 0.597229
0.276855 0.413300 0.608704
0.324738 0.428467 0.620300
0.411316 0.449554 0.631470
0.530151 0.469940 0.631592
0.640839 0.488190 0.620026
0.716187 0.518341 0.612091
0.779663 0.551727 0.620483
0.846375 0.568634 0.625671
0.255798 0.435883 0.623810
0.279510 0.448334 0.635223
0.333893 0.475494 0.657776
0.409424 0.496582 0.670410
0.524811 0.519531 0.673004
0.648346 0.535614 0.661011
0.733734 0.556427 0.649384
0.796692 0.584930 0.652985
0.860779 0.600098 0.658813
0.233276 0.490936 0.655121
0.263062 0.502747 0.668182
0.326630 0.527802 0.694550
0.419891 0.563782 0.725616
0.525726 0.588501 0.734528
0.657349 0.608185 0.726654
0.761139 0.618713 0.709839
0.825409 0.637787 0.703827
0.884705 0.650360 0.707520
0.180725 0.551849 0.685028
0.218475 0.564941 0.698944
0.295074 0.590668 0.727844
0.400116 0.623779 0.766235
0.535339 0.663025 0.797150
0.668243 0.687469 0.797577
0.788208 0.697723 0.781952
0.860931 0.705872 0.767853
0.914398 0.716522 0.766998
0.173798 0.606323 0.717041
0.207031 0.620117 0.730530
0.283234 0.648590 0.759491
0.385193 0.683807 0.798340
0.517517 0.721558 0.837585
0.681549 0.761322 0.857605
0.808319 0.777924 0.849945
0.893982 0.781464 0.834717
0.946747 0.786194 0.835449
0.209595 0.662903 0.752441
0.235535 0.676392 0.765533
0.297028 0.704742 0.793762
0.387390 0.741638 0.829956
0.504486 0.781036 0.869995
0.672516 0.819977 0.900543
0.820831 0.846252 0.910767
0.914764 0.847839 0.903839
0.976624 0.848572 0.905396
0.332001 0.764893 0.836182
0.350128 0.774109 0.845123
0.384033 0.793396 0.863770
0.440277 0.820831 0.889160
0.527039 0.852203 0.916504
0.664978 0.883209 0.941620
0.811066 0.905212 0.957245
0.920380 0.913666 0.959045
0.995514 0.916931 0.961121
0.404602 0.905396 0.930511
0.431976 0.910156 0.935272
0.461884 0.920074 0.944275
0.512238 0.935333 0.955048
0.596405 0.954895 0.965454
0.702179 0.973175 0.974762
0.813385 0.985962 0.982666
0.914734 0.993469 0.988739
1.000000 0.999298 0.999298
