lut/retro-80s/Big Trouble In Little China (1986) - Standard.cube
# Created by Benjamin (IWLTBAP): https://luts.iwltbap.com
# Copyright: (C) Copyright 2018 Triune Films and IWLTBAP SAS
# Cannot be resold, shared or otherwise redistributed
TITLE "Triune Films 80s Retro LUTs (Rec.709, sRGB, DCI-P3)"
LUT_3D_SIZE 5
0.000824 0.000824 0.000000
0.192017 0.044647 0.008392
0.414886 0.081940 0.025757
0.637787 0.169434 0.074921
0.844818 0.314423 0.218475
0.077118 0.194458 0.018188
0.288116 0.221863 0.013916
0.505798 0.233765 0.051392
0.700806 0.281281 0.111206
0.886627 0.385468 0.245300
0.184906 0.420502 0.060211
0.363342 0.464142 0.065765
0.570557 0.506836 0.101593
0.784027 0.524750 0.182343
0.990112 0.563019 0.279236
0.521149 0.676178 0.364410
0.555939 0.691650 0.338776
0.680420 0.739655 0.313080
0.817780 0.774139 0.283539
0.999969 0.787018 0.271942
0.739471 0.904297 0.624756
0.777527 0.913055 0.608887
0.818909 0.937592 0.527802
0.879150 0.976715 0.376404
1.000000 0.995544 0.322418
0.015594 0.049866 0.102753
0.209290 0.067413 0.096069
0.444885 0.109619 0.105438
0.647369 0.192932 0.149811
0.847168 0.321350 0.252686
0.002045 0.188385 0.203186
0.218933 0.234924 0.204437
0.512543 0.262085 0.204559
0.705750 0.314972 0.238800
0.893524 0.406433 0.311676
0.032410 0.411224 0.230011
0.254852 0.459808 0.204468
0.564178 0.495331 0.249695
0.782684 0.530518 0.320587
0.987274 0.571838 0.376831
0.368103 0.663727 0.366089
0.444397 0.677765 0.342865
0.661652 0.733917 0.362915
0.820221 0.769043 0.376221
0.999969 0.791412 0.394958
0.706543 0.907410 0.659149
0.738678 0.919220 0.640778
0.780182 0.943726 0.565613
0.871094 0.979126 0.464935
1.000000 0.995056 0.475128
0.028320 0.135406 0.276917
0.224152 0.162292 0.277435
0.468109 0.181915 0.250916
0.676422 0.265198 0.289856
0.864685 0.386688 0.337463
0.002258 0.226440 0.342896
0.130768 0.287018 0.424255
0.520325 0.294556 0.355591
0.719177 0.358398 0.366913
0.897949 0.447662 0.399323
0.001221 0.390381 0.418030
0.057098 0.445801 0.467621
0.551636 0.527222 0.502289
0.780853 0.558044 0.509521
0.973022 0.609497 0.540558
0.098938 0.621460 0.511536
0.214691 0.663940 0.529755
0.603027 0.733063 0.536560
0.820190 0.756653 0.544403
0.999969 0.802734 0.607147
0.524628 0.912140 0.679932
0.579224 0.923401 0.664825
0.697968 0.947266 0.634888
0.867432 0.978607 0.616699
1.000000 0.993469 0.677765
0.108337 0.254150 0.435455
0.233795 0.281555 0.455566
0.505920 0.309387 0.428925
0.677948 0.367584 0.439209
0.862518 0.454529 0.477325
0.058533 0.321930 0.487579
0.191345 0.374512 0.550751
0.523804 0.405701 0.537292
0.712708 0.432953 0.502045
0.893921 0.504883 0.527588
0.008820 0.437469 0.544464
0.100159 0.488403 0.602722
0.506165 0.586060 0.695709
0.775116 0.602051 0.648254
0.953461 0.649658 0.657898
0.078918 0.596985 0.637085
0.147491 0.638916 0.668579
0.455475 0.737579 0.745300
0.817535 0.788818 0.764801
0.999969 0.829041 0.799530
0.371429 0.907288 0.780426
0.438538 0.922729 0.789429
0.601898 0.955963 0.802979
0.850128 0.981171 0.809174
1.000000 0.994354 0.854004
0.251862 0.383118 0.584473
0.324524 0.405823 0.602753
0.532654 0.447174 0.613922
0.709106 0.502716 0.596436
0.839874 0.555237 0.611115
0.255798 0.435883 0.623810
0.333893 0.475494 0.657776
0.524811 0.519531 0.673004
0.733734 0.556427 0.649384
0.860779 0.600098 0.658813
0.180725 0.551849 0.685028
0.295074 0.590668 0.727844
0.535339 0.663025 0.797150
0.788208 0.697723 0.781952
0.914398 0.716522 0.766998
0.209595 0.662903 0.752441
0.297028 0.704742 0.793762
0.504486 0.781036 0.869995
0.820831 0.846252 0.910767
0.976624 0.848572 0.905396
0.404602 0.905396 0.930511
0.461884 0.920074 0.944275
0.596405 0.954895 0.965454
0.813385 0.985962 0.982666
1.000000 0.999298 0.999298
