lut/retro-80s/Blade Runner (1982) - Standard.cube
# Created by Benjamin (IWLTBAP): https://luts.iwltbap.com
# Copyright: (C) Copyright 2018 Triune Films and IWLTBAP SAS
# Cannot be resold, shared or otherwise redistributed
TITLE "Triune Films 80s Retro LUTs (Rec.709, sRGB, DCI-P3)"
LUT_3D_SIZE 9
0.000793 0.001587 0.000000
0.075378 0.000977 0.009094
0.188324 0.000793 0.020813
0.283630 0.000763 0.029724
0.370636 0.001495 0.033478
0.455505 0.002197 0.032623
0.541351 0.003784 0.032318
0.629883 0.006439 0.034668
0.723114 0.010437 0.038086
0.000885 0.075989 0.037445
0.077484 0.088074 0.024445
0.200562 0.089417 0.002472
0.299622 0.081635 0.002045
0.397766 0.072357 0.002136
0.497040 0.064362 0.002747
0.597687 0.052185 0.006317
0.699646 0.043152 0.012878
0.801819 0.050140 0.019440
0.000793 0.189148 0.083069
0.039825 0.199005 0.068604
0.184814 0.190308 0.022095
0.317841 0.207825 0.004761
0.422668 0.203491 0.004791
0.523071 0.197113 0.005585
0.624908 0.191132 0.008240
0.728760 0.184540 0.013489
0.831207 0.175537 0.021698
0.000793 0.290283 0.111481
0.019592 0.305359 0.108673
0.158295 0.297394 0.079102
0.288147 0.291748 0.037140
0.438995 0.329285 0.011627
0.557526 0.332916 0.010345
0.662018 0.326630 0.013245
0.765320 0.320465 0.018738
0.866760 0.314880 0.026642
0.001587 0.397430 0.139282
0.023346 0.418884 0.147064
0.144562 0.409882 0.120300
0.274292 0.402618 0.103394
0.397339 0.400909 0.058319
0.562134 0.452515 0.025757
0.695007 0.466156 0.019104
0.806885 0.462250 0.023651
0.914764 0.454834 0.027618
0.009949 0.513275 0.170105
0.035583 0.548309 0.192200
0.154266 0.529327 0.162842
0.276703 0.522797 0.149475
0.393280 0.518097 0.127777
0.518768 0.522705 0.074249
0.686462 0.577698 0.045227
0.834595 0.601105 0.034119
0.972198 0.603394 0.018585
0.040924 0.640961 0.207428
0.055298 0.683746 0.234772
0.173737 0.658844 0.208649
0.292969 0.651398 0.189484
0.405731 0.647675 0.177368
0.520020 0.646606 0.155090
0.654083 0.661987 0.090637
0.826660 0.716614 0.060303
0.984955 0.741455 0.039276
0.092041 0.777527 0.235718
0.091492 0.843018 0.246094
0.161224 0.838287 0.216553
0.287476 0.827209 0.190216
0.416290 0.825684 0.178162
0.542786 0.829285 0.162567
0.686676 0.844360 0.093597
0.833008 0.854218 0.081421
0.973297 0.865906 0.084259
0.113617 0.924988 0.243744
0.139771 0.929718 0.270416
0.200134 0.919373 0.279907
0.318176 0.915192 0.250946
0.437622 0.914978 0.235077
0.552032 0.936066 0.189209
0.684265 0.970795 0.127869
0.833038 0.975159 0.112518
0.964539 0.978394 0.137085
0.017853 0.045227 0.059723
0.098145 0.045715 0.109314
0.198853 0.005707 0.099792
0.279327 0.001556 0.081940
0.370728 0.002289 0.074921
0.465576 0.003998 0.066406
0.562866 0.006042 0.061401
0.662354 0.009430 0.061066
0.765472 0.015503 0.062775
0.022949 0.101105 0.090759
0.066162 0.110199 0.112030
0.188538 0.096039 0.111969
0.289490 0.074890 0.096313
0.388489 0.053375 0.082275
0.487701 0.040161 0.065399
0.588623 0.036896 0.049225
0.692566 0.039764 0.047424
0.797302 0.047394 0.044281
0.012421 0.194061 0.133240
0.036163 0.203735 0.144196
0.155609 0.197601 0.132080
0.309509 0.206635 0.118347
0.414764 0.196869 0.101318
0.516632 0.190033 0.074738
0.618286 0.185760 0.056183
0.722626 0.180573 0.050354
0.827209 0.171112 0.050507
0.001465 0.295135 0.167969
0.017548 0.309052 0.178436
0.128113 0.306732 0.174164
0.266052 0.296448 0.145447
0.433136 0.329712 0.125580
0.552368 0.329773 0.109283
0.657776 0.322968 0.085327
0.760803 0.316681 0.070221
0.864288 0.311127 0.064148
0.001587 0.402435 0.195953
0.018036 0.423431 0.212524
0.129486 0.418854 0.207642
0.251678 0.410645 0.187775
0.377075 0.403412 0.159088
0.555664 0.452911 0.133789
0.693359 0.466217 0.114502
0.806976 0.461548 0.100800
0.925140 0.451935 0.079010
0.006317 0.517792 0.223572
0.027496 0.554443 0.252533
0.145111 0.537476 0.240784
0.256378 0.530304 0.223083
0.375671 0.524261 0.208588
0.497162 0.521271 0.174561
0.683258 0.579742 0.130432
0.844360 0.605988 0.106445
0.978210 0.603668 0.095490
0.038025 0.646301 0.257812
0.051971 0.689697 0.290558
0.167969 0.667419 0.278320
0.267944 0.665283 0.251404
0.391022 0.658325 0.242767
0.508789 0.655090 0.220490
0.650299 0.667816 0.143799
0.841614 0.729523 0.101837
0.984406 0.741882 0.119537
0.083984 0.787018 0.286194
0.082214 0.853821 0.305481
0.158081 0.849152 0.290192
0.282410 0.815918 0.271423
0.409637 0.815582 0.251373
0.536346 0.829529 0.209412
0.697845 0.871216 0.098511
0.853943 0.881042 0.086182
0.974121 0.867920 0.137268
0.113525 0.929321 0.287231
0.131134 0.937012 0.335114
0.205536 0.923950 0.348663
0.312653 0.919983 0.295593
0.434326 0.919403 0.261963
0.550354 0.943115 0.202942
0.683655 0.970459 0.155426
0.835480 0.974731 0.141724
0.964844 0.977875 0.169495
0.037079 0.101501 0.134399
0.068420 0.109772 0.179657
0.211243 0.075256 0.237640
0.305267 0.031433 0.210083
0.373260 0.003540 0.174194
0.450684 0.003418 0.151428
0.544312 0.005524 0.138214
0.645569 0.009766 0.122589
0.751068 0.015991 0.114410
0.038849 0.141754 0.160980
0.057770 0.152008 0.179596
0.161804 0.143982 0.223907
0.290283 0.121277 0.228027
0.378204 0.096710 0.200867
0.469452 0.065735 0.181030
0.569977 0.045563 0.170349
0.674103 0.041016 0.155884
0.782288 0.045959 0.140289
0.044342 0.204346 0.194519
0.059814 0.217834 0.212433
0.127899 0.214355 0.220917
0.270752 0.207642 0.233154
0.381500 0.196716 0.221008
0.485138 0.187256 0.208801
0.591949 0.178436 0.196442
0.702484 0.165649 0.173553
0.824310 0.137909 0.135437
0.017242 0.299194 0.230103
0.029877 0.315704 0.246002
0.107330 0.314148 0.255249
0.232117 0.306061 0.251251
0.418335 0.328613 0.242218
0.530548 0.320618 0.232330
0.635712 0.311707 0.219513
0.746613 0.302856 0.194763
0.878601 0.283112 0.140350
0.003357 0.407562 0.265472
0.012604 0.431488 0.285706
0.101715 0.428375 0.291565
0.224792 0.421539 0.296326
0.353241 0.414124 0.269135
0.547577 0.454285 0.250122
0.680115 0.459564 0.241486
0.803986 0.449646 0.212158
0.927704 0.436005 0.169586
0.002960 0.522522 0.296783
0.008972 0.560516 0.329193
0.119995 0.547607 0.326324
0.237305 0.540710 0.328674
0.347382 0.535370 0.311615
0.474823 0.528351 0.283447
0.674774 0.580353 0.255219
0.837769 0.600311 0.231659
0.956329 0.594879 0.213989
0.029572 0.649658 0.331146
0.043213 0.693481 0.367767
0.149353 0.676910 0.362488
0.250519 0.676910 0.356323
0.351501 0.677765 0.330200
0.483124 0.673584 0.315308
0.620453 0.673065 0.278900
0.827576 0.725677 0.228790
0.975433 0.737030 0.219208
0.066589 0.793640 0.362854
0.064911 0.860931 0.392609
0.140045 0.860748 0.380310
0.277496 0.821411 0.379211
0.390625 0.808136 0.364441
0.514313 0.803528 0.353210
0.635834 0.811523 0.314911
0.841614 0.886017 0.142273
0.972473 0.867065 0.200226
0.099304 0.940613 0.370667
0.116089 0.949463 0.414825
0.196747 0.932281 0.422668
0.322327 0.926819 0.400818
0.426727 0.927856 0.378510
0.544739 0.928619 0.358734
0.665802 0.945862 0.266266
0.832275 0.973633 0.186432
0.961456 0.975739 0.216248
0.051331 0.143311 0.191956
0.068756 0.156891 0.218353
0.148499 0.146210 0.307922
0.304565 0.102905 0.344208
0.397705 0.072052 0.314880
0.474945 0.031158 0.279999
0.542511 0.010254 0.244873
0.624146 0.009430 0.225922
0.724792 0.016754 0.214172
0.048889 0.184570 0.221252
0.058929 0.195648 0.235413
0.127625 0.194397 0.273346
0.271454 0.172150 0.346375
0.391174 0.145264 0.340851
0.480072 0.123962 0.313446
0.564758 0.088348 0.284149
0.657227 0.059143 0.264618
0.760101 0.056244 0.249481
0.052826 0.233948 0.255066
0.062500 0.250641 0.274597
0.103424 0.253143 0.283966
0.218170 0.246857 0.316498
0.371552 0.228821 0.355347
0.470856 0.212524 0.333679
0.566254 0.195312 0.310608
0.670288 0.177948 0.294830
0.797363 0.128326 0.276459
0.062653 0.307190 0.297791
0.073242 0.327911 0.321564
0.105377 0.328400 0.330139
0.198792 0.319702 0.329803
0.347443 0.318939 0.354675
0.477997 0.311646 0.348755
0.587891 0.303619 0.335846
0.709595 0.286407 0.316772
0.822418 0.276367 0.302032
0.013702 0.410675 0.334167
0.019135 0.440338 0.362274
0.079987 0.434265 0.363098
0.202148 0.425232 0.370270
0.316437 0.417664 0.373871
0.530334 0.453033 0.367859
0.656525 0.444641 0.354492
0.766876 0.433197 0.342682
0.868469 0.427368 0.333435
0.004242 0.527679 0.373016
0.008484 0.566406 0.407562
0.070343 0.556946 0.403595
0.208466 0.550171 0.414124
0.324127 0.543091 0.422943
0.445282 0.542816 0.396851
0.671417 0.585052 0.370209
0.810150 0.590637 0.369049
0.925629 0.584137 0.356476
0.008270 0.651459 0.409119
0.016174 0.694153 0.446167
0.093018 0.689240 0.446411
0.226807 0.685638 0.453156
0.334778 0.686096 0.455444
0.454407 0.672211 0.441193
0.590057 0.671204 0.408661
0.796509 0.711060 0.383026
0.955261 0.728760 0.369049
0.049469 0.796326 0.451263
0.044556 0.864685 0.488831
0.093018 0.879944 0.483398
0.261230 0.832855 0.479309
0.381714 0.816681 0.479553
0.492279 0.812988 0.462860
0.619781 0.810516 0.445587
0.752411 0.811768 0.400024
0.943420 0.847900 0.335602
0.074921 0.959869 0.464783
0.086517 0.971527 0.505707
0.146332 0.959656 0.519196
0.321045 0.933929 0.495239
0.431549 0.935425 0.481018
0.540283 0.937622 0.475769
0.664154 0.939392 0.457947
0.798462 0.944458 0.385132
0.941376 0.960632 0.302429
0.065643 0.179871 0.240326
0.078644 0.205353 0.274017
0.118073 0.203461 0.308289
0.236481 0.178589 0.424561
0.390747 0.129791 0.444794
0.485199 0.100433 0.414948
0.569885 0.062622 0.384064
0.644775 0.044891 0.350952
0.718750 0.040039 0.322662
0.063507 0.226440 0.280945
0.068909 0.240265 0.295074
0.112244 0.238403 0.311707
0.203766 0.231445 0.397278
0.369751 0.195587 0.459259
0.487915 0.166321 0.448364
0.579132 0.144867 0.421814
0.672150 0.091858 0.394226
0.758453 0.078461 0.362488
0.058960 0.271301 0.309601
0.065369 0.290680 0.330536
0.090912 0.291656 0.336853
0.189026 0.288635 0.364960
0.322571 0.275421 0.446869
0.471680 0.249451 0.468781
0.572144 0.232086 0.447296
0.667328 0.210297 0.422546
0.785858 0.146729 0.393463
0.067230 0.333649 0.356903
0.074646 0.360931 0.385773
0.096161 0.359253 0.389984
0.170013 0.357941 0.392944
0.285553 0.350220 0.412689
0.443237 0.340027 0.475464
0.562836 0.323120 0.465607
0.677704 0.297638 0.441895
0.786591 0.280701 0.420624
0.081696 0.416504 0.407928
0.090149 0.451569 0.443542
0.112244 0.444122 0.444244
0.178162 0.442688 0.450867
0.281342 0.429749 0.443237
0.430389 0.432312 0.470062
0.587311 0.422821 0.473541
0.701935 0.419434 0.460846
0.816803 0.414734 0.450195
0.013916 0.529449 0.445770
0.020782 0.568176 0.482269
0.070923 0.560455 0.481018
0.185730 0.555023 0.487549
0.304871 0.541718 0.490356
0.418091 0.539398 0.496857
0.651184 0.578918 0.491791
0.779724 0.575531 0.485535
0.895508 0.567108 0.474365
0.011047 0.656128 0.490448
0.018524 0.698212 0.528839
0.060608 0.695648 0.529541
0.184082 0.692841 0.536469
0.308319 0.694855 0.545959
0.445190 0.674683 0.547302
0.574463 0.673492 0.525970
0.793823 0.712769 0.502716
0.947113 0.724335 0.494202
0.029968 0.794952 0.533508
0.041260 0.857727 0.577606
0.052582 0.888489 0.588562
0.205719 0.856812 0.577240
0.363495 0.825684 0.577637
0.488495 0.819824 0.574219
0.612030 0.818512 0.558716
0.747253 0.818329 0.529205
0.939575 0.849121 0.494507
0.047943 0.981110 0.568451
0.079193 0.982025 0.606445
0.114349 0.980957 0.624084
0.305298 0.942108 0.596466
0.433624 0.943115 0.588745
0.547821 0.944855 0.575439
0.667084 0.946960 0.578796
0.794800 0.949188 0.557587
0.923248 0.948181 0.482544
0.080353 0.214203 0.285828
0.098846 0.255829 0.339142
0.115448 0.247040 0.338959
0.167908 0.249084 0.416687
0.324158 0.210052 0.529144
0.474121 0.158813 0.543884
0.571228 0.130341 0.515289
0.658295 0.100067 0.487061
0.742828 0.077545 0.458588
0.085999 0.267548 0.339539
0.088715 0.288483 0.360596
0.109192 0.281342 0.359680
0.178101 0.281433 0.405853
0.294220 0.260101 0.527557
0.465973 0.218353 0.568329
0.583984 0.184479 0.553680
0.681610 0.143402 0.525269
0.787109 0.095551 0.500946
0.067657 0.309662 0.364319
0.070862 0.336182 0.391510
0.090668 0.329834 0.389038
0.166046 0.330292 0.409180
0.264618 0.327179 0.479523
0.428040 0.299927 0.568665
0.570801 0.268829 0.579315
0.675476 0.242981 0.558411
0.802826 0.175903 0.537201
0.072937 0.366211 0.408295
0.079193 0.396881 0.440277
0.094574 0.391846 0.438934
0.149200 0.394379 0.445709
0.255585 0.389404 0.462708
0.376343 0.381775 0.541534
0.547913 0.355316 0.597443
0.675140 0.328613 0.585327
0.771332 0.315033 0.558197
0.086487 0.441071 0.466644
0.095032 0.475739 0.502197
0.111359 0.471436 0.502960
0.148621 0.474121 0.511597
0.251770 0.466797 0.505890
0.369019 0.456390 0.517090
0.529022 0.448608 0.593445
0.665833 0.433624 0.589325
0.777008 0.421356 0.569000
0.107513 0.533600 0.526031
0.119385 0.571381 0.564087
0.134003 0.568359 0.566986
0.173859 0.568451 0.575714
0.272980 0.561035 0.573944
0.384949 0.546906 0.562134
0.552368 0.549133 0.586517
0.707245 0.546661 0.590088
0.836090 0.542969 0.579193
0.043671 0.657837 0.568268
0.059662 0.699951 0.608368
0.083160 0.700439 0.612427
0.178925 0.695923 0.618134
0.289154 0.697784 0.627777
0.427612 0.672577 0.615326
0.567230 0.668579 0.617188
0.787384 0.709381 0.617035
0.924042 0.710449 0.609741
0.042938 0.799652 0.622284
0.045959 0.868866 0.676239
0.048279 0.906677 0.700348
0.143311 0.886322 0.688599
0.332916 0.834290 0.669037
0.475708 0.825073 0.666656
0.611603 0.820862 0.660553
0.749664 0.823303 0.645477
0.940155 0.851013 0.623688
0.061829 0.983704 0.675323
0.100250 0.983032 0.706573
0.147217 0.976715 0.727448
0.267365 0.951752 0.692902
0.419830 0.950806 0.692322
0.554230 0.951172 0.688751
0.674133 0.952881 0.680542
0.800568 0.952850 0.684753
0.919952 0.946930 0.670807
0.094452 0.244934 0.326508
0.119995 0.300171 0.397888
0.121887 0.292633 0.390594
0.163361 0.293030 0.418732
0.227570 0.290588 0.533508
0.406525 0.244720 0.629425
0.554626 0.197113 0.644012
0.657349 0.169464 0.619904
0.752106 0.127563 0.595459
0.109100 0.306671 0.394318
0.113861 0.330994 0.419952
0.122253 0.324158 0.414642
0.168915 0.323547 0.435394
0.234436 0.325775 0.524384
0.393280 0.285095 0.648743
0.568329 0.228424 0.680756
0.696442 0.193420 0.670685
0.803528 0.126923 0.648712
0.089539 0.347809 0.420746
0.090729 0.374146 0.447113
0.106476 0.368347 0.443268
0.151520 0.370300 0.457214
0.244965 0.369080 0.501282
0.342712 0.351807 0.623047
0.529297 0.307526 0.697296
0.690643 0.265289 0.712738
0.813568 0.192139 0.681824
0.079529 0.401550 0.459320
0.086121 0.431244 0.490265
0.096283 0.427490 0.488281
0.132538 0.430084 0.495361
0.232086 0.429169 0.512146
0.336304 0.426178 0.569244
0.483307 0.408112 0.675476
0.646362 0.374176 0.706909
0.764893 0.351807 0.687988
0.093719 0.470123 0.516083
0.103302 0.503906 0.551086
0.113220 0.502228 0.552246
0.140228 0.503601 0.558441
0.229248 0.501770 0.558777
0.338074 0.494537 0.569153
0.461884 0.491211 0.642853
0.635803 0.472931 0.705841
0.770233 0.451202 0.698792
0.116699 0.556274 0.584412
0.130310 0.593262 0.622192
0.138367 0.594818 0.626404
0.164948 0.594116 0.632416
0.234100 0.594055 0.636932
0.346985 0.584198 0.628937
0.490143 0.567230 0.632019
0.658325 0.567627 0.703735
0.798065 0.553406 0.702667
0.150391 0.659210 0.653076
0.168274 0.701752 0.696350
0.174042 0.713898 0.709930
0.198578 0.707153 0.713196
0.257568 0.718719 0.732758
0.397095 0.689728 0.703979
0.539612 0.672180 0.684479
0.713806 0.682648 0.712036
0.861450 0.681427 0.711578
0.099487 0.817139 0.718933
0.116180 0.887054 0.780823
0.159821 0.900818 0.797455
0.202240 0.870392 0.776855
0.335968 0.835419 0.758362
0.463287 0.826660 0.752686
0.602112 0.820648 0.749664
0.745544 0.824341 0.746490
0.936584 0.849884 0.746582
0.151062 0.958405 0.767181
0.210388 0.950897 0.786041
0.254211 0.947906 0.803040
0.288513 0.951080 0.788239
0.410767 0.954193 0.789520
0.549194 0.955170 0.792145
0.684875 0.955139 0.794159
0.809448 0.953949 0.796600
0.911682 0.936981 0.819824
0.107788 0.273621 0.363983
0.140717 0.343628 0.454102
0.141052 0.339905 0.449951
0.158051 0.337311 0.454681
0.210266 0.342407 0.509979
0.290039 0.329590 0.645081
0.475006 0.270935 0.744049
0.640320 0.219238 0.772034
0.778778 0.194855 0.770020
0.130646 0.343719 0.445435
0.139038 0.370972 0.476013
0.143402 0.367676 0.472870
0.162415 0.365021 0.479004
0.225586 0.367310 0.528290
0.303802 0.352600 0.659363
0.484894 0.311768 0.758118
0.650848 0.259796 0.795532
0.807770 0.232483 0.817139
0.121185 0.386261 0.477478
0.123810 0.411743 0.503387
0.131439 0.409668 0.501892
0.155457 0.409698 0.508423
0.232239 0.409637 0.536133
0.303314 0.411591 0.623108
0.447784 0.384033 0.745819
0.630676 0.327820 0.792969
0.805756 0.272949 0.827057
0.094299 0.437286 0.511414
0.098816 0.466187 0.540894
0.105896 0.466217 0.542206
0.138885 0.465088 0.546204
0.219543 0.466980 0.563721
0.320007 0.463776 0.607971
0.421692 0.459412 0.718079
0.603973 0.428528 0.791473
0.755890 0.384277 0.801422
0.103455 0.501953 0.564423
0.113831 0.534088 0.598083
0.118805 0.537292 0.602386
0.141052 0.534332 0.603027
0.212494 0.536194 0.609192
0.316071 0.533691 0.629578
0.433868 0.526978 0.679504
0.591614 0.515747 0.784912
0.760895 0.488037 0.811340
0.128662 0.582672 0.632812
0.143188 0.618073 0.669159
0.150177 0.628021 0.679932
0.167480 0.619507 0.676697
0.219147 0.624725 0.687531
0.321228 0.620728 0.689331
0.464752 0.598969 0.686676
0.604858 0.600128 0.771729
0.788269 0.592194 0.825043
0.165863 0.680054 0.711365
0.174042 0.731110 0.765900
0.178131 0.763306 0.801758
0.188171 0.741638 0.785095
0.250580 0.740082 0.790863
0.368652 0.717041 0.768768
0.510315 0.699249 0.751038
0.657288 0.696930 0.775726
0.836121 0.699768 0.836273
0.199646 0.826385 0.826416
0.257904 0.851471 0.854218
0.322327 0.882568 0.888000
0.296844 0.849396 0.854675
0.365356 0.839081 0.851227
0.456757 0.835175 0.850739
0.589752 0.829193 0.842865
0.732239 0.825012 0.837006
0.887115 0.833679 0.854187
0.298523 0.932190 0.850128
0.341553 0.940094 0.874420
0.377777 0.939911 0.885590
0.392822 0.940704 0.876648
0.450653 0.946136 0.878204
0.566223 0.949677 0.880585
0.689636 0.950134 0.885284
0.822174 0.945587 0.894836
0.930939 0.953186 0.917725
0.120758 0.301361 0.400177
0.156738 0.381012 0.499451
0.158020 0.382874 0.501434
0.163635 0.380981 0.502502
0.207214 0.385223 0.527374
0.258514 0.395447 0.608826
0.351318 0.375549 0.745239
0.558044 0.343353 0.823822
0.712616 0.306458 0.839294
0.150757 0.377167 0.491516
0.156036 0.398315 0.513336
0.158417 0.400879 0.515930
0.169312 0.399078 0.520050
0.221588 0.403717 0.548431
0.278015 0.414459 0.639404
0.397675 0.397064 0.786316
0.626221 0.359100 0.862671
0.760223 0.341003 0.862549
0.146362 0.419525 0.525024
0.143402 0.436005 0.537933
0.146088 0.440521 0.542114
0.170685 0.439667 0.548584
0.233459 0.441101 0.573364
0.296783 0.442230 0.655762
0.433228 0.420197 0.805664
0.642853 0.385590 0.869232
0.776123 0.374237 0.869354
0.123657 0.467621 0.557190
0.120361 0.486481 0.572327
0.122894 0.493561 0.579071
0.163635 0.490387 0.584412
0.233246 0.494568 0.605377
0.315308 0.491821 0.659393
0.415436 0.485138 0.756012
0.609436 0.461060 0.857147
0.782898 0.411713 0.872681
0.115509 0.529907 0.605591
0.122040 0.550140 0.623688
0.127930 0.560730 0.633545
0.155365 0.556091 0.634094
0.222351 0.560272 0.647461
0.324158 0.557983 0.681519
0.447632 0.549164 0.729248
0.598175 0.544830 0.847290
0.778595 0.521698 0.887817
0.141235 0.605957 0.670959
0.150574 0.626465 0.688934
0.159729 0.643494 0.704437
0.180389 0.635834 0.703461
0.224060 0.648682 0.725861
0.335236 0.637146 0.722778
0.483154 0.621216 0.737640
0.606903 0.619080 0.829834
0.794495 0.626160 0.893707
0.174408 0.704834 0.758087
0.175842 0.732666 0.786011
0.182892 0.759308 0.813232
0.208252 0.750854 0.812744
0.286377 0.739655 0.807037
0.392517 0.723602 0.794403
0.523071 0.714996 0.794281
0.658905 0.719086 0.831940
0.819000 0.739288 0.899750
0.246338 0.815552 0.854462
0.271973 0.825684 0.862244
0.306000 0.837677 0.872101
0.334564 0.828522 0.867920
0.399658 0.827911 0.873627
0.483490 0.828766 0.880463
0.608734 0.830566 0.884155
0.734131 0.832336 0.886139
0.863037 0.859589 0.910400
0.393768 0.925964 0.932007
0.406860 0.928284 0.933990
0.430084 0.930420 0.936127
0.461731 0.928955 0.935822
0.518433 0.930115 0.938904
0.618683 0.930664 0.940369
0.741608 0.928436 0.935730
0.857056 0.935699 0.941498
0.957245 0.961121 0.962280
