lut/retro-80s/Blade Runner (1982) - Standard.cube
# Created by Benjamin (IWLTBAP): https://luts.iwltbap.com
# Copyright: (C) Copyright 2018 Triune Films and IWLTBAP SAS
# Cannot be resold, shared or otherwise redistributed
TITLE "Triune Films 80s Retro LUTs (Rec.709, sRGB, DCI-P3)"
LUT_3D_SIZE 5
0.000793 0.001587 0.000000
0.188324 0.000793 0.020813
0.370636 0.001495 0.033478
0.541351 0.003784 0.032318
0.723114 0.010437 0.038086
0.000793 0.189148 0.083069
0.184814 0.190308 0.022095
0.422668 0.203491 0.004791
0.624908 0.191132 0.008240
0.831207 0.175537 0.021698
0.001587 0.397430 0.139282
0.144562 0.409882 0.120300
0.397339 0.400909 0.058319
0.695007 0.466156 0.019104
0.914764 0.454834 0.027618
0.040924 0.640961 0.207428
0.173737 0.658844 0.208649
0.405731 0.647675 0.177368
0.654083 0.661987 0.090637
0.984955 0.741455 0.039276
0.113617 0.924988 0.243744
0.200134 0.919373 0.279907
0.437622 0.914978 0.235077
0.684265 0.970795 0.127869
0.964539 0.978394 0.137085
0.037079 0.101501 0.134399
0.211243 0.075256 0.237640
0.373260 0.003540 0.174194
0.544312 0.005524 0.138214
0.751068 0.015991 0.114410
0.044342 0.204346 0.194519
0.127899 0.214355 0.220917
0.381500 0.196716 0.221008
0.591949 0.178436 0.196442
0.824310 0.137909 0.135437
0.003357 0.407562 0.265472
0.101715 0.428375 0.291565
0.353241 0.414124 0.269135
0.680115 0.459564 0.241486
0.927704 0.436005 0.169586
0.029572 0.649658 0.331146
0.149353 0.676910 0.362488
0.351501 0.677765 0.330200
0.620453 0.673065 0.278900
0.975433 0.737030 0.219208
0.099304 0.940613 0.370667
0.196747 0.932281 0.422668
0.426727 0.927856 0.378510
0.665802 0.945862 0.266266
0.961456 0.975739 0.216248
0.065643 0.179871 0.240326
0.118073 0.203461 0.308289
0.390747 0.129791 0.444794
0.569885 0.062622 0.384064
0.718750 0.040039 0.322662
0.058960 0.271301 0.309601
0.090912 0.291656 0.336853
0.322571 0.275421 0.446869
0.572144 0.232086 0.447296
0.785858 0.146729 0.393463
0.081696 0.416504 0.407928
0.112244 0.444122 0.444244
0.281342 0.429749 0.443237
0.587311 0.422821 0.473541
0.816803 0.414734 0.450195
0.011047 0.656128 0.490448
0.060608 0.695648 0.529541
0.308319 0.694855 0.545959
0.574463 0.673492 0.525970
0.947113 0.724335 0.494202
0.047943 0.981110 0.568451
0.114349 0.980957 0.624084
0.433624 0.943115 0.588745
0.667084 0.946960 0.578796
0.923248 0.948181 0.482544
0.094452 0.244934 0.326508
0.121887 0.292633 0.390594
0.227570 0.290588 0.533508
0.554626 0.197113 0.644012
0.752106 0.127563 0.595459
0.089539 0.347809 0.420746
0.106476 0.368347 0.443268
0.244965 0.369080 0.501282
0.529297 0.307526 0.697296
0.813568 0.192139 0.681824
0.093719 0.470123 0.516083
0.113220 0.502228 0.552246
0.229248 0.501770 0.558777
0.461884 0.491211 0.642853
0.770233 0.451202 0.698792
0.150391 0.659210 0.653076
0.174042 0.713898 0.709930
0.257568 0.718719 0.732758
0.539612 0.672180 0.684479
0.861450 0.681427 0.711578
0.151062 0.958405 0.767181
0.254211 0.947906 0.803040
0.410767 0.954193 0.789520
0.684875 0.955139 0.794159
0.911682 0.936981 0.819824
0.120758 0.301361 0.400177
0.158020 0.382874 0.501434
0.207214 0.385223 0.527374
0.351318 0.375549 0.745239
0.712616 0.306458 0.839294
0.146362 0.419525 0.525024
0.146088 0.440521 0.542114
0.233459 0.441101 0.573364
0.433228 0.420197 0.805664
0.776123 0.374237 0.869354
0.115509 0.529907 0.605591
0.127930 0.560730 0.633545
0.222351 0.560272 0.647461
0.447632 0.549164 0.729248
0.778595 0.521698 0.887817
0.174408 0.704834 0.758087
0.182892 0.759308 0.813232
0.286377 0.739655 0.807037
0.523071 0.714996 0.794281
0.819000 0.739288 0.899750
0.393768 0.925964 0.932007
0.430084 0.930420 0.936127
0.518433 0.930115 0.938904
0.741608 0.928436 0.935730
0.957245 0.961121 0.962280
