lut/retro-80s/Blade Runner (1982) - Standard.cube
# Created by Benjamin (IWLTBAP): https://luts.iwltbap.com
# Copyright: (C) Copyright 2018 Triune Films and IWLTBAP SAS
# Cannot be resold, shared or otherwise redistributed
TITLE "Triune Films 80s Retro LUTs (Rec.709, sRGB, DCI-P3)"
LUT_3D_SIZE 33
0.000793 0.001587 0.000000
0.019043 0.008850 0.003510
0.037262 0.008057 0.005402
0.055450 0.003693 0.006805
0.075378 0.000977 0.009094
0.101257 0.000793 0.011169
0.132782 0.000793 0.014191
0.161987 0.000793 0.017517
0.188324 0.000793 0.020813
0.213287 0.000763 0.023743
0.237488 0.000763 0.026276
0.260742 0.000763 0.027985
0.283630 0.000763 0.029724
0.306061 0.000763 0.031403
0.328888 0.000763 0.032318
0.349731 0.000946 0.033081
0.370636 0.001495 0.033478
0.391815 0.001495 0.033325
0.412933 0.001495 0.033173
0.434265 0.002197 0.033020
0.455505 0.002197 0.032623
0.477020 0.002594 0.032013
0.498322 0.002899 0.031860
0.520264 0.003601 0.031769
0.541351 0.003784 0.032318
0.563110 0.004303 0.032501
0.585632 0.004761 0.033234
0.607513 0.005615 0.033966
0.629883 0.006439 0.034668
0.653625 0.007263 0.035400
0.676300 0.008087 0.036102
0.699768 0.008911 0.037292
0.723114 0.010437 0.038086
0.002380 0.019836 0.006287
0.016418 0.025696 0.006226
0.036865 0.027130 0.007812
0.057159 0.022858 0.007874
0.079437 0.013824 0.005249
0.107086 0.010376 0.004547
0.136871 0.010010 0.005096
0.164917 0.008240 0.007782
0.190704 0.005829 0.011536
0.215729 0.003723 0.015625
0.239960 0.003021 0.018982
0.264008 0.002655 0.022675
0.287872 0.002899 0.025177
0.311523 0.002838 0.027161
0.335297 0.002991 0.028442
0.357513 0.003937 0.029846
0.380219 0.004211 0.030518
0.402222 0.004333 0.029846
0.424469 0.004608 0.029663
0.447052 0.005280 0.029541
0.469666 0.005493 0.029266
0.492371 0.006195 0.029297
0.514893 0.006897 0.029938
0.537933 0.007263 0.029968
0.560486 0.008270 0.031036
0.583405 0.008667 0.032074
0.606598 0.009644 0.032776
0.629547 0.010590 0.033783
0.652771 0.011505 0.034119
0.676208 0.012451 0.034271
0.700256 0.013519 0.035217
0.724213 0.014832 0.036285
0.748047 0.015900 0.037354
0.002380 0.037933 0.015625
0.009705 0.042847 0.011444
0.029602 0.044342 0.010742
0.056671 0.041412 0.011292
0.084015 0.036407 0.007812
0.113068 0.033569 0.005096
0.141693 0.034485 0.003723
0.168427 0.033386 0.002441
0.193695 0.028351 0.002930
0.218567 0.024384 0.004425
0.243286 0.020203 0.006012
0.267487 0.015594 0.007629
0.291534 0.012787 0.009033
0.315826 0.011108 0.010498
0.339905 0.010010 0.012665
0.363739 0.009064 0.014618
0.387787 0.009491 0.017334
0.411743 0.010040 0.019226
0.435791 0.010590 0.020050
0.459747 0.010376 0.019897
0.483887 0.010376 0.019897
0.507599 0.010681 0.020813
0.531311 0.011444 0.022522
0.554871 0.011841 0.023010
0.578766 0.012024 0.023865
0.602692 0.013367 0.026672
0.626648 0.014099 0.028534
0.650604 0.015442 0.029694
0.674500 0.016479 0.029053
0.698822 0.017761 0.029999
0.723083 0.019226 0.030121
0.747803 0.020844 0.029175
0.771973 0.022156 0.026154
0.001831 0.055939 0.026184
0.006378 0.060242 0.022766
0.020508 0.063568 0.019623
0.049347 0.062653 0.017029
0.085052 0.062653 0.013062
0.117065 0.063232 0.007660
0.145782 0.063690 0.005829
0.172058 0.062531 0.003174
0.197235 0.059601 0.001404
0.222076 0.056488 0.001434
0.246490 0.053528 0.001465
0.271027 0.049530 0.001984
0.295471 0.045715 0.001984
0.319916 0.042633 0.002350
0.344238 0.039185 0.003021
0.368591 0.033966 0.003937
0.392914 0.031555 0.004700
0.417358 0.031006 0.005249
0.442078 0.030243 0.005371
0.466675 0.029022 0.005890
0.491425 0.027985 0.006165
0.516235 0.027161 0.008484
0.541077 0.025421 0.011322
0.565613 0.024414 0.012421
0.590668 0.023438 0.013184
0.615784 0.022766 0.014771
0.641022 0.022675 0.015839
0.666107 0.023285 0.016632
0.691010 0.023987 0.018707
0.715942 0.025330 0.020233
0.740906 0.027252 0.020020
0.766022 0.029633 0.018921
0.790314 0.032440 0.018341
0.000885 0.075989 0.037445
0.004211 0.081055 0.038025
0.016205 0.086365 0.036530
0.040588 0.087158 0.029846
0.077484 0.088074 0.024445
0.116058 0.091766 0.013794
0.147522 0.092804 0.008148
0.174896 0.091400 0.005035
0.200562 0.089417 0.002472
0.225616 0.087646 0.002014
0.250305 0.085571 0.002045
0.274902 0.083740 0.002045
0.299622 0.081635 0.002045
0.324219 0.079315 0.002045
0.348724 0.077240 0.002045
0.373260 0.074585 0.002136
0.397766 0.072357 0.002136
0.422546 0.070679 0.002136
0.447296 0.069092 0.002075
0.472137 0.066864 0.002747
0.497040 0.064362 0.002747
0.522095 0.061157 0.003326
0.547302 0.057434 0.004456
0.572449 0.054718 0.005463
0.597687 0.052185 0.006317
0.623016 0.050110 0.007233
0.648499 0.048065 0.008514
0.674072 0.045410 0.010590
0.699646 0.043152 0.012878
0.725647 0.043243 0.014313
0.751556 0.044830 0.016144
0.777527 0.047302 0.017487
0.801819 0.050140 0.019440
0.000793 0.103516 0.050110
0.001617 0.110565 0.052948
0.011383 0.116028 0.052032
0.033325 0.117615 0.044006
0.067780 0.115997 0.035217
0.105835 0.115906 0.025879
0.142395 0.118652 0.013916
0.174438 0.120087 0.008575
0.202820 0.119507 0.005035
0.229218 0.118256 0.002869
0.254669 0.116608 0.002777
0.279449 0.114929 0.002777
0.304108 0.113312 0.002808
0.328827 0.111511 0.002838
0.353516 0.109741 0.002838
0.378174 0.108276 0.002838
0.402863 0.106506 0.002838
0.427582 0.104767 0.002838
0.452515 0.102661 0.002838
0.477448 0.100861 0.003540
0.502472 0.098938 0.003540
0.527740 0.096649 0.003876
0.553101 0.094360 0.004211
0.578522 0.091980 0.004944
0.604065 0.089600 0.005768
0.629669 0.087280 0.006592
0.655426 0.084961 0.007416
0.681213 0.081604 0.008850
0.706787 0.076904 0.012451
0.732788 0.073181 0.014893
0.758759 0.071259 0.017334
0.784668 0.071564 0.019775
0.808472 0.072845 0.022308
0.000793 0.134491 0.063995
0.000854 0.140503 0.066315
0.006073 0.144592 0.064667
0.025940 0.146454 0.057190
0.056000 0.144165 0.043640
0.096313 0.141479 0.036499
0.132294 0.140869 0.023956
0.168335 0.143829 0.012970
0.201385 0.146851 0.008362
0.231079 0.148285 0.004913
0.258423 0.148071 0.003540
0.284363 0.146698 0.003479
0.309479 0.145081 0.003510
0.334442 0.143402 0.003510
0.359131 0.141815 0.003540
0.383972 0.140198 0.003571
0.408722 0.138428 0.003571
0.433502 0.136871 0.003601
0.458435 0.135254 0.003601
0.483398 0.133698 0.003723
0.508514 0.131897 0.004272
0.533844 0.130035 0.004303
0.559296 0.128082 0.004852
0.584808 0.126007 0.005676
0.610443 0.123932 0.006500
0.636230 0.121979 0.007324
0.662140 0.119690 0.008331
0.688019 0.117432 0.009766
0.714081 0.114838 0.011627
0.740295 0.112091 0.013489
0.766449 0.109070 0.015900
0.792297 0.106171 0.018311
0.815674 0.103516 0.021851
0.000793 0.163086 0.074554
0.001404 0.168701 0.077118
0.003204 0.171295 0.075073
0.018097 0.173187 0.068237
0.046661 0.171967 0.055725
0.086578 0.168304 0.046661
0.123505 0.166138 0.035461
0.158386 0.165649 0.022461
0.193878 0.169159 0.013153
0.227966 0.174103 0.008850
0.259308 0.177094 0.005249
0.287933 0.177856 0.004150
0.314758 0.177063 0.004120
0.340424 0.175659 0.004120
0.365509 0.174042 0.004150
0.390533 0.172363 0.004211
0.415375 0.170715 0.004211
0.440186 0.169098 0.004242
0.465118 0.167633 0.004272
0.490204 0.166046 0.004395
0.515381 0.164490 0.004974
0.540680 0.162750 0.005341
0.566071 0.161224 0.005524
0.591644 0.159485 0.006348
0.617340 0.157898 0.007172
0.643158 0.156006 0.008270
0.669098 0.154114 0.009247
0.695068 0.152283 0.010834
0.721252 0.150024 0.012146
0.747528 0.147858 0.013977
0.773865 0.145264 0.016022
0.799896 0.142456 0.018402
0.823395 0.139465 0.021088
0.000793 0.189148 0.083069
0.001587 0.195129 0.086273
0.002411 0.196991 0.083984
0.012299 0.198425 0.078278
0.039825 0.199005 0.068604
0.075134 0.195465 0.056152
0.114807 0.192810 0.047241
0.151245 0.191010 0.034729
0.184814 0.190308 0.022095
0.219666 0.194733 0.014618
0.255035 0.201599 0.008423
0.287750 0.205994 0.005402
0.317841 0.207825 0.004761
0.345612 0.207794 0.005157
0.371826 0.206604 0.005157
0.397461 0.205109 0.005035
0.422668 0.203491 0.004791
0.447723 0.201782 0.005280
0.472748 0.200226 0.005341
0.497925 0.198608 0.005371
0.523071 0.197113 0.005585
0.548340 0.195557 0.005981
0.573761 0.193939 0.006744
0.599213 0.192596 0.007446
0.624908 0.191132 0.008240
0.650696 0.189606 0.009338
0.676605 0.188049 0.010498
0.702698 0.186432 0.011902
0.728760 0.184540 0.013489
0.755066 0.182648 0.015289
0.781433 0.180450 0.017273
0.807587 0.177917 0.019348
0.831207 0.175537 0.021698
0.000793 0.213989 0.090698
0.001587 0.220978 0.094391
0.001923 0.222687 0.092560
0.008118 0.223907 0.087524
0.030518 0.225555 0.079742
0.062317 0.223053 0.063995
0.104919 0.220123 0.058868
0.143616 0.217621 0.049530
0.178467 0.216003 0.036377
0.210327 0.214905 0.023590
0.245758 0.220795 0.015381
0.282349 0.229126 0.009705
0.316528 0.235016 0.006348
0.347992 0.238007 0.005890
0.376862 0.238708 0.005859
0.403961 0.238068 0.005829
0.430115 0.236755 0.005829
0.455750 0.235107 0.005890
0.481049 0.233459 0.005981
0.506287 0.231812 0.006622
0.531555 0.230133 0.006683
0.556824 0.228699 0.007111
0.582214 0.227051 0.007904
0.607666 0.225616 0.008698
0.633179 0.224274 0.009491
0.658936 0.222900 0.010620
0.684814 0.221558 0.011749
0.710785 0.220276 0.013123
0.736877 0.218719 0.014679
0.763153 0.217194 0.016449
0.789551 0.215424 0.018433
0.815613 0.213379 0.020477
0.839203 0.211060 0.022827
0.000793 0.239136 0.097748
0.001740 0.246857 0.102112
0.002380 0.249237 0.101074
0.006195 0.249786 0.096008
0.024475 0.252075 0.089539
0.056244 0.250946 0.077789
0.096191 0.247375 0.069641
0.135406 0.244843 0.062134
0.171417 0.242584 0.052307
0.204773 0.240967 0.040009
0.235687 0.240326 0.028168
0.271667 0.247009 0.018372
0.309509 0.256561 0.011902
0.345062 0.263885 0.007416
0.378052 0.268219 0.006744
0.408264 0.270020 0.007050
0.436310 0.269775 0.007080
0.463165 0.268768 0.007080
0.489288 0.267303 0.007141
0.515106 0.265717 0.007202
0.540558 0.264069 0.007874
0.565948 0.262390 0.008179
0.591278 0.260742 0.008972
0.616760 0.259247 0.009796
0.642334 0.257751 0.010712
0.667999 0.256348 0.011688
0.693817 0.254974 0.013245
0.719727 0.253632 0.014801
0.745728 0.252441 0.015839
0.771881 0.251129 0.018005
0.798279 0.249634 0.019775
0.824310 0.248077 0.021698
0.847687 0.246307 0.024384
0.000793 0.264587 0.104553
0.001740 0.272583 0.109589
0.002380 0.276001 0.109924
0.005157 0.276215 0.104858
0.020935 0.278687 0.098907
0.051086 0.278473 0.090698
0.086731 0.275116 0.079498
0.127441 0.272125 0.073547
0.164673 0.269775 0.066498
0.198944 0.267609 0.056793
0.230835 0.266022 0.044281
0.261932 0.265930 0.032349
0.298096 0.273499 0.022339
0.337036 0.284271 0.014374
0.373962 0.292877 0.010071
0.408417 0.298706 0.008911
0.439819 0.301300 0.008514
0.468903 0.301727 0.008606
0.496521 0.301178 0.008575
0.523315 0.300018 0.008698
0.549438 0.298462 0.008911
0.575226 0.296844 0.009552
0.600891 0.295105 0.010132
0.626465 0.293518 0.010925
0.652039 0.291870 0.011871
0.677643 0.290314 0.013123
0.703400 0.288879 0.014343
0.729248 0.287567 0.015869
0.755249 0.286194 0.017426
0.781342 0.284912 0.019165
0.807587 0.283630 0.021088
0.833588 0.282196 0.023102
0.856842 0.280792 0.025391
0.000793 0.290283 0.111481
0.001923 0.298676 0.116669
0.002502 0.303467 0.118500
0.004944 0.303345 0.114166
0.019592 0.305359 0.108673
0.045898 0.306213 0.101898
0.079742 0.302979 0.090515
0.119843 0.299774 0.084808
0.158295 0.297394 0.079102
0.192841 0.294861 0.071991
0.225647 0.292755 0.061859
0.257080 0.291260 0.049622
0.288147 0.291748 0.037140
0.324982 0.300323 0.026489
0.364868 0.312439 0.018799
0.403320 0.322540 0.013550
0.438995 0.329285 0.011627
0.471558 0.332733 0.010590
0.501587 0.333923 0.009949
0.530090 0.333832 0.009918
0.557526 0.332916 0.010345
0.584167 0.331573 0.010742
0.610352 0.329987 0.011505
0.636230 0.328369 0.012299
0.662018 0.326630 0.013245
0.687775 0.324982 0.014496
0.713501 0.323425 0.015717
0.739349 0.321930 0.017212
0.765320 0.320465 0.018738
0.791443 0.319153 0.020294
0.817566 0.317688 0.022369
0.843445 0.316315 0.024384
0.866760 0.314880 0.026642
0.000793 0.316528 0.118500
0.001740 0.325073 0.123840
0.002502 0.331421 0.127106
0.005463 0.331390 0.123474
0.019409 0.332550 0.118103
0.043640 0.333710 0.112000
0.077209 0.330841 0.102295
0.114380 0.327423 0.095398
0.152466 0.325195 0.090881
0.187531 0.322906 0.085052
0.220642 0.320496 0.077515
0.252289 0.318390 0.067902
0.283508 0.317169 0.055298
0.314606 0.318237 0.042542
0.352112 0.327637 0.030609
0.393311 0.341034 0.022491
0.432892 0.352234 0.017487
0.469635 0.359924 0.014557
0.503235 0.364319 0.012482
0.534332 0.366150 0.011627
0.563751 0.366577 0.011810
0.591919 0.366089 0.012054
0.619171 0.364990 0.012726
0.645660 0.363464 0.013489
0.671906 0.361847 0.014679
0.697968 0.360199 0.015839
0.723907 0.358490 0.016876
0.749878 0.356903 0.018280
0.775848 0.355377 0.019806
0.801910 0.353821 0.021545
0.828064 0.352295 0.023346
0.853851 0.350677 0.025391
0.877380 0.349213 0.027618
0.001587 0.343140 0.125031
0.001740 0.351868 0.130768
0.002747 0.359253 0.134888
0.006348 0.360138 0.132751
0.020355 0.360413 0.127319
0.042877 0.361420 0.122314
0.076813 0.358765 0.113525
0.110870 0.355408 0.104858
0.148163 0.352966 0.101501
0.183533 0.351044 0.096649
0.216461 0.348907 0.090912
0.248322 0.346558 0.083496
0.279510 0.344513 0.074066
0.310272 0.343536 0.061890
0.341797 0.345276 0.047180
0.379608 0.355194 0.034943
0.421722 0.369568 0.026367
0.462463 0.381897 0.021210
0.500305 0.390625 0.018341
0.535156 0.395905 0.015808
0.567261 0.398560 0.013977
0.597534 0.399567 0.013245
0.626373 0.399414 0.013855
0.654144 0.398529 0.014984
0.681183 0.397217 0.015839
0.707825 0.395660 0.016998
0.734192 0.394073 0.018158
0.760345 0.392334 0.019623
0.786499 0.390686 0.021118
0.812653 0.388947 0.022644
0.838867 0.387268 0.024475
0.864777 0.385620 0.026672
0.888519 0.383911 0.028778
0.001587 0.370117 0.132172
0.001801 0.378937 0.137543
0.002838 0.387146 0.142792
0.007568 0.389679 0.142456
0.021637 0.389374 0.137085
0.043701 0.389893 0.132019
0.077454 0.387146 0.124268
0.109772 0.383850 0.114807
0.145813 0.381195 0.111328
0.180756 0.379547 0.107849
0.213348 0.377625 0.102966
0.245300 0.375427 0.097015
0.276550 0.373322 0.089417
0.307220 0.371429 0.079834
0.337677 0.370575 0.067566
0.369263 0.372894 0.052948
0.407379 0.383179 0.039978
0.450104 0.398224 0.030304
0.492004 0.411591 0.025391
0.531097 0.421448 0.022247
0.567169 0.427765 0.018890
0.600189 0.431061 0.016937
0.631195 0.432495 0.016235
0.660645 0.432709 0.016235
0.689148 0.432220 0.017242
0.716736 0.431091 0.018250
0.743805 0.429718 0.019318
0.770477 0.428131 0.020844
0.796997 0.426392 0.022308
0.823395 0.424652 0.023804
0.849823 0.422852 0.025574
0.876221 0.421051 0.027557
0.900879 0.419128 0.028870
0.001587 0.397430 0.139282
0.002533 0.406464 0.144897
0.002747 0.415375 0.150513
0.007294 0.419739 0.152374
0.023346 0.418884 0.147064
0.043854 0.419037 0.141968
0.079254 0.415710 0.134430
0.110992 0.412567 0.125397
0.144562 0.409882 0.120300
0.179688 0.408081 0.118256
0.211884 0.406464 0.114197
0.243195 0.404572 0.109528
0.274292 0.402618 0.103394
0.304932 0.400635 0.095612
0.335266 0.398956 0.085693
0.365875 0.398712 0.072021
0.397339 0.400909 0.058319
0.435852 0.411682 0.044617
0.479401 0.427490 0.034149
0.522003 0.441742 0.029602
0.562134 0.452515 0.025757
0.599030 0.459534 0.022736
0.632843 0.463409 0.020721
0.664642 0.465393 0.019226
0.695007 0.466156 0.019104
0.724152 0.465942 0.019501
0.752258 0.465027 0.020569
0.779755 0.463776 0.022003
0.806885 0.462250 0.023651
0.833832 0.460571 0.025177
0.860779 0.458801 0.026428
0.888031 0.456879 0.027649
0.914764 0.454834 0.027618
0.001587 0.425323 0.146637
0.002533 0.434448 0.152191
0.003845 0.444000 0.158417
0.009460 0.450745 0.162079
0.025085 0.449341 0.157471
0.044525 0.448883 0.152039
0.081879 0.444763 0.144745
0.113922 0.441620 0.136505
0.144623 0.438843 0.129211
0.180023 0.436859 0.128540
0.211761 0.435455 0.124603
0.242310 0.433868 0.120911
0.272919 0.432220 0.115997
0.303345 0.430389 0.109680
0.333740 0.428741 0.101349
0.364014 0.427246 0.090942
0.394409 0.426910 0.077789
0.426147 0.429596 0.063354
0.465302 0.441071 0.047180
0.509216 0.457367 0.037811
0.552277 0.472076 0.033539
0.593079 0.483582 0.030029
0.630920 0.491364 0.027527
0.665680 0.496033 0.025330
0.698334 0.498474 0.023132
0.729309 0.499573 0.022064
0.759125 0.499664 0.022369
0.787750 0.498993 0.023376
0.815826 0.497894 0.024872
0.843475 0.496490 0.026398
0.871582 0.494904 0.027252
0.900726 0.493134 0.026703
0.929718 0.491211 0.024780
0.002319 0.453705 0.154266
0.003632 0.463074 0.159698
0.006744 0.473175 0.166321
0.013092 0.481476 0.171326
0.028656 0.481049 0.168457
0.048157 0.478760 0.162109
0.085297 0.474274 0.155243
0.117218 0.471100 0.147461
0.146393 0.468323 0.138885
0.181610 0.466187 0.138367
0.212769 0.464844 0.135162
0.242981 0.463501 0.131531
0.272797 0.462067 0.127594
0.302734 0.460510 0.122467
0.332916 0.458923 0.115570
0.363129 0.457397 0.106750
0.393036 0.455994 0.096375
0.423401 0.455933 0.083282
0.456421 0.459595 0.066071
0.495605 0.471252 0.049011
0.539001 0.487396 0.042511
0.582550 0.502625 0.038239
0.624176 0.514771 0.034729
0.662750 0.523224 0.032013
0.698578 0.528564 0.030212
0.732086 0.531647 0.028351
0.763763 0.533081 0.026672
0.794220 0.533508 0.026184
0.823425 0.533081 0.026978
0.852203 0.532135 0.027283
0.882080 0.531097 0.027191
0.913879 0.529816 0.024567
0.944855 0.528259 0.022003
0.005219 0.483063 0.161987
0.008148 0.492828 0.167816
0.012726 0.503296 0.174438
0.018921 0.512299 0.180176
0.032593 0.513824 0.179871
0.054840 0.509430 0.172882
0.089325 0.504669 0.166290
0.121155 0.501251 0.158875
0.149872 0.498535 0.150513
0.183746 0.496246 0.148560
0.215149 0.494751 0.145355
0.245026 0.493530 0.142029
0.274200 0.492218 0.138763
0.303375 0.490784 0.134796
0.332947 0.489471 0.129150
0.362793 0.488098 0.121704
0.392822 0.486816 0.112732
0.423004 0.485840 0.101471
0.453644 0.486053 0.088043
0.487335 0.490631 0.070465
0.525635 0.501587 0.054688
0.568939 0.517639 0.047668
0.613007 0.533447 0.043488
0.655060 0.546051 0.039825
0.694580 0.555206 0.036957
0.731232 0.561157 0.034973
0.765594 0.564758 0.033203
0.798218 0.566711 0.031616
0.829803 0.567596 0.030334
0.860687 0.567566 0.028442
0.893646 0.567535 0.026154
0.926971 0.566864 0.022675
0.959625 0.565826 0.019623
0.009949 0.513275 0.170105
0.015228 0.523590 0.176331
0.020660 0.534149 0.183075
0.025909 0.544006 0.189728
0.035583 0.548309 0.192200
0.058105 0.541962 0.184631
0.093781 0.535797 0.177429
0.125610 0.532043 0.170532
0.154266 0.529327 0.162842
0.186279 0.526978 0.158905
0.217621 0.525391 0.156281
0.247711 0.524048 0.152618
0.276703 0.522797 0.149475
0.305359 0.521545 0.146362
0.334137 0.520416 0.141876
0.363403 0.519226 0.135712
0.393280 0.518097 0.127777
0.423218 0.517029 0.118530
0.453369 0.516357 0.107544
0.484283 0.517151 0.093536
0.518768 0.522705 0.074249
0.556854 0.533356 0.059814
0.599182 0.548431 0.054108
0.643738 0.564606 0.049408
0.686462 0.577698 0.045227
0.726501 0.587311 0.042358
0.763855 0.593719 0.039856
0.799225 0.597961 0.037842
0.834595 0.601105 0.034119
0.869049 0.602875 0.029877
0.904724 0.604004 0.025635
0.939728 0.604156 0.021271
0.972198 0.603394 0.018585
0.017639 0.544373 0.178802
0.023224 0.554871 0.185303
0.027985 0.565491 0.192230
0.032196 0.576019 0.199463
0.038361 0.583435 0.204559
0.061584 0.575348 0.196503
0.098389 0.567810 0.188873
0.130188 0.563446 0.182037
0.158905 0.560608 0.174744
0.189117 0.558197 0.169281
0.220612 0.556580 0.166656
0.250854 0.555054 0.163147
0.280090 0.553772 0.159912
0.308441 0.552612 0.157043
0.336884 0.551575 0.153259
0.365417 0.550690 0.148346
0.394592 0.549774 0.141846
0.424286 0.548859 0.133911
0.454224 0.548065 0.124298
0.484070 0.547546 0.113739
0.516296 0.549744 0.097992
0.551270 0.555878 0.077301
0.587982 0.565277 0.065125
0.630249 0.580139 0.060699
0.674927 0.596283 0.055542
0.718048 0.609650 0.051239
0.758636 0.619659 0.047791
0.797241 0.626862 0.044434
0.836823 0.633057 0.038483
0.875488 0.637299 0.032043
0.913574 0.639923 0.025879
0.949860 0.640900 0.021149
0.980988 0.640167 0.020508
0.026276 0.576050 0.187988
0.030579 0.586517 0.194763
0.035034 0.597137 0.201660
0.038361 0.608032 0.209106
0.043304 0.617249 0.215515
0.066986 0.609497 0.209015
0.103607 0.600555 0.200592
0.135254 0.595459 0.193420
0.163574 0.592438 0.186218
0.192108 0.589874 0.179138
0.224152 0.588165 0.176910
0.254608 0.586639 0.173706
0.284027 0.585297 0.170197
0.312469 0.584137 0.167236
0.340576 0.583252 0.164001
0.368713 0.582489 0.159851
0.397247 0.581757 0.154449
0.426300 0.581085 0.147736
0.455750 0.580383 0.140289
0.485474 0.579865 0.131439
0.515381 0.579651 0.120575
0.548523 0.583008 0.102539
0.585754 0.591125 0.079285
0.618835 0.596985 0.072876
0.661926 0.612427 0.067413
0.706604 0.628510 0.062103
0.750153 0.642181 0.057343
0.792542 0.653229 0.051971
0.835999 0.662872 0.043915
0.878601 0.670166 0.035339
0.919220 0.674713 0.027588
0.955933 0.676514 0.023163
0.985016 0.675354 0.025146
0.034088 0.608124 0.197815
0.037903 0.618744 0.204315
0.041718 0.629425 0.211273
0.044830 0.640350 0.218719
0.049835 0.649933 0.225311
0.072968 0.645111 0.222321
0.109070 0.634735 0.212830
0.140533 0.628540 0.205139
0.168671 0.624817 0.197327
0.195770 0.622192 0.188904
0.228180 0.620453 0.187103
0.258911 0.618835 0.183838
0.288422 0.617554 0.180237
0.317200 0.616425 0.177094
0.345215 0.615417 0.174072
0.373077 0.614746 0.170319
0.401123 0.614166 0.166016
0.429321 0.613647 0.161407
0.457977 0.613098 0.155579
0.487244 0.612701 0.148163
0.517120 0.612610 0.138885
0.547913 0.613342 0.126068
0.581360 0.616913 0.106873
0.620209 0.626617 0.084839
0.651550 0.630493 0.080200
0.693909 0.645233 0.074829
0.739197 0.661621 0.069031
0.785065 0.676758 0.061401
0.832581 0.690735 0.051056
0.878571 0.701263 0.040314
0.921600 0.708160 0.031158
0.958740 0.710815 0.027069
0.985626 0.708923 0.031769
0.040924 0.640961 0.207428
0.044708 0.651672 0.213898
0.048370 0.662567 0.220795
0.051300 0.673584 0.228058
0.055298 0.683746 0.234772
0.072998 0.683563 0.235291
0.114502 0.669830 0.224976
0.146454 0.662598 0.216553
0.173737 0.658844 0.208649
0.199829 0.656616 0.199493
0.231873 0.654724 0.196381
0.263000 0.652924 0.193207
0.292969 0.651398 0.189484
0.322174 0.650116 0.185944
0.350433 0.648956 0.183044
0.378204 0.648254 0.180267
0.405731 0.647675 0.177368
0.433472 0.647278 0.173737
0.461639 0.646881 0.169159
0.490448 0.646606 0.163116
0.520020 0.646606 0.155090
0.550323 0.647034 0.144806
0.582184 0.648956 0.129333
0.618439 0.655365 0.101593
0.654083 0.661987 0.090637
0.686432 0.666595 0.087494
0.727783 0.679993 0.081909
0.775665 0.698151 0.072998
0.826660 0.716614 0.060303
0.876373 0.731201 0.046967
0.921814 0.740601 0.036621
0.959198 0.743988 0.033020
0.984955 0.741455 0.039276
0.049286 0.674194 0.216431
0.053619 0.684753 0.222809
0.058594 0.695465 0.229553
0.063080 0.706207 0.236420
0.067749 0.716919 0.243195
0.078094 0.722992 0.247284
0.119263 0.707123 0.236542
0.151123 0.698730 0.226654
0.176514 0.696228 0.216858
0.200531 0.695496 0.205444
0.231812 0.694489 0.200592
0.264160 0.692108 0.197632
0.295502 0.689789 0.194366
0.325439 0.687897 0.191406
0.354370 0.686462 0.189026
0.382721 0.685577 0.186829
0.410583 0.684967 0.184784
0.438354 0.684387 0.182343
0.466370 0.683838 0.178741
0.495026 0.683899 0.173615
0.524475 0.683868 0.167053
0.554626 0.684052 0.158630
0.585785 0.685089 0.146332
0.619263 0.688477 0.125763
0.656982 0.695923 0.099457
0.690063 0.699707 0.095734
0.724304 0.705841 0.093140
0.767517 0.720398 0.084839
0.819397 0.741089 0.071106
0.872314 0.759827 0.055725
0.920258 0.772247 0.043976
0.957520 0.776001 0.041382
0.983276 0.773254 0.048218
0.062286 0.706940 0.224335
0.068024 0.717377 0.230499
0.074249 0.728149 0.236938
0.079590 0.739258 0.243256
0.083374 0.751556 0.249359
0.088501 0.762817 0.254517
0.119904 0.749908 0.244476
0.150665 0.741150 0.232635
0.174133 0.739594 0.219971
0.194824 0.740631 0.204193
0.226379 0.740692 0.198242
0.260590 0.737701 0.195618
0.293762 0.734833 0.193268
0.325226 0.732513 0.190735
0.355499 0.730560 0.188843
0.385132 0.729095 0.187561
0.414185 0.728210 0.186218
0.442871 0.727539 0.184357
0.471375 0.727112 0.181671
0.500549 0.726990 0.177551
0.530487 0.727112 0.171906
