lut/retro-80s/Blue Velvet (1986) - Standard.cube
# Created by Benjamin (IWLTBAP): https://luts.iwltbap.com
# Copyright: (C) Copyright 2018 Triune Films and IWLTBAP SAS
# Cannot be resold, shared or otherwise redistributed
TITLE "Triune Films 80s Retro LUTs (Rec.709, sRGB, DCI-P3)"
LUT_3D_SIZE 33
0.002777 0.001221 0.000000
0.016266 0.002747 0.000214
0.032532 0.004150 0.000092
0.048553 0.006287 0.000275
0.066376 0.008392 0.000275
0.085022 0.010864 0.000336
0.104645 0.014099 0.000336
0.124817 0.017334 0.000336
0.145538 0.020599 0.000397
0.166321 0.023926 0.000397
0.186951 0.027313 0.000458
0.207550 0.030548 0.000458
0.227386 0.033722 0.000488
0.248016 0.036194 0.000488
0.269562 0.038879 0.000488
0.291046 0.041626 0.000519
0.313385 0.044281 0.000488
0.335968 0.046967 0.000519
0.359222 0.049408 0.000519
0.382629 0.051910 0.000488
0.406372 0.054321 0.000427
0.430023 0.056824 0.000366
0.454193 0.059357 0.000366
0.478271 0.062103 0.000366
0.503052 0.064728 0.000397
0.527435 0.067535 0.000397
0.553345 0.070038 0.000275
0.578827 0.072998 0.000275
0.604095 0.075623 0.000275
0.628082 0.078644 0.000336
0.653320 0.081116 0.000336
0.678436 0.083649 0.000336
0.701996 0.086578 0.000244
0.004150 0.018677 0.003235
0.019775 0.020844 0.003296
0.036987 0.023254 0.003265
0.055359 0.025635 0.003357
0.073364 0.027863 0.003479
0.093781 0.030273 0.003357
0.114288 0.032898 0.003265
0.135254 0.036041 0.003113
0.156891 0.038940 0.002960
0.178436 0.041626 0.003174
0.199493 0.044647 0.003082
0.220551 0.047607 0.002991
0.241364 0.050171 0.002899
0.262756 0.052765 0.002899
0.284332 0.055237 0.002808
0.306213 0.058044 0.002747
0.328918 0.060669 0.002472
0.352173 0.063019 0.002441
0.375641 0.065582 0.002167
0.398926 0.068298 0.001953
0.422577 0.070892 0.001678
0.447113 0.073181 0.001373
0.471497 0.075836 0.001373
0.495819 0.078674 0.001373
0.520386 0.081512 0.001373
0.545563 0.083862 0.001129
0.570892 0.086792 0.000946
0.595764 0.089691 0.000916
0.621033 0.092346 0.000946
0.645874 0.095154 0.000977
0.669403 0.097992 0.001007
0.693817 0.100861 0.000549
0.717590 0.103668 0.000549
0.005798 0.037903 0.010101
0.022156 0.040771 0.008301
0.040222 0.043121 0.008301
0.059540 0.046631 0.008636
0.080109 0.049438 0.008331
0.102234 0.051941 0.007904
0.124115 0.054321 0.007629
0.146973 0.056305 0.007202
0.169006 0.059052 0.006989
0.191040 0.061127 0.006927
0.213013 0.063568 0.006592
0.234833 0.066132 0.006317
0.256622 0.068329 0.006104
0.278046 0.070801 0.005859
0.300354 0.073120 0.005768
0.322693 0.075806 0.005219
0.345764 0.078308 0.004913
0.369293 0.080719 0.004669
0.392700 0.083344 0.004028
0.416595 0.085968 0.003601
0.440399 0.088531 0.003113
0.464752 0.091095 0.002899
0.489471 0.093689 0.002716
0.514160 0.096405 0.002502
0.539032 0.099030 0.002319
0.563690 0.102020 0.001770
0.588928 0.104675 0.001740
0.613617 0.107422 0.001709
0.638092 0.110352 0.001465
0.662415 0.113129 0.001465
0.686096 0.116150 0.001099
0.710205 0.119019 0.000916
0.733521 0.122009 0.000916
0.006378 0.058380 0.018951
0.023010 0.061340 0.017395
0.042419 0.064178 0.014465
0.061584 0.067719 0.014832
0.084961 0.071747 0.014099
0.109283 0.075104 0.013855
0.133545 0.077881 0.013092
0.157715 0.079834 0.012634
0.181671 0.081573 0.012268
0.204987 0.083282 0.011932
0.227692 0.085236 0.011444
0.249847 0.087311 0.010925
0.272156 0.089447 0.010284
0.294952 0.091339 0.009613
0.317383 0.093597 0.009399
0.340485 0.095795 0.008362
0.363861 0.098236 0.007935
0.387390 0.100708 0.007446
0.411102 0.103241 0.006500
0.435242 0.105774 0.006012
0.459229 0.108459 0.005463
0.483887 0.110870 0.004883
0.508209 0.113586 0.004333
0.533142 0.116028 0.003754
0.557831 0.118866 0.003174
0.582611 0.121704 0.002594
0.607269 0.124420 0.002594
0.631897 0.127106 0.002106
0.656311 0.129761 0.001984
0.680542 0.132599 0.001617
0.704437 0.135468 0.001373
0.728180 0.138458 0.001312
0.751404 0.141632 0.001251
0.006653 0.079712 0.029999
0.023407 0.083099 0.028687
0.042236 0.086700 0.026306
0.062805 0.090393 0.023315
0.085602 0.094147 0.022125
0.112640 0.099396 0.021027
0.141327 0.103302 0.019623
0.168701 0.105621 0.018829
0.194427 0.107483 0.018494
0.218933 0.108826 0.018127
0.242798 0.109924 0.017365
0.265961 0.111511 0.016724
0.289246 0.113068 0.015717
0.312256 0.115082 0.014740
0.335480 0.117004 0.013855
0.359192 0.119049 0.012695
0.382935 0.121307 0.011658
0.407135 0.123505 0.010925
0.430939 0.126038 0.010284
0.455048 0.128479 0.008789
0.479462 0.131165 0.007965
0.504089 0.133575 0.007355
0.528595 0.136047 0.006561
0.553284 0.138306 0.005493
0.577911 0.140930 0.004883
0.602600 0.143524 0.004333
0.627014 0.146088 0.003845
0.651276 0.148773 0.003326
0.675201 0.151489 0.002808
0.699036 0.154297 0.002533
0.722382 0.157227 0.002350
0.746033 0.160004 0.001984
0.768921 0.163025 0.001892
0.005615 0.102356 0.043335
0.021698 0.106506 0.043091
0.039978 0.110596 0.041443
0.060944 0.114655 0.038208
0.085144 0.118774 0.033203
0.111786 0.123169 0.031006
0.144073 0.129425 0.028534
0.176392 0.133636 0.026306
0.205780 0.136078 0.025269
0.232483 0.137756 0.025269
0.257996 0.138794 0.024567
0.282501 0.140137 0.023865
0.306671 0.141327 0.023010
0.330597 0.142883 0.021820
0.354889 0.144562 0.020599
0.378845 0.146729 0.019196
0.403076 0.148621 0.017792
0.427155 0.150848 0.016449
0.451569 0.153076 0.015045
0.476013 0.155304 0.013763
0.500580 0.157623 0.012482
0.525146 0.159912 0.011169
0.549774 0.162048 0.009827
0.574554 0.164215 0.008545
0.599060 0.166534 0.007355
0.623444 0.168915 0.006683
0.647583 0.171387 0.005737
0.671326 0.173859 0.004913
0.694794 0.176514 0.004333
0.718414 0.179382 0.003906
0.741364 0.182251 0.003357
0.764374 0.185150 0.002869
0.786896 0.188232 0.002350
0.003601 0.126862 0.057648
0.019287 0.130890 0.057800
0.037140 0.135437 0.057159
0.057861 0.140350 0.054810
0.083069 0.145233 0.048798
0.111572 0.149963 0.043579
0.143341 0.154633 0.041687
0.179260 0.161407 0.037170
0.213257 0.166321 0.033752
0.244019 0.169312 0.032074
0.272217 0.171143 0.031555
0.298706 0.172455 0.031555
0.324097 0.173676 0.031036
0.349091 0.174927 0.030121
0.373932 0.176422 0.028778
0.398926 0.178101 0.027161
0.423553 0.180176 0.026062
0.448212 0.182220 0.024475
0.472900 0.184357 0.022614
0.497681 0.186432 0.021088
0.522430 0.188446 0.019073
0.546997 0.190552 0.017334
0.571747 0.192627 0.015564
0.596436 0.194489 0.013885
0.620453 0.196533 0.012451
0.644653 0.198639 0.010956
0.668457 0.200897 0.009491
0.692047 0.203308 0.008026
0.715302 0.205658 0.007294
0.738281 0.208435 0.006775
0.761017 0.211334 0.005829
0.783386 0.214264 0.005127
0.805756 0.217224 0.004395
0.001892 0.152161 0.071808
0.016174 0.156555 0.072357
0.033356 0.161346 0.071777
0.054901 0.166687 0.069550
0.081055 0.172363 0.065430
0.111481 0.177948 0.057648
0.144653 0.182831 0.055511
0.179718 0.188232 0.053619
0.217285 0.195770 0.046692
0.251984 0.201202 0.041473
0.283173 0.204590 0.039124
0.312286 0.206757 0.037720
0.339844 0.208496 0.037781
0.366180 0.210083 0.037445
0.392303 0.211487 0.037231
0.417969 0.213287 0.036469
0.443512 0.215210 0.035400
0.468567 0.217255 0.033875
0.493774 0.219269 0.032257
0.518890 0.221252 0.030548
0.543915 0.223206 0.028320
0.568909 0.224976 0.026093
0.593536 0.226746 0.024017
0.618011 0.228577 0.021545
0.642242 0.230408 0.019653
0.666077 0.232361 0.017456
0.689575 0.234375 0.015900
0.712799 0.236572 0.014160
0.735809 0.239014 0.012756
0.758453 0.241516 0.011353
0.780762 0.244324 0.009949
0.802826 0.247314 0.009155
0.824646 0.250183 0.008209
0.000519 0.178619 0.086945
0.013458 0.182770 0.086823
0.030090 0.187927 0.086670
0.051727 0.193573 0.084961
0.077881 0.200073 0.082092
0.110260 0.206482 0.075989
0.147430 0.212921 0.069214
0.183990 0.218384 0.069305
0.220581 0.224518 0.066681
0.257568 0.232239 0.057648
0.291260 0.237793 0.050476
0.322876 0.241455 0.046204
0.352661 0.244110 0.044067
0.381073 0.246155 0.043274
0.408722 0.247986 0.043488
0.435425 0.249969 0.043640
0.461792 0.252075 0.043640
0.487762 0.254333 0.042999
0.513397 0.256470 0.042053
0.538971 0.258636 0.040863
0.564240 0.260559 0.039154
0.589417 0.262421 0.037079
0.614258 0.264191 0.034943
0.638763 0.265869 0.032593
0.662964 0.267639 0.029938
0.686615 0.269409 0.027863
0.710114 0.271332 0.025421
0.733093 0.273315 0.023132
0.755554 0.275726 0.021088
0.777924 0.278351 0.019287
0.799957 0.281006 0.017822
0.821838 0.283813 0.016541
0.843231 0.286682 0.015198
0.000397 0.205475 0.101257
0.011383 0.210052 0.101868
0.027740 0.215057 0.101257
0.048706 0.221100 0.100067
0.075439 0.228149 0.098267
0.110291 0.235931 0.093750
0.150330 0.243439 0.085052
0.190582 0.250214 0.083527
0.228851 0.256348 0.083862
0.264832 0.263153 0.080139
0.299469 0.270508 0.069122
0.331940 0.275909 0.059570
0.362701 0.279541 0.053497
0.392548 0.282318 0.049988
0.421570 0.284698 0.048676
0.449799 0.286926 0.048279
0.477356 0.289307 0.049072
0.504211 0.291718 0.049561
0.530731 0.294098 0.049866
0.556824 0.296387 0.049835
0.582581 0.298615 0.049194
0.608032 0.300598 0.048065
0.633240 0.302551 0.046295
0.657898 0.304382 0.044342
0.682037 0.306274 0.042145
0.705688 0.308228 0.039978
0.728912 0.310242 0.037750
0.751923 0.312347 0.035522
0.774353 0.314667 0.033173
0.796509 0.317169 0.031342
0.818390 0.319885 0.029266
0.839874 0.322693 0.027313
0.861237 0.325562 0.025482
0.000336 0.233368 0.115143
0.010651 0.237946 0.115326
0.026123 0.243042 0.115021
0.047668 0.249359 0.114227
0.075562 0.257050 0.113098
0.112244 0.265411 0.109406
0.154266 0.274139 0.102509
0.197571 0.282257 0.097626
0.239136 0.289764 0.098816
0.277069 0.296753 0.099518
0.311401 0.303864 0.094696
0.342804 0.310516 0.081146
0.372986 0.315094 0.069397
0.402588 0.318329 0.061371
0.431793 0.320831 0.056519
0.460754 0.323151 0.053986
0.489197 0.325378 0.052795
0.517242 0.327728 0.053192
0.544769 0.330231 0.054016
0.571747 0.332733 0.055084
0.597992 0.335236 0.055573
0.623932 0.337555 0.055908
0.649384 0.339752 0.055573
0.674255 0.341919 0.054810
0.698761 0.344147 0.053741
0.722565 0.346344 0.052368
0.745941 0.348602 0.050629
0.768921 0.350922 0.048767
0.791504 0.353455 0.046967
0.813538 0.356110 0.045319
0.835358 0.358826 0.043610
0.856903 0.361664 0.041779
0.878143 0.364563 0.040009
0.000275 0.262207 0.128143
0.010529 0.266693 0.127808
0.025269 0.272125 0.128052
0.048004 0.278503 0.127228
0.078186 0.286469 0.126587
0.116425 0.295471 0.123993
0.160217 0.305054 0.118469
0.206482 0.314423 0.112061
0.250488 0.323090 0.113708
0.290802 0.331207 0.115112
0.327057 0.338898 0.115845
0.358734 0.345886 0.109863
0.386688 0.351257 0.094299
0.414307 0.354736 0.080200
0.441956 0.357056 0.069824
0.470001 0.359009 0.063110
0.498474 0.360901 0.058899
0.527069 0.362732 0.057098
0.555206 0.364777 0.056580
0.583038 0.367096 0.057373
0.610321 0.369476 0.058716
0.636749 0.372009 0.059906
0.662750 0.374603 0.060730
0.688263 0.377045 0.061523
0.713104 0.379730 0.061890
0.737274 0.382294 0.061615
0.760986 0.384888 0.061035
0.784149 0.387543 0.060333
0.806946 0.390259 0.059448
0.829224 0.393097 0.058411
0.851166 0.395996 0.057281
0.872742 0.398987 0.055847
0.894135 0.401917 0.054626
0.000214 0.292084 0.140381
0.010376 0.296875 0.140472
0.027069 0.302216 0.140137
0.050232 0.309143 0.140533
0.083405 0.316833 0.139282
0.123077 0.326111 0.137360
0.168945 0.336182 0.132874
0.216736 0.346436 0.126556
0.262726 0.356171 0.128326
0.304932 0.365234 0.130890
0.342957 0.373718 0.132568
0.377106 0.381561 0.133423
0.405853 0.388062 0.125885
0.430206 0.391876 0.108002
0.454773 0.394012 0.091583
0.480408 0.395264 0.078827
0.507263 0.396240 0.069794
0.535065 0.397400 0.064026
0.563202 0.398743 0.060638
0.591461 0.400238 0.059143
0.619354 0.402161 0.059143
0.646790 0.404449 0.060486
0.673523 0.406952 0.062012
0.699524 0.409607 0.063690
0.725037 0.412445 0.065002
0.749847 0.415314 0.066193
0.774139 0.418213 0.066864
0.797729 0.421173 0.067352
0.820923 0.424225 0.067474
0.843628 0.427338 0.067627
0.865936 0.430450 0.067413
0.887848 0.433594 0.066833
0.909454 0.436707 0.066437
0.000275 0.322754 0.152191
0.011597 0.327545 0.151855
0.029877 0.333435 0.152222
0.056671 0.340332 0.152496
0.092316 0.347900 0.151276
0.133087 0.357452 0.149963
0.180450 0.367523 0.145966
0.229004 0.378296 0.140411
0.276245 0.388428 0.142303
0.319733 0.398163 0.146118
0.359192 0.407318 0.148926
0.394714 0.415771 0.151031
0.426178 0.423401 0.151764
0.451691 0.429016 0.142426
0.472748 0.431366 0.122955
0.494446 0.432037 0.103851
0.518036 0.432159 0.088470
0.543365 0.432343 0.077087
0.570374 0.432678 0.069336
0.598053 0.433380 0.064423
0.626221 0.434448 0.061462
0.654114 0.435944 0.060608
0.681702 0.438019 0.061005
0.708527 0.440491 0.062561
0.734772 0.443237 0.064484
0.760345 0.446228 0.066315
0.785400 0.449249 0.067932
0.809784 0.452454 0.069489
0.833557 0.455719 0.070709
0.856781 0.458984 0.071594
0.879608 0.462341 0.072540
0.901855 0.465576 0.073425
0.923645 0.468536 0.075012
0.000488 0.354126 0.163605
0.013000 0.359253 0.163605
0.036438 0.365082 0.163605
0.066803 0.372101 0.164001
0.104523 0.379822 0.163116
0.147308 0.388885 0.161407
0.195160 0.398956 0.158020
0.243896 0.409637 0.153046
0.291199 0.419983 0.156006
0.335205 0.429962 0.161133
0.375336 0.439423 0.165131
0.411682 0.448242 0.168121
0.444061 0.456116 0.170227
0.473083 0.463074 0.170563
0.495178 0.467438 0.159698
0.513550 0.468689 0.138214
0.532837 0.468567 0.116730
0.554474 0.467834 0.098755
0.578522 0.467163 0.084869
0.604523 0.466766 0.074677
0.631744 0.466980 0.067780
0.659576 0.467621 0.063629
0.687592 0.468750 0.061523
0.715271 0.470490 0.061035
0.742462 0.472809 0.061768
0.769043 0.475555 0.063446
0.794952 0.478516 0.065338
0.820129 0.481750 0.067505
0.844788 0.485107 0.069458
0.868774 0.488495 0.071198
0.892273 0.491943 0.072937
0.915100 0.495239 0.075287
0.937347 0.498291 0.078461
0.000885 0.385834 0.174866
0.016144 0.391327 0.174988
0.047394 0.397278 0.174744
0.082153 0.404205 0.174896
0.121826 0.411896 0.174133
0.166260 0.420715 0.172333
0.213440 0.430328 0.169067
0.261902 0.440643 0.164673
0.308228 0.450623 0.169373
0.351990 0.460480 0.175629
0.392059 0.470032 0.180847
0.428528 0.478851 0.184723
0.461212 0.486969 0.187683
0.489899 0.493744 0.191101
0.514801 0.499329 0.192413
0.534271 0.502625 0.180786
0.551025 0.503296 0.157349
0.569153 0.503052 0.132507
0.589905 0.502350 0.109497
0.612640 0.501007 0.092804
0.637817 0.500183 0.080261
0.664459 0.499878 0.071259
0.692169 0.500092 0.065308
0.720154 0.500824 0.061859
0.748199 0.502136 0.060211
0.775757 0.504150 0.059967
0.802643 0.506683 0.061188
0.828979 0.509644 0.063110
0.854614 0.512787 0.065094
0.879578 0.516144 0.067413
0.903870 0.519684 0.069580
0.927734 0.523285 0.071838
0.950775 0.526550 0.075226
0.001831 0.417572 0.185760
0.023834 0.423248 0.186005
0.062012 0.429535 0.186127
0.101776 0.436340 0.185669
0.143585 0.443878 0.184479
0.188934 0.452209 0.182159
0.235596 0.461243 0.178711
0.282227 0.471039 0.175720
0.326874 0.480560 0.182800
0.369659 0.489990 0.189819
0.409027 0.499237 0.195923
0.445099 0.508057 0.200806
0.476471 0.515778 0.205566
0.504333 0.522369 0.210663
0.529724 0.528046 0.215546
0.552124 0.532684 0.216980
0.570190 0.535645 0.203796
0.586060 0.536133 0.178589
0.603424 0.535950 0.150421
0.623474 0.535339 0.123383
0.645844 0.534302 0.101288
0.670258 0.533051 0.086151
0.696625 0.532318 0.074982
0.724213 0.532074 0.066986
0.752350 0.532349 0.061707
0.780792 0.533234 0.058960
0.808777 0.534851 0.057861
0.836121 0.537140 0.058258
0.862885 0.539886 0.059814
0.888977 0.542999 0.061981
0.914307 0.546265 0.064209
0.938995 0.549683 0.066498
0.963165 0.553101 0.068665
0.006256 0.448822 0.196716
0.039703 0.454865 0.196808
0.082764 0.461365 0.196686
0.126068 0.468170 0.195679
0.169556 0.475525 0.194092
0.214691 0.483459 0.191589
0.260468 0.491974 0.188049
0.304840 0.500824 0.188141
0.347473 0.509735 0.196228
0.388275 0.518585 0.203857
0.426697 0.527557 0.210693
0.460388 0.535706 0.216980
0.490051 0.542938 0.223541
0.517334 0.549469 0.229828
0.542450 0.555115 0.235809
0.566010 0.560211 0.240997
0.587219 0.564758 0.240601
0.604187 0.567383 0.226410
0.619385 0.567810 0.200531
0.636383 0.567841 0.169464
0.656036 0.567596 0.137909
0.678375 0.567017 0.110321
0.702271 0.565521 0.091949
0.728394 0.564453 0.078430
0.755920 0.563751 0.068359
0.784332 0.563568 0.061615
0.813080 0.563934 0.057251
0.841492 0.565002 0.055023
0.869446 0.566833 0.054413
0.896667 0.569244 0.055603
0.923340 0.572021 0.057220
0.949249 0.575134 0.059265
0.974426 0.578430 0.061615
0.017334 0.479675 0.207245
0.063049 0.486115 0.207397
0.110474 0.492798 0.206451
0.155365 0.499634 0.204956
0.200195 0.506653 0.202515
0.243866 0.514191 0.199921
0.287384 0.522064 0.197418
0.329224 0.530182 0.201477
0.369507 0.538208 0.209656
0.407990 0.546448 0.217590
0.443024 0.554626 0.225555
0.473511 0.561890 0.233521
0.502289 0.568878 0.241119
0.529114 0.575348 0.248505
0.554718 0.581390 0.254913
0.578766 0.586914 0.260162
0.601379 0.591888 0.264221
0.621246 0.596222 0.262421
0.637238 0.598572 0.247620
0.651855 0.598969 0.220978
0.668274 0.598969 0.188568
0.687805 0.599182 0.153168
0.710114 0.598999 0.120575
0.733887 0.597656 0.097931
0.759857 0.596222 0.081818
0.787445 0.595062 0.069519
0.816071 0.594360 0.060760
0.845184 0.594116 0.054688
0.874146 0.594666 0.051270
0.902740 0.595917 0.049774
0.930603 0.597931 0.049988
0.957703 0.600403 0.051331
0.984283 0.603302 0.053406
0.044006 0.510468 0.217712
0.094757 0.517120 0.217194
0.143585 0.523865 0.215485
0.189240 0.530609 0.213074
0.233002 0.537323 0.210327
0.274963 0.544373 0.207458
0.315704 0.551575 0.207642
0.354645 0.558777 0.214966
0.391968 0.566162 0.223297
0.424683 0.572998 0.232147
0.455872 0.579987 0.241119
0.485291 0.587006 0.249786
0.513580 0.593903 0.258209
0.540833 0.600616 0.265869
0.566956 0.606995 0.272675
0.591278 0.612793 0.278351
0.614136 0.618042 0.283142
0.635406 0.622894 0.286133
0.654175 0.627045 0.283051
0.669434 0.629303 0.267578
0.683563 0.629669 0.239807
0.699585 0.629791 0.205933
0.718903 0.630280 0.168030
0.741241 0.630615 0.130310
0.765198 0.629395 0.102905
0.791016 0.627563 0.084076
0.818756 0.626068 0.069489
0.847595 0.624847 0.058838
0.877136 0.624115 0.051208
0.906708 0.624084 0.046722
0.935852 0.624847 0.044647
0.964447 0.626343 0.044281
0.988251 0.628571 0.045288
0.085114 0.541077 0.227051
0.134857 0.547882 0.225464
0.182007 0.554596 0.223053
0.226135 0.561096 0.220093
0.266693 0.567413 0.217743
0.304352 0.573486 0.216095
0.340271 0.579498 0.220978
0.374481 0.585541 0.229370
0.406708 0.591736 0.238220
0.438049 0.598145 0.247162
0.467743 0.604767 0.256378
0.496704 0.611450 0.265472
0.525208 0.618439 0.274139
0.552765 0.625366 0.282135
0.578949 0.631927 0.289337
0.603485 0.638062 0.295624
0.626526 0.643738 0.300415
0.647949 0.648865 0.303772
0.667694 0.653717 0.304199
0.685272 0.657776 0.298859
0.700043 0.659912 0.282349
0.714050 0.660217 0.254242
0.729980 0.660492 0.219482
0.749268 0.661041 0.179565
0.771881 0.661835 0.137115
0.795990 0.660919 0.106018
0.821869 0.658905 0.085175
0.849792 0.656891 0.068848
0.879059 0.655273 0.056427
0.908966 0.654022 0.047729
0.939148 0.653503 0.042480
0.969086 0.653687 0.039581
0.991180 0.654724 0.038422
0.126190 0.570709 0.236389
0.169891 0.576538 0.235748
0.210907 0.582336 0.234802
0.249237 0.587982 0.233612
0.286652 0.593658 0.232117
0.322174 0.599243 0.230927
0.356384 0.604950 0.236145
0.388733 0.610535 0.244385
0.419556 0.616333 0.252991
0.449646 0.622284 0.262024
0.479431 0.628784 0.271240
0.508606 0.635590 0.280396
0.537170 0.642609 0.289337
0.564850 0.649689 0.297699
0.590790 0.656494 0.304871
0.614990 0.663086 0.310272
0.637695 0.669220 0.314178
0.659058 0.674805 0.316895
0.679443 0.679901 0.318878
0.698303 0.684540 0.318420
0.715240 0.688477 0.312042
0.729706 0.690369 0.294922
0.743805 0.690674 0.266357
0.759827 0.690979 0.230682
0.779083 0.691742 0.189056
0.802094 0.692932 0.142822
0.826416 0.692291 0.108368
0.852386 0.690033 0.086060
0.880676 0.687836 0.068146
0.910339 0.685669 0.054260
0.940826 0.684052 0.044434
0.971710 0.682983 0.038208
0.993103 0.682617 0.034302
0.150146 0.596161 0.252289
0.189667 0.601593 0.251953
0.227234 0.606934 0.251526
0.263336 0.612244 0.250671
0.299225 0.617737 0.249329
0.334503 0.623322 0.247833
0.368042 0.628815 0.251434
0.400360 0.634430 0.259033
0.431396 0.640198 0.267395
0.461975 0.646271 0.276215
0.491760 0.652740 0.285461
0.521149 0.659576 0.294830
0.549683 0.666626 0.304108
0.576813 0.673798 0.312073
0.602081 0.681122 0.318085
0.625732 0.688049 0.322510
0.648224 0.694489 0.326202
0.669739 0.700348 0.329010
0.690216 0.705780 0.331177
0.709747 0.710571 0.332733
0.727936 0.715210 0.331299
0.744354 0.718872 0.324127
0.758575 0.720612 0.306488
0.772736 0.720978 0.277161
0.788910 0.721375 0.240723
0.808319 0.722260 0.197571
0.831696 0.723877 0.148315
0.856384 0.723511 0.110413
0.882721 0.721191 0.086731
0.911346 0.718750 0.067505
0.941559 0.716339 0.052368
0.972717 0.714203 0.041504
0.994049 0.712646 0.034332
0.165527 0.619537 0.269806
0.203094 0.625092 0.269165
0.240479 0.630493 0.268127
0.276978 0.635895 0.266632
0.312500 0.641449 0.264893
0.347382 0.647095 0.263428
0.380798 0.652679 0.265594
0.413361 0.658264 0.272919
0.444733 0.664062 0.281097
0.475281 0.670135 0.289886
0.505035 0.676636 0.299347
0.534149 0.683380 0.308777
0.561646 0.690613 0.316864
0.587616 0.698120 0.323364
0.612396 0.705658 0.328949
0.635956 0.712830 0.333435
0.658386 0.719513 0.337189
0.679932 0.725708 0.340240
0.700470 0.731415 0.342407
0.720032 0.736450 0.344116
0.738892 0.741058 0.345276
0.756470 0.745514 0.343079
0.772400 0.749023 0.335205
0.786499 0.750641 0.317078
0.800873 0.751129 0.286957
0.817291 0.751678 0.249329
0.836945 0.752777 0.205231
0.860687 0.754669 0.153168
0.885986 0.754608 0.111938
0.912598 0.752258 0.087280
0.941833 0.749634 0.066772
0.972656 0.746948 0.050629
0.994202 0.744476 0.038635
0.181519 0.642883 0.284973
0.218781 0.648407 0.283752
0.255554 0.653961 0.282349
0.291534 0.659424 0.280670
0.327118 0.665039 0.278595
0.361481 0.670563 0.277069
0.394928 0.676300 0.278656
0.427124 0.681885 0.286194
0.458618 0.687744 0.294434
0.488647 0.693909 0.303009
0.517883 0.700500 0.311646
0.545898 0.707489 0.319916
0.572388 0.714905 0.326935
0.597809 0.722504 0.333221
0.622406 0.730011 0.338837
0.645721 0.737427 0.343506
0.668121 0.744324 0.347260
0.689545 0.750732 0.350311
0.710114 0.756653 0.352631
0.729767 0.761902 0.354462
0.748657 0.766693 0.355865
0.766876 0.771088 0.356628
0.783875 0.775421 0.353851
0.799408 0.778687 0.345215
0.813507 0.780304 0.326691
0.828003 0.780884 0.295959
0.844696 0.781677 0.257446
0.864716 0.782928 0.212067
0.888977 0.785126 0.157562
0.915039 0.785522 0.113190
0.942291 0.783173 0.087677
0.972107 0.780518 0.066284
0.993774 0.777618 0.049011
0.198608 0.666046 0.298157
0.235474 0.671600 0.296631
0.271454 0.677155 0.295013
0.307190 0.682739 0.293060
0.342285 0.688416 0.291016
0.376434 0.694183 0.289368
0.409790 0.699829 0.291718
0.441803 0.705505 0.299255
0.472717 0.711456 0.307129
0.501648 0.717773 0.314362
0.529663 0.724579 0.321838
0.556641 0.731598 0.329193
0.582703 0.739044 0.336060
0.607880 0.746674 0.342316
0.632050 0.754333 0.347900
0.655212 0.761749 0.352631
0.677338 0.768860 0.356537
0.698639 0.775452 0.359528
0.719208 0.781525 0.362091
0.738861 0.787048 0.363983
0.757751 0.792023 0.365326
0.776062 0.796478 0.366394
0.793640 0.800598 0.366913
0.810059 0.804718 0.363434
0.825256 0.807770 0.354248
0.839355 0.809387 0.334991
0.854248 0.810181 0.303711
0.871307 0.811188 0.264496
0.891724 0.812775 0.217804
0.916595 0.815216 0.161285
0.943604 0.815948 0.113586
0.971619 0.813812 0.087799
0.993042 0.811096 0.065735
0.215424 0.689056 0.310211
0.252167 0.694580 0.308441
0.287628 0.700256 0.306793
0.322784 0.706085 0.304535
0.357391 0.711853 0.302124
0.391022 0.717773 0.299927
0.423279 0.723663 0.302795
0.454529 0.729492 0.309265
0.484283 0.735626 0.316132
0.512939 0.742035 0.323395
0.540344 0.748779 0.330658
0.567017 0.755829 0.337860
0.592712 0.763245 0.344727
0.617401 0.770844 0.350769
0.641327 0.778534 0.356323
0.664215 0.786041 0.361084
0.686127 0.793121 0.364929
0.707306 0.799866 0.368011
0.727722 0.806122 0.370483
0.747314 0.811737 0.372528
0.766144 0.816772 0.373840
