lut/retro-80s/Blue Velvet (1986) - Standard.cube
# Created by Benjamin (IWLTBAP): https://luts.iwltbap.com
# Copyright: (C) Copyright 2018 Triune Films and IWLTBAP SAS
# Cannot be resold, shared or otherwise redistributed
TITLE "Triune Films 80s Retro LUTs (Rec.709, sRGB, DCI-P3)"
LUT_3D_SIZE 9
0.002777 0.001221 0.000000
0.066376 0.008392 0.000275
0.145538 0.020599 0.000397
0.227386 0.033722 0.000488
0.313385 0.044281 0.000488
0.406372 0.054321 0.000427
0.503052 0.064728 0.000397
0.604095 0.075623 0.000275
0.701996 0.086578 0.000244
0.006653 0.079712 0.029999
0.085602 0.094147 0.022125
0.194427 0.107483 0.018494
0.289246 0.113068 0.015717
0.382935 0.121307 0.011658
0.479462 0.131165 0.007965
0.577911 0.140930 0.004883
0.675201 0.151489 0.002808
0.768921 0.163025 0.001892
0.000519 0.178619 0.086945
0.077881 0.200073 0.082092
0.220581 0.224518 0.066681
0.352661 0.244110 0.044067
0.461792 0.252075 0.043640
0.564240 0.260559 0.039154
0.662964 0.267639 0.029938
0.755554 0.275726 0.021088
0.843231 0.286682 0.015198
0.000214 0.292084 0.140381
0.083405 0.316833 0.139282
0.262726 0.356171 0.128326
0.405853 0.388062 0.125885
0.507263 0.396240 0.069794
0.619354 0.402161 0.059143
0.725037 0.412445 0.065002
0.820923 0.424225 0.067474
0.909454 0.436707 0.066437
0.001831 0.417572 0.185760
0.143585 0.443878 0.184479
0.326874 0.480560 0.182800
0.476471 0.515778 0.205566
0.570190 0.535645 0.203796
0.645844 0.534302 0.101288
0.752350 0.532349 0.061707
0.862885 0.539886 0.059814
0.963165 0.553101 0.068665
0.085114 0.541077 0.227051
0.266693 0.567413 0.217743
0.406708 0.591736 0.238220
0.525208 0.618439 0.274139
0.626526 0.643738 0.300415
0.700043 0.659912 0.282349
0.771881 0.661835 0.137115
0.879059 0.655273 0.056427
0.991180 0.654724 0.038422
0.181519 0.642883 0.284973
0.327118 0.665039 0.278595
0.458618 0.687744 0.294434
0.572388 0.714905 0.326935
0.668121 0.744324 0.347260
0.748657 0.766693 0.355865
0.813507 0.780304 0.326691
0.888977 0.785126 0.157562
0.993774 0.777618 0.049011
0.248199 0.735870 0.327911
0.383636 0.759827 0.318268
0.506195 0.784088 0.332642
0.611267 0.811401 0.359894
0.702087 0.840881 0.379547
0.780914 0.864838 0.388458
0.850006 0.880981 0.390900
0.910339 0.891693 0.352478
0.989777 0.900909 0.168152
0.302643 0.833496 0.353210
0.427612 0.857086 0.344635
0.543030 0.880493 0.360199
0.641876 0.906067 0.384033
0.727264 0.932983 0.401337
0.802887 0.955627 0.408142
0.870544 0.970490 0.407654
0.932526 0.978943 0.402924
0.988983 0.984070 0.354370
0.014221 0.005463 0.051453
0.075043 0.008789 0.049835
0.153778 0.018066 0.042847
0.237640 0.030487 0.037537
0.322174 0.040924 0.036041
0.414307 0.050812 0.036194
0.509979 0.060883 0.036957
0.610504 0.071747 0.037598
0.709717 0.083282 0.037415
0.019989 0.080566 0.091370
0.083740 0.092194 0.080933
0.191681 0.097412 0.068237
0.294495 0.103271 0.055450
0.388947 0.112579 0.050446
0.484680 0.123718 0.048126
0.581146 0.135132 0.045685
0.678131 0.146362 0.043610
0.771790 0.158813 0.041931
0.004822 0.184326 0.137207
0.063446 0.202118 0.140991
0.207550 0.219238 0.116119
0.355438 0.236420 0.108337
0.464844 0.240692 0.101135
0.565155 0.248688 0.092834
0.661163 0.257874 0.084442
0.753357 0.267578 0.075806
0.841217 0.279114 0.070404
0.000000 0.301025 0.195282
0.059998 0.324188 0.195007
0.232483 0.356476 0.175659
0.395538 0.383881 0.177063
0.507874 0.391022 0.148041
0.620270 0.396484 0.147186
0.722992 0.405029 0.151337
0.816437 0.414795 0.152527
0.903229 0.425415 0.152924
0.000000 0.425354 0.251465
0.103882 0.449860 0.248932
0.282288 0.480286 0.238129
0.447968 0.511566 0.258392
0.561890 0.533264 0.263306
0.642487 0.529388 0.192841
0.752533 0.528931 0.164917
0.861481 0.535828 0.169708
0.958923 0.546448 0.183044
0.021301 0.537567 0.308044
0.175323 0.560455 0.305115
0.341980 0.586151 0.295959
0.493530 0.614288 0.318939
0.614929 0.642517 0.349274
0.697235 0.660522 0.338806
0.767944 0.657837 0.233429
0.880524 0.654175 0.159546
0.991974 0.655151 0.144012
0.103790 0.636017 0.357635
0.251831 0.658356 0.351959
0.405487 0.683289 0.343506
0.542236 0.710541 0.368195
0.654144 0.741638 0.394989
0.744354 0.767578 0.408875
0.813202 0.782074 0.387512
0.886536 0.782562 0.262390
0.995514 0.779388 0.144226
0.181305 0.729034 0.394531
0.317871 0.753601 0.386139
0.459290 0.780029 0.378174
0.583649 0.807037 0.402252
0.687378 0.837006 0.427673
0.774780 0.864105 0.442596
0.848755 0.882324 0.448486
0.910919 0.893250 0.417786
0.989319 0.899963 0.278931
0.241699 0.826416 0.419861
0.369293 0.851257 0.412048
0.501251 0.876892 0.406189
0.616547 0.901825 0.429138
0.712982 0.928375 0.451233
0.795868 0.953522 0.464111
0.867950 0.970856 0.467346
0.932129 0.980194 0.464691
0.989258 0.984589 0.424194
0.026611 0.012299 0.114319
0.081268 0.012756 0.117859
0.156921 0.014099 0.107788
0.244873 0.021240 0.087646
0.327850 0.031921 0.076874
0.417267 0.041229 0.074677
0.510895 0.050934 0.076233
0.610260 0.061798 0.077911
0.709656 0.072723 0.079346
0.019989 0.084137 0.161377
0.082001 0.089386 0.158813
0.183472 0.086090 0.142487
0.299622 0.086426 0.108948
0.394531 0.095978 0.095276
0.487549 0.108917 0.094177
0.580872 0.121979 0.095093
0.676392 0.134766 0.094604
0.769989 0.147400 0.093597
0.025757 0.178864 0.230225
0.081482 0.192719 0.238739
0.180756 0.205872 0.197754
0.347168 0.210114 0.172791
0.463989 0.214630 0.153198
0.562378 0.225800 0.146606
0.655609 0.239258 0.144623
0.746338 0.252838 0.142578
0.834167 0.266754 0.141205
0.052063 0.298645 0.255676
0.048737 0.322937 0.266479
0.154053 0.349274 0.270752
0.367615 0.371216 0.243042
0.507751 0.380432 0.238098
0.620148 0.384399 0.236267
0.718781 0.391968 0.232910
0.809052 0.401978 0.230560
0.894073 0.413452 0.229736
0.000000 0.424835 0.321075
0.037628 0.448456 0.327515
0.191193 0.475189 0.325684
0.399139 0.506134 0.310730
0.549500 0.528076 0.319183
0.640991 0.522980 0.278351
0.752930 0.523773 0.270233
0.858337 0.531281 0.276642
0.952332 0.540985 0.283356
0.000000 0.535614 0.375458
0.098694 0.556885 0.378662
0.262970 0.580933 0.373749
0.441681 0.609619 0.362305
0.593750 0.639191 0.394806
0.692627 0.659454 0.394226
0.767059 0.654114 0.315704
0.881134 0.650269 0.274353
0.990784 0.653137 0.272552
0.048737 0.631561 0.420868
0.182281 0.652222 0.421417
0.334717 0.676941 0.416504
0.492828 0.705292 0.409576
0.628754 0.736816 0.438782
0.735596 0.766724 0.460083
0.812378 0.782928 0.448303
0.886902 0.780975 0.348297
0.995789 0.775696 0.270081
0.130188 0.723267 0.458099
0.252014 0.746704 0.455658
0.394592 0.773834 0.449097
0.538696 0.801788 0.445282
0.661591 0.831116 0.472229
0.763092 0.861237 0.494080
0.845490 0.882965 0.505310
0.911438 0.894409 0.483765
0.990234 0.899963 0.370850
0.192505 0.820007 0.485657
0.308350 0.844330 0.482880
0.443115 0.871094 0.477020
0.576294 0.896851 0.475189
0.688873 0.922333 0.498352
0.783051 0.948975 0.516876
0.862671 0.970001 0.525665
0.930939 0.980774 0.526398
0.989655 0.985016 0.494629
0.035492 0.018646 0.171753
0.084045 0.020477 0.183990
0.147461 0.018799 0.187653
0.236420 0.016571 0.167358
0.331177 0.020142 0.144745
0.422668 0.027649 0.131042
0.509064 0.037231 0.126740
0.603363 0.047363 0.128204
0.700287 0.058350 0.130768
0.035004 0.087830 0.219360
0.087677 0.091095 0.234039
0.168518 0.085632 0.235382
0.287903 0.077423 0.208435
0.399841 0.081116 0.176331
0.493866 0.092194 0.160339
0.579803 0.105133 0.155487
0.669586 0.119354 0.156464
0.761169 0.132843 0.158447
0.009521 0.180389 0.298676
0.051453 0.192139 0.317413
0.154480 0.195526 0.300964
0.324646 0.184753 0.260651
0.465179 0.186127 0.219452
0.562958 0.199341 0.202393
0.650726 0.216736 0.202484
0.737762 0.235291 0.207520
0.823822 0.253174 0.212799
0.052979 0.290039 0.368805
0.099304 0.309296 0.388367
0.166443 0.328064 0.395691
0.317230 0.347961 0.332581
0.505981 0.353851 0.311371
0.619415 0.357666 0.293427
0.711456 0.368805 0.289185
0.797211 0.383606 0.291107
0.880066 0.398834 0.294189
0.103180 0.415985 0.382446
0.119995 0.442169 0.389282
0.139099 0.468597 0.401886
0.316742 0.495544 0.401276
0.523834 0.517273 0.384064
0.641205 0.515564 0.373444
0.751801 0.517548 0.371704
0.850281 0.524048 0.370667
0.939056 0.532593 0.370209
0.033722 0.532562 0.431274
0.084778 0.553223 0.443207
0.196106 0.574982 0.447174
0.359955 0.601929 0.441528
0.551941 0.633057 0.443451
0.683014 0.655273 0.451782
0.767151 0.649170 0.403809
0.882111 0.647186 0.387390
0.988464 0.651947 0.392151
0.058167 0.627777 0.480469
0.148621 0.646637 0.487396
0.267090 0.669647 0.488831
0.416992 0.697693 0.480316
0.583221 0.730103 0.481018
0.718109 0.762878 0.509491
0.809845 0.782227 0.507568
0.888458 0.778076 0.433044
0.997284 0.772614 0.385040
0.119263 0.718811 0.519714
0.212036 0.740631 0.522949
0.331146 0.766632 0.521820
0.472321 0.794739 0.513672
0.617371 0.824158 0.513458
0.741028 0.855530 0.540497
0.838287 0.881836 0.558380
0.911346 0.894775 0.546356
0.991852 0.899353 0.456909
0.173859 0.815491 0.550293
0.268036 0.838257 0.552216
0.385742 0.864319 0.550507
0.518829 0.890656 0.543518
0.648590 0.915863 0.542725
0.759766 0.942047 0.563446
0.852112 0.967133 0.578918
0.928040 0.981110 0.584167
0.990265 0.985626 0.561157
0.041107 0.022339 0.219238
0.086639 0.025055 0.236389
0.141785 0.025421 0.252167
0.221588 0.021027 0.247131
0.321899 0.017365 0.230469
0.421661 0.018005 0.212280
0.514618 0.022919 0.200653
0.605591 0.030426 0.195984
0.691833 0.039825 0.195343
0.048035 0.091248 0.277924
0.096924 0.094849 0.296173
0.161896 0.092285 0.307465
0.262665 0.083649 0.299622
0.384827 0.077881 0.274902
0.492401 0.079773 0.249054
0.583923 0.089294 0.235107
0.669250 0.101044 0.229797
0.751556 0.112793 0.229248
0.001648 0.185547 0.353760
0.056061 0.196625 0.372986
0.160431 0.198364 0.368805
0.287109 0.185242 0.360474
0.440979 0.176361 0.328430
0.561188 0.183228 0.295135
0.653046 0.199280 0.280792
0.733948 0.217316 0.278168
0.813141 0.236389 0.280884
0.019928 0.289368 0.437714
0.061676 0.307648 0.465118
0.127563 0.321259 0.483765
0.266510 0.324829 0.445404
0.472015 0.322144 0.391602
0.616333 0.327393 0.353394
0.709229 0.341370 0.337067
0.787750 0.361176 0.337799
0.864929 0.382050 0.345001
0.094574 0.404327 0.497284
0.145172 0.426788 0.517883
0.205963 0.446167 0.529572
0.306885 0.465668 0.517059
0.472748 0.496552 0.467773
0.639893 0.502411 0.457031
0.745422 0.501373 0.437531
0.834106 0.507111 0.428650
0.916199 0.517273 0.427124
0.154205 0.518250 0.509277
0.194824 0.539764 0.507843
0.229370 0.563019 0.509064
0.297394 0.589569 0.521454
0.482056 0.620819 0.523529
0.659088 0.645935 0.522247
0.766541 0.644470 0.505554
0.877197 0.644989 0.501465
0.976379 0.648193 0.499542
0.158264 0.618408 0.533569
0.188019 0.638763 0.540771
0.240204 0.661560 0.553467
0.347046 0.687866 0.557159
0.515137 0.721375 0.556061
0.685547 0.755829 0.569397
0.801544 0.777985 0.576996
0.889313 0.774567 0.529633
0.996887 0.771820 0.508087
0.161896 0.712891 0.571716
0.210449 0.734802 0.582794
0.295197 0.759186 0.589996
0.405762 0.785889 0.588226
0.553711 0.816162 0.582306
0.706757 0.848480 0.595367
0.825470 0.877594 0.619720
0.909607 0.893280 0.615753
0.993347 0.897919 0.550873
0.185699 0.811279 0.608612
0.256989 0.833008 0.616608
0.349609 0.857666 0.620605
0.460388 0.883179 0.616791
0.590759 0.908844 0.607239
0.726074 0.935059 0.615479
0.836304 0.961395 0.637604
0.922943 0.980499 0.647583
0.990601 0.985901 0.632080
0.046539 0.025513 0.265106
0.090851 0.029846 0.286316
0.141815 0.031708 0.309540
0.212433 0.027374 0.316742
0.307617 0.021881 0.309540
0.413147 0.017365 0.294922
0.514771 0.015472 0.280548
0.609955 0.016846 0.271271
0.695435 0.021515 0.267761
0.061066 0.094696 0.335999
0.106598 0.099823 0.355225
0.163208 0.099670 0.370483
0.245697 0.092377 0.373016
0.360626 0.084320 0.361023
0.478607 0.079041 0.338837
0.580109 0.080536 0.319122
0.669586 0.086212 0.307831
0.751343 0.095154 0.303955
0.051178 0.188080 0.398468
0.100525 0.200165 0.419708
0.167633 0.204620 0.429565
0.266266 0.194000 0.433746
0.400665 0.183502 0.420746
0.536713 0.180603 0.393402
0.643311 0.189117 0.370392
0.730896 0.204620 0.359619
0.809998 0.222565 0.357330
0.000000 0.292816 0.496490
0.033569 0.311462 0.524750
0.108765 0.324249 0.540527
0.253326 0.322418 0.512878
0.417267 0.314880 0.485291
0.583740 0.316162 0.454620
0.700653 0.328003 0.425659
0.786682 0.346954 0.413055
0.860535 0.367859 0.410522
0.067291 0.401215 0.565338
0.118378 0.422943 0.592285
0.178894 0.438568 0.612030
0.263031 0.448853 0.618774
0.412964 0.463379 0.575134
0.602356 0.476837 0.523499
0.735199 0.480469 0.488556
0.825287 0.486542 0.466858
0.900116 0.497772 0.460602
0.134369 0.508514 0.619720
0.188019 0.525940 0.635590
0.250305 0.542328 0.645386
0.325745 0.559814 0.648956
0.450104 0.589233 0.622864
0.615662 0.628113 0.599396
0.759369 0.638367 0.599884
0.857910 0.635193 0.582092
0.945099 0.634857 0.569244
0.192810 0.602936 0.654602
0.250092 0.619781 0.650696
0.307983 0.642120 0.632874
0.359772 0.670258 0.621887
0.457825 0.706940 0.638245
0.636597 0.743683 0.645050
0.781830 0.768646 0.654541
0.887543 0.770996 0.636688
0.991058 0.771423 0.632294
0.234924 0.698456 0.653015
0.279205 0.721100 0.646301
0.323578 0.747375 0.647217
0.376129 0.775757 0.655701
0.498962 0.806641 0.665955
0.663361 0.840820 0.672882
0.803101 0.869843 0.690918
0.902588 0.888092 0.697144
0.993988 0.895691 0.655792
0.250397 0.800446 0.670654
0.295074 0.823914 0.673279
0.345306 0.850281 0.681549
0.425476 0.875153 0.687592
0.540894 0.901855 0.688171
0.688782 0.930054 0.692841
0.816040 0.954773 0.709137
0.914886 0.975861 0.725433
0.990173 0.985229 0.720367
0.052032 0.029816 0.312683
0.095520 0.033813 0.335754
0.144775 0.037720 0.363861
0.208008 0.034271 0.379120
0.296082 0.028198 0.378906
0.402679 0.021545 0.371429
0.512207 0.014923 0.360046
0.611420 0.010406 0.347931
0.697632 0.010956 0.340027
0.072083 0.099457 0.393158
0.115875 0.105194 0.412659
0.167419 0.106842 0.429718
0.238098 0.100952 0.436890
0.340302 0.093109 0.433319
0.460449 0.085327 0.419891
0.571503 0.079834 0.401764
0.665771 0.079193 0.386383
0.748627 0.083832 0.377625
0.069489 0.193268 0.450592
0.114838 0.206360 0.471985
0.176300 0.210999 0.488190
0.258423 0.202850 0.496338
0.370941 0.193268 0.493225
0.505096 0.187500 0.476990
0.623291 0.188599 0.456085
0.719696 0.197571 0.440674
0.803101 0.212189 0.432800
0.000000 0.299103 0.550537
0.029907 0.318207 0.577850
0.106201 0.329926 0.592651
0.257935 0.326141 0.570007
0.382782 0.318604 0.558258
0.538147 0.316956 0.542694
0.672791 0.324493 0.516968
0.773712 0.340057 0.496552
0.855774 0.359741 0.485748
0.038086 0.402283 0.626282
0.096832 0.423798 0.653931
0.164764 0.438019 0.672852
0.244385 0.445343 0.679199
0.363525 0.451782 0.651123
0.550446 0.459564 0.607605
0.707672 0.467468 0.578705
0.817291 0.476105 0.548889
0.899658 0.487427 0.531219
0.113708 0.504883 0.684692
0.168823 0.521301 0.703491
0.229004 0.535217 0.718658
0.295105 0.547089 0.731201
0.397034 0.562256 0.729767
0.559723 0.593262 0.686951
0.722870 0.613068 0.656860
0.839630 0.617401 0.633850
0.925354 0.619110 0.614410
0.172729 0.596863 0.730225
0.226685 0.610901 0.742157
0.287750 0.628052 0.750946
0.356689 0.647369 0.756927
0.457703 0.674713 0.756073
0.600311 0.717957 0.728210
0.751495 0.753510 0.729828
0.871613 0.765717 0.736084
0.962555 0.764282 0.726624
0.221375 0.688538 0.763458
0.278198 0.707092 0.768127
0.344818 0.728760 0.768127
0.417389 0.753784 0.749359
0.497467 0.787750 0.734009
0.621338 0.827972 0.755249
0.773102 0.859283 0.763367
0.888672 0.879364 0.776031
0.992889 0.892456 0.764160
0.262878 0.787842 0.784576
0.323792 0.809357 0.775970
0.387299 0.834991 0.759430
0.443298 0.862183 0.750580
0.515656 0.892212 0.760071
0.655151 0.923615 0.776764
0.792389 0.949280 0.786133
0.901794 0.969666 0.801453
0.989044 0.984070 0.808441
0.057190 0.033142 0.359375
0.100281 0.037994 0.383789
0.148560 0.042999 0.416626
0.207428 0.040619 0.436127
0.288513 0.034729 0.442993
0.392975 0.028107 0.442902
0.505981 0.019928 0.435913
0.609833 0.012207 0.423828
0.698700 0.008118 0.412628
0.082550 0.103394 0.449585
0.124664 0.110199 0.468903
0.172882 0.113525 0.486237
0.235779 0.108459 0.495880
0.326477 0.101196 0.498596
0.443085 0.092896 0.492767
0.559967 0.084137 0.478485
0.660126 0.078735 0.462280
0.744965 0.079132 0.450104
0.085846 0.197906 0.506653
0.128662 0.211517 0.527740
0.184784 0.217407 0.545685
0.256470 0.211243 0.555450
0.352844 0.202515 0.557709
0.477966 0.196411 0.549225
0.601807 0.193329 0.532623
0.705688 0.196655 0.516693
0.793793 0.207092 0.505676
0.000000 0.305359 0.604736
0.029907 0.324738 0.631958
0.121490 0.336060 0.643921
0.260803 0.332214 0.625824
0.365692 0.325287 0.621124
0.502716 0.322418 0.615143
0.640503 0.327820 0.597504
0.753021 0.339539 0.577789
0.844269 0.355774 0.562714
0.005432 0.406433 0.683441
0.077759 0.427643 0.710419
0.155579 0.441345 0.726746
0.233765 0.448242 0.729584
0.350464 0.449402 0.708191
0.508270 0.451752 0.677826
0.667572 0.459595 0.661835
0.794342 0.469604 0.635559
0.889893 0.481232 0.612885
0.097168 0.504425 0.741486
0.155609 0.520477 0.760956
0.216125 0.533081 0.776794
0.280365 0.542694 0.789459
0.363800 0.550995 0.791443
0.502502 0.571045 0.759338
0.681305 0.591522 0.728607
0.820038 0.603210 0.711975
0.920624 0.609955 0.691833
0.157196 0.593109 0.788879
0.210510 0.606323 0.803101
0.269684 0.621826 0.815674
0.334869 0.637634 0.827515
0.419830 0.656281 0.836334
0.556793 0.687592 0.829865
0.709290 0.724884 0.802429
0.841156 0.743835 0.792969
0.940338 0.750153 0.783203
0.206421 0.683990 0.827454
0.261047 0.700836 0.836914
0.325226 0.720367 0.845032
0.394592 0.740387 0.851746
0.480499 0.764557 0.856079
0.609497 0.800262 0.853821
0.742065 0.841339 0.840240
0.869263 0.868073 0.849060
0.976044 0.882507 0.858612
0.249054 0.782440 0.856537
0.308319 0.801422 0.861847
0.377167 0.823181 0.864868
0.449493 0.845215 0.864227
0.533569 0.871307 0.852112
0.642181 0.908081 0.844452
0.765015 0.940369 0.864410
0.884552 0.963318 0.874542
0.986816 0.982483 0.888214
0.061859 0.036194 0.404816
0.104919 0.042236 0.432465
0.152924 0.048065 0.466919
0.209015 0.046539 0.490662
0.283661 0.041077 0.505157
0.383392 0.035095 0.510223
0.497498 0.026367 0.506775
0.605682 0.016693 0.495972
0.697632 0.010590 0.483398
0.092255 0.107635 0.506012
0.133392 0.114868 0.525330
0.179016 0.119080 0.543427
0.235870 0.115265 0.555084
0.317017 0.108246 0.561676
0.427429 0.099823 0.560760
0.547119 0.090424 0.549927
0.653015 0.082550 0.534210
0.741486 0.079254 0.519836
0.101379 0.201813 0.565308
0.142487 0.215393 0.586456
0.193359 0.222748 0.604706
0.257355 0.218384 0.614502
0.342133 0.210632 0.619354
0.456879 0.204163 0.616119
0.581329 0.200165 0.603485
0.691101 0.200409 0.588104
0.784088 0.207367 0.575653
0.055511 0.309174 0.647675
0.085724 0.328735 0.676361
0.177612 0.339600 0.686218
0.264069 0.338776 0.680115
0.356964 0.332275 0.679443
0.478607 0.329102 0.679138
0.611755 0.333588 0.668579
0.730988 0.342865 0.652496
0.829926 0.355530 0.637085
0.000000 0.412628 0.737213
0.055359 0.433258 0.763275
0.143890 0.446625 0.777313
0.227722 0.452667 0.779083
0.356903 0.450195 0.756165
0.481567 0.450714 0.738647
0.630035 0.456390 0.732574
0.765137 0.466400 0.714020
0.872772 0.477203 0.693695
0.083221 0.506287 0.795013
0.145538 0.522156 0.814331
0.207642 0.533997 0.829590
0.272125 0.542755 0.840790
0.343445 0.548615 0.841736
0.466827 0.558075 0.819946
0.639832 0.574615 0.794037
0.790710 0.589478 0.786224
0.906677 0.600098 0.768921
0.144623 0.591644 0.841644
0.198944 0.604858 0.856812
0.257904 0.619232 0.870728
0.322632 0.633148 0.884186
0.397125 0.646454 0.895660
0.513947 0.668243 0.894592
0.663574 0.701202 0.870514
0.813110 0.725067 0.858521
0.930298 0.739258 0.852295
0.194183 0.681183 0.882263
0.248505 0.697113 0.893982
0.311127 0.714935 0.905304
0.378784 0.732697 0.916321
0.454895 0.751221 0.926819
0.570984 0.779663 0.931854
0.712372 0.815613 0.927948
0.841888 0.848602 0.916687
0.955414 0.868866 0.918243
0.238617 0.779022 0.915405
0.295563 0.796204 0.924042
0.362244 0.816162 0.931732
0.432709 0.835938 0.938324
0.509033 0.856598 0.944092
0.620239 0.886566 0.948303
0.749725 0.920319 0.950134
0.865936 0.953491 0.946960
0.981201 0.979584 0.959900
