lut/retro-80s/Blue Velvet (1986) - Standard.cube
# Created by Benjamin (IWLTBAP): https://luts.iwltbap.com
# Copyright: (C) Copyright 2018 Triune Films and IWLTBAP SAS
# Cannot be resold, shared or otherwise redistributed
TITLE "Triune Films 80s Retro LUTs (Rec.709, sRGB, DCI-P3)"
LUT_3D_SIZE 5
0.002777 0.001221 0.000000
0.145538 0.020599 0.000397
0.313385 0.044281 0.000488
0.503052 0.064728 0.000397
0.701996 0.086578 0.000244
0.000519 0.178619 0.086945
0.220581 0.224518 0.066681
0.461792 0.252075 0.043640
0.662964 0.267639 0.029938
0.843231 0.286682 0.015198
0.001831 0.417572 0.185760
0.326874 0.480560 0.182800
0.570190 0.535645 0.203796
0.752350 0.532349 0.061707
0.963165 0.553101 0.068665
0.181519 0.642883 0.284973
0.458618 0.687744 0.294434
0.668121 0.744324 0.347260
0.813507 0.780304 0.326691
0.993774 0.777618 0.049011
0.302643 0.833496 0.353210
0.543030 0.880493 0.360199
0.727264 0.932983 0.401337
0.870544 0.970490 0.407654
0.988983 0.984070 0.354370
0.026611 0.012299 0.114319
0.156921 0.014099 0.107788
0.327850 0.031921 0.076874
0.510895 0.050934 0.076233
0.709656 0.072723 0.079346
0.025757 0.178864 0.230225
0.180756 0.205872 0.197754
0.463989 0.214630 0.153198
0.655609 0.239258 0.144623
0.834167 0.266754 0.141205
0.000000 0.424835 0.321075
0.191193 0.475189 0.325684
0.549500 0.528076 0.319183
0.752930 0.523773 0.270233
0.952332 0.540985 0.283356
0.048737 0.631561 0.420868
0.334717 0.676941 0.416504
0.628754 0.736816 0.438782
0.812378 0.782928 0.448303
0.995789 0.775696 0.270081
0.192505 0.820007 0.485657
0.443115 0.871094 0.477020
0.688873 0.922333 0.498352
0.862671 0.970001 0.525665
0.989655 0.985016 0.494629
0.041107 0.022339 0.219238
0.141785 0.025421 0.252167
0.321899 0.017365 0.230469
0.514618 0.022919 0.200653
0.691833 0.039825 0.195343
0.001648 0.185547 0.353760
0.160431 0.198364 0.368805
0.440979 0.176361 0.328430
0.653046 0.199280 0.280792
0.813141 0.236389 0.280884
0.094574 0.404327 0.497284
0.205963 0.446167 0.529572
0.472748 0.496552 0.467773
0.745422 0.501373 0.437531
0.916199 0.517273 0.427124
0.158264 0.618408 0.533569
0.240204 0.661560 0.553467
0.515137 0.721375 0.556061
0.801544 0.777985 0.576996
0.996887 0.771820 0.508087
0.185699 0.811279 0.608612
0.349609 0.857666 0.620605
0.590759 0.908844 0.607239
0.836304 0.961395 0.637604
0.990601 0.985901 0.632080
0.052032 0.029816 0.312683
0.144775 0.037720 0.363861
0.296082 0.028198 0.378906
0.512207 0.014923 0.360046
0.697632 0.010956 0.340027
0.069489 0.193268 0.450592
0.176300 0.210999 0.488190
0.370941 0.193268 0.493225
0.623291 0.188599 0.456085
0.803101 0.212189 0.432800
0.038086 0.402283 0.626282
0.164764 0.438019 0.672852
0.363525 0.451782 0.651123
0.707672 0.467468 0.578705
0.899658 0.487427 0.531219
0.172729 0.596863 0.730225
0.287750 0.628052 0.750946
0.457703 0.674713 0.756073
0.751495 0.753510 0.729828
0.962555 0.764282 0.726624
0.262878 0.787842 0.784576
0.387299 0.834991 0.759430
0.515656 0.892212 0.760071
0.792389 0.949280 0.786133
0.989044 0.984070 0.808441
0.061859 0.036194 0.404816
0.152924 0.048065 0.466919
0.283661 0.041077 0.505157
0.497498 0.026367 0.506775
0.697632 0.010590 0.483398
0.101379 0.201813 0.565308
0.193359 0.222748 0.604706
0.342133 0.210632 0.619354
0.581329 0.200165 0.603485
0.784088 0.207367 0.575653
0.000000 0.412628 0.737213
0.143890 0.446625 0.777313
0.356903 0.450195 0.756165
0.630035 0.456390 0.732574
0.872772 0.477203 0.693695
0.144623 0.591644 0.841644
0.257904 0.619232 0.870728
0.397125 0.646454 0.895660
0.663574 0.701202 0.870514
0.930298 0.739258 0.852295
0.238617 0.779022 0.915405
0.362244 0.816162 0.931732
0.509033 0.856598 0.944092
0.749725 0.920319 0.950134
0.981201 0.979584 0.959900
