lut/retro-80s/Die Hard (1988) - Standard.cube
# Created by Benjamin (IWLTBAP): https://luts.iwltbap.com
# Copyright: (C) Copyright 2018 Triune Films and IWLTBAP SAS
# Cannot be resold, shared or otherwise redistributed
TITLE "Triune Films 80s Retro LUTs (Rec.709, sRGB, DCI-P3)"
LUT_3D_SIZE 33
0.000000 0.000000 0.000000
0.004761 0.000000 0.000824
0.012512 0.000336 0.001160
0.019958 0.000793 0.001648
0.028748 0.000793 0.001648
0.038330 0.001678 0.001709
0.048187 0.002411 0.002441
0.060974 0.002808 0.003296
0.074036 0.003815 0.004059
0.088867 0.004761 0.005615
0.104431 0.005920 0.006622
0.121155 0.007843 0.008270
0.137848 0.009796 0.010742
0.154663 0.012421 0.013397
0.172974 0.014496 0.015503
0.190460 0.016724 0.017944
0.208832 0.019623 0.021484
0.228027 0.022583 0.023865
0.247559 0.025482 0.026611
0.266937 0.028564 0.029572
0.287415 0.032440 0.032806
0.308167 0.035858 0.036316
0.329468 0.039459 0.039246
0.351257 0.044037 0.043060
0.372955 0.047821 0.046570
0.395538 0.051758 0.049530
0.418823 0.056305 0.052948
0.442810 0.060516 0.056213
0.467682 0.065399 0.058746
0.493011 0.069702 0.061554
0.519012 0.074249 0.064453
0.545868 0.078583 0.067108
0.572388 0.082764 0.069794
0.000000 0.008972 0.003754
0.009430 0.012329 0.002594
0.017303 0.010620 0.002777
0.026154 0.010712 0.002777
0.035950 0.010437 0.002777
0.047638 0.011108 0.003510
0.061707 0.011169 0.003845
0.075012 0.012146 0.004822
0.090546 0.012512 0.005829
0.106842 0.014069 0.007782
0.123383 0.016022 0.009125
0.141388 0.018127 0.011414
0.158875 0.020264 0.013855
0.176880 0.022736 0.016541
0.195404 0.025085 0.019562
0.213715 0.028778 0.022461
0.232574 0.031860 0.025391
0.251526 0.035339 0.028107
0.271057 0.038605 0.031494
0.290771 0.042389 0.034668
0.310974 0.046265 0.038422
0.331757 0.050049 0.041840
0.352356 0.053925 0.045013
0.373566 0.058044 0.048340
0.395569 0.062531 0.051086
0.418121 0.066711 0.054443
0.441437 0.071198 0.057373
0.465576 0.075684 0.060120
0.490326 0.080170 0.062561
0.515747 0.084778 0.065796
0.541473 0.088989 0.067932
0.568390 0.093231 0.070312
0.595276 0.096191 0.072235
0.000336 0.018738 0.007446
0.007294 0.020752 0.002960
0.018250 0.023071 0.003601
0.031036 0.023773 0.004395
0.044861 0.024841 0.004395
0.058929 0.025177 0.004761
0.074829 0.025177 0.005463
0.091766 0.025269 0.007172
0.108765 0.025970 0.008148
0.126434 0.027191 0.010345
0.144196 0.029144 0.012512
0.163086 0.031097 0.015015
0.181549 0.033966 0.017822
0.199921 0.036560 0.020874
0.218903 0.039337 0.023804
0.238037 0.043243 0.027252
0.256744 0.046417 0.030151
0.276001 0.050232 0.033722
0.295441 0.053589 0.036530
0.314911 0.057373 0.040222
0.335083 0.061310 0.043396
0.355530 0.065552 0.047089
0.375641 0.069733 0.050049
0.396729 0.073639 0.052643
0.418945 0.078247 0.055756
0.441223 0.082214 0.058136
0.464508 0.086945 0.061218
0.488342 0.091400 0.063629
0.513031 0.095825 0.066406
0.538483 0.100281 0.068481
0.564240 0.104034 0.070831
0.590912 0.107697 0.072632
0.617371 0.110565 0.073761
0.000275 0.030060 0.010803
0.004883 0.032135 0.004822
0.015961 0.034363 0.004395
0.029022 0.035400 0.005096
0.048401 0.039551 0.005402
0.069458 0.042755 0.006287
0.090576 0.044159 0.006989
0.110077 0.044403 0.008423
0.129333 0.044495 0.010559
0.148193 0.045380 0.012878
0.167114 0.046234 0.015198
0.186676 0.048218 0.018524
0.206268 0.050476 0.021484
0.225006 0.053040 0.025116
0.244415 0.055969 0.028259
0.263519 0.059784 0.031952
0.282379 0.063202 0.035187
0.301392 0.066528 0.037933
0.320953 0.069855 0.041412
0.340271 0.074036 0.044647
0.359802 0.077759 0.047729
0.379913 0.081726 0.051025
0.400299 0.086121 0.053833
0.421204 0.090179 0.056274
0.443237 0.094391 0.059021
0.465576 0.098663 0.061554
0.488403 0.102997 0.063782
0.512238 0.107574 0.066528
0.536774 0.111908 0.069122
0.561554 0.115692 0.070648
0.587433 0.119232 0.072510
0.614044 0.122437 0.074036
0.640259 0.125061 0.075348
0.000000 0.043304 0.014893
0.002289 0.045746 0.009674
0.014557 0.047699 0.004761
0.025818 0.049866 0.006073
0.043121 0.051422 0.007080
0.071411 0.059784 0.007904
0.100372 0.066101 0.008514
0.127289 0.068634 0.009949
0.150909 0.069000 0.012268
0.172119 0.069061 0.015106
0.192871 0.069550 0.017975
0.213043 0.070160 0.021393
0.232910 0.071564 0.025238
0.252716 0.073364 0.029083
0.272064 0.076294 0.032166
0.291077 0.078949 0.035461
0.310242 0.082153 0.039032
0.329132 0.085236 0.042511
0.347748 0.088440 0.045410
0.367065 0.092163 0.048279
0.386536 0.095764 0.051483
0.406342 0.099762 0.053986
0.426788 0.103394 0.056519
0.447784 0.107544 0.058899
0.469299 0.111664 0.061676
0.491364 0.115753 0.063965
0.514191 0.120026 0.066559
0.537415 0.124237 0.068787
0.561401 0.128235 0.070435
0.586365 0.131927 0.072021
0.611908 0.134918 0.073364
0.638245 0.137787 0.074890
0.664520 0.139862 0.075714
0.000000 0.059113 0.019104
0.000183 0.063080 0.015747
0.007935 0.065460 0.005249
0.024078 0.065552 0.005829
0.036652 0.067139 0.007843
0.059265 0.069611 0.010040
0.097687 0.083771 0.010437
0.134491 0.093323 0.012421
0.167114 0.098114 0.014404
0.194489 0.099457 0.017090
0.218994 0.099487 0.020142
0.240845 0.098724 0.023834
0.261414 0.098907 0.027313
0.281952 0.099640 0.031250
0.301270 0.100952 0.035156
0.320557 0.102814 0.039093
0.339508 0.104858 0.042664
0.358124 0.107178 0.045502
0.376648 0.109833 0.048828
0.395630 0.112915 0.051453
0.415161 0.116058 0.053955
0.434937 0.119476 0.056458
0.455353 0.123108 0.058807
0.476288 0.126740 0.061096
0.497314 0.130676 0.063416
0.519287 0.134705 0.066040
0.541718 0.138580 0.068085
0.564850 0.142303 0.069672
0.588593 0.145477 0.071075
0.613281 0.148865 0.072876
0.638641 0.151764 0.074127
0.664734 0.154022 0.075073
0.690308 0.155487 0.075653
0.000000 0.078003 0.025787
0.000000 0.082825 0.024780
0.000214 0.087708 0.019104
0.009613 0.090118 0.005371
0.031433 0.089630 0.006836
0.049927 0.089783 0.009857
0.080475 0.093475 0.014496
0.127167 0.110382 0.015656
0.170288 0.123535 0.017639
0.207306 0.130157 0.019348
0.238770 0.132965 0.021912
0.265137 0.133148 0.024811
0.288239 0.132019 0.028778
0.309814 0.131317 0.032715
0.329926 0.131104 0.036499
0.349701 0.131226 0.039856
0.369110 0.132172 0.043457
0.387939 0.133362 0.046844
0.406891 0.135193 0.049500
0.426178 0.137268 0.052185
0.445679 0.139709 0.054779
0.465424 0.142426 0.057373
0.485657 0.145538 0.060150
0.506226 0.148682 0.062408
0.527405 0.152100 0.064453
0.548981 0.155396 0.066406
0.571259 0.158600 0.068268
0.594208 0.161987 0.069672
0.617981 0.164948 0.071381
0.642273 0.167572 0.072723
0.666992 0.169922 0.073730
0.692719 0.171722 0.074463
0.717987 0.172699 0.074707
0.000000 0.099670 0.035553
0.000000 0.105743 0.035156
0.000000 0.111145 0.034760
0.000183 0.115814 0.029114
0.009552 0.118408 0.011627
0.041351 0.116211 0.008514
0.068054 0.114777 0.014313
0.105774 0.119965 0.020874
0.158447 0.139252 0.022034
0.207214 0.154999 0.023651
0.247528 0.163574 0.024567
0.281189 0.167603 0.026276
0.309418 0.168121 0.028320
0.333832 0.167114 0.031891
0.356323 0.165894 0.035400
0.377594 0.164612 0.039337
0.398163 0.164154 0.042847
0.418121 0.164124 0.045837
0.437469 0.164734 0.049133
0.457306 0.165771 0.051788
0.476959 0.167114 0.054871
0.496765 0.168854 0.057281
0.516907 0.171173 0.059814
0.537506 0.173615 0.062164
0.558502 0.176056 0.064056
0.580353 0.178711 0.065948
0.602356 0.181366 0.067474
0.625183 0.184204 0.069366
0.648529 0.186493 0.070404
0.672424 0.188568 0.071564
0.696869 0.190247 0.072510
0.721863 0.191467 0.072723
0.746521 0.192017 0.072449
0.000000 0.123047 0.047150
0.000000 0.130768 0.048218
0.000000 0.137390 0.048523
0.000000 0.142853 0.048737
0.000000 0.146820 0.044373
0.011505 0.148865 0.020264
0.056580 0.145203 0.012604
0.090088 0.142059 0.021515
0.134186 0.148346 0.029602
0.192841 0.169891 0.030762
0.244110 0.187103 0.030060
0.286346 0.197235 0.029816
0.321899 0.202484 0.029694
0.351990 0.203949 0.031219
0.378052 0.203430 0.033203
0.402191 0.201843 0.036377
0.424835 0.200439 0.039948
0.446320 0.199310 0.043610
0.466888 0.198486 0.046570
0.487457 0.198456 0.049347
0.507782 0.198700 0.052521
0.527954 0.199402 0.054993
0.548615 0.200470 0.057434
0.569397 0.202118 0.059753
0.590546 0.203857 0.061829
0.612305 0.205658 0.064056
0.634277 0.207550 0.065826
0.656860 0.209442 0.067322
0.679810 0.211029 0.068481
0.703400 0.212311 0.068970
0.727142 0.213196 0.069672
0.751495 0.213837 0.069916
0.775238 0.214050 0.069763
0.000000 0.148895 0.059967
0.000000 0.157166 0.062073
0.000000 0.165161 0.063507
0.000000 0.171753 0.064575
0.000000 0.176666 0.064240
0.000000 0.180298 0.058655
0.019257 0.180634 0.025085
0.078308 0.175110 0.019409
0.116486 0.171143 0.031464
0.166382 0.177612 0.041046
0.227997 0.200806 0.039154
0.280579 0.219482 0.036896
0.324188 0.231171 0.034027
0.360870 0.237671 0.032440
0.392822 0.240387 0.032471
0.421051 0.240601 0.033752
0.446777 0.239532 0.036163
0.470795 0.238007 0.039124
0.493652 0.236389 0.042114
0.515625 0.235199 0.044922
0.537262 0.234406 0.047974
0.558563 0.234100 0.051025
0.579742 0.234314 0.053528
0.601074 0.234772 0.056641
0.622528 0.235474 0.058838
0.644257 0.236389 0.060638
0.666138 0.237335 0.062469
0.688568 0.238159 0.063416
0.711151 0.238770 0.064758
0.734009 0.239075 0.065460
0.757233 0.239441 0.065826
0.781006 0.239594 0.065857
0.804352 0.239471 0.065857
0.000000 0.175232 0.073456
0.000000 0.184601 0.076172
0.000000 0.193146 0.078644
0.000000 0.200958 0.080353
0.000000 0.207031 0.081177
0.000000 0.211273 0.079987
0.000000 0.213470 0.069794
0.030487 0.212738 0.024139
0.109161 0.205078 0.029114
0.146759 0.200287 0.045258
0.201660 0.207092 0.052551
0.263611 0.231659 0.048828
0.316772 0.251923 0.043732
0.360931 0.265015 0.038635
0.398621 0.272797 0.034760
0.432190 0.276917 0.032562
0.462250 0.278168 0.032684
0.489899 0.278046 0.034393
0.515717 0.277039 0.036591
0.540283 0.275604 0.039215
0.563660 0.274323 0.042267
0.586243 0.273132 0.045563
0.608398 0.272278 0.048126
0.630371 0.271637 0.050720
0.652466 0.271210 0.053162
0.674408 0.270996 0.055450
0.696350 0.270813 0.057037
0.718506 0.270630 0.058563
0.740967 0.270416 0.059509
0.763641 0.270172 0.060181
0.786682 0.269897 0.060974
0.810120 0.269562 0.061096
0.833221 0.269287 0.060577
0.000000 0.201996 0.086853
0.000000 0.211945 0.090088
0.000000 0.221375 0.093018
0.000000 0.230042 0.095612
0.000000 0.237335 0.096771
0.000000 0.242523 0.096100
0.000000 0.245667 0.092529
0.000702 0.247345 0.075958
0.062744 0.243774 0.021820
0.139984 0.235077 0.042755
0.181885 0.228882 0.059479
0.238892 0.237091 0.062927
0.299957 0.262573 0.057281
0.352875 0.284332 0.049347
0.397156 0.298828 0.042084
0.436096 0.308350 0.037170
0.470734 0.313660 0.033813
0.502411 0.316254 0.032440
0.531677 0.316895 0.032928
0.559174 0.316498 0.034149
0.585175 0.315430 0.035919
0.609558 0.313934 0.038544
0.633179 0.312469 0.041138
0.656097 0.311127 0.043823
0.679047 0.309784 0.046356
0.701599 0.308624 0.048279
0.723907 0.307709 0.050385
0.746399 0.306671 0.052124
0.769043 0.305817 0.053009
0.791870 0.304840 0.053986
0.814819 0.304016 0.054382
0.838135 0.303192 0.054443
0.860962 0.302612 0.054291
0.000000 0.228943 0.100250
0.000000 0.239136 0.103302
0.000000 0.249664 0.106964
0.000000 0.259338 0.110016
0.000000 0.267395 0.112000
0.000000 0.274078 0.112305
0.000000 0.278442 0.110138
0.000000 0.280609 0.104095
0.006561 0.281403 0.070099
0.117859 0.272888 0.035034
0.174103 0.264557 0.057953
0.220490 0.257324 0.074707
0.276855 0.267303 0.074677
0.336792 0.294067 0.064972
0.388733 0.316986 0.054596
0.433441 0.333435 0.046326
0.472992 0.344116 0.039825
0.508545 0.350372 0.034637
0.541077 0.353638 0.032166
0.571564 0.355103 0.031006
0.600250 0.355225 0.030914
0.627350 0.354431 0.032471
0.652893 0.353058 0.034119
0.677521 0.351501 0.037048
0.701752 0.349945 0.039001
0.725464 0.348328 0.041260
0.748840 0.346771 0.042664
0.771942 0.345276 0.044556
0.795074 0.343903 0.046021
0.818298 0.342468 0.046936
0.841461 0.341156 0.047150
0.864624 0.339874 0.047913
0.887299 0.338867 0.047913
0.000000 0.255951 0.113007
0.000000 0.267029 0.116821
0.000000 0.278076 0.120392
0.000000 0.288757 0.123566
0.000000 0.298309 0.126404
0.000000 0.306183 0.127502
0.000000 0.311493 0.126312
0.000000 0.314758 0.121887
0.000000 0.315979 0.112396
0.018341 0.315643 0.037140
0.167694 0.301666 0.053040
0.212769 0.293518 0.075012
0.261108 0.285858 0.089355
0.316071 0.297821 0.086517
0.374176 0.326233 0.072968
0.424927 0.350616 0.060272
0.469421 0.368073 0.049774
0.508850 0.379456 0.041870
0.544525 0.386169 0.035980
0.577728 0.390106 0.032349
0.609222 0.392212 0.029694
0.639130 0.392944 0.028839
0.667511 0.392639 0.029541
0.694275 0.391541 0.030090
0.720337 0.390137 0.031403
0.745667 0.388641 0.033386
0.770386 0.387024 0.035370
0.794647 0.385193 0.036530
0.818604 0.383606 0.038391
0.842377 0.382019 0.039368
0.865967 0.380310 0.040344
0.889404 0.378784 0.041229
0.912292 0.377319 0.041382
0.000000 0.283447 0.125427
0.000000 0.295227 0.129517
0.000000 0.307312 0.133606
0.000000 0.319092 0.137421
0.000000 0.329865 0.140503
0.000000 0.338989 0.142426
0.000000 0.345490 0.142517
0.000000 0.349640 0.139465
0.000000 0.351471 0.131989
0.000031 0.351501 0.116211
0.104370 0.345581 0.034302
0.208038 0.332031 0.070801
0.255676 0.322571 0.092834
0.303894 0.315155 0.103333
0.356354 0.329681 0.097900
0.411407 0.359192 0.081238
0.460632 0.384338 0.065948
0.503967 0.402191 0.054230
0.543091 0.414001 0.044800
0.579285 0.421417 0.037720
0.613159 0.425720 0.032227
0.645569 0.428253 0.028717
0.676483 0.429504 0.026306
0.705994 0.429688 0.025879
0.734100 0.429016 0.026001
0.761322 0.427979 0.027283
0.787750 0.426666 0.028687
0.813507 0.425201 0.030304
0.838745 0.423584 0.031372
0.863464 0.421906 0.032349
0.887848 0.420197 0.033356
0.912140 0.418549 0.033722
0.935669 0.417053 0.034515
0.000000 0.312683 0.137817
0.000000 0.325073 0.142059
0.000000 0.338318 0.146729
0.000000 0.351196 0.151093
0.000000 0.362793 0.154327
0.000000 0.372772 0.156982
0.000000 0.380432 0.157501
0.000000 0.385468 0.155762
0.000000 0.388062 0.150452
0.000031 0.388397 0.138000
0.012177 0.387695 0.076080
0.189026 0.372955 0.062897
0.251312 0.362823 0.090698
0.302826 0.351532 0.110870
0.348236 0.345795 0.118225
0.396851 0.362610 0.108734
0.448181 0.392120 0.088745
0.495239 0.417450 0.071075
0.537628 0.435791 0.057892
0.576813 0.448151 0.046906
0.613281 0.455933 0.038849
0.647614 0.460571 0.032684
0.680450 0.463287 0.028503
0.712189 0.464844 0.025513
0.742828 0.465424 0.023895
0.772034 0.465179 0.023407
0.800323 0.464478 0.023743
0.827820 0.463470 0.024017
0.854797 0.462280 0.024811
0.881256 0.461029 0.025665
0.906982 0.459656 0.026672
0.932281 0.458191 0.027649
0.956726 0.456696 0.027802
0.000000 0.343811 0.150726
0.000000 0.356537 0.154846
0.000000 0.370789 0.159882
0.000000 0.384644 0.164368
0.000000 0.397308 0.168457
0.000000 0.408142 0.171112
0.000000 0.416351 0.172485
0.000000 0.422150 0.171692
0.000000 0.425201 0.167877
0.000031 0.425995 0.158020
0.000031 0.425110 0.132111
0.106995 0.419281 0.046112
0.248779 0.402924 0.085297
0.301971 0.393097 0.111481
0.351074 0.381073 0.128540
0.391998 0.378052 0.132202
0.436554 0.396179 0.119049
0.484131 0.425537 0.095947
0.529114 0.450867 0.076111
0.570862 0.469391 0.061127
0.609924 0.482147 0.049744
0.646576 0.490021 0.040833
0.681305 0.494751 0.034027
0.714752 0.497650 0.028198
0.747223 0.499329 0.024139
0.778839 0.500275 0.021545
0.809113 0.500427 0.020264
0.838470 0.500122 0.019867
0.867310 0.499634 0.020264
0.895386 0.498749 0.020264
0.922607 0.497772 0.021118
0.949188 0.496521 0.022125
0.974792 0.495239 0.022308
0.000000 0.376648 0.163757
0.000000 0.389954 0.168243
0.000000 0.404999 0.173218
0.000000 0.419647 0.177917
0.000000 0.432922 0.182037
0.000000 0.444214 0.184967
0.000000 0.452789 0.186249
0.000000 0.458710 0.186279
0.000000 0.462128 0.183411
0.000031 0.463318 0.176331
0.000031 0.462433 0.156982
0.042053 0.460449 0.085754
0.225128 0.445312 0.074036
0.299438 0.434601 0.108215
0.355469 0.422668 0.130981
0.398102 0.411652 0.143951
0.434753 0.411285 0.144806
0.474915 0.430176 0.128357
0.519318 0.459198 0.102661
0.562500 0.484161 0.080719
0.603638 0.502808 0.064392
0.642670 0.515656 0.051910
0.679626 0.523712 0.041534
0.714813 0.528564 0.033356
0.748901 0.531586 0.027618
0.782043 0.533508 0.023499
0.814362 0.534698 0.020325
0.845551 0.535065 0.018127
0.875916 0.535065 0.017395
0.905457 0.534760 0.016907
0.934326 0.534149 0.016907
0.962372 0.533234 0.017212
0.989227 0.532166 0.017365
0.000000 0.411316 0.176788
0.000000 0.425140 0.181244
0.000000 0.440491 0.186401
0.000000 0.455383 0.190948
0.000000 0.468628 0.194977
0.000000 0.479828 0.197632
0.000000 0.488403 0.199219
0.000000 0.494476 0.199554
0.000000 0.498199 0.197754
0.000031 0.499603 0.191986
0.000031 0.498932 0.175262
0.000031 0.498383 0.124481
0.150696 0.489044 0.074371
0.296967 0.474518 0.101227
0.357239 0.464325 0.130219
0.406708 0.452789 0.148346
0.443695 0.443665 0.158386
0.475830 0.445068 0.156525
0.512207 0.464539 0.136627
0.553436 0.492798 0.108673
0.595245 0.517426 0.084991
0.636047 0.536102 0.067108
0.675293 0.549072 0.053650
0.712708 0.557465 0.042908
0.748474 0.562469 0.034637
0.782990 0.565582 0.028625
0.816498 0.567474 0.023712
0.849182 0.568481 0.020325
0.881073 0.568939 0.016815
0.912018 0.569000 0.014893
0.942047 0.568695 0.013947
0.971313 0.568085 0.013947
0.999664 0.567352 0.013947
0.000000 0.447144 0.189423
0.000000 0.461365 0.193970
0.000000 0.476715 0.198792
0.000000 0.491089 0.203186
0.000000 0.503937 0.206573
0.000000 0.514709 0.209290
0.000000 0.523285 0.210785
0.000000 0.529572 0.211395
0.000000 0.533478 0.210327
0.000031 0.535065 0.205719
0.000031 0.534668 0.192352
0.000031 0.533966 0.159454
0.098694 0.530212 0.077118
0.286407 0.514221 0.091614
0.357971 0.504913 0.126404
0.414368 0.493866 0.149384
0.456268 0.483276 0.163940
0.487457 0.475677 0.171387
0.515320 0.478973 0.166840
0.547821 0.498657 0.144226
0.586884 0.526367 0.114471
0.627716 0.550659 0.089050
0.668488 0.569458 0.070160
0.707977 0.582672 0.056732
0.745850 0.591095 0.045380
0.781921 0.596039 0.035950
0.816681 0.598969 0.028503
0.850403 0.600616 0.022308
0.883087 0.601379 0.018066
0.915009 0.601715 0.015900
0.946136 0.601715 0.013794
0.976654 0.601501 0.012329
1.000000 0.601105 0.012024
0.000000 0.482727 0.201660
0.000000 0.497528 0.205963
0.000000 0.512604 0.210266
0.000000 0.526550 0.214203
0.000000 0.539093 0.217346
0.000000 0.549683 0.219879
0.000000 0.558014 0.221405
0.000000 0.564117 0.221893
0.000000 0.568054 0.221222
0.000031 0.569733 0.217163
0.000031 0.569519 0.205505
0.000031 0.568878 0.176758
0.025177 0.569031 0.080170
0.258514 0.554565 0.077026
0.361420 0.543213 0.119690
0.420593 0.533966 0.147644
0.468414 0.523834 0.166199
0.502716 0.514343 0.177368
0.528107 0.508087 0.182678
0.552429 0.513123 0.175323
0.582458 0.532990 0.150635
0.619965 0.559937 0.119537
0.660309 0.584229 0.093109
0.700989 0.602997 0.073486
0.740662 0.616058 0.058441
0.778625 0.624268 0.046417
0.814758 0.628906 0.036163
0.849426 0.631500 0.028839
0.882996 0.632874 0.023193
0.915833 0.633636 0.019043
0.947906 0.633942 0.015686
0.979492 0.633972 0.013306
1.000000 0.633881 0.011108
0.000000 0.518311 0.212616
0.000000 0.533478 0.216827
0.000000 0.548218 0.220764
0.000000 0.561646 0.224152
0.000000 0.573822 0.227173
0.000000 0.583984 0.229370
0.000000 0.592010 0.230713
0.000000 0.597961 0.231262
0.000000 0.601898 0.230713
0.000031 0.603699 0.227509
0.000031 0.603607 0.217255
0.000031 0.603027 0.190155
0.000031 0.603821 0.124420
0.205078 0.595337 0.064453
0.363800 0.580139 0.112366
0.424438 0.572571 0.143311
0.478302 0.563080 0.165253
0.517700 0.554138 0.180603
0.545227 0.545654 0.189240
0.565979 0.540771 0.192566
0.587769 0.547028 0.182495
0.616211 0.567078 0.156342
0.652771 0.593811 0.124695
0.692657 0.617706 0.097382
0.733185 0.636108 0.076141
0.772797 0.648804 0.060364
0.810608 0.656586 0.047852
0.846710 0.661041 0.037445
0.881531 0.663544 0.029327
0.915344 0.664856 0.023193
0.948364 0.665588 0.017822
0.980713 0.665894 0.013977
1.000000 0.665985 0.010773
0.000000 0.554352 0.222931
0.000000 0.568939 0.226746
0.000000 0.583435 0.230225
0.000000 0.596222 0.233215
0.000000 0.607819 0.235718
0.000000 0.617615 0.237549
0.000000 0.625336 0.238922
0.000000 0.631287 0.239288
0.000000 0.635162 0.238708
0.000031 0.637054 0.236267
0.000031 0.636932 0.227142
0.000031 0.636414 0.203186
0.000031 0.637115 0.143768
0.160797 0.633575 0.042511
0.361298 0.616364 0.104431
0.428040 0.609558 0.136230
0.485718 0.601166 0.161926
0.530457 0.592529 0.179901
0.562073 0.584473 0.192413
0.584229 0.577209 0.198029
0.602081 0.573700 0.200714
0.622192 0.580902 0.188873
0.649445 0.601135 0.161621
0.685303 0.627411 0.128906
0.724762 0.650696 0.100311
0.764801 0.668365 0.077728
0.804321 0.680756 0.061066
0.842438 0.688568 0.046936
0.878845 0.692932 0.035217
0.913879 0.695435 0.026184
0.947723 0.696716 0.020294
0.980804 0.697418 0.015930
1.000000 0.697723 0.012726
0.000000 0.589264 0.232086
0.000000 0.603943 0.235474
0.000000 0.618256 0.238586
0.000000 0.630524 0.241150
0.000000 0.641205 0.243164
0.000000 0.650574 0.244934
0.000000 0.658264 0.245850
0.000000 0.664185 0.246338
0.000000 0.668091 0.245575
0.000031 0.670135 0.243378
0.000031 0.670135 0.234833
0.000031 0.669525 0.212860
0.000031 0.670013 0.159271
0.101624 0.670227 0.021332
0.338318 0.654755 0.091156
0.431030 0.645203 0.128113
0.491364 0.638153 0.156647
0.541260 0.630066 0.177551
0.577087 0.622162 0.192291
0.602295 0.614960 0.202179
0.621002 0.608887 0.207062
0.637054 0.606415 0.207916
0.655853 0.614532 0.194183
0.682098 0.634613 0.165924
0.717560 0.660431 0.131592
0.756409 0.683105 0.100891
0.796600 0.700562 0.076569
0.836334 0.712769 0.058289
0.874603 0.720367 0.043365
0.910889 0.724670 0.032593
0.945862 0.727173 0.025024
0.979828 0.728485 0.019775
1.000000 0.729187 0.015686
0.000000 0.623535 0.239929
0.000000 0.638000 0.242889
0.000000 0.651978 0.245544
0.000000 0.663940 0.247772
0.000000 0.674530 0.249512
0.000000 0.683533 0.250671
0.000000 0.690704 0.251465
0.000000 0.696472 0.251740
0.000000 0.700439 0.250977
0.000031 0.702332 0.248657
0.000031 0.702393 0.241791
0.000031 0.701752 0.222229
0.000031 0.702118 0.172638
0.029572 0.704285 0.023193
0.303192 0.692017 0.068085
0.432739 0.679443 0.119080
0.496002 0.673309 0.149872
0.550598 0.665771 0.173340
0.590454 0.658264 0.190216
0.618683 0.651489 0.201782
0.639557 0.645203 0.209259
0.655640 0.640198 0.212738
0.670532 0.639679 0.210663
0.689148 0.649658 0.193176
0.715668 0.670319 0.162506
0.750397 0.694794 0.127594
0.789093 0.716370 0.096924
0.829041 0.732941 0.072479
0.868500 0.744598 0.054901
0.906372 0.752045 0.041901
0.942749 0.756378 0.031647
0.977844 0.758911 0.023926
1.000000 0.760223 0.018616
0.000000 0.657318 0.246735
0.000000 0.671753 0.249176
0.000000 0.685364 0.251312
0.000000 0.696716 0.252991
0.000000 0.706818 0.254242
0.000000 0.715179 0.255096
0.000000 0.722046 0.255646
0.000000 0.727448 0.255737
0.000000 0.731293 0.254913
0.000031 0.733154 0.252716
0.000031 0.733276 0.246735
0.000031 0.732574 0.229675
0.000031 0.732697 0.185333
0.004517 0.735077 0.037659
0.268280 0.726654 0.037079
0.429596 0.712524 0.108917
0.498932 0.706909 0.140503
0.556976 0.700439 0.165802
0.601257 0.693756 0.184265
0.632721 0.687866 0.196594
0.656006 0.682556 0.204529
0.673920 0.677856 0.207916
0.688721 0.674622 0.209381
0.703430 0.675720 0.204102
0.722412 0.686340 0.185089
0.748993 0.705994 0.154724
0.783600 0.729065 0.120575
0.821899 0.749390 0.090546
0.861298 0.765076 0.067749
0.900360 0.776306 0.050659
0.938171 0.783630 0.038025
0.974701 0.787994 0.027863
1.000000 0.790558 0.020660
0.000000 0.690735 0.252319
0.000000 0.704926 0.254120
0.000000 0.717712 0.255676
0.000000 0.728302 0.256836
0.000000 0.737671 0.257874
0.000000 0.745544 0.258636
0.000000 0.751831 0.258759
0.000000 0.756775 0.258606
0.000000 0.760254 0.257690
0.000031 0.762054 0.255585
0.000214 0.762146 0.249939
0.001343 0.761688 0.233215
0.002960 0.761780 0.192841
0.004639 0.764038 0.068329
0.228455 0.759766 0.009796
0.414185 0.746338 0.094299
0.500580 0.739746 0.128540
0.560547 0.734863 0.154388
0.608917 0.729431 0.173157
0.643646 0.724487 0.186218
0.669556 0.719849 0.194794
