lut/retro-80s/Die Hard (1988) - Standard.cube
# Created by Benjamin (IWLTBAP): https://luts.iwltbap.com
# Copyright: (C) Copyright 2018 Triune Films and IWLTBAP SAS
# Cannot be resold, shared or otherwise redistributed
TITLE "Triune Films 80s Retro LUTs (Rec.709, sRGB, DCI-P3)"
LUT_3D_SIZE 9
0.000000 0.000000 0.000000
0.028748 0.000793 0.001648
0.074036 0.003815 0.004059
0.137848 0.009796 0.010742
0.208832 0.019623 0.021484
0.287415 0.032440 0.032806
0.372955 0.047821 0.046570
0.467682 0.065399 0.058746
0.572388 0.082764 0.069794
0.000000 0.043304 0.014893
0.043121 0.051422 0.007080
0.150909 0.069000 0.012268
0.232910 0.071564 0.025238
0.310242 0.082153 0.039032
0.386536 0.095764 0.051483
0.469299 0.111664 0.061676
0.561401 0.128235 0.070435
0.664520 0.139862 0.075714
0.000000 0.123047 0.047150
0.000000 0.146820 0.044373
0.134186 0.148346 0.029602
0.321899 0.202484 0.029694
0.424835 0.200439 0.039948
0.507782 0.198700 0.052521
0.590546 0.203857 0.061829
0.679810 0.211029 0.068481
0.775238 0.214050 0.069763
0.000000 0.228943 0.100250
0.000000 0.267395 0.112000
0.006561 0.281403 0.070099
0.276855 0.267303 0.074677
0.472992 0.344116 0.039825
0.600250 0.355225 0.030914
0.701752 0.349945 0.039001
0.795074 0.343903 0.046021
0.887299 0.338867 0.047913
0.000000 0.343811 0.150726
0.000000 0.397308 0.168457
0.000000 0.425201 0.167877
0.248779 0.402924 0.085297
0.436554 0.396179 0.119049
0.609924 0.482147 0.049744
0.747223 0.499329 0.024139
0.867310 0.499634 0.020264
0.974792 0.495239 0.022308
0.000000 0.482727 0.201660
0.000000 0.539093 0.217346
0.000000 0.568054 0.221222
0.025177 0.569031 0.080170
0.468414 0.523834 0.166199
0.582458 0.532990 0.150635
0.740662 0.616058 0.058441
0.882996 0.632874 0.023193
1.000000 0.633881 0.011108
0.000000 0.623535 0.239929
0.000000 0.674530 0.249512
0.000000 0.700439 0.250977
0.000031 0.702118 0.172638
0.496002 0.673309 0.149872
0.639557 0.645203 0.209259
0.715668 0.670319 0.162506
0.868500 0.744598 0.054901
1.000000 0.760223 0.018616
0.000000 0.758545 0.248932
0.005768 0.796631 0.249298
0.014893 0.815277 0.244385
0.031036 0.817444 0.187805
0.504028 0.802368 0.102356
0.689270 0.790741 0.170166
0.765228 0.781036 0.177307
0.847687 0.812347 0.116272
0.996155 0.872253 0.035858
0.000000 0.892395 0.191437
0.034302 0.908508 0.188965
0.073059 0.918182 0.182495
0.120972 0.923218 0.132843
0.516144 0.920929 0.064331
0.700378 0.923492 0.114777
0.794647 0.926666 0.118469
0.874786 0.931122 0.100708
0.980408 0.963348 0.056549
0.000000 0.006195 0.024323
0.027344 0.007111 0.037079
0.059509 0.006927 0.026031
0.112793 0.009918 0.029602
0.184113 0.019226 0.043396
0.264069 0.033234 0.059326
0.352936 0.050171 0.075562
0.450745 0.070007 0.091797
0.558960 0.090088 0.107025
0.002411 0.047516 0.041718
0.034149 0.052216 0.050873
0.126862 0.061310 0.056000
0.218384 0.066925 0.062775
0.298615 0.079956 0.074402
0.376923 0.095825 0.086731
0.461670 0.113831 0.098602
0.556274 0.131622 0.109070
0.661316 0.143799 0.116608
0.000000 0.123749 0.059174
0.007812 0.155151 0.078796
0.146698 0.164978 0.065948
0.333313 0.211365 0.108215
0.429718 0.201935 0.109131
0.512024 0.200745 0.112335
0.595276 0.207153 0.117035
0.685333 0.214539 0.119781
0.781189 0.217255 0.118988
0.000000 0.238007 0.107941
0.000000 0.282532 0.123535
0.002411 0.303467 0.101044
0.300568 0.288574 0.102997
0.484131 0.354706 0.123810
0.605316 0.359497 0.125275
0.705841 0.353394 0.123779
0.799774 0.347900 0.120667
0.892212 0.343536 0.115143
0.000000 0.361176 0.158112
0.000000 0.416840 0.176788
0.000000 0.450531 0.179260
0.266449 0.432251 0.093567
0.463684 0.421143 0.144470
0.618469 0.491241 0.129852
0.750458 0.503204 0.127747
0.869720 0.503113 0.122833
0.977264 0.499756 0.115173
0.000000 0.500885 0.207520
0.000000 0.555389 0.222137
0.000000 0.589447 0.227478
0.023621 0.597260 0.083008
0.500122 0.554840 0.176453
0.607574 0.559021 0.174896
0.748810 0.624786 0.132477
0.885223 0.635559 0.128387
1.000000 0.635620 0.120850
0.000000 0.636414 0.242676
0.000000 0.685242 0.251129
0.000000 0.715454 0.252960
0.000031 0.723389 0.171997
0.521667 0.698914 0.157104
0.668701 0.673798 0.218323
0.737396 0.692535 0.189636
0.874969 0.751221 0.132385
1.000000 0.761444 0.115234
0.000000 0.764771 0.254486
0.005920 0.801941 0.255066
0.015198 0.822144 0.251678
0.031555 0.827271 0.194183
0.521423 0.814667 0.125732
0.709076 0.805969 0.198425
0.782227 0.796326 0.210388
0.858795 0.823364 0.170258
0.999542 0.876221 0.130249
0.000000 0.892700 0.225128
0.034485 0.910004 0.223328
0.073486 0.919708 0.219055
0.121613 0.925171 0.172821
0.519867 0.923248 0.116974
0.706573 0.926575 0.175232
0.800598 0.930603 0.184021
0.878967 0.935303 0.175354
0.982849 0.966675 0.148926
0.000000 0.013428 0.051758
0.003235 0.014832 0.073517
0.046722 0.011017 0.062317
0.089417 0.010681 0.051208
0.139099 0.015045 0.052429
0.203766 0.025635 0.065674
0.291962 0.043518 0.086975
0.394073 0.065460 0.108826
0.507629 0.088562 0.129761
0.001007 0.057739 0.107117
0.013519 0.061890 0.107513
0.084961 0.053070 0.102905
0.176483 0.052887 0.086853
0.251801 0.065186 0.086304
0.329376 0.085876 0.101379
0.416412 0.108521 0.120697
0.514832 0.130768 0.139313
0.623077 0.147217 0.153595
0.003815 0.121094 0.102753
0.022461 0.148651 0.131165
0.122955 0.154266 0.141602
0.294617 0.169952 0.156677
0.401459 0.173859 0.154083
0.487640 0.184296 0.156677
0.572479 0.197357 0.162567
0.664001 0.208832 0.168457
0.761292 0.214264 0.171326
0.000000 0.214294 0.110199
0.000000 0.262238 0.134491
0.039581 0.297150 0.157867
0.300598 0.301239 0.163086
0.486359 0.359192 0.233643
0.598755 0.353333 0.227417
0.694092 0.346039 0.217072
0.784637 0.342499 0.208954
0.874634 0.340210 0.201660
0.000000 0.340576 0.156189
0.000000 0.398438 0.178223
0.000000 0.447845 0.191101
0.150421 0.457642 0.096191
0.472076 0.441498 0.208221
0.621887 0.497528 0.248749
0.748840 0.503876 0.253113
0.863251 0.501801 0.246857
0.965637 0.497986 0.237854
0.000000 0.479004 0.203369
0.000000 0.535858 0.219849
0.000000 0.584808 0.230316
0.000031 0.604095 0.191895
0.473633 0.577271 0.199707
0.619873 0.579681 0.247040
0.751678 0.629089 0.255066
0.884155 0.635956 0.259460
1.000000 0.635132 0.251373
0.000000 0.612305 0.238098
0.000000 0.663025 0.248260
0.000000 0.706329 0.253906
0.000031 0.723663 0.231659
0.452148 0.707764 0.155090
0.659515 0.686554 0.264740
0.742523 0.705170 0.273041
0.876404 0.754669 0.256775
1.000000 0.761444 0.250580
0.000000 0.740601 0.257690
0.006378 0.781738 0.260742
0.016144 0.810272 0.260712
0.033081 0.819641 0.243500
0.392303 0.815979 0.117798
0.672791 0.801849 0.252075
0.771362 0.797943 0.290863
0.855774 0.828278 0.279968
1.000000 0.878418 0.255402
0.000000 0.878845 0.259857
0.035126 0.899719 0.259094
0.074768 0.911896 0.257904
0.123566 0.916656 0.244690
0.397034 0.921204 0.127289
0.666199 0.919098 0.245850
0.783020 0.926147 0.282959
0.871704 0.935699 0.287750
0.980988 0.968231 0.272430
0.000000 0.021027 0.079437
0.003235 0.024933 0.089752
0.003326 0.018646 0.125275
0.069244 0.013641 0.088226
0.115326 0.014099 0.078064
0.166687 0.020111 0.078583
0.221008 0.032349 0.084442
0.302368 0.052399 0.102661
0.412506 0.078674 0.129028
0.000000 0.062958 0.148529
0.003021 0.068939 0.162720
0.016022 0.065765 0.155365
0.136383 0.047241 0.143799
0.221375 0.053925 0.119629
0.290405 0.071045 0.114014
0.354034 0.091187 0.118927
0.441711 0.116150 0.138855
0.549805 0.139984 0.162109
0.001129 0.151703 0.230957
0.025635 0.170105 0.257263
0.054626 0.153351 0.235596
0.225006 0.126251 0.218353
0.351044 0.132721 0.186432
0.435974 0.150391 0.173279
0.515472 0.172058 0.178680
0.608887 0.189392 0.189514
0.709259 0.201172 0.202057
0.006927 0.205170 0.175446
0.027252 0.241394 0.209351
0.083618 0.272247 0.245392
0.255066 0.287964 0.262329
0.457458 0.305206 0.282440
0.564850 0.306519 0.272583
0.654968 0.313110 0.268707
0.743317 0.320709 0.268036
0.832275 0.325684 0.267456
0.000000 0.291687 0.157562
0.000000 0.348022 0.185638
0.000214 0.411377 0.214417
0.144287 0.448334 0.250153
0.477173 0.456360 0.293274
0.621643 0.500519 0.367188
0.740906 0.499359 0.363739
0.846252 0.495697 0.352173
0.940125 0.493347 0.341797
0.000000 0.430634 0.195312
0.000000 0.492676 0.217224
0.000000 0.556885 0.235504
0.003235 0.596832 0.230469
0.447327 0.589447 0.240753
0.630310 0.596191 0.332764
0.752808 0.632843 0.377991
0.882080 0.636871 0.386322
1.000000 0.634796 0.375916
0.000000 0.568329 0.231567
0.000000 0.623962 0.245361
0.000000 0.680359 0.255951
0.000031 0.711121 0.249176
0.383270 0.708313 0.171326
0.648682 0.691895 0.325714
0.746429 0.713623 0.365997
0.878418 0.757812 0.381409
1.000000 0.761444 0.381348
0.000000 0.701721 0.261108
0.007202 0.749176 0.268158
0.017792 0.788269 0.272614
0.035675 0.804413 0.266602
0.302521 0.810211 0.131256
0.650604 0.798523 0.317596
0.766205 0.801331 0.381683
0.856812 0.833862 0.390747
1.000000 0.881378 0.380737
0.000000 0.855896 0.296600
0.036194 0.882782 0.297607
0.076904 0.899506 0.299622
0.126831 0.906464 0.295166
0.356567 0.916351 0.181946
0.649597 0.917419 0.329041
0.776733 0.927826 0.386627
0.871399 0.940430 0.400848
0.982300 0.972504 0.395844
0.000000 0.031647 0.111298
0.001007 0.036865 0.124268
0.001801 0.031036 0.135132
0.001129 0.006195 0.209839
0.095917 0.017242 0.116974
0.142334 0.017914 0.106873
0.194733 0.025635 0.106201
0.252808 0.040558 0.110168
0.320374 0.062012 0.118774
0.000000 0.074646 0.186707
0.000000 0.079071 0.201263
0.006409 0.075409 0.192230
0.011322 0.051575 0.258606
0.178070 0.045837 0.170929
0.255768 0.057892 0.151184
0.325012 0.077484 0.145142
0.392578 0.100708 0.148376
0.467285 0.124359 0.158722
0.000000 0.147461 0.282135
0.000000 0.161407 0.312073
0.009827 0.155060 0.309387
0.066711 0.129150 0.321564
0.300812 0.107025 0.259796
0.405792 0.123566 0.232849
0.482819 0.146790 0.216003
0.551666 0.167145 0.210358
0.632355 0.182495 0.217407
0.011902 0.266235 0.351379
0.057587 0.290802 0.380524
0.117188 0.305298 0.397705
0.158356 0.270782 0.352356
0.394562 0.242035 0.340302
0.525177 0.248749 0.315948
0.607239 0.260803 0.296478
0.680542 0.275726 0.292969
0.761932 0.290680 0.301636
0.014008 0.291748 0.250488
0.042542 0.331268 0.287170
0.094543 0.374664 0.329041
0.207550 0.412079 0.382660
0.454010 0.445740 0.395874
0.610596 0.465332 0.424683
0.705444 0.462494 0.412140
0.792175 0.465942 0.405975
0.875275 0.472778 0.405548
0.000000 0.366364 0.210114
0.000000 0.426941 0.247223
0.000000 0.498871 0.288940
0.112244 0.557251 0.330109
0.449127 0.586090 0.356293
0.641022 0.613434 0.443695
0.750366 0.635254 0.499420
0.872406 0.636505 0.501556
0.985962 0.633240 0.488220
0.000000 0.508820 0.235687
0.000000 0.566376 0.263062
0.000000 0.631561 0.289368
0.010834 0.680054 0.297974
0.367798 0.707581 0.283844
0.657013 0.712219 0.428467
0.761719 0.733398 0.480316
0.879486 0.761108 0.507172
1.000000 0.761444 0.508545
0.000000 0.652100 0.272278
0.008301 0.702209 0.290070
0.020111 0.752960 0.307098
0.039337 0.783905 0.310791
0.319641 0.809814 0.261810
0.660431 0.813934 0.425659
0.782776 0.823639 0.495453
0.868439 0.848328 0.511627
1.000000 0.884216 0.509094
0.000000 0.825623 0.339478
0.037659 0.857361 0.347076
0.079926 0.882416 0.355988
0.131378 0.898590 0.358917
0.381927 0.919891 0.318115
0.661377 0.928711 0.447296
0.787292 0.941498 0.507477
0.881256 0.953888 0.522797
0.987854 0.980011 0.519592
0.000000 0.043274 0.141693
0.000000 0.050934 0.163910
0.000000 0.046814 0.168121
0.000031 0.029236 0.194458
0.049164 0.001221 0.240051
0.131836 0.020325 0.143982
0.177551 0.022949 0.136902
0.229980 0.033447 0.136200
0.290344 0.050354 0.139008
0.000000 0.089142 0.227783
0.000000 0.092194 0.237671
0.000000 0.087830 0.232635
0.004517 0.074951 0.238464
0.078217 0.007721 0.347198
0.217224 0.050415 0.196960
0.291351 0.064331 0.184845
0.363129 0.084808 0.182404
0.435699 0.109436 0.186432
0.000000 0.152985 0.320709
0.000000 0.164459 0.347321
0.000000 0.162476 0.353241
0.035004 0.142212 0.316986
0.205231 0.083099 0.383728
0.355042 0.102448 0.294189
0.447968 0.121643 0.277863
0.526001 0.144836 0.268555
0.598053 0.165131 0.265320
0.000000 0.264252 0.428619
0.007507 0.282837 0.457397
0.051147 0.291473 0.470062
0.089935 0.263458 0.438263
0.291443 0.209198 0.446381
0.486267 0.209656 0.395782
0.588409 0.223541 0.379517
0.661194 0.238739 0.362244
0.721527 0.249817 0.350006
0.036835 0.384979 0.464447
0.095703 0.412262 0.493439
0.170807 0.438599 0.522644
0.258026 0.448761 0.530670
0.377716 0.408539 0.470093
0.560059 0.408020 0.469574
0.659271 0.413696 0.449768
0.726837 0.419067 0.433319
0.790680 0.428925 0.427979
0.030640 0.388977 0.336884
0.067780 0.431885 0.377380
0.119904 0.480255 0.422363
0.223083 0.525177 0.466187
0.446930 0.564056 0.508179
0.645172 0.621155 0.540405
0.749481 0.636078 0.573517
0.831360 0.632050 0.567902
0.917755 0.630463 0.564209
0.000000 0.446228 0.276306
0.000000 0.502350 0.320557
0.002014 0.571747 0.373047
0.127228 0.635468 0.415710
0.414948 0.694611 0.459076
0.676910 0.732269 0.534424
0.785431 0.759705 0.592285
0.882050 0.763733 0.625214
1.000000 0.762115 0.628265
0.000000 0.599121 0.317139
0.009766 0.648926 0.354645
0.023193 0.708099 0.396515
0.087799 0.759186 0.417419
0.391327 0.806793 0.443451
0.685150 0.831329 0.542969
0.806183 0.848907 0.610077
0.884460 0.865814 0.626434
1.000000 0.886414 0.635864
0.000000 0.791107 0.404572
0.039581 0.826385 0.428833
0.083801 0.861145 0.454803
0.157959 0.890991 0.465302
0.421570 0.924347 0.477325
0.680267 0.939789 0.573486
0.801941 0.954620 0.634216
0.892090 0.966980 0.641418
0.993896 0.987457 0.644928
0.000000 0.054993 0.173401
0.000000 0.066589 0.203461
0.000000 0.062897 0.207458
0.000031 0.045868 0.221344
0.009430 0.001221 0.295776
0.129700 0.018005 0.184784
0.174561 0.023438 0.171600
0.220764 0.030945 0.168121
0.272461 0.043732 0.168243
0.000000 0.106110 0.273468
0.000000 0.107056 0.278503
0.000000 0.102997 0.272675
0.002808 0.090393 0.263977
0.000031 0.047668 0.347412
0.189056 0.046143 0.245270
0.262177 0.057831 0.227936
0.335266 0.073181 0.223663
0.409576 0.093689 0.226593
0.000000 0.164642 0.360382
0.000000 0.174896 0.384186
0.000000 0.174011 0.390686
0.005035 0.156036 0.369385
0.017426 0.089783 0.477905
0.299866 0.092133 0.346008
0.404816 0.105621 0.328888
0.491943 0.124420 0.325653
0.570221 0.144501 0.326569
0.000000 0.262939 0.476715
0.000000 0.279633 0.506256
0.000000 0.287445 0.525116
0.017426 0.267212 0.506805
0.135986 0.216797 0.496399
0.427948 0.181366 0.448059
0.549072 0.192108 0.442657
0.634491 0.207458 0.437012
0.702881 0.221741 0.430054
0.002380 0.395721 0.570679
0.069977 0.417480 0.593597
0.143188 0.435272 0.610840
0.207367 0.436554 0.604614
0.274811 0.403442 0.533539
0.516296 0.365356 0.528320
0.638672 0.378448 0.518799
0.714264 0.388824 0.506683
0.768921 0.400146 0.495880
0.068329 0.510345 0.581482
0.132507 0.537140 0.608093
0.212860 0.563843 0.635956
0.312622 0.584137 0.656158
0.425140 0.596039 0.655487
0.591187 0.585510 0.601562
0.726868 0.608459 0.591461
0.795227 0.616791 0.588379
0.851074 0.622070 0.595123
0.056274 0.499481 0.437622
0.094635 0.540771 0.476349
0.148376 0.587372 0.517914
0.247498 0.633301 0.552155
0.434723 0.681976 0.601227
0.660919 0.729462 0.610504
0.805481 0.776825 0.674713
0.882050 0.780487 0.711487
0.964142 0.774384 0.719330
0.000000 0.556335 0.390625
0.012726 0.605103 0.435059
0.057800 0.665955 0.489838
0.198242 0.728851 0.531799
0.459778 0.789337 0.594360
0.697327 0.837738 0.636780
0.824982 0.866028 0.708862
0.900696 0.881622 0.738922
1.000000 0.888000 0.760193
0.000000 0.760376 0.497559
0.041962 0.796051 0.529785
0.088531 0.838440 0.567841
0.220856 0.879578 0.588196
0.475067 0.919525 0.631897
0.692444 0.946167 0.685913
0.813721 0.964996 0.742767
0.900726 0.978210 0.758606
0.999664 0.994354 0.767029
0.000000 0.068085 0.207306
0.000000 0.080536 0.240692
0.000000 0.077362 0.249054
0.000031 0.059967 0.263031
0.000031 0.015442 0.320435
0.089752 0.000000 0.309509
0.175873 0.023926 0.212341
0.221069 0.032349 0.203156
0.269196 0.043182 0.201782
0.000000 0.123779 0.320862
0.000000 0.124207 0.323364
0.000000 0.119202 0.316833
0.000610 0.106598 0.306549
0.000031 0.077698 0.343262
0.102295 0.000000 0.425415
0.242523 0.057037 0.274689
0.315979 0.068115 0.265503
0.389587 0.084198 0.268555
0.000000 0.180206 0.404785
0.000000 0.189819 0.426575
0.000000 0.189667 0.433136
0.000031 0.174072 0.416016
0.018555 0.140900 0.420837
0.209076 0.024109 0.524475
0.369904 0.096191 0.371277
0.460724 0.112793 0.370941
0.542816 0.129608 0.377899
0.000000 0.269348 0.521240
0.000000 0.285156 0.550568
0.000000 0.292175 0.568359
0.000031 0.277161 0.557587
0.105927 0.233154 0.489349
0.360168 0.157715 0.524628
0.511658 0.171600 0.484436
0.604401 0.186890 0.488037
0.679688 0.200562 0.491119
0.000000 0.389160 0.629395
0.008820 0.410553 0.657166
0.076569 0.427216 0.673828
0.135254 0.432190 0.672791
0.217987 0.400299 0.613739
0.448853 0.341156 0.590637
0.611969 0.343231 0.567474
0.696106 0.358521 0.563171
0.757538 0.372620 0.558228
0.050415 0.539398 0.716187
0.133484 0.561096 0.736816
0.219208 0.580078 0.754242
0.314545 0.594238 0.761505
0.413544 0.596100 0.731995
0.565826 0.569855 0.662506
0.702850 0.583649 0.642365
0.780975 0.602295 0.644379
0.845001 0.612732 0.655579
0.096008 0.638184 0.698944
0.162811 0.663940 0.723480
0.245972 0.689117 0.748718
0.353485 0.712555 0.771790
0.474396 0.730469 0.783264
0.625092 0.740448 0.774109
0.789551 0.759338 0.721588
0.877411 0.781891 0.753235
0.937225 0.783508 0.772614
0.071594 0.641205 0.578461
0.121368 0.677551 0.612030
0.187775 0.719330 0.649750
0.298401 0.763794 0.682220
0.468231 0.808624 0.714691
0.664886 0.845978 0.735168
0.819550 0.870697 0.790009
0.911011 0.891449 0.830963
0.994324 0.894958 0.858246
0.001617 0.747650 0.597565
0.059601 0.780792 0.629700
0.149689 0.823639 0.669861
0.284393 0.869568 0.699799
0.496552 0.915924 0.744873
0.694733 0.949646 0.782898
0.817352 0.971466 0.841522
0.905029 0.985748 0.866516
1.000000 0.998077 0.894623
0.000000 0.080353 0.240723
0.000000 0.093842 0.276733
0.000000 0.092010 0.291748
0.000031 0.075165 0.309265
0.000031 0.028839 0.360413
0.072021 0.000000 0.359100
0.175934 0.019043 0.262238
0.223846 0.034546 0.242340
0.270782 0.043945 0.237976
0.000000 0.141205 0.367950
0.000000 0.142456 0.371490
0.000000 0.138062 0.366089
0.000031 0.125366 0.356873
0.000031 0.097321 0.377563
0.038300 0.000000 0.481689
0.227997 0.044891 0.338654
0.306519 0.064636 0.308197
0.378723 0.079468 0.310059
0.000000 0.198364 0.453217
0.000000 0.207367 0.473419
0.000000 0.207581 0.480347
0.000031 0.193756 0.465118
0.025055 0.165955 0.435822
0.103607 0.000000 0.627808
0.345154 0.090393 0.415161
0.438660 0.106567 0.409668
0.522766 0.121674 0.420929
0.000000 0.281067 0.566986
0.000000 0.296051 0.595917
0.000000 0.302887 0.613617
0.000031 0.291382 0.605621
0.071106 0.249542 0.547211
0.250366 0.109467 0.727570
0.481995 0.162476 0.521881
0.581879 0.174438 0.526245
0.660645 0.188110 0.536011
0.000000 0.389923 0.680023
0.000000 0.411499 0.708984
0.007996 0.428986 0.732025
0.056274 0.437286 0.737976
0.161224 0.409668 0.689789
0.329315 0.346741 0.709717
0.584198 0.322266 0.604156
0.680939 0.335663 0.606873
0.746887 0.352081 0.608002
0.010834 0.534119 0.789368
0.111389 0.556458 0.809113
0.198517 0.575897 0.823517
0.288696 0.593445 0.829376
0.388885 0.600372 0.801880
0.519073 0.579956 0.715027
0.691833 0.559601 0.686646
0.775238 0.583923 0.694153
0.844635 0.601410 0.716949
0.089874 0.684540 0.862122
0.173920 0.704468 0.881500
0.269257 0.721130 0.897827
0.376648 0.735992 0.910461
0.491730 0.745819 0.905792
0.606964 0.752869 0.871704
0.779419 0.747894 0.806427
0.870026 0.770538 0.798431
0.931976 0.779114 0.830109
0.103333 0.779755 0.840820
0.179901 0.801300 0.861542
0.272583 0.822601 0.883881
0.388611 0.843933 0.907379
0.513702 0.860718 0.923370
0.641846 0.873322 0.932373
0.787140 0.878326 0.929321
0.907837 0.888916 0.912659
0.987976 0.898041 0.939056
0.064484 0.831055 0.784149
0.139221 0.854980 0.806641
0.229980 0.883118 0.833679
0.355286 0.914795 0.860016
0.509766 0.945251 0.884827
0.670410 0.967590 0.910522
0.806702 0.980713 0.943939
0.903992 0.990814 0.972260
1.000000 0.999664 1.000000
