lut/retro-80s/Die Hard (1988) - Standard.cube
# Created by Benjamin (IWLTBAP): https://luts.iwltbap.com
# Copyright: (C) Copyright 2018 Triune Films and IWLTBAP SAS
# Cannot be resold, shared or otherwise redistributed
TITLE "Triune Films 80s Retro LUTs (Rec.709, sRGB, DCI-P3)"
LUT_3D_SIZE 5
0.000000 0.000000 0.000000
0.074036 0.003815 0.004059
0.208832 0.019623 0.021484
0.372955 0.047821 0.046570
0.572388 0.082764 0.069794
0.000000 0.123047 0.047150
0.134186 0.148346 0.029602
0.424835 0.200439 0.039948
0.590546 0.203857 0.061829
0.775238 0.214050 0.069763
0.000000 0.343811 0.150726
0.000000 0.425201 0.167877
0.436554 0.396179 0.119049
0.747223 0.499329 0.024139
0.974792 0.495239 0.022308
0.000000 0.623535 0.239929
0.000000 0.700439 0.250977
0.496002 0.673309 0.149872
0.715668 0.670319 0.162506
1.000000 0.760223 0.018616
0.000000 0.892395 0.191437
0.073059 0.918182 0.182495
0.516144 0.920929 0.064331
0.794647 0.926666 0.118469
0.980408 0.963348 0.056549
0.000000 0.013428 0.051758
0.046722 0.011017 0.062317
0.139099 0.015045 0.052429
0.291962 0.043518 0.086975
0.507629 0.088562 0.129761
0.003815 0.121094 0.102753
0.122955 0.154266 0.141602
0.401459 0.173859 0.154083
0.572479 0.197357 0.162567
0.761292 0.214264 0.171326
0.000000 0.340576 0.156189
0.000000 0.447845 0.191101
0.472076 0.441498 0.208221
0.748840 0.503876 0.253113
0.965637 0.497986 0.237854
0.000000 0.612305 0.238098
0.000000 0.706329 0.253906
0.452148 0.707764 0.155090
0.742523 0.705170 0.273041
1.000000 0.761444 0.250580
0.000000 0.878845 0.259857
0.074768 0.911896 0.257904
0.397034 0.921204 0.127289
0.783020 0.926147 0.282959
0.980988 0.968231 0.272430
0.000000 0.031647 0.111298
0.001801 0.031036 0.135132
0.095917 0.017242 0.116974
0.194733 0.025635 0.106201
0.320374 0.062012 0.118774
0.000000 0.147461 0.282135
0.009827 0.155060 0.309387
0.300812 0.107025 0.259796
0.482819 0.146790 0.216003
0.632355 0.182495 0.217407
0.014008 0.291748 0.250488
0.094543 0.374664 0.329041
0.454010 0.445740 0.395874
0.705444 0.462494 0.412140
0.875275 0.472778 0.405548
0.000000 0.508820 0.235687
0.000000 0.631561 0.289368
0.367798 0.707581 0.283844
0.761719 0.733398 0.480316
1.000000 0.761444 0.508545
0.000000 0.825623 0.339478
0.079926 0.882416 0.355988
0.381927 0.919891 0.318115
0.787292 0.941498 0.507477
0.987854 0.980011 0.519592
0.000000 0.054993 0.173401
0.000000 0.062897 0.207458
0.009430 0.001221 0.295776
0.174561 0.023438 0.171600
0.272461 0.043732 0.168243
0.000000 0.164642 0.360382
0.000000 0.174011 0.390686
0.017426 0.089783 0.477905
0.404816 0.105621 0.328888
0.570221 0.144501 0.326569
0.002380 0.395721 0.570679
0.143188 0.435272 0.610840
0.274811 0.403442 0.533539
0.638672 0.378448 0.518799
0.768921 0.400146 0.495880
0.056274 0.499481 0.437622
0.148376 0.587372 0.517914
0.434723 0.681976 0.601227
0.805481 0.776825 0.674713
0.964142 0.774384 0.719330
0.000000 0.760376 0.497559
0.088531 0.838440 0.567841
0.475067 0.919525 0.631897
0.813721 0.964996 0.742767
0.999664 0.994354 0.767029
0.000000 0.080353 0.240723
0.000000 0.092010 0.291748
0.000031 0.028839 0.360413
0.175934 0.019043 0.262238
0.270782 0.043945 0.237976
0.000000 0.198364 0.453217
0.000000 0.207581 0.480347
0.025055 0.165955 0.435822
0.345154 0.090393 0.415161
0.522766 0.121674 0.420929
0.000000 0.389923 0.680023
0.007996 0.428986 0.732025
0.161224 0.409668 0.689789
0.584198 0.322266 0.604156
0.746887 0.352081 0.608002
0.089874 0.684540 0.862122
0.269257 0.721130 0.897827
0.491730 0.745819 0.905792
0.779419 0.747894 0.806427
0.931976 0.779114 0.830109
0.064484 0.831055 0.784149
0.229980 0.883118 0.833679
0.509766 0.945251 0.884827
0.806702 0.980713 0.943939
1.000000 0.999664 1.000000
