lut/retro-80s/ET (1982) - Standard.cube
# Created by Benjamin (IWLTBAP): https://luts.iwltbap.com
# Copyright: (C) Copyright 2018 Triune Films and IWLTBAP SAS
# Cannot be resold, shared or otherwise redistributed
TITLE "Triune Films 80s Retro LUTs (Rec.709, sRGB, DCI-P3)"
LUT_3D_SIZE 33
0.000641 0.000000 0.000000
0.018616 0.000092 0.000092
0.047424 0.000458 0.000153
0.088562 0.000244 0.000275
0.127075 0.000336 0.000336
0.162811 0.000671 0.000214
0.197266 0.001495 0.000488
0.229706 0.003784 0.000427
0.261627 0.005371 0.000763
0.293915 0.006531 0.001678
0.324829 0.008057 0.003052
0.354370 0.009827 0.003632
0.383850 0.011810 0.004425
0.412598 0.013672 0.005157
0.441193 0.015350 0.006073
0.468292 0.017609 0.005920
0.495209 0.019318 0.006470
0.521423 0.021637 0.007233
0.547882 0.023987 0.007782
0.573120 0.026733 0.008118
0.596985 0.029236 0.008820
0.622528 0.031891 0.009613
0.646729 0.034729 0.010345
0.669586 0.037537 0.011078
0.691498 0.041107 0.011810
0.715149 0.044098 0.012543
0.738129 0.047363 0.013275
0.759033 0.050842 0.014496
0.781952 0.054291 0.015747
0.803925 0.057343 0.016876
0.825287 0.060669 0.018311
0.846436 0.063843 0.019806
0.866028 0.067078 0.021179
0.000244 0.015381 0.002014
0.017975 0.015259 0.000427
0.049377 0.014801 0.000519
0.088165 0.015320 0.000488
0.126862 0.015472 0.000549
0.163635 0.016052 0.000610
0.197601 0.017548 0.000702
0.230225 0.019318 0.000824
0.262573 0.020905 0.001221
0.294525 0.022186 0.002411
0.325409 0.023773 0.003326
0.354767 0.026062 0.004059
0.384308 0.027771 0.004852
0.413330 0.029388 0.005554
0.441650 0.031158 0.006317
0.468658 0.033569 0.006348
0.496033 0.035156 0.006927
0.522308 0.037476 0.007446
0.548676 0.039612 0.008270
0.574371 0.042206 0.008698
0.598724 0.044830 0.008881
0.624176 0.047150 0.009674
0.647339 0.050049 0.010376
0.670990 0.052734 0.011139
0.693542 0.055695 0.011841
0.717285 0.058594 0.012604
0.740448 0.061615 0.013763
0.762573 0.065063 0.014740
0.784607 0.068237 0.016205
0.806732 0.071381 0.017548
0.827667 0.074677 0.019012
0.849030 0.077576 0.020172
0.869446 0.080566 0.021423
0.000153 0.042755 0.013458
0.008545 0.044800 0.007294
0.049377 0.043030 0.000793
0.089569 0.043091 0.000793
0.127747 0.043671 0.000732
0.163940 0.044281 0.000854
0.197723 0.045532 0.001038
0.231049 0.046570 0.001465
0.263245 0.048126 0.002228
0.295166 0.049286 0.003052
0.326324 0.050568 0.003967
0.355927 0.052246 0.004913
0.385345 0.053589 0.005676
0.414246 0.055176 0.006470
0.442322 0.056610 0.006714
0.469910 0.058502 0.007324
0.496948 0.059998 0.007721
0.523712 0.061737 0.008331
0.549957 0.063446 0.008942
0.575348 0.065521 0.009460
0.601135 0.067352 0.010101
0.625946 0.069427 0.010773
0.650238 0.071655 0.011383
0.674316 0.073914 0.012024
0.698303 0.076324 0.012695
0.722260 0.078796 0.013458
0.745667 0.081451 0.014343
0.768890 0.084106 0.015625
0.791321 0.086823 0.017151
0.814087 0.089569 0.018707
0.834900 0.092773 0.019684
0.856506 0.095215 0.021088
0.878357 0.097656 0.022614
0.000336 0.076935 0.033234
0.006378 0.079529 0.027374
0.029572 0.081696 0.013306
0.088837 0.079163 0.001282
0.128052 0.079285 0.000885
0.163849 0.079773 0.001068
0.198425 0.080292 0.001678
0.232117 0.080780 0.002563
0.264771 0.081421 0.003357
0.296326 0.082642 0.004089
0.326843 0.083679 0.004852
0.356995 0.084503 0.005676
0.386322 0.085449 0.006470
0.414856 0.086517 0.006866
0.442902 0.087677 0.007416
0.470825 0.088684 0.008179
0.497925 0.089966 0.008484
0.524536 0.091217 0.009155
0.550842 0.092529 0.009796
0.576508 0.094208 0.010498
0.602081 0.095520 0.011292
0.626740 0.097321 0.011475
0.651459 0.098846 0.012299
0.675690 0.100800 0.012970
0.699829 0.102783 0.014130
0.723602 0.105011 0.014893
0.747253 0.106995 0.016266
0.770386 0.109375 0.017212
0.793396 0.111603 0.018707
0.816040 0.113800 0.020142
0.838348 0.116028 0.020966
0.860443 0.117981 0.022461
0.882324 0.120209 0.023926
0.000427 0.110016 0.054413
0.006409 0.112183 0.050110
0.017822 0.115265 0.032806
0.072113 0.114746 0.013306
0.129364 0.112701 0.002075
0.164368 0.113129 0.002258
0.199646 0.113129 0.003113
0.232788 0.113708 0.003937
0.265533 0.114197 0.004730
0.297424 0.114838 0.005615
0.328033 0.115417 0.005890
0.357483 0.116089 0.006592
0.386780 0.116669 0.007202
0.415588 0.117340 0.007629
0.443665 0.118225 0.008362
0.471375 0.119110 0.009155
0.498535 0.120148 0.009247
0.525269 0.121033 0.010071
0.551666 0.122162 0.010895
0.577484 0.123322 0.011658
0.602753 0.124512 0.011810
0.627777 0.125702 0.012665
0.652435 0.127136 0.013397
0.676880 0.128754 0.014160
0.700958 0.130554 0.015350
0.724945 0.132263 0.016327
0.748383 0.134125 0.017761
0.771606 0.135986 0.019226
0.794739 0.137848 0.020477
0.817322 0.139679 0.021729
0.839630 0.141418 0.023163
0.861694 0.143311 0.024658
0.883575 0.145233 0.025970
0.000427 0.141083 0.068481
0.006470 0.142792 0.064240
0.012817 0.145813 0.045319
0.058350 0.146790 0.023376
0.123413 0.144592 0.010254
0.167114 0.143402 0.003998
0.200073 0.144196 0.004791
0.233398 0.144501 0.005585
0.266388 0.144653 0.006042
0.297760 0.145111 0.006622
0.328430 0.145538 0.006836
0.358124 0.145966 0.007538
0.387451 0.146393 0.008148
0.415955 0.147064 0.008636
0.444366 0.147583 0.009460
0.472137 0.148438 0.010193
0.499420 0.149109 0.010468
0.525909 0.150055 0.011200
0.552094 0.151001 0.011841
0.578003 0.151978 0.012665
0.603516 0.152985 0.013489
0.628418 0.154053 0.013824
0.653259 0.155396 0.014801
0.677979 0.156586 0.016083
0.702148 0.158112 0.017303
0.725983 0.159668 0.018311
0.749695 0.161163 0.019836
0.772858 0.162781 0.021118
0.795715 0.164490 0.022278
0.818390 0.165985 0.023865
0.840607 0.167633 0.025116
0.862762 0.169159 0.026245
0.884735 0.170868 0.027771
0.000397 0.171478 0.075745
0.006592 0.172638 0.070465
0.012604 0.175385 0.056366
0.049011 0.176819 0.031830
0.113983 0.175629 0.019348
0.166840 0.173553 0.007843
0.202301 0.173340 0.006287
0.234772 0.173676 0.006592
0.266357 0.174194 0.007324
0.298309 0.174347 0.007782
0.328949 0.174561 0.008362
0.358734 0.174957 0.009125
0.387848 0.175537 0.009430
0.416565 0.176025 0.010132
0.444733 0.176666 0.010590
0.472687 0.177094 0.011353
0.499786 0.177826 0.011902
0.526550 0.178589 0.012634
0.552826 0.179413 0.013153
0.578705 0.180237 0.013947
0.604218 0.181183 0.014832
0.629395 0.182220 0.015656
0.654419 0.183319 0.016693
0.679016 0.184448 0.017944
0.703125 0.185852 0.019165
0.727081 0.187164 0.020233
0.750549 0.188568 0.021759
0.773712 0.190002 0.023193
0.796600 0.191345 0.024231
0.819244 0.192688 0.025818
0.841553 0.194153 0.026917
0.863770 0.195435 0.028473
0.885620 0.197021 0.029785
0.000580 0.200531 0.082001
0.006470 0.202209 0.077789
0.012665 0.204346 0.064636
0.031952 0.206757 0.039825
0.100159 0.205902 0.027557
0.157349 0.204102 0.017273
0.202240 0.202545 0.008484
0.236115 0.202545 0.008026
0.267639 0.202942 0.008331
0.298309 0.203491 0.009033
0.329437 0.203491 0.009583
0.359222 0.203827 0.010284
0.388458 0.204254 0.010895
0.417145 0.204681 0.011414
0.445435 0.205139 0.011993
0.473267 0.205627 0.012726
0.500275 0.206360 0.013214
0.527191 0.206970 0.014069
0.553467 0.207703 0.014893
0.579468 0.208496 0.015656
0.605133 0.209442 0.016632
0.630432 0.210419 0.017517
0.655304 0.211487 0.018646
0.679932 0.212524 0.020020
0.704102 0.213745 0.021088
0.728027 0.214905 0.022491
0.751556 0.216187 0.023895
0.774597 0.217377 0.025177
0.797394 0.218597 0.026642
0.820099 0.219696 0.027771
0.842438 0.221039 0.029297
0.864563 0.222351 0.030853
0.886475 0.223724 0.032196
0.000549 0.229828 0.088043
0.006531 0.230957 0.084625
0.012726 0.232849 0.072845
0.019348 0.235809 0.045013
0.086243 0.235687 0.033386
0.147064 0.234222 0.025146
0.197144 0.232330 0.015411
0.237305 0.231262 0.009979
0.269257 0.231506 0.009796
0.299927 0.231934 0.010437
0.329926 0.232330 0.010773
0.359863 0.232605 0.011627
0.389191 0.232971 0.012329
0.417908 0.233337 0.012787
0.446106 0.233826 0.013367
0.474060 0.234192 0.014160
0.501221 0.234802 0.014984
0.528015 0.235382 0.015808
0.554443 0.236176 0.016754
0.580536 0.237030 0.017548
0.606232 0.237854 0.018890
0.631500 0.238770 0.019775
0.656464 0.239807 0.021057
0.680969 0.240845 0.022095
0.705170 0.241913 0.023529
0.729004 0.243042 0.025024
0.752319 0.244080 0.026123
0.775421 0.245117 0.027496
0.798187 0.246216 0.028748
0.820831 0.247284 0.030212
0.843231 0.248505 0.031677
0.865448 0.249634 0.033203
0.887360 0.251038 0.034882
0.000763 0.258362 0.095428
0.006653 0.259796 0.091644
0.012817 0.261688 0.080322
0.018982 0.264954 0.054443
0.070068 0.265533 0.038818
0.136566 0.264252 0.031769
0.188141 0.262787 0.023804
0.233978 0.261017 0.014984
0.270599 0.260315 0.011444
0.301361 0.260651 0.012115
0.331299 0.261108 0.012329
0.360596 0.261475 0.013184
0.389679 0.261841 0.013794
0.418671 0.262115 0.014313
0.447021 0.262512 0.015015
0.474792 0.263031 0.015869
0.502167 0.263550 0.016815
0.529144 0.264282 0.017670
0.555634 0.265015 0.018829
0.581665 0.265900 0.019958
0.607361 0.266724 0.021423
0.632538 0.267700 0.022308
0.657501 0.268585 0.023529
0.682007 0.269470 0.024963
0.706085 0.270538 0.026093
0.729767 0.271393 0.027527
0.753082 0.272369 0.028534
0.776184 0.273346 0.029877
0.799042 0.274353 0.031158
0.821655 0.275391 0.032776
0.844116 0.276459 0.034332
0.866180 0.277740 0.035858
0.888214 0.278931 0.037415
0.000610 0.288208 0.103760
0.006866 0.288605 0.100891
0.012878 0.290741 0.091187
0.019012 0.293579 0.071167
0.044312 0.295715 0.047913
0.121216 0.294739 0.040833
0.177032 0.293396 0.033478
0.225159 0.291840 0.024750
0.268738 0.290070 0.015991
0.302704 0.289795 0.013824
0.332672 0.290253 0.014160
0.362000 0.290527 0.014984
0.390656 0.291107 0.015625
0.419006 0.291687 0.016510
0.447906 0.291962 0.017517
0.475891 0.292419 0.018494
0.503387 0.293060 0.019318
0.530365 0.293701 0.020203
0.556732 0.294556 0.021515
0.582916 0.295197 0.022522
0.608612 0.296051 0.024048
0.633636 0.296936 0.025085
0.658539 0.297791 0.026367
0.682983 0.298615 0.027679
0.706940 0.299438 0.028687
0.730591 0.300293 0.030121
0.753937 0.301178 0.031189
0.777008 0.302155 0.032806
0.799835 0.303131 0.033936
0.822479 0.304108 0.035339
0.844879 0.305237 0.036896
0.867035 0.306335 0.038422
0.889099 0.307495 0.040039
0.000671 0.317719 0.113708
0.006744 0.318756 0.110474
0.012787 0.320496 0.102295
0.019165 0.323029 0.082642
0.027191 0.326050 0.055023
0.104828 0.325531 0.048828
0.166046 0.324310 0.042419
0.216461 0.322937 0.034912
0.261902 0.321350 0.026001
0.302338 0.319916 0.017822
0.333954 0.320038 0.016479
0.363251 0.320374 0.016937
0.392242 0.320923 0.017792
0.420471 0.321625 0.018646
0.448883 0.322144 0.019989
0.476898 0.322632 0.020996
0.504425 0.323151 0.022125
0.531342 0.323822 0.023193
0.557953 0.324493 0.024506
0.584076 0.325226 0.025818
0.609650 0.325989 0.026855
0.634735 0.326660 0.028137
0.659424 0.327362 0.029236
0.683777 0.328064 0.030365
0.707703 0.328857 0.031494
0.731354 0.329590 0.032928
0.754791 0.330383 0.034363
0.777740 0.331329 0.035431
0.800659 0.332275 0.036865
0.823303 0.333160 0.038422
0.845703 0.334198 0.039886
0.867920 0.335236 0.041412
0.889893 0.336365 0.043060
0.000732 0.347412 0.120026
0.006805 0.348236 0.118561
0.012939 0.349670 0.112610
0.019104 0.352356 0.095184
0.025330 0.355560 0.067108
0.085999 0.355682 0.056213
0.154297 0.354889 0.050995
0.207886 0.353699 0.044586
0.254761 0.352448 0.036499
0.297516 0.350983 0.027405
0.334778 0.350006 0.020020
0.365143 0.350220 0.019684
0.394104 0.350739 0.020569
0.422485 0.351288 0.021545
0.450409 0.351959 0.022644
0.477966 0.352570 0.023895
0.505463 0.353149 0.025269
0.532562 0.353638 0.026489
0.559204 0.354218 0.027832
0.585083 0.354858 0.029175
0.610626 0.355377 0.030121
0.635681 0.355927 0.031006
0.660278 0.356598 0.032257
0.684570 0.357269 0.033325
0.708588 0.357941 0.034637
0.732147 0.358795 0.035919
0.755585 0.359467 0.037140
0.778717 0.360260 0.038666
0.801575 0.361237 0.040131
0.824158 0.362061 0.041229
0.846588 0.363007 0.042938
0.868713 0.364014 0.044434
0.890808 0.364990 0.045990
0.000824 0.377106 0.125183
0.006866 0.377899 0.124207
0.012909 0.379395 0.120026
0.019165 0.381409 0.107361
0.025360 0.384521 0.083099
0.059204 0.386017 0.064636
0.139832 0.385315 0.059998
0.196960 0.384338 0.054565
0.246368 0.383270 0.047852
0.290619 0.382080 0.039856
0.331360 0.380737 0.030090
0.366608 0.380005 0.023499
0.395996 0.380310 0.023468
0.424286 0.380890 0.024689
0.452179 0.381439 0.025696
0.479736 0.381989 0.027191
0.506592 0.382660 0.028168
0.533478 0.383087 0.029602
0.559998 0.383514 0.030914
0.585938 0.383972 0.032013
0.611450 0.384491 0.033386
0.636536 0.384979 0.034302
0.661224 0.385620 0.035339
0.685547 0.386169 0.036591
0.709503 0.386871 0.038025
0.733154 0.387543 0.039307
0.756470 0.388275 0.040405
0.779572 0.389069 0.041870
0.802429 0.389923 0.043335
0.825073 0.390717 0.044708
0.847443 0.391632 0.046112
0.869659 0.392578 0.047485
0.891663 0.393494 0.049255
0.000824 0.407013 0.128876
0.006989 0.407501 0.127899
0.013031 0.408783 0.125000
0.019318 0.410553 0.116028
0.025452 0.413544 0.094299
0.042969 0.415771 0.071838
0.126892 0.415070 0.067535
0.187927 0.414398 0.062683
0.238373 0.413605 0.057068
0.284271 0.412506 0.050690
0.325500 0.411438 0.042542
0.364288 0.410156 0.032501
0.398010 0.409546 0.026642
0.426239 0.410065 0.027863
0.454041 0.410400 0.028839
0.481354 0.410919 0.029846
0.508270 0.411346 0.030975
0.534546 0.411957 0.032227
0.560760 0.412445 0.033539
0.586823 0.412750 0.035034
0.612427 0.413239 0.036133
0.637421 0.413757 0.037476
0.662140 0.414276 0.038666
0.686401 0.414886 0.040070
0.710480 0.415466 0.041138
0.734100 0.416168 0.042480
0.757416 0.416870 0.043854
0.780548 0.417603 0.045288
0.803375 0.418365 0.046631
0.825989 0.419189 0.048035
0.848358 0.420013 0.049408
0.870575 0.420929 0.050812
0.892639 0.421844 0.052307
0.001007 0.435638 0.135193
0.007080 0.436401 0.133698
0.013123 0.438171 0.127686
0.019318 0.440063 0.118774
0.025452 0.442139 0.107483
0.037384 0.444916 0.080170
0.112244 0.444611 0.074890
0.179138 0.443817 0.070251
0.232086 0.442993 0.064850
0.278442 0.442261 0.059235
0.320923 0.441162 0.052338
0.359863 0.440002 0.044159
0.396454 0.438843 0.034882
0.427704 0.438568 0.030762
0.455566 0.438904 0.031616
0.482819 0.439362 0.033081
0.509674 0.439850 0.033966
0.536041 0.440277 0.035004
0.562012 0.440826 0.036621
0.587677 0.441315 0.038177
0.613281 0.441772 0.039246
0.638397 0.442200 0.040771
0.663055 0.442780 0.042053
0.687439 0.443268 0.043121
0.711395 0.443878 0.044525
0.735077 0.444489 0.045929
0.758423 0.445129 0.047455
0.781464 0.445862 0.048767
0.804352 0.446564 0.050079
0.826935 0.447327 0.051361
0.849335 0.448151 0.052795
0.871582 0.448975 0.054138
0.893707 0.449921 0.055817
0.000977 0.464844 0.138397
0.007019 0.465485 0.137207
0.013214 0.466400 0.133514
0.019440 0.468231 0.124664
0.025543 0.470398 0.114441
0.033783 0.472748 0.093903
0.092651 0.473419 0.081970
0.166840 0.472809 0.078064
0.221710 0.472198 0.073700
0.269806 0.471375 0.068420
0.313568 0.470398 0.062347
0.353821 0.469391 0.055634
0.391754 0.468201 0.046875
0.426941 0.467255 0.037994
0.456909 0.467163 0.035492
0.484222 0.467499 0.036316
0.511108 0.467926 0.037445
0.537506 0.468353 0.038483
0.563416 0.468872 0.039886
0.588959 0.469452 0.040955
0.614136 0.470001 0.042511
0.639191 0.470428 0.043976
0.663971 0.470886 0.045380
0.688354 0.471344 0.046783
0.712341 0.471985 0.048004
0.735992 0.472565 0.049408
0.759308 0.473175 0.050781
0.782471 0.473816 0.052032
0.805328 0.474518 0.053436
0.827972 0.475189 0.054810
0.850464 0.476013 0.056488
0.872742 0.476929 0.058014
0.894867 0.477905 0.059906
0.001129 0.492767 0.140778
0.007202 0.493469 0.138550
0.013275 0.494415 0.136108
0.019440 0.496307 0.126709
0.025635 0.498291 0.115234
0.031738 0.500519 0.101196
0.074219 0.501282 0.088013
0.156403 0.500916 0.084656
0.213959 0.500397 0.080719
0.263184 0.499725 0.076263
0.307190 0.498993 0.071075
0.347931 0.498169 0.065125
0.386261 0.497192 0.058380
0.422821 0.496185 0.050018
0.457062 0.495239 0.041321
0.485626 0.495331 0.040131
0.512451 0.495728 0.041229
0.538879 0.496124 0.042236
0.564819 0.496582 0.043365
0.590454 0.497101 0.044708
0.615540 0.497650 0.045959
0.640106 0.498230 0.047455
0.664825 0.498688 0.048950
0.689209 0.499207 0.050507
0.713287 0.499725 0.051819
0.736938 0.500244 0.053070
0.760345 0.500854 0.054321
0.783447 0.501434 0.055542
0.806335 0.502106 0.057007
0.829071 0.502960 0.058472
0.851624 0.503723 0.060181
0.874023 0.504669 0.062164
0.896240 0.505676 0.063812
0.001099 0.520569 0.143250
0.007385 0.520905 0.141083
0.013306 0.522369 0.136383
0.019562 0.523743 0.128204
0.025726 0.525635 0.117004
0.031830 0.527954 0.102478
0.065826 0.528870 0.093689
0.146149 0.528534 0.090546
0.207306 0.528137 0.086792
0.258423 0.527374 0.082489
0.303192 0.526794 0.077789
0.344513 0.526062 0.072357
0.383240 0.525238 0.066193
0.419495 0.524445 0.059631
0.454559 0.523499 0.051788
0.486633 0.522858 0.045197
0.513855 0.523163 0.044922
0.540253 0.523590 0.046082
0.566193 0.524078 0.047333
0.591766 0.524445 0.048492
0.616882 0.524994 0.049805
0.641571 0.525543 0.051086
0.665985 0.526123 0.052551
0.690125 0.526672 0.054260
0.714203 0.527130 0.055542
0.737885 0.527679 0.056732
0.761292 0.528229 0.058380
0.784454 0.528900 0.059692
0.807556 0.529755 0.061188
0.830353 0.530548 0.062805
0.852966 0.531342 0.064819
0.875305 0.532257 0.066467
0.897522 0.533173 0.068298
0.001129 0.548279 0.143280
0.007355 0.548615 0.141418
0.013428 0.549286 0.139801
0.019592 0.550781 0.131561
0.025757 0.552734 0.118591
0.031860 0.554779 0.105835
0.060242 0.555908 0.098022
0.135010 0.555817 0.096283
0.200043 0.555420 0.092987
0.251953 0.554932 0.089264
0.297638 0.554352 0.085175
0.339233 0.553864 0.080658
0.378052 0.553192 0.075378
0.415131 0.552399 0.069519
0.450592 0.551605 0.062775
0.484314 0.550781 0.055115
0.515442 0.550262 0.049042
0.541656 0.550690 0.050293
0.567596 0.551086 0.051239
0.593170 0.551514 0.052460
0.618195 0.552002 0.053711
0.643005 0.552521 0.054962
0.667419 0.553070 0.056274
0.691406 0.553680 0.057709
0.715210 0.554260 0.059509
0.738983 0.554932 0.061249
0.762573 0.555511 0.062592
0.785858 0.556305 0.064331
0.808868 0.557068 0.065979
0.831635 0.557800 0.067535
0.854218 0.558655 0.069153
0.876587 0.559479 0.070801
0.898865 0.560394 0.072784
0.001190 0.575043 0.146271
0.007355 0.575378 0.145599
0.013519 0.576202 0.141052
0.019653 0.578003 0.129852
0.025787 0.579224 0.123566
0.031921 0.581238 0.108948
0.059692 0.582367 0.101501
0.126923 0.582581 0.101807
0.191528 0.582458 0.099548
0.244934 0.582001 0.096252
0.291321 0.581604 0.092865
0.333466 0.581207 0.088959
0.372925 0.580627 0.084229
0.410522 0.579987 0.079102
0.446411 0.579224 0.073151
0.480591 0.578583 0.066559
0.513733 0.577728 0.058777
0.543152 0.577454 0.054260
0.569092 0.577850 0.055511
0.594574 0.578308 0.056641
0.619690 0.578796 0.057953
0.644501 0.579285 0.059113
0.668945 0.579834 0.060455
0.693085 0.580475 0.062012
0.716949 0.581207 0.063507
0.740356 0.581940 0.065247
0.764008 0.582611 0.067078
0.787292 0.583282 0.068848
0.810303 0.584015 0.070557
0.833069 0.584778 0.072113
0.855591 0.585571 0.073822
0.877991 0.586426 0.075562
0.900177 0.587341 0.077271
0.001434 0.601471 0.146088
0.007416 0.602142 0.144958
0.013580 0.602966 0.140259
0.019684 0.604248 0.133789
0.025787 0.606140 0.120850
0.031982 0.607849 0.106506
0.062500 0.608398 0.104736
0.127258 0.608734 0.105591
0.186096 0.608826 0.105072
0.240570 0.608643 0.102051
0.287872 0.608185 0.098785
0.330597 0.607819 0.095032
0.370300 0.607361 0.091003
0.407837 0.606781 0.086334
0.443726 0.606232 0.081329
0.477814 0.605682 0.075653
0.510925 0.605011 0.069366
0.542694 0.604370 0.062378
0.570770 0.604340 0.059845
0.596283 0.604828 0.061035
0.621490 0.605347 0.062195
0.646271 0.605896 0.063538
0.670776 0.606537 0.065094
0.694946 0.607117 0.066437
0.718842 0.607788 0.067932
0.742401 0.608490 0.069458
0.765564 0.609253 0.071228
0.788818 0.609924 0.073120
0.811829 0.610626 0.074951
0.834625 0.611359 0.076721
0.857147 0.612183 0.078461
0.879425 0.612915 0.080170
0.901459 0.613678 0.081604
0.001404 0.627869 0.147552
0.007568 0.628357 0.145203
0.013580 0.629120 0.143585
0.019806 0.630585 0.131836
0.025940 0.631744 0.124451
0.032074 0.633575 0.110138
0.065948 0.634094 0.107941
0.132294 0.634460 0.108795
0.185059 0.634857 0.109589
0.236908 0.634735 0.107849
0.284851 0.634430 0.104614
0.328400 0.634033 0.101013
0.368164 0.633698 0.097290
0.405792 0.633362 0.093292
0.441650 0.632935 0.088776
0.476105 0.632416 0.083984
0.509125 0.631989 0.078766
0.540985 0.631500 0.072906
0.571533 0.631073 0.066742
0.598358 0.631287 0.065735
0.623444 0.631805 0.066956
0.648193 0.632355 0.068298
0.672760 0.632904 0.069641
0.696869 0.633514 0.071167
0.720703 0.634186 0.072632
0.744232 0.634857 0.074097
0.767487 0.635559 0.075684
0.790436 0.636322 0.077393
0.813354 0.637024 0.079498
0.836121 0.637665 0.081024
0.858551 0.638275 0.082672
0.880768 0.638916 0.084198
0.902802 0.639618 0.085938
0.001526 0.653900 0.147675
0.007599 0.654358 0.147125
0.013580 0.655396 0.142670
0.019806 0.656464 0.134247
0.026031 0.657990 0.120880
0.032104 0.659149 0.113953
0.068604 0.659668 0.111511
0.137695 0.660126 0.112274
0.188873 0.660431 0.113098
0.233826 0.660706 0.113708
0.281006 0.660614 0.111359
0.324158 0.660461 0.108734
0.364197 0.660278 0.105682
0.402283 0.659973 0.101990
0.438568 0.659637 0.098053
0.473358 0.659210 0.093628
0.506683 0.658844 0.088867
0.538971 0.658447 0.083466
0.570099 0.657959 0.077576
0.599884 0.657532 0.071808
0.625519 0.657959 0.071808
0.650269 0.658508 0.073242
0.674713 0.659027 0.074493
0.698853 0.659607 0.075958
0.722626 0.660278 0.077423
0.746124 0.660889 0.078827
0.769379 0.661530 0.080383
0.792175 0.662140 0.081909
0.814850 0.662842 0.083649
0.837311 0.663452 0.085388
0.859802 0.664001 0.086975
0.882050 0.664612 0.088470
0.904083 0.665283 0.090027
0.001556 0.679657 0.151642
0.007660 0.680450 0.147156
0.013794 0.681458 0.140381
0.019806 0.682404 0.136383
0.025970 0.684052 0.121826
0.036957 0.684967 0.114532
0.080841 0.685242 0.115204
0.146088 0.685638 0.116028
0.195160 0.685974 0.116852
0.237640 0.686401 0.117706
0.279846 0.686584 0.117401
0.323273 0.686462 0.114899
0.363312 0.686310 0.112183
0.401154 0.686096 0.109009
0.437164 0.685822 0.105621
0.471619 0.685577 0.102112
0.504913 0.685303 0.098114
0.537140 0.684967 0.093536
0.568481 0.684540 0.088135
0.598846 0.684082 0.082397
0.627655 0.683807 0.077026
0.652374 0.684296 0.078186
0.676758 0.684875 0.079529
0.700775 0.685394 0.080872
0.724457 0.685913 0.082001
0.747772 0.686432 0.083374
0.770874 0.686981 0.085022
0.793762 0.687592 0.086395
0.816437 0.688171 0.088013
0.838806 0.688812 0.089691
0.860931 0.689484 0.091309
0.883301 0.690063 0.093018
0.905457 0.690704 0.094574
0.001495 0.706207 0.147095
0.007751 0.706360 0.145630
0.013885 0.707153 0.140442
0.019989 0.708374 0.131622
0.026093 0.709412 0.123627
0.044586 0.710266 0.118378
0.095123 0.710571 0.118866
0.154877 0.710968 0.119751
0.202057 0.711334 0.120544
0.243683 0.711639 0.121460
0.281952 0.712036 0.122498
0.323364 0.712067 0.120819
0.363434 0.711945 0.118134
0.401428 0.711761 0.115295
0.437317 0.711578 0.112152
0.472046 0.711334 0.108582
0.505249 0.711090 0.104858
0.537231 0.710754 0.100891
0.568268 0.710449 0.096649
0.598114 0.710144 0.091919
0.627136 0.709839 0.086731
0.654327 0.709747 0.083099
0.678558 0.710144 0.084351
0.702423 0.710663 0.085449
0.726013 0.711121 0.086792
0.749329 0.711639 0.088196
0.772430 0.712219 0.089508
0.795319 0.712738 0.091095
0.817993 0.713318 0.092682
0.840332 0.713959 0.094147
0.862610 0.714539 0.095825
0.884644 0.715271 0.097595
0.906708 0.715912 0.099457
0.001617 0.731842 0.145386
0.007721 0.732239 0.144379
0.013855 0.732941 0.139740
0.020050 0.733673 0.133728
0.026123 0.735199 0.121796
0.049133 0.735382 0.122284
0.110260 0.735687 0.122894
0.164612 0.736053 0.123596
0.209503 0.736450 0.124390
0.250122 0.736755 0.125153
0.287567 0.737122 0.126099
0.323761 0.737457 0.126740
0.363220 0.737396 0.124542
0.401031 0.737213 0.121857
0.436920 0.737061 0.119019
0.471375 0.736816 0.115814
0.504456 0.736572 0.112549
0.536346 0.736328 0.108978
0.567108 0.736053 0.105255
0.596924 0.735748 0.101074
0.625946 0.735504 0.096710
