lut/retro-80s/ET (1982) - Standard.cube
# Created by Benjamin (IWLTBAP): https://luts.iwltbap.com
# Copyright: (C) Copyright 2018 Triune Films and IWLTBAP SAS
# Cannot be resold, shared or otherwise redistributed
TITLE "Triune Films 80s Retro LUTs (Rec.709, sRGB, DCI-P3)"
LUT_3D_SIZE 5
0.000641 0.000000 0.000000
0.261627 0.005371 0.000763
0.495209 0.019318 0.006470
0.691498 0.041107 0.011810
0.866028 0.067078 0.021179
0.000549 0.229828 0.088043
0.269257 0.231506 0.009796
0.501221 0.234802 0.014984
0.705170 0.241913 0.023529
0.887360 0.251038 0.034882
0.000977 0.464844 0.138397
0.221710 0.472198 0.073700
0.511108 0.467926 0.037445
0.712341 0.471985 0.048004
0.894867 0.477905 0.059906
0.001556 0.679657 0.151642
0.195160 0.685974 0.116852
0.504913 0.685303 0.098114
0.724457 0.685913 0.082001
0.905457 0.690704 0.094574
0.002045 0.878754 0.142059
0.263519 0.880768 0.144989
0.510315 0.882904 0.148651
0.733368 0.883270 0.134491
0.919189 0.886902 0.136047
0.003601 0.014130 0.177216
0.268433 0.007233 0.241608
0.498657 0.020630 0.245514
0.698547 0.042480 0.244354
0.879486 0.067749 0.242950
0.003906 0.227203 0.249817
0.272827 0.232788 0.247314
0.504395 0.236420 0.249786
0.707489 0.244354 0.253693
0.889526 0.253723 0.255646
0.004517 0.461334 0.292786
0.195099 0.476013 0.276794
0.514099 0.470276 0.254547
0.714935 0.474792 0.257782
0.897522 0.481262 0.261139
0.005280 0.678253 0.294281
0.203644 0.688507 0.282166
0.502533 0.689575 0.276733
0.728058 0.689545 0.263947
0.908875 0.694733 0.269104
0.006378 0.878601 0.275299
0.274506 0.884521 0.283875
0.517151 0.885956 0.293182
0.738953 0.885437 0.293701
0.919769 0.887756 0.321655
0.011444 0.019135 0.361603
0.285919 0.007996 0.466309
0.506683 0.022552 0.472839
0.704315 0.045532 0.475891
0.882874 0.070129 0.476685
0.012360 0.217499 0.454895
0.244476 0.237762 0.491333
0.510315 0.236969 0.477692
0.710602 0.245544 0.483429
0.891815 0.254791 0.487152
0.012695 0.449066 0.471008
0.240265 0.471130 0.491455
0.517548 0.470367 0.485291
0.717224 0.475281 0.489288
0.898956 0.482300 0.493927
0.013275 0.664948 0.489929
0.219818 0.685760 0.502930
0.493805 0.690460 0.508179
0.729218 0.689301 0.498596
0.908752 0.694824 0.504822
0.014069 0.865417 0.491089
0.280334 0.881195 0.510376
0.517303 0.885803 0.516266
0.734528 0.886597 0.520721
0.920532 0.888306 0.543518
0.019104 0.033661 0.504791
0.270538 0.039581 0.660858
0.517334 0.025940 0.672089
0.713257 0.050079 0.679199
0.890289 0.073578 0.681519
0.021057 0.216461 0.632324
0.220917 0.240143 0.694153
0.522461 0.236206 0.677582
0.717285 0.245819 0.683533
0.895966 0.256531 0.688141
0.021423 0.436401 0.667053
0.261200 0.465271 0.697601
0.507446 0.473602 0.695892
0.722717 0.475586 0.689789
0.900818 0.485016 0.695374
0.032959 0.652740 0.667114
0.284119 0.679565 0.693848
0.512421 0.688538 0.699097
0.733398 0.689575 0.700043
0.908783 0.697021 0.707733
0.061432 0.852661 0.677917
0.302490 0.877075 0.704590
0.527405 0.884308 0.712799
0.734406 0.888153 0.718170
0.920227 0.886688 0.762787
0.031250 0.047607 0.633118
0.261566 0.062286 0.818726
0.531677 0.032196 0.848480
0.722778 0.055145 0.857697
0.896149 0.078064 0.860596
0.030090 0.211273 0.820770
0.206604 0.241455 0.871368
0.519745 0.242981 0.864136
0.727295 0.245300 0.862427
0.897491 0.261780 0.862793
0.030182 0.426361 0.844177
0.231201 0.463959 0.876740
0.497040 0.476379 0.880005
0.731659 0.475342 0.867981
0.902649 0.490082 0.868896
0.110901 0.639526 0.840515
0.312683 0.673553 0.871704
0.529022 0.685272 0.883545
0.731567 0.691528 0.884369
0.909973 0.701599 0.878662
0.191528 0.838959 0.844910
0.353760 0.870178 0.875946
0.552887 0.881012 0.886444
0.744720 0.888092 0.890686
0.921021 0.891052 0.932068
