lut/retro-80s/ET (1982) - Standard.cube
# Created by Benjamin (IWLTBAP): https://luts.iwltbap.com
# Copyright: (C) Copyright 2018 Triune Films and IWLTBAP SAS
# Cannot be resold, shared or otherwise redistributed
TITLE "Triune Films 80s Retro LUTs (Rec.709, sRGB, DCI-P3)"
LUT_3D_SIZE 9
0.000641 0.000000 0.000000
0.127075 0.000336 0.000336
0.261627 0.005371 0.000763
0.383850 0.011810 0.004425
0.495209 0.019318 0.006470
0.596985 0.029236 0.008820
0.691498 0.041107 0.011810
0.781952 0.054291 0.015747
0.866028 0.067078 0.021179
0.000427 0.110016 0.054413
0.129364 0.112701 0.002075
0.265533 0.114197 0.004730
0.386780 0.116669 0.007202
0.498535 0.120148 0.009247
0.602753 0.124512 0.011810
0.700958 0.130554 0.015350
0.794739 0.137848 0.020477
0.883575 0.145233 0.025970
0.000549 0.229828 0.088043
0.086243 0.235687 0.033386
0.269257 0.231506 0.009796
0.389191 0.232971 0.012329
0.501221 0.234802 0.014984
0.606232 0.237854 0.018890
0.705170 0.241913 0.023529
0.798187 0.246216 0.028748
0.887360 0.251038 0.034882
0.000732 0.347412 0.120026
0.025330 0.355560 0.067108
0.254761 0.352448 0.036499
0.394104 0.350739 0.020569
0.505463 0.353149 0.025269
0.610626 0.355377 0.030121
0.708588 0.357941 0.034637
0.801575 0.361237 0.040131
0.890808 0.364990 0.045990
0.000977 0.464844 0.138397
0.025543 0.470398 0.114441
0.221710 0.472198 0.073700
0.391754 0.468201 0.046875
0.511108 0.467926 0.037445
0.614136 0.470001 0.042511
0.712341 0.471985 0.048004
0.805328 0.474518 0.053436
0.894867 0.477905 0.059906
0.001190 0.575043 0.146271
0.025787 0.579224 0.123566
0.191528 0.582458 0.099548
0.372925 0.580627 0.084229
0.513733 0.577728 0.058777
0.619690 0.578796 0.057953
0.716949 0.581207 0.063507
0.810303 0.584015 0.070557
0.900177 0.587341 0.077271
0.001556 0.679657 0.151642
0.025970 0.684052 0.121826
0.195160 0.685974 0.116852
0.363312 0.686310 0.112183
0.504913 0.685303 0.098114
0.627655 0.683807 0.077026
0.724457 0.685913 0.082001
0.816437 0.688171 0.088013
0.905457 0.690704 0.094574
0.001740 0.781952 0.145721
0.030273 0.784332 0.129211
0.225708 0.785431 0.131348
0.366669 0.786682 0.134460
0.503357 0.786407 0.126495
0.623932 0.785858 0.114899
0.731201 0.785522 0.102478
0.822906 0.787598 0.107239
0.911530 0.789978 0.113159
0.002045 0.878754 0.142059
0.114227 0.879761 0.143127
0.263519 0.880768 0.144989
0.390991 0.881866 0.147522
0.510315 0.882904 0.148651
0.626831 0.883118 0.142365
0.733368 0.883270 0.134491
0.830292 0.884277 0.130280
0.919189 0.886902 0.136047
0.001068 0.006927 0.072205
0.131165 0.000580 0.112335
0.264130 0.006287 0.114624
0.385895 0.012238 0.115723
0.497131 0.019928 0.114532
0.600739 0.029572 0.113983
0.697571 0.041534 0.111816
0.790894 0.054718 0.110626
0.878937 0.067261 0.107361
0.001465 0.111328 0.120117
0.132294 0.113159 0.115417
0.267517 0.115479 0.116577
0.388611 0.117889 0.117462
0.500000 0.121552 0.117889
0.604156 0.126251 0.117645
0.702728 0.132294 0.118164
0.796570 0.139801 0.118439
0.885468 0.147583 0.117310
0.001740 0.229248 0.160522
0.061859 0.238281 0.134888
0.271362 0.232727 0.116821
0.391174 0.234314 0.117920
0.503174 0.236298 0.118744
0.608002 0.239868 0.120087
0.707062 0.244171 0.121216
0.800171 0.248627 0.121216
0.889587 0.253754 0.121246
0.002045 0.347473 0.182159
0.026093 0.356598 0.158905
0.248383 0.355591 0.132294
0.396454 0.352905 0.118286
0.507904 0.355408 0.120483
0.612823 0.357910 0.121613
0.710815 0.360718 0.122131
0.803925 0.364258 0.122711
0.893402 0.368439 0.123016
0.002380 0.465912 0.192993
0.026520 0.472565 0.173950
0.217194 0.475403 0.147095
0.390656 0.471863 0.128815
0.514252 0.470886 0.119263
0.617218 0.473145 0.120728
0.715393 0.475372 0.122253
0.808594 0.478302 0.123108
0.898438 0.482147 0.124054
0.002960 0.577118 0.191193
0.027039 0.582977 0.167450
0.192932 0.586273 0.154877
0.375214 0.584747 0.142792
0.516479 0.582062 0.122894
0.624084 0.583069 0.118744
0.721375 0.585846 0.120819
0.814911 0.588989 0.123596
0.904938 0.592773 0.125458
0.003723 0.683777 0.180481
0.027679 0.689087 0.154968
0.206757 0.691162 0.153717
0.370331 0.691833 0.150024
0.511383 0.691071 0.136627
0.633759 0.689941 0.117706
0.730713 0.692200 0.119049
0.822784 0.694916 0.121368
0.910004 0.697937 0.129333
0.004700 0.788574 0.157410
0.053772 0.791809 0.146820
0.241669 0.793091 0.148926
0.379517 0.794617 0.151367
0.514893 0.794617 0.142853
0.634552 0.794434 0.129913
0.740631 0.794617 0.117706
0.832428 0.797211 0.120209
0.915497 0.798065 0.142944
0.007172 0.883881 0.148682
0.151459 0.884094 0.152863
0.292328 0.884521 0.156799
0.415802 0.885162 0.161591
0.533447 0.885529 0.164581
0.645844 0.885223 0.164062
0.748138 0.884918 0.164886
0.839172 0.885590 0.177917
0.919891 0.887512 0.210358
0.003601 0.014130 0.177216
0.139496 0.001434 0.238007
0.268433 0.007233 0.241608
0.388245 0.013519 0.244507
0.498657 0.020630 0.245514
0.602203 0.030273 0.245331
0.698547 0.042480 0.244354
0.791412 0.055511 0.244324
0.879486 0.067749 0.242950
0.003784 0.109985 0.235657
0.112305 0.116547 0.255615
0.271423 0.115295 0.244904
0.390167 0.118378 0.247009
0.501434 0.121887 0.248260
0.605347 0.126465 0.249054
0.703491 0.132782 0.250031
0.796997 0.140198 0.251373
0.885712 0.147675 0.251526
0.003906 0.227203 0.249817
0.063049 0.237488 0.257568
0.272827 0.232788 0.247314
0.392944 0.234375 0.248474
0.504395 0.236420 0.249786
0.608978 0.239929 0.251740
0.707489 0.244354 0.253693
0.800385 0.248657 0.254669
0.889526 0.253723 0.255646
0.004333 0.343597 0.274231
0.026947 0.355286 0.273621
0.233673 0.357239 0.264160
0.397491 0.352753 0.250610
0.508606 0.355286 0.252716
0.613098 0.357788 0.254303
0.710938 0.360596 0.255554
0.803772 0.363983 0.256897
0.893036 0.368042 0.258209
0.004517 0.461334 0.292786
0.027283 0.470917 0.285217
0.195099 0.476013 0.276794
0.380493 0.472900 0.265625
0.514099 0.470276 0.254547
0.617004 0.472534 0.256317
0.714935 0.474792 0.257782
0.807892 0.477539 0.259247
0.897522 0.481262 0.261139
0.004944 0.571930 0.297729
0.027618 0.580353 0.287109
0.186157 0.584808 0.280762
0.363556 0.584595 0.276489
0.508728 0.582184 0.264709
0.623016 0.581787 0.258179
0.719818 0.584503 0.260559
0.813416 0.587433 0.263428
0.903168 0.590912 0.265900
0.005280 0.678253 0.294281
0.028107 0.685333 0.282227
0.203644 0.688507 0.282166
0.356659 0.690369 0.284607
0.502533 0.689575 0.276733
0.627106 0.688293 0.265869
0.728058 0.689545 0.263947
0.819916 0.692017 0.266449
0.908875 0.694733 0.269104
0.005859 0.781158 0.283203
0.043762 0.786499 0.280579
0.235077 0.788513 0.283722
0.373840 0.790131 0.286255
0.503387 0.790863 0.284485
0.625519 0.790436 0.277008
0.734711 0.790009 0.268036
0.827271 0.792023 0.269409
0.914856 0.794342 0.277405
0.006378 0.878601 0.275299
0.130615 0.882812 0.280670
0.274506 0.884521 0.283875
0.401184 0.885132 0.288116
0.517151 0.885956 0.293182
0.632996 0.885742 0.293152
0.738953 0.885437 0.293701
0.835266 0.885742 0.299377
0.919769 0.887756 0.321655
0.007507 0.014557 0.279846
0.131439 0.011444 0.353363
0.275879 0.007690 0.357880
0.392670 0.013977 0.361298
0.502075 0.022186 0.362976
0.604431 0.031982 0.363983
0.700958 0.044403 0.364990
0.793304 0.056702 0.365112
0.880676 0.068665 0.363892
0.007568 0.111633 0.328369
0.090027 0.118896 0.377411
0.278381 0.114441 0.360809
0.394592 0.118073 0.363373
0.504333 0.122070 0.365509
0.607239 0.126923 0.367218
0.705383 0.133270 0.369690
0.798340 0.140808 0.371307
0.886780 0.148163 0.371857
0.007935 0.221863 0.354614
0.060730 0.234253 0.389282
0.260529 0.235260 0.374603
0.396027 0.234253 0.366119
0.506439 0.236847 0.368408
0.610809 0.240326 0.370880
0.708893 0.244751 0.373077
0.801392 0.249084 0.374329
0.890350 0.254242 0.375763
0.007965 0.338715 0.363678
0.053619 0.352783 0.377350
0.235992 0.357269 0.376129
0.399658 0.352875 0.369659
0.510803 0.355438 0.372040
0.614532 0.358002 0.373688
0.712006 0.360840 0.375336
0.804688 0.364349 0.376984
0.893677 0.368408 0.378571
0.008301 0.455536 0.380798
0.028870 0.469208 0.386322
0.192383 0.475830 0.388977
0.374542 0.473907 0.384705
0.515381 0.470398 0.374268
0.618195 0.472595 0.375916
0.715607 0.475006 0.377899
0.808350 0.477844 0.379639
0.897919 0.481689 0.382050
0.008667 0.565735 0.392456
0.029175 0.578247 0.393036
0.192596 0.583740 0.393433
0.355194 0.585205 0.394745
0.503998 0.582947 0.386749
0.623749 0.581665 0.379456
0.720551 0.584503 0.381866
0.813812 0.587524 0.384369
0.903351 0.590942 0.386963
0.009033 0.671356 0.396271
0.029449 0.683228 0.393646
0.208832 0.687164 0.396820
0.356659 0.689697 0.400421
0.497070 0.689911 0.397583
0.623444 0.688812 0.390045
0.728210 0.689270 0.386353
0.819733 0.691803 0.388733
0.908752 0.694458 0.391510
0.009308 0.774506 0.393250
0.050171 0.783691 0.395538
0.238129 0.786957 0.399750
0.375183 0.789032 0.402710
0.497803 0.790649 0.404785
0.621643 0.790405 0.399811
0.731964 0.789886 0.393433
0.826813 0.791412 0.393005
0.914368 0.793884 0.399811
0.009735 0.872162 0.388184
0.134064 0.879669 0.397736
0.275360 0.882782 0.401764
0.399933 0.884735 0.404358
0.515656 0.886047 0.407837
0.628357 0.886322 0.410217
0.735809 0.886017 0.411011
0.834076 0.886169 0.415741
0.919983 0.888062 0.434174
0.011444 0.019135 0.361603
0.119965 0.022766 0.454926
0.285919 0.007996 0.466309
0.398468 0.014435 0.469940
0.506683 0.022552 0.472839
0.607971 0.032776 0.474182
0.704315 0.045532 0.475891
0.795654 0.059631 0.476990
0.882874 0.070129 0.476685
0.012146 0.110626 0.436737
0.071564 0.120514 0.487793
0.272308 0.118317 0.476593
0.400513 0.117432 0.472626
0.508301 0.122009 0.475006
0.610382 0.127411 0.477051
0.707611 0.134552 0.479797
0.799866 0.142273 0.482056
0.888397 0.149048 0.483368
0.012360 0.217499 0.454895
0.030487 0.234772 0.501526
0.244476 0.237762 0.491333
0.401184 0.233734 0.475342
0.510315 0.236969 0.477692
0.613373 0.240997 0.480713
0.710602 0.245544 0.483429
0.802887 0.249817 0.485474
0.891815 0.254791 0.487152
0.012451 0.331818 0.464264
0.055695 0.349335 0.492493
0.238434 0.354889 0.499756
0.392395 0.355072 0.487335
0.514221 0.355286 0.482056
0.616669 0.358185 0.484497
0.713867 0.361176 0.486481
0.806244 0.364685 0.488281
0.894958 0.368896 0.490082
0.012695 0.449066 0.471008
0.070679 0.465515 0.487152
0.240265 0.471130 0.491455
0.377594 0.473938 0.488373
0.517548 0.470367 0.485291
0.620453 0.472595 0.487305
0.717224 0.475281 0.489288
0.809540 0.478271 0.491302
0.898956 0.482300 0.493927
0.012939 0.559479 0.480591
0.031708 0.575958 0.491364
0.209137 0.582001 0.496887
0.354065 0.585236 0.501404
0.502228 0.583557 0.497467
0.625427 0.581848 0.490875
0.722137 0.584717 0.493317
0.814941 0.587860 0.496002
0.904266 0.591400 0.498779
0.013275 0.664948 0.489929
0.033569 0.680420 0.497498
0.219818 0.685760 0.502930
0.362640 0.688904 0.507019
0.493805 0.690460 0.508179
0.621582 0.689453 0.502991
0.729218 0.689301 0.498596
0.820526 0.691956 0.501007
0.908752 0.694824 0.504822
0.013702 0.767670 0.491852
0.064087 0.780762 0.501709
0.246002 0.785370 0.507324
0.379822 0.788086 0.510834
0.498810 0.790283 0.513885
0.619354 0.790680 0.511932
0.730316 0.790344 0.507477
0.827484 0.791412 0.505829
0.913910 0.793945 0.514954
0.014069 0.865417 0.491089
0.144226 0.876740 0.504913
0.280334 0.881195 0.510376
0.403229 0.883728 0.513641
0.517303 0.885803 0.516266
0.625946 0.886963 0.519684
0.734528 0.886597 0.520721
0.833313 0.886902 0.525452
0.920532 0.888306 0.543518
0.015320 0.024963 0.435822
0.112579 0.034241 0.543488
0.279541 0.022644 0.568329
0.405457 0.015411 0.572418
0.511444 0.023956 0.575684
0.612671 0.034393 0.578461
0.708527 0.047577 0.580872
0.799347 0.060822 0.582153
0.886078 0.072327 0.582153
0.016693 0.108978 0.547882
0.051697 0.121460 0.589813
0.265564 0.122253 0.584534
0.408295 0.116241 0.575714
0.513855 0.121704 0.578339
0.614746 0.127716 0.580994
0.711060 0.135101 0.583832
0.802643 0.142578 0.585876
0.890503 0.150391 0.587463
0.016632 0.217438 0.537811
0.033173 0.235077 0.595184
0.230377 0.239471 0.597198
0.394775 0.236938 0.584351
0.515656 0.236725 0.580841
0.617371 0.241272 0.584045
0.713562 0.245819 0.586670
0.805206 0.250397 0.588715
0.893372 0.255981 0.590790
0.016876 0.325348 0.569855
0.080444 0.344391 0.598206
0.225677 0.354797 0.607697
0.382629 0.357483 0.596863
0.519012 0.355011 0.584808
0.620361 0.358124 0.587158
0.716248 0.361603 0.589539
0.807892 0.365570 0.591888
0.896576 0.369659 0.594360
0.017120 0.442383 0.569122
0.088654 0.461395 0.592041
0.247833 0.468567 0.599640
0.379791 0.472137 0.604370
0.513977 0.471710 0.593811
0.623535 0.472565 0.590942
0.719513 0.475433 0.593353
0.811462 0.478729 0.595673
0.900543 0.483032 0.598511
0.017303 0.553345 0.571564
0.111053 0.570648 0.588745
0.257812 0.577576 0.595337
0.382263 0.581848 0.597076
0.503845 0.583984 0.595978
0.627838 0.582001 0.594971
0.724579 0.584930 0.597656
0.816864 0.588226 0.600403
0.904816 0.592285 0.603821
0.017548 0.659149 0.577576
0.063873 0.676819 0.592621
0.238861 0.683807 0.600433
0.373383 0.687744 0.605347
0.493408 0.690765 0.609436
0.621307 0.690033 0.606781
0.730957 0.689484 0.602692
0.822174 0.692139 0.605072
0.908630 0.695740 0.610321
0.017822 0.761688 0.584991
0.099915 0.777069 0.599609
0.258270 0.783508 0.606964
0.387360 0.786926 0.611053
0.504211 0.789612 0.614471
0.618652 0.790955 0.615326
0.729736 0.790833 0.612457
0.828705 0.791565 0.610443
0.913666 0.794525 0.621643
0.030609 0.859009 0.587646
0.161682 0.873108 0.603943
0.289459 0.879333 0.611145
0.408966 0.882629 0.615082
0.521454 0.885162 0.618073
0.626770 0.887299 0.620789
0.734009 0.887329 0.622864
0.833466 0.887665 0.627441
0.920258 0.887451 0.656433
0.019104 0.033661 0.504791
0.108551 0.043915 0.621521
0.270538 0.039581 0.660858
0.413330 0.017303 0.667725
0.517334 0.025940 0.672089
0.617279 0.036957 0.675385
0.713257 0.050079 0.679199
0.804016 0.062103 0.681213
0.890289 0.073578 0.681519
0.021179 0.107422 0.654968
0.041748 0.121796 0.684448
0.261871 0.125000 0.683228
0.408661 0.119873 0.675964
0.520477 0.120941 0.675446
0.620178 0.127960 0.678650
0.715485 0.135712 0.681671
0.806030 0.143005 0.683411
0.893372 0.151001 0.685059
0.021057 0.216461 0.632324
0.036194 0.234283 0.690430
0.220917 0.240143 0.694153
0.388947 0.239868 0.685852
0.522461 0.236206 0.677582
0.622498 0.241058 0.681000
0.717285 0.245819 0.683533
0.808258 0.250793 0.685791
0.895966 0.256531 0.688141
0.021271 0.322144 0.657410
0.036316 0.344757 0.695953
0.196381 0.356659 0.704987
0.374023 0.359467 0.697144
0.513947 0.357758 0.686707
0.624847 0.357880 0.683594
0.719757 0.361694 0.686157
0.810638 0.365936 0.688660
0.897522 0.371399 0.690857
0.021423 0.436401 0.667053
0.115204 0.456512 0.688080
0.261200 0.465271 0.697601
0.379028 0.471191 0.704773
0.507446 0.473602 0.695892
0.627777 0.472290 0.687225
0.722717 0.475586 0.689789
0.813965 0.479279 0.692474
0.900818 0.485016 0.695374
0.021637 0.546783 0.666107
0.134918 0.565918 0.685455
0.268768 0.574829 0.694031
0.390594 0.579681 0.699158
0.506653 0.582672 0.703033
0.626678 0.583099 0.695526
0.727722 0.585052 0.694916
0.819366 0.588623 0.697998
0.904999 0.593750 0.701172
0.032959 0.652740 0.667114
0.160461 0.670654 0.685181
0.284119 0.679565 0.693848
0.402039 0.684509 0.698303
0.512421 0.688538 0.699097
0.622620 0.690491 0.700714
0.733398 0.689575 0.700043
0.824493 0.692291 0.702515
0.908783 0.697021 0.707733
0.022980 0.755798 0.671844
0.145142 0.772888 0.689758
0.277679 0.781067 0.698669
0.398804 0.785522 0.703766
0.512054 0.788727 0.707611
0.619934 0.791107 0.710571
0.730377 0.791260 0.709564
0.830627 0.791809 0.707611
0.913818 0.795563 0.719086
0.061432 0.852661 0.677917
0.184906 0.869202 0.695923
0.302490 0.877075 0.704590
0.417358 0.881287 0.709381
0.527405 0.884308 0.712799
0.631378 0.886841 0.715759
0.734406 0.888153 0.718170
0.834503 0.888489 0.722107
0.920227 0.886688 0.762787
0.022949 0.041107 0.570557
0.098175 0.053650 0.693329
0.267303 0.050751 0.742920
0.408630 0.036591 0.758118
0.524261 0.028412 0.763092
0.622742 0.040344 0.767059
0.717682 0.052948 0.770813
0.808289 0.064056 0.773743
0.894806 0.075226 0.775055
0.025787 0.103912 0.757599
0.052185 0.121979 0.773041
0.256653 0.128571 0.776520
0.405060 0.125916 0.772247
0.528992 0.120178 0.767578
0.626862 0.127869 0.770935
0.720856 0.135590 0.773956
0.810425 0.143219 0.775940
0.895721 0.152466 0.776642
0.025574 0.214233 0.727509
0.039612 0.232483 0.779694
0.213135 0.240784 0.784882
0.383667 0.242645 0.780731
0.521240 0.239441 0.773254
0.628418 0.240692 0.772400
0.722015 0.245544 0.775116
0.811951 0.250977 0.777557
0.896667 0.258850 0.778381
0.025574 0.320374 0.739349
0.039673 0.343872 0.782654
0.173309 0.357147 0.795227
0.366669 0.360840 0.790558
0.508453 0.360474 0.782806
0.630005 0.357513 0.775055
0.723999 0.361603 0.777618
0.814148 0.366089 0.780273
0.898193 0.373657 0.780914
0.025757 0.429413 0.762207
0.120117 0.451385 0.780426
0.248535 0.464447 0.790588
0.366913 0.472626 0.796600
0.501251 0.475250 0.790833
0.624298 0.474548 0.782837
0.726715 0.475525 0.780975
0.817444 0.479675 0.783936
0.901550 0.487366 0.785126
0.029358 0.540375 0.756409
0.158478 0.560913 0.774963
0.281677 0.571777 0.785156
0.400574 0.577454 0.791473
0.510010 0.581787 0.797424
0.622772 0.584778 0.791565
0.731873 0.585114 0.786102
0.822662 0.588867 0.789154
0.905396 0.595795 0.790497
0.070251 0.645905 0.756256
0.182648 0.666107 0.775513
0.297516 0.676636 0.785736
0.410950 0.682648 0.791595
0.520630 0.686798 0.795807
0.625824 0.689606 0.799072
0.733582 0.690277 0.793854
0.827454 0.692413 0.794189
0.909241 0.698883 0.797180
0.120361 0.748016 0.758392
0.211670 0.766876 0.777313
0.316711 0.776825 0.787201
0.425140 0.782410 0.792511
0.531647 0.786163 0.795715
0.632263 0.789673 0.796021
0.732269 0.791626 0.799347
0.833069 0.791992 0.799286
0.914215 0.797424 0.807953
0.121338 0.846436 0.762238
0.216431 0.864624 0.781342
0.321533 0.874237 0.791595
0.429657 0.879639 0.797485
0.535980 0.883240 0.801514
0.637604 0.886169 0.804871
0.736084 0.888794 0.807770
0.836243 0.889343 0.810760
0.920502 0.886810 0.859253
0.031250 0.047607 0.633118
0.101440 0.061279 0.759369
0.261566 0.062286 0.818726
0.402222 0.054321 0.841888
0.531677 0.032196 0.848480
0.629517 0.043457 0.854004
0.722778 0.055145 0.857697
0.812286 0.066071 0.860626
0.896149 0.078064 0.860596
0.030487 0.104614 0.841095
0.048248 0.124054 0.858734
0.254547 0.131592 0.864166
0.405731 0.129944 0.861847
0.533600 0.123779 0.857300
0.634857 0.127594 0.858887
0.726776 0.135437 0.861542
0.815430 0.143402 0.863739
0.896545 0.155518 0.861359
0.030090 0.211273 0.820770
0.043182 0.230377 0.865387
0.206604 0.241455 0.871368
0.381012 0.244812 0.869720
0.519745 0.242981 0.864136
0.635071 0.239929 0.859467
0.727295 0.245300 0.862427
0.816315 0.251129 0.865051
0.897491 0.261780 0.862793
0.030090 0.318481 0.824188
0.043213 0.342712 0.867249
0.160278 0.356781 0.880402
0.360687 0.361816 0.878418
0.504639 0.362488 0.872742
0.628876 0.359985 0.865570
0.729034 0.361359 0.864716
0.818268 0.366180 0.867523
0.899231 0.376465 0.865143
0.030182 0.426361 0.844177
0.066071 0.449921 0.865906
0.231201 0.463959 0.876740
0.360352 0.472992 0.883118
0.497040 0.476379 0.880005
0.620972 0.476654 0.873779
0.731659 0.475342 0.867981
0.821716 0.479858 0.871155
0.902649 0.490082 0.868896
0.073883 0.533081 0.841278
0.185883 0.555359 0.860321
0.301514 0.567474 0.872192
0.402496 0.576080 0.879944
0.504333 0.583191 0.885040
0.619995 0.586273 0.881561
0.730591 0.587036 0.876312
0.826599 0.589050 0.875977
0.906067 0.598541 0.873199
0.110901 0.639526 0.840515
0.206268 0.661133 0.860229
0.312683 0.673553 0.871704
0.421448 0.680695 0.878632
0.529022 0.685272 0.883545
0.630798 0.688599 0.888184
0.731567 0.691528 0.884369
0.831177 0.692474 0.880981
0.909973 0.701599 0.878662
0.153015 0.741486 0.842682
0.234100 0.762024 0.862244
0.332275 0.773590 0.873322
0.435791 0.780273 0.879791
0.539154 0.784760 0.884125
0.639435 0.788177 0.887482
0.736176 0.790985 0.890442
0.834442 0.792480 0.887909
0.914734 0.800598 0.886841
0.191528 0.838959 0.844910
0.263428 0.858917 0.864777
0.353760 0.870178 0.875946
0.452698 0.876678 0.882324
0.552887 0.881012 0.886444
0.650848 0.884521 0.889404
0.744720 0.888092 0.890686
0.838562 0.890320 0.894958
0.921021 0.891052 0.932068
