lut/retro-80s/Ferris Buellers Day Off (1986) - Standard.cube
# Created by Benjamin (IWLTBAP): https://luts.iwltbap.com
# Copyright: (C) Copyright 2018 Triune Films and IWLTBAP SAS
# Cannot be resold, shared or otherwise redistributed
TITLE "Triune Films 80s Retro LUTs (Rec.709, sRGB, DCI-P3)"
LUT_3D_SIZE 9
0.000946 0.000732 0.001251
0.072479 0.001312 0.001190
0.158539 0.002319 0.000854
0.260925 0.002411 0.000397
0.359802 0.003357 0.000122
0.457764 0.005005 0.000092
0.560120 0.008148 0.000031
0.676666 0.015900 0.000031
0.801361 0.034515 0.000031
0.007446 0.079315 0.004395
0.085266 0.082092 0.003906
0.191589 0.084930 0.002014
0.301147 0.080261 0.001068
0.402985 0.078430 0.000824
0.506378 0.080566 0.000763
0.618286 0.088531 0.000763
0.740753 0.107391 0.000916
0.858521 0.138733 0.002411
0.018188 0.183685 0.011108
0.104279 0.189484 0.010803
0.224060 0.197937 0.007141
0.353607 0.209137 0.003845
0.466156 0.207245 0.002991
0.577209 0.211884 0.003021
0.689789 0.224091 0.003418
0.800629 0.246399 0.007080
0.904358 0.274200 0.016052
0.032379 0.317749 0.016632
0.133972 0.329529 0.016937
0.263092 0.334717 0.015991
0.383698 0.348663 0.017059
0.506439 0.367981 0.017609
0.625763 0.376038 0.018860
0.742065 0.388123 0.023254
0.850586 0.403778 0.032501
0.950500 0.419189 0.044708
0.083496 0.461670 0.026703
0.196106 0.476501 0.031982
0.326721 0.487366 0.043182
0.431885 0.486542 0.055176
0.533234 0.500336 0.065613
0.643768 0.515015 0.052643
0.762543 0.521729 0.041840
0.881317 0.530670 0.046814
0.991333 0.541321 0.059937
0.171539 0.602539 0.081635
0.279724 0.615356 0.096985
0.396088 0.626007 0.115051
0.494232 0.628662 0.129364
0.578888 0.627716 0.137695
0.669037 0.641052 0.132965
0.773041 0.651642 0.088745
0.895966 0.654358 0.047607
1.000000 0.657135 0.043518
0.248291 0.728027 0.160767
0.347839 0.738251 0.172333
0.452148 0.747650 0.185486
0.546448 0.753052 0.197754
0.630554 0.755585 0.206940
0.708923 0.756744 0.209381
0.794250 0.769775 0.192017
0.897034 0.780945 0.121796
1.000000 0.786469 0.053650
0.299103 0.837738 0.221100
0.391815 0.845428 0.228607
0.489838 0.853912 0.238892
0.583069 0.860687 0.249878
0.667938 0.865143 0.259766
0.747589 0.868988 0.266571
0.824951 0.873596 0.267883
0.908600 0.887115 0.241821
1.000000 0.902710 0.181000
0.334473 0.935638 0.268066
0.422302 0.941376 0.273163
0.515533 0.948547 0.281067
0.607849 0.955811 0.291229
0.693756 0.961517 0.302002
0.774811 0.966492 0.312378
0.853119 0.972290 0.320923
0.929047 0.980560 0.325775
1.000000 0.992096 0.311340
0.002625 0.003235 0.067535
0.073944 0.003571 0.067963
0.161682 0.002899 0.065002
0.265228 0.002777 0.061646
0.363892 0.003632 0.059967
0.462158 0.005310 0.059723
0.566772 0.008362 0.059570
0.687561 0.017120 0.059326
0.816132 0.038513 0.059113
0.008575 0.082458 0.073608
0.086456 0.085022 0.073914
0.192566 0.084229 0.069366
0.304413 0.078583 0.063629
0.406006 0.077362 0.061798
0.509155 0.080353 0.061646
0.621368 0.089417 0.062073
0.743713 0.110199 0.063080
0.861298 0.143188 0.065857
0.017365 0.187988 0.079834
0.101593 0.195282 0.080261
0.228119 0.201447 0.078033
0.359711 0.207489 0.074646
0.470123 0.204163 0.070404
0.579468 0.210876 0.069702
0.691406 0.226074 0.070831
0.802155 0.250183 0.075409
0.906250 0.279022 0.085693
0.027313 0.323456 0.082001
0.123230 0.336029 0.082336
0.261108 0.341125 0.081848
0.390015 0.352783 0.091614
0.513123 0.370483 0.100494
0.630829 0.378784 0.100525
0.745453 0.391449 0.102203
0.853333 0.407440 0.109192
0.953400 0.423370 0.120422
0.071960 0.467102 0.093994
0.182556 0.481445 0.099792
0.321686 0.493103 0.113098
0.435822 0.492249 0.128693
0.538910 0.504852 0.145172
0.649750 0.518982 0.136292
0.768311 0.525970 0.123840
0.886902 0.535156 0.125122
0.996826 0.545929 0.134247
0.161041 0.606415 0.152771
0.269836 0.619354 0.166626
0.392273 0.630920 0.183533
0.496002 0.634094 0.197815
0.583344 0.632904 0.207825
0.674072 0.645477 0.207428
0.779358 0.656982 0.163116
0.904114 0.661438 0.112549
1.000000 0.664856 0.101685
0.242462 0.732086 0.223236
0.342590 0.742584 0.233643
0.450073 0.752411 0.246185
0.547974 0.758148 0.258209
0.634247 0.760956 0.268005
0.713654 0.761902 0.272095
0.799377 0.774658 0.256500
0.905304 0.789490 0.177643
1.000000 0.796082 0.118195
0.301056 0.842865 0.274017
0.393127 0.850922 0.281494
0.492188 0.859283 0.291138
0.586853 0.866241 0.301819
0.672607 0.870789 0.311768
0.753052 0.874817 0.319092
0.830841 0.879639 0.321198
0.916077 0.894806 0.292236
1.000000 0.909027 0.257324
0.343781 0.939728 0.314209
0.431641 0.945038 0.321136
0.524780 0.951782 0.330231
0.616058 0.958405 0.341705
0.700928 0.963531 0.354675
0.780884 0.967987 0.368744
0.857361 0.972717 0.382202
0.930420 0.979980 0.394501
1.000000 0.992188 0.389893
0.006592 0.007629 0.135803
0.075592 0.010071 0.149323
0.163849 0.007782 0.142761
0.270599 0.004120 0.129059
0.368195 0.004059 0.122955
0.464813 0.005524 0.122620
0.567688 0.008667 0.123444
0.686279 0.017151 0.125671
0.814117 0.038361 0.129333
0.011444 0.088379 0.157959
0.084564 0.093323 0.163269
0.188080 0.088440 0.154480
0.307587 0.076538 0.133759
0.408112 0.074615 0.127136
0.509705 0.078125 0.127258
0.619720 0.088013 0.129791
0.740143 0.109253 0.134644
0.857239 0.143066 0.143829
0.016205 0.191895 0.166168
0.092957 0.203308 0.173615
0.219818 0.204834 0.172394
0.362396 0.195343 0.156067
0.470215 0.190460 0.144348
0.576508 0.200500 0.144745
0.686005 0.220245 0.149872
0.795868 0.247375 0.159424
0.899933 0.277832 0.176025
0.020599 0.327179 0.170990
0.101501 0.343384 0.176025
0.241638 0.351166 0.174164
0.396027 0.355927 0.190002
0.520081 0.367462 0.205048
0.634186 0.373077 0.201904
0.743988 0.386261 0.202454
0.848724 0.403137 0.209930
0.947327 0.419739 0.223572
0.048737 0.471161 0.193024
0.145264 0.487091 0.200226
0.291931 0.499695 0.206207
0.435059 0.499207 0.221344
0.544281 0.508057 0.242950
0.654266 0.517975 0.246368
0.771027 0.523621 0.242950
0.885681 0.533051 0.245514
0.991669 0.543396 0.253845
0.128937 0.609009 0.252014
0.230194 0.622742 0.262054
0.363220 0.634369 0.270813
0.487762 0.639221 0.284424
0.584991 0.637482 0.297607
0.677612 0.647827 0.301910
0.781891 0.654968 0.275482
0.903656 0.657013 0.250641
1.000000 0.660706 0.249176
0.211609 0.733490 0.315369
0.308777 0.743713 0.322540
0.422760 0.753204 0.330536
0.534668 0.760101 0.341522
0.629730 0.762390 0.353119
0.713257 0.763031 0.362762
0.799988 0.774323 0.351562
0.904816 0.784912 0.300934
1.000000 0.790710 0.252502
0.275116 0.842773 0.367371
0.365112 0.850494 0.374390
0.466553 0.857605 0.380737
0.569733 0.864594 0.389465
0.663116 0.869141 0.400330
0.747498 0.872681 0.412201
0.826691 0.876709 0.419495
0.912354 0.890411 0.393829
1.000000 0.906555 0.353973
0.324646 0.940460 0.413513
0.409668 0.946259 0.420380
0.502686 0.951599 0.425781
0.598602 0.957489 0.433197
0.689606 0.962860 0.444000
0.773376 0.967255 0.457336
0.852539 0.972015 0.471069
0.927856 0.979187 0.482178
1.000000 0.992188 0.474518
0.011810 0.012329 0.207336
0.074402 0.017151 0.251038
0.158264 0.017151 0.255646
0.274841 0.010315 0.232605
0.377716 0.006500 0.203156
0.471802 0.006836 0.194061
0.570801 0.009125 0.193817
0.683960 0.016785 0.198517
0.808685 0.037476 0.207916
0.013611 0.091919 0.261169
0.079407 0.100494 0.278625
0.171051 0.102448 0.286621
0.312561 0.085785 0.256653
0.418213 0.074402 0.216248
0.515045 0.076630 0.206238
0.619781 0.085632 0.208710
0.735443 0.107025 0.216980
0.850830 0.143188 0.232635
0.015808 0.194336 0.275421
0.081696 0.211060 0.296356
0.179962 0.219421 0.311005
0.357178 0.194733 0.281952
0.475342 0.176086 0.240265
0.576447 0.186493 0.234070
0.681763 0.209778 0.240479
0.789368 0.242035 0.253815
0.892792 0.276642 0.273346
0.017120 0.328735 0.290039
0.085419 0.350342 0.309265
0.191132 0.366272 0.320312
0.392059 0.362061 0.319611
0.529419 0.356018 0.310211
0.638031 0.359497 0.301727
0.742065 0.375397 0.304535
0.843262 0.395447 0.313019
0.940308 0.414795 0.324432
0.037598 0.474213 0.317413
0.119965 0.495117 0.334869
0.239349 0.510773 0.339172
0.423706 0.514404 0.342865
0.550995 0.512817 0.354767
0.660065 0.516479 0.358185
0.774780 0.521515 0.358002
0.884735 0.530792 0.359222
0.986420 0.540985 0.362610
0.109741 0.612457 0.365295
0.199799 0.629913 0.380249
0.322784 0.641724 0.383575
0.470367 0.648224 0.390076
0.587189 0.645905 0.399689
0.682434 0.651276 0.400635
0.786407 0.653839 0.381897
0.906555 0.654877 0.370270
1.000000 0.659790 0.370911
0.191437 0.736328 0.416077
0.283325 0.749542 0.428253
0.396271 0.757874 0.433563
0.517639 0.764404 0.439392
0.624756 0.766418 0.447327
0.714325 0.766724 0.456970
0.802643 0.776337 0.443970
0.909271 0.784332 0.401947
1.000000 0.788391 0.371582
0.262695 0.845337 0.462921
0.351227 0.854706 0.474396
0.451416 0.860809 0.480286
0.556763 0.866486 0.484985
0.656372 0.870819 0.491425
0.744568 0.873535 0.500916
0.826080 0.877563 0.509155
0.913269 0.890991 0.484009
1.000000 0.906891 0.448151
0.320404 0.942078 0.505341
0.403564 0.949341 0.515839
0.494293 0.954071 0.521271
0.589172 0.958801 0.525116
0.682556 0.963593 0.530945
0.769165 0.967499 0.540955
0.850220 0.972076 0.553406
0.927429 0.979187 0.564514
1.000000 0.992004 0.561401
0.015717 0.016205 0.286774
0.071625 0.019684 0.350800
0.147491 0.021240 0.372375
0.262421 0.019104 0.371796
0.386078 0.013611 0.340179
0.483063 0.011444 0.307190
0.576080 0.011536 0.292877
0.681824 0.015869 0.293091
0.800201 0.031830 0.303955
0.014984 0.091278 0.366028
0.074341 0.101746 0.388672
0.153931 0.108215 0.407898
0.286652 0.104889 0.417114
0.432129 0.088928 0.377411
0.529083 0.081543 0.336670
0.623230 0.084412 0.321899
0.731079 0.099945 0.324738
0.842682 0.136139 0.338898
0.015839 0.194763 0.387299
0.075226 0.214661 0.413727
0.157013 0.227936 0.438873
0.308380 0.228302 0.459259
0.487122 0.200531 0.415863
0.588654 0.187897 0.371582
0.683594 0.201721 0.360962
0.784180 0.232239 0.368195
0.884949 0.270386 0.383942
0.017700 0.327972 0.408630
0.080078 0.353149 0.435272
0.165985 0.372192 0.458862
0.329193 0.382568 0.482086
0.533813 0.357208 0.450439
0.643982 0.347137 0.415588
0.739258 0.362518 0.412354
0.835297 0.385681 0.421692
0.930542 0.408630 0.432678
0.038239 0.472137 0.438782
0.115540 0.496857 0.463745
0.213013 0.515839 0.480927
0.375977 0.530945 0.495239
0.553528 0.523895 0.490387
0.669250 0.516571 0.475494
0.777039 0.517822 0.468201
0.878662 0.526215 0.468475
0.975952 0.536194 0.470703
0.105591 0.611847 0.479523
0.189453 0.633240 0.500977
0.294250 0.648682 0.511353
0.441284 0.659607 0.519226
0.586395 0.660767 0.524536
0.687286 0.656769 0.515289
0.789917 0.652710 0.496185
0.905579 0.654663 0.492706
1.000000 0.658905 0.491638
0.181915 0.737274 0.520447
0.268280 0.754272 0.538391
0.375885 0.764740 0.546875
0.499023 0.771454 0.552399
0.618439 0.774506 0.556824
0.716675 0.774200 0.561615
0.805450 0.779144 0.546692
0.913177 0.782928 0.509247
1.000000 0.785583 0.493530
0.254272 0.846771 0.558472
0.341034 0.859344 0.574646
0.440979 0.866364 0.582947
0.545074 0.871124 0.587067
0.648834 0.874817 0.589813
0.742462 0.876801 0.594788
0.826447 0.880096 0.600952
0.914551 0.891998 0.578918
1.000000 0.906769 0.550049
0.317383 0.943542 0.594269
0.399384 0.953033 0.608307
0.489166 0.958130 0.615112
0.581940 0.962006 0.618408
0.675568 0.965820 0.620544
0.765350 0.969208 0.626068
0.848511 0.973114 0.635864
0.927429 0.979767 0.646362
1.000000 0.991638 0.650513
0.018250 0.018494 0.368103
0.071075 0.022491 0.433777
0.141724 0.025940 0.463226
0.246796 0.027649 0.481720
0.381958 0.026550 0.482086
0.498962 0.021912 0.457062
0.590515 0.018829 0.431061
0.684875 0.019470 0.419189
0.793488 0.029358 0.423706
0.017944 0.091675 0.455383
0.074615 0.105347 0.479004
0.149017 0.114960 0.502899
0.263275 0.120331 0.527435
0.420532 0.119293 0.532532
0.549164 0.109131 0.501068
0.641846 0.100891 0.471283
0.736389 0.107819 0.460419
0.838257 0.135376 0.465576
0.018951 0.197479 0.483704
0.076782 0.219971 0.510681
0.153534 0.236267 0.538086
0.274475 0.245941 0.569733
0.460144 0.244690 0.581451
0.602936 0.231201 0.543945
0.698151 0.225372 0.512695
0.787048 0.240326 0.502502
0.879364 0.271667 0.507263
0.022095 0.329193 0.510437
0.083496 0.356110 0.537476
0.164673 0.376373 0.563873
0.285706 0.391602 0.596283
0.494141 0.393860 0.615051
0.647125 0.376770 0.578583
0.744507 0.370514 0.547180
0.832336 0.385681 0.540344
0.921204 0.407593 0.544891
0.042542 0.468811 0.541077
0.117432 0.495453 0.567535
0.206879 0.515839 0.589539
0.327759 0.534332 0.614044
0.528778 0.544586 0.630920
0.676117 0.533569 0.612091
0.777924 0.522644 0.587158
0.870514 0.525269 0.577240
0.962006 0.534363 0.576721
0.108582 0.607910 0.580841
0.188782 0.631775 0.604553
0.279358 0.649445 0.620758
0.404572 0.665192 0.636078
0.569580 0.674866 0.647491
0.690491 0.668579 0.638519
0.793518 0.659454 0.620209
0.898193 0.658600 0.613190
0.998383 0.660614 0.608978
0.181213 0.735626 0.618164
0.261383 0.755066 0.638245
0.359253 0.768463 0.650787
0.479828 0.778564 0.660828
0.608429 0.784607 0.668030
0.718170 0.785370 0.670715
0.808350 0.784149 0.656158
0.914185 0.781799 0.625854
1.000000 0.784088 0.621582
0.248566 0.846924 0.649994
0.332489 0.861877 0.668091
0.430786 0.871216 0.679077
0.535461 0.877258 0.685791
0.641571 0.881561 0.690155
0.740967 0.883728 0.693207
0.827942 0.885376 0.696198
0.915771 0.893829 0.679596
1.000000 0.905884 0.660187
0.312347 0.944244 0.679565
0.393860 0.955780 0.695557
0.484100 0.962433 0.704590
0.576263 0.966736 0.709351
0.669739 0.970215 0.712219
0.762238 0.973419 0.715240
0.847717 0.976318 0.721863
0.927795 0.981720 0.730682
1.000000 0.991211 0.745209
0.020294 0.019867 0.444336
0.073059 0.026489 0.506622
0.142273 0.032867 0.544373
0.244354 0.037445 0.573975
0.375763 0.042786 0.594086
0.512390 0.047760 0.597473
0.620911 0.044067 0.581512
0.713562 0.039673 0.565735
0.810974 0.048157 0.563110
0.022552 0.095917 0.537659
0.078461 0.112091 0.563812
0.152191 0.125031 0.590302
0.260254 0.135620 0.618622
0.405090 0.144867 0.642700
0.555237 0.154236 0.643951
0.667206 0.151520 0.624329
0.759033 0.149628 0.607086
0.850372 0.165649 0.601837
0.024506 0.202759 0.571564
0.082001 0.227936 0.599243
0.159180 0.246887 0.627045
0.270477 0.260834 0.658539
0.431580 0.271088 0.688477
0.596436 0.280365 0.686340
0.710724 0.277557 0.662598
0.801025 0.278778 0.643219
0.886353 0.294495 0.635406
0.028564 0.333374 0.601746
0.089966 0.361725 0.628204
0.171387 0.383270 0.654144
0.280792 0.400330 0.685059
0.452087 0.411987 0.720428
0.631805 0.419434 0.717651
0.748260 0.411621 0.693237
0.839233 0.408905 0.672028
0.922272 0.419830 0.662628
0.047546 0.468048 0.630219
0.120453 0.495880 0.655396
0.207642 0.517365 0.677826
0.312347 0.535889 0.703461
0.481628 0.551971 0.734985
0.660553 0.559753 0.737305
0.775360 0.550354 0.718872
0.867493 0.541656 0.698853
0.952423 0.544952 0.688446
0.110016 0.603485 0.666962
0.188416 0.628784 0.690765
0.272675 0.647614 0.709595
0.375305 0.664124 0.728607
0.535400 0.679840 0.748383
0.687225 0.686432 0.754150
0.795807 0.681976 0.745911
0.888519 0.674408 0.732056
0.977264 0.671967 0.722137
0.182770 0.731873 0.705170
0.258057 0.752808 0.725891
0.345703 0.768066 0.740692
0.456757 0.780548 0.753906
0.591431 0.790710 0.765778
0.712860 0.795197 0.771088
0.809601 0.792297 0.763367
0.909424 0.787048 0.747101
1.000000 0.788940 0.745636
0.246948 0.845184 0.735535
0.326508 0.861969 0.754303
0.420502 0.873352 0.766876
0.524628 0.881409 0.776306
0.633362 0.887543 0.783539
0.737000 0.891052 0.787689
0.828857 0.892395 0.789520
0.916626 0.896942 0.779022
1.000000 0.905090 0.769592
0.308868 0.943939 0.761475
0.389008 0.957275 0.778290
0.478394 0.965424 0.788483
0.570343 0.970856 0.795074
0.664337 0.975128 0.799988
0.758575 0.978668 0.803680
0.846893 0.981415 0.807678
0.928070 0.985077 0.813873
1.000000 0.992249 0.839386
0.023346 0.022522 0.513641
0.076752 0.031921 0.579224
0.148773 0.041473 0.626617
0.253876 0.049835 0.662933
0.380585 0.060242 0.690094
0.517212 0.078156 0.710144
0.644836 0.096771 0.716827
0.745636 0.099060 0.708344
0.835510 0.102173 0.700195
0.028656 0.101959 0.620941
0.085785 0.121796 0.649780
0.163605 0.138702 0.678497
0.271881 0.152710 0.708008
0.404999 0.167084 0.734863
0.552094 0.189545 0.753082
0.680817 0.209839 0.754150
0.779510 0.213440 0.741852
0.865845 0.218506 0.730408
0.031738 0.210876 0.657043
0.091125 0.238739 0.685852
0.171631 0.260651 0.714020
0.281677 0.277588 0.744507
0.423279 0.292145 0.774902
0.584747 0.313141 0.790710
0.714111 0.329315 0.786163
0.812256 0.330048 0.771332
0.897186 0.333557 0.757599
0.037781 0.341034 0.689545
0.101257 0.370911 0.715637
0.185699 0.394165 0.740875
0.293304 0.412415 0.769653
0.437408 0.426483 0.803680
0.614624 0.444916 0.818909
0.744446 0.456055 0.812195
0.842834 0.451385 0.797150
0.928040 0.450226 0.782013
0.055511 0.471771 0.714691
0.127960 0.500122 0.737976
0.214996 0.522705 0.759613
0.316254 0.541443 0.784851
0.455750 0.557678 0.819061
0.640839 0.574860 0.835724
0.768951 0.581879 0.831543
0.865845 0.574921 0.818481
0.950165 0.569672 0.803375
0.110016 0.600952 0.744293
0.187195 0.626892 0.767334
0.269958 0.646484 0.787201
0.363251 0.663239 0.808319
0.500427 0.679535 0.833191
0.669128 0.693909 0.847229
0.790222 0.698395 0.847198
0.884308 0.693939 0.838531
0.966522 0.689789 0.826935
0.182159 0.726807 0.782227
0.254791 0.748993 0.803741
0.335571 0.765320 0.820221
0.434570 0.778809 0.835419
0.567047 0.791504 0.850311
0.699921 0.800415 0.859680
0.808716 0.803925 0.862305
0.900604 0.802521 0.858521
0.985352 0.801727 0.852997
0.245422 0.841675 0.814636
0.320557 0.859711 0.833344
0.409698 0.872589 0.847015
0.511688 0.882446 0.858154
0.622040 0.890411 0.867340
0.729523 0.896179 0.873718
0.826630 0.899109 0.876953
0.915741 0.901855 0.874054
1.000000 0.907288 0.874603
0.307739 0.942535 0.839874
0.386597 0.956940 0.856720
0.474884 0.966644 0.867981
0.566345 0.973450 0.875977
0.659912 0.978821 0.882111
0.754333 0.983276 0.886993
0.844482 0.986694 0.890594
0.927704 0.989471 0.894714
1.000000 0.994659 0.927368
0.027130 0.026001 0.580414
0.082397 0.038635 0.653717
0.161255 0.053375 0.709290
0.272461 0.067261 0.750763
0.395264 0.083344 0.781799
0.523773 0.108154 0.806580
0.653992 0.142181 0.825348
0.765350 0.165497 0.829559
0.854767 0.170929 0.821472
0.037445 0.112885 0.707123
0.099304 0.137054 0.738800
0.185913 0.158386 0.769958
0.295929 0.176178 0.799011
0.418243 0.194427 0.824432
0.553955 0.220947 0.846222
0.685150 0.253235 0.858948
0.793365 0.271698 0.858582
0.880432 0.274536 0.846771
0.041901 0.223816 0.743469
0.106506 0.254852 0.774261
0.195526 0.279907 0.803009
0.305817 0.299042 0.831512
0.432373 0.316315 0.858215
0.579498 0.339966 0.878998
0.713196 0.366913 0.886108
0.819031 0.379395 0.882629
0.906128 0.379120 0.869995
0.050720 0.352386 0.776764
0.121735 0.384827 0.803345
0.213440 0.410034 0.828308
0.319489 0.429108 0.854767
0.444458 0.444214 0.883667
0.604279 0.463867 0.904724
0.740723 0.486145 0.907410
0.843323 0.493896 0.902863
0.929413 0.490631 0.890778
0.071045 0.480347 0.798645
0.147034 0.510101 0.820892
0.235901 0.533447 0.842468
0.335144 0.552399 0.867218
0.457581 0.567810 0.899078
0.626892 0.585571 0.920990
0.763550 0.602386 0.923401
0.863525 0.607147 0.919800
0.947784 0.603363 0.908539
0.114960 0.602173 0.819641
0.191345 0.628510 0.841980
0.274414 0.649261 0.862610
0.366241 0.666656 0.885162
0.485535 0.682465 0.912476
0.652069 0.698364 0.931091
0.783295 0.710083 0.935516
0.881531 0.713379 0.933624
0.963593 0.711731 0.924225
0.180450 0.722870 0.853668
0.253204 0.745941 0.875793
0.331360 0.763428 0.894287
0.422150 0.777740 0.911804
0.544373 0.791107 0.928802
0.684357 0.802368 0.940887
0.801544 0.810059 0.946564
0.897491 0.813477 0.946838
0.978180 0.815033 0.941162
0.242767 0.837219 0.888062
0.314636 0.856445 0.907288
0.399139 0.870575 0.922119
0.497833 0.881653 0.934387
0.608337 0.891083 0.944824
0.719147 0.898376 0.952728
0.820892 0.903656 0.957977
0.911835 0.906769 0.960236
0.992615 0.912048 0.960632
0.305450 0.939667 0.914032
0.383453 0.955322 0.930969
0.471436 0.966400 0.943024
0.562897 0.974548 0.951874
0.656342 0.981140 0.959076
0.750549 0.986572 0.964966
0.841064 0.991089 0.969543
0.926147 0.994385 0.973053
0.998962 0.998596 0.999420
