lut/retro-80s/Ferris Buellers Day Off (1986) - Standard.cube
# Created by Benjamin (IWLTBAP): https://luts.iwltbap.com
# Copyright: (C) Copyright 2018 Triune Films and IWLTBAP SAS
# Cannot be resold, shared or otherwise redistributed
TITLE "Triune Films 80s Retro LUTs (Rec.709, sRGB, DCI-P3)"
LUT_3D_SIZE 33
0.000946 0.000732 0.001251
0.018066 0.000763 0.001251
0.035370 0.001190 0.001251
0.053406 0.001129 0.001221
0.072479 0.001312 0.001190
0.091370 0.001678 0.001190
0.112976 0.001801 0.001221
0.135223 0.002014 0.001038
0.158539 0.002319 0.000854
0.183899 0.002197 0.000824
0.209564 0.002258 0.000671
0.234955 0.002380 0.000458
0.260925 0.002411 0.000397
0.286377 0.002563 0.000366
0.311249 0.002563 0.000366
0.335510 0.002930 0.000183
0.359802 0.003357 0.000122
0.383881 0.003693 0.000122
0.408600 0.004028 0.000122
0.433197 0.004425 0.000122
0.457764 0.005005 0.000092
0.483398 0.005402 0.000092
0.509003 0.006104 0.000061
0.534424 0.006989 0.000031
0.560120 0.008148 0.000031
0.587738 0.009430 0.000031
0.616364 0.011017 0.000031
0.645264 0.013275 0.000031
0.676666 0.015900 0.000031
0.708038 0.019287 0.000031
0.739471 0.023468 0.000031
0.771057 0.028442 0.000031
0.801361 0.034515 0.000031
0.002258 0.019012 0.001801
0.019470 0.019348 0.001923
0.037720 0.019653 0.001953
0.055695 0.020142 0.001740
0.075165 0.020325 0.001648
0.095612 0.020447 0.001526
0.117645 0.020660 0.001465
0.141022 0.020844 0.001190
0.165649 0.020935 0.000977
0.191437 0.020874 0.000885
0.217773 0.020874 0.000763
0.243713 0.020569 0.000580
0.269867 0.020355 0.000519
0.295624 0.020172 0.000488
0.320312 0.020142 0.000458
0.344604 0.020294 0.000305
0.369171 0.020538 0.000275
0.393494 0.020721 0.000183
0.418396 0.021149 0.000183
0.443207 0.021484 0.000153
0.468140 0.022064 0.000092
0.494141 0.022675 0.000092
0.519836 0.023804 0.000061
0.546356 0.024841 0.000061
0.573181 0.026184 0.000061
0.601715 0.027618 0.000031
0.631378 0.029694 0.000031
0.661743 0.032562 0.000031
0.692841 0.035736 0.000031
0.724579 0.040283 0.000031
0.755676 0.045166 0.000031
0.786774 0.051544 0.000031
0.816742 0.058044 0.000061
0.003418 0.038391 0.002502
0.021301 0.038727 0.002716
0.039368 0.039093 0.002686
0.058960 0.039612 0.002686
0.078888 0.040039 0.002380
0.100525 0.040253 0.002136
0.122986 0.040497 0.002014
0.147705 0.040833 0.001617
0.173401 0.040649 0.001373
0.199982 0.040283 0.001190
0.226898 0.040009 0.000977
0.253296 0.039490 0.000824
0.279602 0.038971 0.000702
0.305328 0.038605 0.000671
0.330292 0.038361 0.000610
0.354858 0.038361 0.000580
0.379303 0.038544 0.000488
0.404114 0.038605 0.000488
0.429291 0.039093 0.000488
0.454407 0.039612 0.000397
0.480133 0.040039 0.000397
0.506226 0.040863 0.000366
0.532745 0.041840 0.000305
0.559937 0.042908 0.000244
0.588318 0.044647 0.000183
0.617737 0.046722 0.000183
0.648315 0.049255 0.000122
0.679657 0.052826 0.000122
0.711090 0.057159 0.000092
0.742950 0.062347 0.000122
0.773560 0.068726 0.000122
0.804138 0.075775 0.000214
0.833984 0.083618 0.000458
0.005219 0.058258 0.003326
0.023315 0.058960 0.003326
0.041473 0.059326 0.003265
0.061371 0.059814 0.003235
0.082642 0.060883 0.002869
0.105408 0.061432 0.002563
0.129639 0.061646 0.002197
0.155548 0.061737 0.001953
0.182098 0.061401 0.001556
0.209259 0.060913 0.001343
0.236328 0.060242 0.001129
0.263275 0.059357 0.000977
0.289978 0.058441 0.000885
0.315552 0.057861 0.000763
0.340790 0.057343 0.000702
0.365723 0.057159 0.000732
0.390472 0.057220 0.000671
0.415497 0.057434 0.000641
0.440918 0.057953 0.000610
0.466522 0.058624 0.000580
0.492615 0.059357 0.000610
0.519012 0.060547 0.000549
0.546143 0.061798 0.000580
0.574036 0.063232 0.000549
0.602753 0.065094 0.000549
0.632477 0.067871 0.000488
0.663269 0.071198 0.000488
0.694702 0.075409 0.000458
0.725983 0.080933 0.000458
0.757294 0.086731 0.000427
0.788025 0.094208 0.000610
0.818115 0.101746 0.000763
0.847076 0.110291 0.001190
0.007446 0.079315 0.004395
0.025391 0.080109 0.004456
0.044189 0.080566 0.004333
0.064178 0.081116 0.004242
0.085266 0.082092 0.003906
0.110321 0.084015 0.003479
0.137299 0.084991 0.002869
0.164093 0.085205 0.002472
0.191589 0.084930 0.002014
0.219482 0.083771 0.001678
0.247223 0.082581 0.001465
0.274475 0.081482 0.001251
0.301147 0.080261 0.001068
0.327209 0.079376 0.000977
0.352631 0.078888 0.000885
0.377869 0.078522 0.000824
0.402985 0.078430 0.000824
0.428467 0.078735 0.000763
0.454132 0.079102 0.000763
0.480072 0.079712 0.000763
0.506378 0.080566 0.000763
0.533295 0.082001 0.000824
0.560822 0.083862 0.000824
0.589203 0.085968 0.000824
0.618286 0.088531 0.000763
0.648468 0.091583 0.000824
0.678986 0.096191 0.000763
0.709930 0.101135 0.000763
0.740753 0.107391 0.000916
0.771210 0.114410 0.001038
0.801056 0.122009 0.001404
0.830200 0.130341 0.001801
0.858521 0.138733 0.002411
0.009705 0.102173 0.005829
0.027985 0.102966 0.005829
0.047241 0.103821 0.005859
0.067505 0.104462 0.005615
0.089172 0.105286 0.005219
0.114380 0.106689 0.004700
0.142883 0.109406 0.003967
0.172913 0.110962 0.003143
0.202454 0.110718 0.002502
0.231201 0.109711 0.002106
0.259216 0.108124 0.001923
0.286865 0.106689 0.001648
0.313782 0.105255 0.001404
0.339966 0.104095 0.001190
0.365967 0.103363 0.001099
0.391602 0.102783 0.001038
0.417358 0.102692 0.001038
0.443085 0.103027 0.000977
0.469116 0.103699 0.000977
0.495544 0.104614 0.000977
0.522247 0.105621 0.000977
0.549408 0.107147 0.000977
0.577301 0.109528 0.001007
0.606110 0.112244 0.001038
0.635376 0.115448 0.001038
0.665192 0.119232 0.001038
0.695374 0.124573 0.001221
0.725616 0.130432 0.001343
0.755554 0.137024 0.001556
0.785126 0.144653 0.001831
0.814178 0.152496 0.002258
0.842346 0.161072 0.003265
0.869873 0.169617 0.004242
0.012115 0.127411 0.007507
0.031036 0.128235 0.007568
0.050751 0.129364 0.007599
0.071442 0.130035 0.007355
0.093964 0.130829 0.006866
0.118500 0.131622 0.006226
0.147522 0.134247 0.005493
0.179779 0.137939 0.004486
0.212067 0.139709 0.003479
0.242767 0.139587 0.002777
0.272003 0.138458 0.002319
0.300201 0.136597 0.001984
0.327454 0.134766 0.001770
0.354187 0.133392 0.001617
0.380524 0.132416 0.001465
0.406921 0.131683 0.001373
0.433197 0.131744 0.001282
0.459534 0.132202 0.001251
0.486084 0.132996 0.001251
0.512848 0.134125 0.001251
0.539856 0.135529 0.001251
0.567444 0.137360 0.001221
0.595612 0.140076 0.001312
0.624207 0.143219 0.001404
0.653259 0.147064 0.001465
0.682770 0.151489 0.001587
0.712067 0.157196 0.001831
0.741486 0.163544 0.002045
0.770599 0.170288 0.002472
0.799194 0.177979 0.003113
0.827209 0.185883 0.003876
0.854553 0.194000 0.005310
0.881073 0.202423 0.006927
0.015045 0.154358 0.009247
0.034332 0.155914 0.009491
0.054352 0.157104 0.009430
0.075806 0.158112 0.009247
0.098846 0.158905 0.008911
0.124329 0.159546 0.008270
0.152405 0.160767 0.007355
0.184601 0.164703 0.006226
0.219421 0.169739 0.005127
0.252380 0.172241 0.004059
0.283630 0.172485 0.003326
0.312988 0.171631 0.002899
0.341248 0.170258 0.002502
0.368774 0.168823 0.002258
0.395966 0.167664 0.002106
0.423035 0.166962 0.001953
0.449921 0.167084 0.001770
0.477020 0.167389 0.001801
0.504028 0.168274 0.001831
0.531189 0.169678 0.001801
0.558655 0.171326 0.001801
0.586426 0.173401 0.001953
0.614471 0.176178 0.001984
0.642944 0.179535 0.001984
0.671692 0.183594 0.002014
0.700439 0.188232 0.002258
0.729065 0.193909 0.002808
0.757538 0.200256 0.003357
0.785736 0.207001 0.004059
0.813324 0.214325 0.005341
0.840393 0.221832 0.006714
0.866913 0.229584 0.008270
0.892639 0.237366 0.010681
0.018188 0.183685 0.011108
0.037598 0.185577 0.011292
0.058380 0.187073 0.011322
0.080750 0.188019 0.011169
0.104279 0.189484 0.010803
0.130676 0.190216 0.010254
0.159454 0.190735 0.009521
0.190552 0.192566 0.008514
0.224060 0.197937 0.007141
0.259277 0.204102 0.005890
0.292511 0.207703 0.004852
0.323883 0.209076 0.004211
0.353607 0.209137 0.003845
0.382202 0.208588 0.003571
0.410339 0.207733 0.003326
0.438324 0.207123 0.003113
0.466156 0.207245 0.002991
0.493896 0.207642 0.002899
0.521576 0.208679 0.002960
0.549286 0.210083 0.002899
0.577209 0.211884 0.003021
0.605194 0.214233 0.003052
0.633331 0.216888 0.003052
0.661560 0.220276 0.003204
0.689789 0.224091 0.003418
0.717834 0.228638 0.004211
0.745728 0.234100 0.004852
0.773376 0.240021 0.005829
0.800629 0.246399 0.007080
0.827271 0.253235 0.009033
0.853455 0.260101 0.011017
0.879211 0.267090 0.013306
0.904358 0.274200 0.016052
0.021118 0.215149 0.012573
0.041107 0.217316 0.012817
0.062531 0.219177 0.012909
0.085022 0.221161 0.012939
0.110138 0.222504 0.012604
0.137421 0.223785 0.012177
0.167389 0.224060 0.011566
0.198273 0.224640 0.010895
0.230438 0.227112 0.009674
0.264343 0.233856 0.008087
0.299164 0.240753 0.006989
0.332184 0.245331 0.006042
0.363281 0.247772 0.005615
0.393250 0.248871 0.005341
0.422516 0.249054 0.005219
0.451416 0.249207 0.005005
0.480072 0.249542 0.004852
0.508728 0.250305 0.004883
0.537170 0.251465 0.004761
0.565552 0.253052 0.004883
0.593842 0.254944 0.005066
0.622223 0.257324 0.005127
0.650543 0.259949 0.005310
0.678711 0.263031 0.005646
0.706573 0.266846 0.006226
0.734100 0.271271 0.007294
0.761444 0.276245 0.008606
0.788330 0.281647 0.010010
0.814850 0.287323 0.011902
0.840820 0.293396 0.014404
0.866425 0.299530 0.017059
0.891418 0.305664 0.019684
0.916077 0.311737 0.022766
0.023865 0.248352 0.014069
0.045197 0.250397 0.014160
0.066772 0.253021 0.014404
0.090851 0.255249 0.014374
0.116699 0.257324 0.014221
0.145660 0.258575 0.013916
0.176331 0.259552 0.013336
0.207916 0.259705 0.012543
0.239105 0.260132 0.011993
0.270996 0.263519 0.011047
0.304688 0.271332 0.009766
0.338593 0.278595 0.008881
0.371002 0.283936 0.008240
0.401917 0.287170 0.007996
0.432159 0.289093 0.007812
0.461853 0.290253 0.007812
0.491211 0.291321 0.007751
0.520569 0.292450 0.007812
0.549622 0.293915 0.008118
0.578705 0.295502 0.008362
0.607635 0.297638 0.008636
0.636414 0.299988 0.008789
0.665009 0.302673 0.009094
0.693359 0.305817 0.009674
0.721130 0.309509 0.010986
0.748474 0.313660 0.012390
0.775421 0.318146 0.014038
0.801941 0.323029 0.015930
0.828003 0.328064 0.018433
0.853577 0.333099 0.021149
0.878723 0.338470 0.024078
0.903412 0.343750 0.027100
0.927704 0.348969 0.030273
0.027710 0.282471 0.015503
0.049072 0.285431 0.015625
0.072266 0.288025 0.015717
0.097412 0.290558 0.015564
0.124664 0.292969 0.015564
0.154480 0.295349 0.015411
0.186676 0.296173 0.014954
0.218933 0.296570 0.014404
0.250519 0.296661 0.013611
0.280579 0.297058 0.013550
0.311523 0.301544 0.013123
0.344360 0.309723 0.012482
0.377228 0.317261 0.011841
0.408936 0.322784 0.011871
0.439789 0.326477 0.011810
0.469879 0.329041 0.011902
0.499664 0.330933 0.011963
0.529327 0.332489 0.012268
0.558929 0.334015 0.012543
0.588531 0.335876 0.012970
0.618103 0.338104 0.013458
0.647339 0.340546 0.013916
0.676300 0.343353 0.014404
0.704834 0.346466 0.015503
0.732788 0.350098 0.016907
0.760376 0.354034 0.018585
0.787445 0.358124 0.020660
0.813812 0.362610 0.022949
0.839874 0.367004 0.025574
0.865387 0.371399 0.028442
0.890381 0.375946 0.031433
0.915039 0.380524 0.034546
0.939148 0.384979 0.037842
0.032379 0.317749 0.016632
0.055298 0.320740 0.016785
0.079193 0.323639 0.016907
0.105652 0.326660 0.016937
0.133972 0.329529 0.016937
0.165253 0.332031 0.016876
0.198486 0.334076 0.016724
0.231476 0.334717 0.016205
0.263092 0.334717 0.015991
0.292969 0.334534 0.015930
0.321625 0.335175 0.016296
0.351776 0.340302 0.016907
0.383698 0.348663 0.017059
0.415436 0.355988 0.016998
0.446320 0.361298 0.017578
0.476440 0.365173 0.017609
0.506439 0.367981 0.017609
0.536224 0.370087 0.017700
0.566071 0.371918 0.017944
0.595825 0.373871 0.018250
0.625763 0.376038 0.018860
0.655365 0.378540 0.019501
0.684723 0.381439 0.020386
0.713593 0.384583 0.021576
0.742065 0.388123 0.023254
0.770050 0.391846 0.025177
0.797516 0.395752 0.027435
0.824310 0.399750 0.029877
0.850586 0.403778 0.032501
0.876312 0.407654 0.035278
0.901489 0.411530 0.038239
0.926208 0.415436 0.041321
0.950500 0.419189 0.044708
0.040283 0.353180 0.018005
0.063690 0.356537 0.018158
0.089233 0.359650 0.018372
0.116241 0.363037 0.018463
0.145996 0.366241 0.018585
0.178223 0.369446 0.018738
0.211945 0.371704 0.018921
0.245667 0.372986 0.018951
0.277466 0.373352 0.019073
0.307007 0.373138 0.019440
0.335022 0.372955 0.020630
0.362366 0.373810 0.021881
0.391541 0.379333 0.023590
0.422394 0.387390 0.024750
0.452911 0.394287 0.025269
0.482819 0.399231 0.025696
0.512390 0.403107 0.025360
0.542053 0.405853 0.024963
0.571655 0.408112 0.024567
0.601349 0.410217 0.024414
0.631287 0.412201 0.024597
0.661163 0.414612 0.025146
0.690948 0.417328 0.026062
0.720306 0.420227 0.027344
0.749237 0.423553 0.028992
0.777832 0.427032 0.031036
0.805878 0.430786 0.033325
0.833221 0.434479 0.035767
0.860016 0.438110 0.038452
0.886200 0.441498 0.041016
0.911804 0.444946 0.043945
0.936798 0.448303 0.047028
0.961456 0.451569 0.050507
0.051239 0.389130 0.019745
0.076111 0.392395 0.019958
0.101929 0.396210 0.020325
0.130188 0.399445 0.020630
0.160614 0.403046 0.021088
0.193176 0.406555 0.021515
0.227631 0.409515 0.022247
0.261383 0.411255 0.023193
0.293030 0.411957 0.024017
0.322357 0.411774 0.025299
0.349976 0.411591 0.026672
0.376129 0.411133 0.029053
0.402344 0.412231 0.031372
0.430695 0.418152 0.033844
0.460327 0.425720 0.035614
0.489502 0.431946 0.036377
0.518494 0.436646 0.036011
0.547546 0.440277 0.034912
0.576630 0.442993 0.033569
0.606049 0.445160 0.032227
0.635773 0.447144 0.031311
0.665588 0.449249 0.031158
0.695526 0.451538 0.031586
0.725250 0.454163 0.032593
0.754852 0.457092 0.033997
0.783936 0.460175 0.035675
0.812683 0.463531 0.037872
0.840790 0.466858 0.040344
0.868195 0.470154 0.043030
0.895050 0.473358 0.045593
0.921295 0.476471 0.048523
0.946777 0.479492 0.051666
0.971924 0.482483 0.055176
0.065674 0.425262 0.022217
0.091248 0.428833 0.022827
0.117737 0.432556 0.023468
0.146729 0.436096 0.024261
0.177124 0.439972 0.025055
0.210205 0.443604 0.026337
0.244385 0.446869 0.027985
0.278229 0.448822 0.029785
0.309540 0.449890 0.031891
0.338745 0.450348 0.033875
0.365814 0.449738 0.036194
0.391693 0.449524 0.038635
0.416290 0.448944 0.041504
0.441620 0.450531 0.044952
0.468964 0.456421 0.047821
0.497192 0.463379 0.049377
0.525330 0.469086 0.049561
0.553406 0.473389 0.048126
0.581879 0.476837 0.045868
0.610565 0.479309 0.042938
0.639771 0.481293 0.040283
0.669373 0.483246 0.038361
0.699188 0.485138 0.037415
0.729187 0.487122 0.037262
0.759094 0.489441 0.037872
0.788849 0.492004 0.039154
0.818207 0.494781 0.040894
0.847015 0.497772 0.043182
0.875214 0.500732 0.045715
0.902802 0.503784 0.048553
0.929810 0.506653 0.051575
0.956177 0.509460 0.054871
0.981903 0.512268 0.058472
0.083496 0.461670 0.026703
0.109283 0.465210 0.027649
0.136414 0.468872 0.028870
0.165436 0.472504 0.030182
0.196106 0.476501 0.031982
0.229095 0.480072 0.034363
0.262665 0.483398 0.037048
0.295654 0.485809 0.040100
0.326721 0.487366 0.043182
0.355469 0.487701 0.045837
0.382446 0.487732 0.048889
0.407471 0.487091 0.051849
0.431885 0.486542 0.055176
0.455536 0.486298 0.058472
0.479736 0.488190 0.061890
0.506012 0.493805 0.064514
0.533234 0.500336 0.065613
0.560242 0.505554 0.064240
0.587555 0.509583 0.061249
0.615448 0.512726 0.057465
0.643768 0.515015 0.052643
0.672852 0.516785 0.048187
0.702515 0.518494 0.044952
0.732452 0.520081 0.042877
0.762543 0.521729 0.041840
0.792694 0.523590 0.041870
0.822632 0.525726 0.042755
0.852203 0.528076 0.044495
0.881317 0.530670 0.046814
0.909698 0.533325 0.049622
0.937500 0.536041 0.052795
0.964691 0.538696 0.056244
0.991333 0.541321 0.059937
0.103943 0.497742 0.034332
0.129974 0.501160 0.035767
0.156982 0.504883 0.037933
0.185913 0.508484 0.039886
0.216644 0.512238 0.043030
0.248657 0.516144 0.046448
0.281921 0.519348 0.050079
0.313995 0.521942 0.054291
0.344299 0.523499 0.057953
0.372742 0.524323 0.061676
0.399078 0.524445 0.065094
0.423920 0.524170 0.068420
0.447540 0.523376 0.071472
0.470551 0.523010 0.074707
0.493134 0.522736 0.077881
0.516815 0.525116 0.081024
0.542145 0.530579 0.083069
0.568420 0.536591 0.082703
0.594452 0.541412 0.079742
0.621063 0.545074 0.075073
0.648407 0.547913 0.069122
0.676544 0.549988 0.062286
0.705658 0.551575 0.055756
0.735382 0.553040 0.050812
0.765564 0.554260 0.047180
0.795868 0.555481 0.045044
0.826294 0.556854 0.044312
0.856506 0.558533 0.044861
0.886322 0.560486 0.046478
0.915710 0.562714 0.048920
0.944336 0.565094 0.052063
0.972382 0.567535 0.055573
0.999664 0.570038 0.059326
0.126190 0.533417 0.045898
0.152008 0.536743 0.048279
0.178772 0.540405 0.051208
0.207520 0.543854 0.054352
0.237823 0.547455 0.058105
0.269226 0.551239 0.062378
0.301392 0.554382 0.066956
0.332489 0.557068 0.071503
0.362244 0.558868 0.075836
0.389862 0.559692 0.079834
0.415771 0.560150 0.083588
0.440308 0.560150 0.087158
0.463470 0.559509 0.090088
0.485870 0.559021 0.093079
0.507904 0.558411 0.095978
0.529724 0.558533 0.098663
0.552734 0.561340 0.100922
0.577362 0.566650 0.101807
0.602570 0.572174 0.099945
0.627869 0.576477 0.095276
0.653931 0.579895 0.088806
0.680969 0.582520 0.080536
0.709015 0.584412 0.071472
0.738129 0.585815 0.062836
0.768188 0.586975 0.055817
0.798584 0.587860 0.050415
0.829254 0.588715 0.046936
0.859955 0.589661 0.045258
0.890503 0.590942 0.045288
0.920654 0.592499 0.046753
0.950317 0.594299 0.049194
0.979279 0.596436 0.052490
1.000000 0.598480 0.055817
0.148834 0.568481 0.062134
0.174530 0.571564 0.065125
0.200989 0.575012 0.068726
0.229218 0.578400 0.072571
0.258972 0.581848 0.076691
0.289703 0.585480 0.081390
0.320618 0.588531 0.086090
0.350769 0.591187 0.090851
0.379547 0.592987 0.095337
0.406494 0.594086 0.099304
0.432098 0.594727 0.103241
0.456146 0.594849 0.106689
0.479279 0.594879 0.110077
0.501221 0.594147 0.112549
0.522827 0.593933 0.114990
0.543976 0.593384 0.117340
0.565216 0.593842 0.119263
0.587708 0.596863 0.120758
0.611633 0.601776 0.120422
0.636139 0.606934 0.116760
0.660675 0.610901 0.110291
0.686462 0.614044 0.101898
0.713257 0.616486 0.091644
0.741211 0.618256 0.080292
0.770447 0.619537 0.069427
0.800690 0.620483 0.060150
0.831543 0.621094 0.052765
0.862610 0.621643 0.047729
0.893738 0.622253 0.044922
0.924591 0.623047 0.044281
0.955139 0.624329 0.045349
0.984375 0.625763 0.047546
1.000000 0.627380 0.050201
0.171539 0.602539 0.081635
0.196686 0.605560 0.085114
0.223145 0.608704 0.088684
0.250610 0.611877 0.092743
0.279724 0.615356 0.096985
0.309235 0.618561 0.101532
0.339081 0.621552 0.106171
0.368378 0.624115 0.110748
0.396088 0.626007 0.115051
0.422668 0.627350 0.119049
0.447693 0.628113 0.122772
0.471588 0.628601 0.126312
0.494232 0.628662 0.129364
0.516266 0.628632 0.132019
0.537384 0.628113 0.134094
0.558411 0.628143 0.136261
0.578888 0.627716 0.137695
0.599640 0.628418 0.139008
0.621765 0.631500 0.139709
0.645111 0.636230 0.138336
0.669037 0.641052 0.132965
0.693176 0.644653 0.125031
0.718506 0.647614 0.114838
0.745087 0.649933 0.102509
0.773041 0.651642 0.088745
0.802490 0.652863 0.075592
0.833160 0.653656 0.064087
0.864349 0.654144 0.054565
0.895966 0.654358 0.047607
0.927551 0.654694 0.043488
0.958954 0.655243 0.041870
0.987183 0.656128 0.042236
1.000000 0.657135 0.043518
0.193359 0.635437 0.102478
0.217865 0.638428 0.106110
0.243713 0.641327 0.109619
0.270813 0.644440 0.113434
0.298981 0.647675 0.117554
0.327789 0.650665 0.121674
0.356659 0.653595 0.126038
0.384766 0.655975 0.130219
0.411896 0.657959 0.134247
0.437805 0.659515 0.138123
0.462494 0.660461 0.141693
0.486053 0.661163 0.145142
0.508514 0.661407 0.148071
0.530548 0.661713 0.150909
0.551697 0.661591 0.152954
0.572144 0.661407 0.154541
0.592712 0.661469 0.156250
0.612732 0.661163 0.157135
0.633270 0.662140 0.157837
0.654968 0.665283 0.157654
0.677917 0.669861 0.154968
0.701355 0.674316 0.148529
0.725006 0.677704 0.139130
0.750122 0.680511 0.127380
0.776550 0.682831 0.112823
0.804565 0.684540 0.096954
0.834381 0.685791 0.081573
0.865356 0.686554 0.067719
0.897125 0.686951 0.055969
0.929321 0.687103 0.046967
0.961548 0.687286 0.041138
0.989136 0.687653 0.038635
1.000000 0.688171 0.037689
0.213196 0.667389 0.123230
0.237640 0.669983 0.126160
0.262939 0.672943 0.129700
0.289642 0.675812 0.133148
0.317139 0.678772 0.136902
0.344910 0.681702 0.140778
0.372742 0.684387 0.144714
0.400085 0.686890 0.148682
0.426575 0.688965 0.152527
0.452057 0.690460 0.156036
0.476410 0.691711 0.159576
0.499695 0.692566 0.162781
0.522308 0.693207 0.165863
0.543884 0.693512 0.168335
0.565338 0.694031 0.171021
0.585724 0.693756 0.172302
0.605774 0.693726 0.173553
0.625916 0.693909 0.174988
0.645660 0.693726 0.175507
0.666046 0.695007 0.175842
0.687439 0.698273 0.174774
0.709869 0.702637 0.171112
0.732971 0.706787 0.163483
0.756348 0.710083 0.152740
0.781281 0.712891 0.139130
0.807617 0.715271 0.122955
0.835724 0.717102 0.105225
0.865814 0.718445 0.087646
0.897278 0.719299 0.071381
0.929718 0.719818 0.057159
0.962708 0.719910 0.046021
0.989960 0.720154 0.039703
1.000000 0.720398 0.035370
0.231750 0.698151 0.142548
0.255676 0.700897 0.145660
0.280457 0.703613 0.148834
0.306671 0.706268 0.151917
0.333405 0.708954 0.155212
0.360321 0.711823 0.158813
0.387360 0.714386 0.162354
0.414032 0.716827 0.166077
0.439880 0.718781 0.169556
0.465088 0.720459 0.172974
0.489227 0.721802 0.176239
0.512421 0.722870 0.179352
0.534882 0.723724 0.182404
0.556671 0.724335 0.185089
0.577698 0.724762 0.187286
0.598602 0.725250 0.189636
0.618408 0.725037 0.190521
0.638275 0.725311 0.191467
0.658142 0.725464 0.192596
0.677704 0.725555 0.192871
0.697906 0.727203 0.192657
0.719025 0.730438 0.190796
0.741241 0.734680 0.186066
0.763977 0.738708 0.177917
0.787048 0.741852 0.166077
0.811920 0.744629 0.151062
0.838257 0.747162 0.133209
0.866608 0.749207 0.113464
0.897003 0.750824 0.093781
0.929016 0.751862 0.075073
0.961945 0.752502 0.058655
0.989258 0.753021 0.048279
1.000000 0.753448 0.039948
0.248291 0.728027 0.160767
0.271881 0.730530 0.163574
0.296631 0.733002 0.166229
0.321777 0.735657 0.169312
0.347839 0.738251 0.172333
0.374207 0.740784 0.175507
0.400574 0.743317 0.178802
0.426575 0.745667 0.182251
0.452148 0.747650 0.185486
0.477020 0.749512 0.188782
0.501068 0.750916 0.191925
0.524109 0.752106 0.194916
0.546448 0.753052 0.197754
0.568359 0.753906 0.200562
0.589478 0.754486 0.202881
0.610016 0.755035 0.204956
0.630554 0.755585 0.206940
0.650146 0.755585 0.207642
0.669769 0.755920 0.208374
0.689423 0.756287 0.209198
0.708923 0.756744 0.209381
0.729004 0.758575 0.208557
0.749908 0.761871 0.206238
0.771820 0.766052 0.200836
0.794250 0.769775 0.192017
0.817230 0.772949 0.178741
0.841980 0.775818 0.162292
0.868469 0.778534 0.143066
0.897034 0.780945 0.121796
0.927795 0.782806 0.100159
0.959961 0.784241 0.079865
0.987213 0.785522 0.065430
1.000000 0.786469 0.053650
0.262939 0.756958 0.177734
0.286560 0.759125 0.179993
0.310730 0.761414 0.182434
0.335602 0.763885 0.185211
0.361023 0.766327 0.187927
0.386566 0.768799 0.190979
0.412476 0.771210 0.194000
0.437958 0.773529 0.197205
0.463257 0.775665 0.200470
0.487823 0.777374 0.203491
0.511780 0.779022 0.206573
0.534760 0.780243 0.209412
0.557159 0.781433 0.212250
0.578857 0.782288 0.214874
0.600189 0.783264 0.217590
0.620850 0.783875 0.219635
0.641144 0.784515 0.221497
0.661285 0.785095 0.223114
0.680786 0.785309 0.223724
0.700256 0.785828 0.224396
0.719727 0.786346 0.225067
0.739166 0.787048 0.224915
0.759186 0.789154 0.223602
0.779968 0.792542 0.220856
0.801666 0.796600 0.214752
0.823822 0.800140 0.205139
0.846741 0.803345 0.191162
0.871552 0.806396 0.173706
0.898163 0.809387 0.152924
0.927032 0.812256 0.130341
0.957703 0.814575 0.107758
0.984314 0.816650 0.091095
1.000000 0.818512 0.076477
0.276337 0.784698 0.193146
0.299408 0.786865 0.195465
0.323090 0.789001 0.197662
0.347687 0.791199 0.199982
0.372406 0.793549 0.202606
0.397675 0.795929 0.205322
0.423065 0.798218 0.208191
0.448181 0.800476 0.211243
0.472992 0.802612 0.214233
0.497559 0.804413 0.217224
0.521240 0.806061 0.220154
0.544464 0.807465 0.222961
0.566681 0.808716 0.225708
0.588470 0.809753 0.228271
0.609772 0.810730 0.230896
0.630646 0.811646 0.233337
0.650970 0.812286 0.235107
0.671051 0.813110 0.236877
0.690979 0.813782 0.238312
0.710388 0.814209 0.238892
0.729767 0.814911 0.239563
