lut/retro-80s/Ferris Buellers Day Off (1986) - Standard.cube
# Created by Benjamin (IWLTBAP): https://luts.iwltbap.com
# Copyright: (C) Copyright 2018 Triune Films and IWLTBAP SAS
# Cannot be resold, shared or otherwise redistributed
TITLE "Triune Films 80s Retro LUTs (Rec.709, sRGB, DCI-P3)"
LUT_3D_SIZE 5
0.000946 0.000732 0.001251
0.158539 0.002319 0.000854
0.359802 0.003357 0.000122
0.560120 0.008148 0.000031
0.801361 0.034515 0.000031
0.018188 0.183685 0.011108
0.224060 0.197937 0.007141
0.466156 0.207245 0.002991
0.689789 0.224091 0.003418
0.904358 0.274200 0.016052
0.083496 0.461670 0.026703
0.326721 0.487366 0.043182
0.533234 0.500336 0.065613
0.762543 0.521729 0.041840
0.991333 0.541321 0.059937
0.248291 0.728027 0.160767
0.452148 0.747650 0.185486
0.630554 0.755585 0.206940
0.794250 0.769775 0.192017
1.000000 0.786469 0.053650
0.334473 0.935638 0.268066
0.515533 0.948547 0.281067
0.693756 0.961517 0.302002
0.853119 0.972290 0.320923
1.000000 0.992096 0.311340
0.006592 0.007629 0.135803
0.163849 0.007782 0.142761
0.368195 0.004059 0.122955
0.567688 0.008667 0.123444
0.814117 0.038361 0.129333
0.016205 0.191895 0.166168
0.219818 0.204834 0.172394
0.470215 0.190460 0.144348
0.686005 0.220245 0.149872
0.899933 0.277832 0.176025
0.048737 0.471161 0.193024
0.291931 0.499695 0.206207
0.544281 0.508057 0.242950
0.771027 0.523621 0.242950
0.991669 0.543396 0.253845
0.211609 0.733490 0.315369
0.422760 0.753204 0.330536
0.629730 0.762390 0.353119
0.799988 0.774323 0.351562
1.000000 0.790710 0.252502
0.324646 0.940460 0.413513
0.502686 0.951599 0.425781
0.689606 0.962860 0.444000
0.852539 0.972015 0.471069
1.000000 0.992188 0.474518
0.015717 0.016205 0.286774
0.147491 0.021240 0.372375
0.386078 0.013611 0.340179
0.576080 0.011536 0.292877
0.800201 0.031830 0.303955
0.015839 0.194763 0.387299
0.157013 0.227936 0.438873
0.487122 0.200531 0.415863
0.683594 0.201721 0.360962
0.884949 0.270386 0.383942
0.038239 0.472137 0.438782
0.213013 0.515839 0.480927
0.553528 0.523895 0.490387
0.777039 0.517822 0.468201
0.975952 0.536194 0.470703
0.181915 0.737274 0.520447
0.375885 0.764740 0.546875
0.618439 0.774506 0.556824
0.805450 0.779144 0.546692
1.000000 0.785583 0.493530
0.317383 0.943542 0.594269
0.489166 0.958130 0.615112
0.675568 0.965820 0.620544
0.848511 0.973114 0.635864
1.000000 0.991638 0.650513
0.020294 0.019867 0.444336
0.142273 0.032867 0.544373
0.375763 0.042786 0.594086
0.620911 0.044067 0.581512
0.810974 0.048157 0.563110
0.024506 0.202759 0.571564
0.159180 0.246887 0.627045
0.431580 0.271088 0.688477
0.710724 0.277557 0.662598
0.886353 0.294495 0.635406
0.047546 0.468048 0.630219
0.207642 0.517365 0.677826
0.481628 0.551971 0.734985
0.775360 0.550354 0.718872
0.952423 0.544952 0.688446
0.182770 0.731873 0.705170
0.345703 0.768066 0.740692
0.591431 0.790710 0.765778
0.809601 0.792297 0.763367
1.000000 0.788940 0.745636
0.308868 0.943939 0.761475
0.478394 0.965424 0.788483
0.664337 0.975128 0.799988
0.846893 0.981415 0.807678
1.000000 0.992249 0.839386
0.027130 0.026001 0.580414
0.161255 0.053375 0.709290
0.395264 0.083344 0.781799
0.653992 0.142181 0.825348
0.854767 0.170929 0.821472
0.041901 0.223816 0.743469
0.195526 0.279907 0.803009
0.432373 0.316315 0.858215
0.713196 0.366913 0.886108
0.906128 0.379120 0.869995
0.071045 0.480347 0.798645
0.235901 0.533447 0.842468
0.457581 0.567810 0.899078
0.763550 0.602386 0.923401
0.947784 0.603363 0.908539
0.180450 0.722870 0.853668
0.331360 0.763428 0.894287
0.544373 0.791107 0.928802
0.801544 0.810059 0.946564
0.978180 0.815033 0.941162
0.305450 0.939667 0.914032
0.471436 0.966400 0.943024
0.656342 0.981140 0.959076
0.841064 0.991089 0.969543
0.998962 0.998596 0.999420
