lut/retro-80s/Ghostbusters (1984) - Standard.cube
# Created by Benjamin (IWLTBAP): https://luts.iwltbap.com
# Copyright: (C) Copyright 2018 Triune Films and IWLTBAP SAS
# Cannot be resold, shared or otherwise redistributed
TITLE "Triune Films 80s Retro LUTs (Rec.709, sRGB, DCI-P3)"
LUT_3D_SIZE 9
0.001190 0.000000 0.000153
0.047363 0.003662 0.002899
0.126923 0.010742 0.004272
0.227905 0.017212 0.006836
0.317291 0.023010 0.010559
0.399933 0.029022 0.015076
0.483826 0.035645 0.020569
0.571991 0.044769 0.027863
0.663452 0.055634 0.036469
0.007874 0.075623 0.020721
0.072601 0.084167 0.020172
0.184479 0.092072 0.015839
0.293274 0.092224 0.014221
0.383148 0.094940 0.017822
0.467834 0.100250 0.023743
0.554169 0.108276 0.031616
0.645020 0.119568 0.041809
0.732269 0.134399 0.055450
0.024017 0.181610 0.038910
0.098145 0.194092 0.038177
0.232513 0.199188 0.028961
0.355713 0.203400 0.026184
0.451508 0.208527 0.028809
0.538940 0.216003 0.035645
0.626404 0.227570 0.045074
0.714355 0.245209 0.058136
0.799866 0.268616 0.074951
0.056183 0.305939 0.057159
0.131104 0.320526 0.056122
0.268738 0.330688 0.047821
0.407928 0.329712 0.052368
0.511383 0.335358 0.052551
0.602905 0.346436 0.058929
0.691040 0.359833 0.071442
0.776917 0.377350 0.089355
0.858643 0.398590 0.110840
0.119019 0.424347 0.090729
0.192841 0.440674 0.095612
0.305176 0.454010 0.095978
0.449341 0.464813 0.105682
0.553772 0.459351 0.101379
0.648834 0.466736 0.095520
0.739807 0.480225 0.101135
0.829254 0.496094 0.115356
0.914825 0.512451 0.133575
0.204224 0.529663 0.152649
0.271698 0.547180 0.165527
0.355682 0.557983 0.169312
0.470673 0.573792 0.179321
0.585754 0.585846 0.187927
0.676361 0.584045 0.159180
0.771271 0.589996 0.138214
0.866577 0.600311 0.131592
0.959259 0.613251 0.137024
0.285583 0.624268 0.224213
0.345795 0.644073 0.240875
0.415039 0.655518 0.248108
0.499023 0.667908 0.254974
0.601501 0.685944 0.266785
0.698181 0.700012 0.265656
0.784454 0.699371 0.216156
0.881592 0.702393 0.175171
0.976318 0.710297 0.159637
0.356628 0.714264 0.290955
0.411804 0.735992 0.308594
0.473755 0.748596 0.318573
0.543152 0.760010 0.326691
0.621368 0.772095 0.334747
0.709930 0.787781 0.343414
0.794586 0.800842 0.334167
0.876282 0.801941 0.269409
0.967987 0.807526 0.233887
0.417816 0.797394 0.347961
0.467712 0.817688 0.363342
0.524780 0.830231 0.374146
0.587891 0.841583 0.384430
0.654572 0.852478 0.394928
0.722900 0.861664 0.402039
0.796936 0.872711 0.404663
0.871826 0.885864 0.390686
0.948212 0.898041 0.368683
0.002716 0.001373 0.039032
0.048584 0.008820 0.046051
0.126251 0.013580 0.048950
0.227142 0.012909 0.046906
0.316498 0.016022 0.048950
0.398193 0.021851 0.054565
0.481140 0.028839 0.062134
0.566132 0.036926 0.071350
0.654633 0.046143 0.082062
0.010620 0.079926 0.065216
0.075836 0.092987 0.073914
0.185577 0.098511 0.073517
0.299072 0.090729 0.063843
0.389465 0.089355 0.063416
0.472595 0.094452 0.070099
0.556244 0.102539 0.080017
0.642639 0.111053 0.091339
0.726044 0.120300 0.105530
0.026031 0.189392 0.088654
0.098114 0.209503 0.099030
0.227234 0.214050 0.092743
0.361694 0.214447 0.093903
0.460785 0.214111 0.091675
0.547760 0.219757 0.097473
0.632416 0.230530 0.107513
0.717346 0.245331 0.119202
0.801636 0.264801 0.134094
0.057983 0.318451 0.115662
0.130249 0.337769 0.123993
0.255981 0.346313 0.117279
0.405670 0.345093 0.125702
0.515594 0.348419 0.132416
0.610016 0.357208 0.137604
0.698120 0.368988 0.148224
0.783478 0.384888 0.162354
0.866089 0.405060 0.179810
0.123840 0.441986 0.161835
0.196106 0.458771 0.172272
0.297089 0.468140 0.168182
0.440826 0.478638 0.171692
0.554199 0.473724 0.181885
0.652069 0.479553 0.179504
0.746429 0.492035 0.183777
0.838043 0.506592 0.193787
0.925537 0.522766 0.207977
0.213562 0.550201 0.226562
0.279358 0.566589 0.240509
0.358368 0.575897 0.240723
0.467194 0.588257 0.243530
0.588776 0.601562 0.254913
0.679749 0.597351 0.238220
0.775421 0.602448 0.220123
0.873779 0.612946 0.212738
0.968567 0.626953 0.220184
0.296204 0.645264 0.290436
0.356049 0.663391 0.307526
0.423920 0.674316 0.313141
0.504852 0.684631 0.316101
0.605194 0.700073 0.323120
0.705627 0.714294 0.327728
0.789490 0.712341 0.289642
0.886383 0.715973 0.253723
0.982056 0.726532 0.248108
0.367035 0.733887 0.347107
0.422363 0.752716 0.365967
0.484009 0.764648 0.374939
0.552521 0.774933 0.381683
0.629303 0.785645 0.386993
0.716797 0.800140 0.392517
0.802582 0.813171 0.388763
0.882660 0.815033 0.336487
0.971588 0.824402 0.324036
0.426605 0.814178 0.393982
0.478302 0.832062 0.412659
0.535828 0.844177 0.423584
0.598785 0.854767 0.433289
0.664703 0.864807 0.442841
0.731598 0.873260 0.447784
0.804138 0.883514 0.447357
0.879791 0.897064 0.437134
0.954926 0.912903 0.450562
0.005737 0.006989 0.078613
0.050903 0.016266 0.093414
0.128723 0.023041 0.102112
0.232513 0.019196 0.098328
0.321838 0.018097 0.095245
0.401306 0.022064 0.100464
0.481689 0.028046 0.110901
0.563385 0.035095 0.124390
0.648376 0.042694 0.140533
0.015015 0.084656 0.117950
0.078369 0.103149 0.137207
0.181030 0.109375 0.144592
0.300415 0.096191 0.131866
0.395294 0.088623 0.125366
0.477509 0.092377 0.132263
0.558533 0.099976 0.145630
0.640808 0.107361 0.161591
0.721588 0.115540 0.180176
0.029907 0.195099 0.154083
0.099884 0.222992 0.180481
0.219116 0.233337 0.189301
0.359070 0.227692 0.184967
0.465912 0.218903 0.175262
0.553619 0.222290 0.180267
0.635742 0.231934 0.190948
0.717407 0.244141 0.202362
0.799805 0.260376 0.218567
0.060974 0.327209 0.195160
0.131958 0.353241 0.218475
0.245361 0.366730 0.226013
0.395447 0.364410 0.223175
0.514221 0.363281 0.232727
0.613220 0.368866 0.235779
0.702362 0.378418 0.243622
0.787140 0.392456 0.254669
0.869843 0.412903 0.272491
0.127808 0.454956 0.250916
0.199554 0.476135 0.269897
0.292206 0.488556 0.273224
0.423584 0.495789 0.269348
0.550659 0.491577 0.277679
0.650696 0.493988 0.281647
0.749237 0.505310 0.285187
0.843475 0.519684 0.293610
0.932129 0.537109 0.308685
0.219421 0.566071 0.316071
0.285767 0.586029 0.333862
0.362915 0.598022 0.338104
0.461029 0.607269 0.335754
0.583954 0.618500 0.337494
0.680206 0.612823 0.333130
0.775909 0.616364 0.322296
0.877960 0.628815 0.319489
0.975098 0.644958 0.330322
0.303253 0.663330 0.375610
0.364777 0.683838 0.394775
0.433685 0.696472 0.402710
0.511353 0.705170 0.404358
0.605621 0.716125 0.403595
0.708679 0.728790 0.404358
0.793335 0.727081 0.383881
0.889496 0.732605 0.360504
0.987671 0.746338 0.361084
0.375366 0.752258 0.428375
0.433319 0.772430 0.449341
0.497375 0.785126 0.461029
0.565887 0.794281 0.467804
0.639618 0.803162 0.470306
0.722595 0.814880 0.468903
0.809601 0.827759 0.464233
0.889435 0.831482 0.432678
0.977417 0.843079 0.428711
0.437073 0.832855 0.474609
0.492401 0.851868 0.496826
0.552643 0.864471 0.510773
0.615662 0.873657 0.520935
0.680084 0.882080 0.528748
0.745239 0.889771 0.531555
0.813965 0.898773 0.525024
0.888824 0.911713 0.512482
0.961853 0.927307 0.538239
0.011200 0.014862 0.123047
0.059998 0.027283 0.157196
0.135773 0.036774 0.168488
0.244141 0.037445 0.170349
0.340942 0.033630 0.164978
0.419250 0.034943 0.169098
0.495880 0.039917 0.180939
0.573517 0.046814 0.200104
0.653442 0.053497 0.221466
0.023468 0.092255 0.184723
0.086090 0.114136 0.212830
0.183533 0.126587 0.228912
0.305115 0.119812 0.226227
0.408630 0.106201 0.216400
0.491638 0.106659 0.221191
0.570648 0.114655 0.237274
0.649597 0.125580 0.259033
0.727173 0.140167 0.286499
0.037598 0.199188 0.230072
0.106293 0.232056 0.267822
0.216461 0.249695 0.290741
0.352936 0.245819 0.290131
0.470490 0.229340 0.275177
0.559784 0.227905 0.274628
0.639557 0.237457 0.285614
0.717865 0.251404 0.301758
0.796082 0.271149 0.325867
0.065857 0.329041 0.282196
0.138062 0.360840 0.316406
0.245117 0.381470 0.338654
0.384979 0.386536 0.342712
0.514435 0.378906 0.337158
0.616058 0.376129 0.332611
0.703186 0.383545 0.339355
0.785675 0.399078 0.354401
0.865509 0.421417 0.377960
0.131042 0.458160 0.337769
0.205231 0.484802 0.365082
0.297424 0.504364 0.382172
0.418549 0.516876 0.389557
0.549255 0.513245 0.384796
0.650696 0.508820 0.382965
0.750366 0.517761 0.386169
0.844238 0.532715 0.397797
0.930267 0.552032 0.417450
0.221405 0.571594 0.396912
0.290924 0.596252 0.420807
0.371368 0.614777 0.435394
0.467285 0.628601 0.442810
0.580902 0.636749 0.440521
0.682465 0.631195 0.430725
0.777069 0.631805 0.423859
0.880280 0.645630 0.427185
0.976074 0.663361 0.442230
0.306122 0.671814 0.453064
0.370758 0.695618 0.476624
0.444763 0.713043 0.491486
0.525787 0.725739 0.500671
0.613861 0.734863 0.500488
0.712677 0.745300 0.495697
0.798065 0.743988 0.478149
0.892975 0.750031 0.463593
0.990845 0.765320 0.470337
0.381195 0.763367 0.503723
0.442474 0.785309 0.527954
0.511810 0.801544 0.545319
0.584412 0.813446 0.557343
0.656677 0.821930 0.561554
0.733521 0.831055 0.558411
0.817291 0.842926 0.550568
0.896210 0.847839 0.524445
0.981262 0.860168 0.528687
0.447449 0.845642 0.549103
0.506287 0.865753 0.574158
0.570892 0.880432 0.592560
0.636322 0.891113 0.605865
0.700195 0.899170 0.614075
0.762665 0.906036 0.616638
0.826782 0.913605 0.610229
0.897675 0.925018 0.594543
0.966339 0.940063 0.634064
0.019379 0.023926 0.175476
0.075500 0.041138 0.237854
0.151520 0.050262 0.253662
0.254974 0.057343 0.259277
0.360596 0.059631 0.263245
0.448944 0.064575 0.274506
0.528137 0.073120 0.291748
0.604065 0.083740 0.313873
0.679382 0.094788 0.338409
0.036987 0.103546 0.268646
0.099365 0.128174 0.303223
0.194519 0.143372 0.324036
0.311707 0.148315 0.330780
0.423767 0.145386 0.330872
0.516357 0.148529 0.338043
0.596802 0.160034 0.355103
0.673920 0.177338 0.380585
0.746124 0.201935 0.411102
0.050385 0.206207 0.313293
0.119720 0.240906 0.356262
0.224915 0.263916 0.385742
0.351532 0.272278 0.397552
0.474579 0.265808 0.393829
0.572632 0.259888 0.388580
0.652435 0.267029 0.395477
0.726868 0.284607 0.414276
0.799377 0.309357 0.441437
0.077698 0.329315 0.366089
0.153107 0.364136 0.406372
0.256500 0.390594 0.437531
0.383789 0.405609 0.454773
0.516785 0.403259 0.452820
0.622772 0.392426 0.440216
0.706543 0.395660 0.441040
0.783478 0.412231 0.457367
0.857208 0.434906 0.481628
0.139221 0.455658 0.420044
0.215271 0.486694 0.453644
0.308380 0.512482 0.480591
0.423523 0.533081 0.501068
0.551453 0.539490 0.504913
0.655090 0.529968 0.491882
0.750671 0.531708 0.489319
0.838409 0.543549 0.500061
0.917542 0.560547 0.518707
0.225342 0.570648 0.471954
0.296539 0.599030 0.500885
0.379669 0.623291 0.523682
0.477570 0.644257 0.543396
0.586487 0.657623 0.552460
0.687164 0.654388 0.542084
0.778076 0.649719 0.529846
0.877625 0.661255 0.534058
0.966949 0.677155 0.548920
0.307281 0.672760 0.522705
0.373657 0.699066 0.549652
0.451691 0.721497 0.571167
0.538696 0.740601 0.590668
0.627991 0.754883 0.601379
0.719055 0.763458 0.599152
0.803528 0.763428 0.582489
0.894714 0.766479 0.567169
0.988739 0.780762 0.575806
0.381561 0.765961 0.570709
0.444916 0.789886 0.597168
0.519135 0.810120 0.619568
0.598602 0.827301 0.638916
0.675201 0.840393 0.651093
0.748657 0.849091 0.651855
0.825928 0.858429 0.645691
0.902191 0.863647 0.622772
0.982330 0.874908 0.628021
0.451202 0.850616 0.615295
0.512299 0.872101 0.641815
0.581421 0.889771 0.663849
0.652100 0.904114 0.681885
0.719299 0.914948 0.694336
0.781525 0.922485 0.699341
0.842255 0.929138 0.696075
0.906647 0.937744 0.683136
0.970428 0.952240 0.730652
0.031982 0.034546 0.238251
0.094208 0.055420 0.324219
0.173615 0.065979 0.354126
0.266083 0.073120 0.356750
0.370636 0.083984 0.364777
0.468872 0.101715 0.384583
0.557068 0.123474 0.410614
0.638794 0.147034 0.438934
0.716125 0.171570 0.468170
0.057861 0.120056 0.360962
0.123016 0.146454 0.399323
0.215302 0.163300 0.424530
0.322021 0.172302 0.432922
0.431885 0.181732 0.438477
0.532684 0.197784 0.452454
0.620911 0.220428 0.475220
0.701843 0.248535 0.504791
0.772003 0.279449 0.532562
0.071136 0.221283 0.403015
0.145325 0.256714 0.447205
0.246704 0.281830 0.480377
0.361633 0.296814 0.497467
0.477661 0.303802 0.502533
0.581604 0.309418 0.505493
0.668549 0.322083 0.515594
0.745483 0.343414 0.535126
0.815094 0.368744 0.557983
0.101624 0.335785 0.450195
0.180176 0.372528 0.492432
0.279907 0.401581 0.527191
0.396423 0.423035 0.550629
0.517700 0.433655 0.559723
0.625305 0.433807 0.558258
0.713562 0.436768 0.559448
0.790466 0.449951 0.571075
0.859497 0.468414 0.587952
0.159088 0.456055 0.500183
0.236145 0.489807 0.536835
0.326965 0.518341 0.567749
0.436432 0.544067 0.593994
0.554565 0.560913 0.608398
0.663055 0.563690 0.608734
0.753479 0.561249 0.604675
0.832794 0.566650 0.609192
0.904144 0.578857 0.620636
0.237366 0.570709 0.546753
0.308258 0.601196 0.578064
0.389923 0.627441 0.604401
0.487427 0.652985 0.630463
0.593658 0.673431 0.649811
0.694946 0.681122 0.653870
0.781555 0.675842 0.642853
0.870239 0.680939 0.643494
0.947968 0.692078 0.653534
0.314514 0.673218 0.590240
0.380219 0.700623 0.618378
0.457336 0.724792 0.642670
0.546234 0.748199 0.667480
0.638855 0.768860 0.688263
0.728241 0.782013 0.697205
0.809906 0.783813 0.688202
0.894684 0.783264 0.671936
0.979584 0.795105 0.679932
0.383972 0.765503 0.632629
0.447327 0.790405 0.659668
0.522095 0.812653 0.683807
0.604797 0.833710 0.707489
0.687073 0.852753 0.728058
0.763794 0.866455 0.738831
0.836609 0.874664 0.737213
0.908020 0.879364 0.720795
0.981689 0.889252 0.725830
0.450439 0.850006 0.673737
0.511932 0.872284 0.700073
0.583008 0.892120 0.723785
0.658386 0.910126 0.745728
0.732117 0.925934 0.764587
0.799225 0.937714 0.776306
0.859253 0.945038 0.777802
0.917694 0.951263 0.769012
0.976318 0.964966 0.818970
0.046906 0.045807 0.307495
0.114838 0.072235 0.404480
0.198120 0.088226 0.446930
0.284546 0.094391 0.454041
0.377930 0.104889 0.457092
0.477570 0.130127 0.477814
0.572388 0.164001 0.509521
0.659821 0.201477 0.543640
0.740356 0.239014 0.576691
0.086578 0.141357 0.448486
0.155579 0.170441 0.488220
0.243958 0.190033 0.517517
0.340698 0.200409 0.530457
0.440094 0.209656 0.534210
0.539948 0.232635 0.548737
0.633057 0.265594 0.575073
0.718201 0.303589 0.607452
0.788879 0.339661 0.632446
0.105438 0.243652 0.492035
0.183075 0.279541 0.535858
0.278320 0.305817 0.570709
0.381836 0.323334 0.591644
0.486572 0.334473 0.598450
0.586121 0.348877 0.604156
0.676361 0.371887 0.618835
0.757538 0.400543 0.641235
0.829193 0.428619 0.662872
0.138794 0.352448 0.535339
0.219086 0.390015 0.577972
0.314697 0.420135 0.613586
0.421143 0.444061 0.638916
0.529602 0.461395 0.651093
0.629028 0.472809 0.655853
0.717621 0.485718 0.664520
0.797241 0.503265 0.679504
0.867157 0.521301 0.694305
0.191864 0.465057 0.579926
0.269257 0.500580 0.617401
0.357605 0.530304 0.649261
0.460297 0.557831 0.676453
0.568268 0.580048 0.693665
0.667694 0.593536 0.702332
0.755737 0.600403 0.708588
0.833618 0.607849 0.716248
0.900452 0.617584 0.724243
0.260284 0.575867 0.621613
0.329742 0.607330 0.653809
0.409058 0.634338 0.681488
0.502991 0.660889 0.708344
0.605194 0.685059 0.730713
0.701904 0.701233 0.743530
0.789764 0.708923 0.748993
0.866364 0.711639 0.750854
0.931213 0.717407 0.754639
0.329132 0.677032 0.659119
0.393005 0.704742 0.687286
0.467896 0.729309 0.712585
0.554749 0.753723 0.737823
0.646942 0.777222 0.762024
0.736298 0.795898 0.778961
0.818634 0.805573 0.784607
0.894714 0.805511 0.777039
0.965424 0.813934 0.782196
0.393311 0.767334 0.694489
0.455627 0.792450 0.721252
0.528748 0.815247 0.745361
0.609863 0.837280 0.769196
0.693176 0.858978 0.792847
0.773499 0.877808 0.811493
0.846893 0.889709 0.819458
0.914856 0.894562 0.812592
0.981201 0.904358 0.818542
0.454468 0.849457 0.729950
0.515350 0.872162 0.755676
0.585541 0.892578 0.778900
0.661041 0.911896 0.801147
0.737610 0.930756 0.823120
0.809906 0.947113 0.841583
0.874268 0.958984 0.851532
0.930267 0.965179 0.848450
0.984650 0.977753 0.894867
0.063171 0.057770 0.377228
0.137909 0.092010 0.475616
0.223846 0.115204 0.526184
0.310150 0.124756 0.544403
0.395355 0.131775 0.546875
0.486359 0.153076 0.560547
0.580933 0.190552 0.591095
0.670532 0.234344 0.626160
0.752167 0.277679 0.658844
0.120483 0.165070 0.528412
0.190094 0.196533 0.567841
0.274384 0.219513 0.599457
0.365143 0.232697 0.617676
0.456818 0.240723 0.623413
0.549103 0.259491 0.633240
0.641022 0.294464 0.657257
0.727539 0.335968 0.688293
0.797058 0.375305 0.709198
0.147461 0.268707 0.575226
0.224274 0.304962 0.616974
0.312408 0.332458 0.651367
0.407104 0.352203 0.675018
0.503204 0.365265 0.685150
0.595032 0.379425 0.689392
0.682068 0.404907 0.702148
0.763916 0.437378 0.723999
0.835693 0.469604 0.744812
0.184631 0.375702 0.618164
0.264893 0.414001 0.659363
0.354950 0.444550 0.694305
0.451904 0.469543 0.720032
0.549988 0.489685 0.734192
0.640564 0.504211 0.739532
0.723358 0.520325 0.747711
0.801453 0.542053 0.763550
0.870575 0.564911 0.779144
0.235199 0.483398 0.658813
0.312317 0.520416 0.696198
0.398010 0.550842 0.728790
0.493347 0.578247 0.755035
0.591492 0.602203 0.772491
0.682068 0.619995 0.782257
0.762299 0.631866 0.789948
0.836639 0.644257 0.800751
0.901611 0.657410 0.810120
0.293365 0.588562 0.696014
0.362732 0.621460 0.729065
0.440613 0.649292 0.758118
0.530243 0.675293 0.783447
0.625854 0.700226 0.804260
0.716461 0.720215 0.818451
0.797028 0.732941 0.827881
0.869080 0.740387 0.835083
0.929382 0.747253 0.838867
0.351318 0.685516 0.728821
0.414215 0.714233 0.757782
0.487427 0.739288 0.783600
0.570709 0.763184 0.807343
0.659424 0.786957 0.829773
0.746979 0.807892 0.848724
0.826508 0.822205 0.860260
0.897552 0.829529 0.865723
0.954895 0.835968 0.867889
0.407959 0.772766 0.758087
0.468781 0.798157 0.784332
0.539459 0.821014 0.807861
0.617920 0.842865 0.830261
0.699280 0.864410 0.852692
0.779907 0.884918 0.873566
0.854828 0.900543 0.888092
0.921478 0.909088 0.892944
0.979462 0.919067 0.899384
0.464050 0.851685 0.786682
0.523895 0.874329 0.811096
0.592316 0.894775 0.833191
0.666168 0.914124 0.854431
0.741394 0.933228 0.875671
0.814972 0.951630 0.896332
0.883514 0.967682 0.912964
0.942383 0.977814 0.919128
0.992981 0.989380 0.954712
0.081818 0.072601 0.443512
0.162567 0.113556 0.541138
0.250244 0.142731 0.597992
0.337921 0.158234 0.626495
0.420349 0.165558 0.633209
0.504974 0.182648 0.642914
0.592926 0.215393 0.666260
0.679108 0.256836 0.696411
0.759247 0.299377 0.725830
0.155731 0.189240 0.602570
0.224121 0.222473 0.640930
0.304932 0.248291 0.672974
0.391541 0.265045 0.694641
0.479645 0.274994 0.704681
0.567719 0.291168 0.713959
0.653809 0.321167 0.732391
0.736389 0.357758 0.757629
0.801849 0.395782 0.771484
0.188202 0.293610 0.650208
0.261780 0.330078 0.689209
0.344391 0.358398 0.721863
0.432312 0.380066 0.746979
0.523102 0.396057 0.761292
0.611206 0.410431 0.768127
0.693542 0.432220 0.777466
0.770905 0.460541 0.794006
0.838989 0.491791 0.808838
0.232178 0.400940 0.694946
0.309998 0.439728 0.733795
0.394287 0.470490 0.766968
0.481628 0.495148 0.792419
0.571991 0.516663 0.808899
0.658234 0.533264 0.816772
0.735596 0.547455 0.821960
0.807373 0.565887 0.832184
0.872070 0.588959 0.843079
0.284210 0.507965 0.735138
0.359863 0.545837 0.772095
0.440796 0.576202 0.803680
0.527466 0.601990 0.828400
0.617371 0.626038 0.845459
0.702026 0.645844 0.855865
0.775452 0.657593 0.861328
0.841949 0.667908 0.867828
0.902588 0.683472 0.874756
0.335114 0.608856 0.770294
0.403168 0.642517 0.803528
0.478577 0.670074 0.831573
0.562683 0.694855 0.854401
0.651611 0.719025 0.872681
0.736481 0.740295 0.886169
0.810059 0.754089 0.894775
0.874084 0.761322 0.900665
0.930328 0.771057 0.903931
0.381409 0.700348 0.799316
0.443573 0.729492 0.828217
0.514038 0.754303 0.852875
0.593323 0.777039 0.874237
0.677917 0.799347 0.893585
0.762054 0.820709 0.910736
0.837769 0.836487 0.922882
0.902527 0.844940 0.930145
0.955566 0.853760 0.931549
0.427521 0.782562 0.823090
0.486267 0.808105 0.848419
0.553894 0.830475 0.870789
0.629364 0.851349 0.891205
0.708282 0.871826 0.910858
0.787567 0.891785 0.930145
0.862854 0.909088 0.946411
0.927490 0.919525 0.955933
0.978363 0.930267 0.959198
0.475739 0.856812 0.844452
0.533142 0.879089 0.867432
0.599152 0.899261 0.888000
0.671448 0.918335 0.907745
0.745392 0.936859 0.927277
0.818359 0.955078 0.946747
0.889069 0.972839 0.965271
0.951263 0.986633 0.978271
0.999573 0.999420 0.996826
