lut/retro-80s/Ghostbusters (1984) - Standard.cube
# Created by Benjamin (IWLTBAP): https://luts.iwltbap.com
# Copyright: (C) Copyright 2018 Triune Films and IWLTBAP SAS
# Cannot be resold, shared or otherwise redistributed
TITLE "Triune Films 80s Retro LUTs (Rec.709, sRGB, DCI-P3)"
LUT_3D_SIZE 33
0.001190 0.000000 0.000153
0.011383 0.000000 0.000946
0.021545 0.000397 0.001648
0.033600 0.001892 0.002258
0.047363 0.003662 0.002899
0.063507 0.005402 0.003387
0.082123 0.007080 0.003754
0.103302 0.009033 0.003906
0.126923 0.010742 0.004272
0.152100 0.012482 0.004822
0.177521 0.014008 0.005310
0.203064 0.015747 0.006073
0.227905 0.017212 0.006836
0.251617 0.018585 0.007751
0.274353 0.020050 0.008636
0.296265 0.021576 0.009491
0.317291 0.023010 0.010559
0.338013 0.024475 0.011536
0.358643 0.026001 0.012634
0.379242 0.027435 0.013794
0.399933 0.029022 0.015076
0.420624 0.030487 0.016357
0.441376 0.032074 0.017700
0.462494 0.033813 0.019043
0.483826 0.035645 0.020569
0.505432 0.037720 0.022186
0.527313 0.039917 0.023987
0.549500 0.042328 0.025848
0.571991 0.044769 0.027863
0.594696 0.047363 0.029877
0.617523 0.050110 0.031982
0.640442 0.052765 0.034149
0.663452 0.055634 0.036469
0.002472 0.015015 0.005188
0.013794 0.016663 0.005707
0.024963 0.018036 0.006348
0.038696 0.019562 0.006622
0.053833 0.021637 0.006927
0.072205 0.023682 0.007263
0.093567 0.025452 0.007172
0.117279 0.026886 0.007324
0.142517 0.028168 0.007355
0.168610 0.029266 0.007629
0.194885 0.029907 0.008057
0.220581 0.030884 0.008728
0.245483 0.031219 0.009430
0.269104 0.031921 0.010315
0.291931 0.032440 0.011566
0.313538 0.033447 0.012604
0.334900 0.034271 0.013947
0.355621 0.035675 0.015198
0.376617 0.036469 0.016815
0.397522 0.037598 0.018463
0.418243 0.039215 0.019836
0.439026 0.040894 0.021301
0.459808 0.042755 0.022705
0.481171 0.044708 0.024353
0.502625 0.046783 0.026001
0.524292 0.048920 0.027802
0.546387 0.051331 0.029663
0.568634 0.053680 0.031647
0.591217 0.056305 0.033691
0.614044 0.059113 0.035889
0.636749 0.061890 0.038055
0.659668 0.065033 0.040497
0.682465 0.068298 0.042847
0.003906 0.034027 0.010468
0.015991 0.035797 0.011230
0.028992 0.037231 0.011383
0.043488 0.038788 0.011261
0.060364 0.040833 0.011017
0.081116 0.043579 0.011383
0.104156 0.045532 0.010986
0.129822 0.046906 0.010345
0.156555 0.048065 0.009979
0.183990 0.048645 0.009827
0.211090 0.049042 0.010101
0.237030 0.049438 0.010345
0.261780 0.049774 0.010956
0.285248 0.050049 0.011841
0.307831 0.050568 0.012848
0.329468 0.051483 0.013916
0.350830 0.052185 0.015167
0.371857 0.053131 0.016510
0.392883 0.053894 0.018188
0.413696 0.054871 0.019653
0.434845 0.055725 0.021393
0.456055 0.057037 0.023224
0.477356 0.058289 0.025269
0.498932 0.059509 0.027527
0.520874 0.061005 0.029785
0.543182 0.062347 0.032410
0.565765 0.064087 0.035034
0.588531 0.066132 0.037659
0.611115 0.069275 0.040039
0.633820 0.072296 0.042419
0.656433 0.075256 0.044830
0.679169 0.078491 0.047333
0.696259 0.082764 0.050568
0.005859 0.053955 0.015656
0.018768 0.056000 0.016357
0.032776 0.057861 0.016571
0.048187 0.059631 0.016266
0.066528 0.061249 0.015411
0.088745 0.063843 0.015167
0.114868 0.066498 0.014618
0.142365 0.068268 0.013702
0.170837 0.069336 0.012787
0.199127 0.069519 0.012238
0.226227 0.069977 0.011810
0.252563 0.070160 0.011902
0.277374 0.070160 0.012329
0.300934 0.070770 0.013123
0.323547 0.071259 0.014038
0.345459 0.071747 0.015076
0.366882 0.072662 0.016418
0.388000 0.073700 0.017670
0.408966 0.074677 0.019165
0.429932 0.075836 0.020569
0.450867 0.077148 0.022186
0.472076 0.078705 0.023926
0.493469 0.080078 0.025818
0.515106 0.081879 0.027802
0.537231 0.083649 0.030243
0.559570 0.085541 0.032654
0.582245 0.087341 0.035126
0.605164 0.089661 0.037964
0.628204 0.091766 0.040894
0.651245 0.094116 0.044250
0.674286 0.096283 0.047607
0.697235 0.098511 0.051147
0.711304 0.102783 0.056183
0.007874 0.075623 0.020721
0.021698 0.077972 0.021362
0.036743 0.080261 0.021515
0.053253 0.081970 0.021088
0.072601 0.084167 0.020172
0.096161 0.085693 0.018646
0.124603 0.089020 0.018280
0.154327 0.091064 0.017212
0.184479 0.092072 0.015839
0.213867 0.092377 0.014771
0.241821 0.092499 0.014099
0.268311 0.092407 0.013977
0.293274 0.092224 0.014221
0.317047 0.092651 0.014801
0.339661 0.093323 0.015625
0.361725 0.093903 0.016724
0.383148 0.094940 0.017822
0.404572 0.096039 0.019135
0.425659 0.097229 0.020538
0.446777 0.098480 0.022186
0.467834 0.100250 0.023743
0.489075 0.102051 0.025513
0.510437 0.103973 0.027374
0.532166 0.106079 0.029388
0.554169 0.108276 0.031616
0.576569 0.110870 0.033966
0.599213 0.113464 0.036438
0.622009 0.116272 0.038788
0.645020 0.119568 0.041809
0.667969 0.122925 0.044708
0.690826 0.126526 0.047791
0.713593 0.130066 0.051086
0.732269 0.134399 0.055450
0.010468 0.099152 0.025726
0.024902 0.101715 0.026215
0.040955 0.104248 0.026367
0.058563 0.106476 0.025848
0.078857 0.108429 0.024750
0.103943 0.109924 0.022766
0.132874 0.112244 0.021301
0.165558 0.115173 0.020660
0.197876 0.116699 0.019440
0.228424 0.117249 0.017822
0.257172 0.117432 0.016815
0.284027 0.117493 0.016357
0.309204 0.117584 0.016418
0.333160 0.117889 0.016876
0.356262 0.118378 0.017700
0.378418 0.118835 0.018677
0.400238 0.119568 0.019775
0.421661 0.120544 0.020996
0.442810 0.122070 0.022369
0.464081 0.123474 0.024048
0.485229 0.125458 0.025879
0.506561 0.127502 0.027740
0.528015 0.129883 0.029724
0.549744 0.132477 0.031769
0.571899 0.135193 0.034088
0.594238 0.138184 0.036499
0.616852 0.141388 0.039032
0.639618 0.144958 0.041687
0.662354 0.148682 0.044250
0.684998 0.152802 0.047363
0.707642 0.157318 0.050415
0.730164 0.162018 0.053650
0.750977 0.167023 0.057648
0.014038 0.124573 0.030426
0.029022 0.127441 0.030975
0.045288 0.130615 0.031372
0.063995 0.132904 0.030762
0.085693 0.135132 0.029236
0.111450 0.136841 0.027161
0.141602 0.137970 0.024628
0.176483 0.140686 0.023834
0.210327 0.142639 0.022797
0.242218 0.143555 0.021271
0.271729 0.143890 0.019867
0.299225 0.144318 0.019257
0.324982 0.144745 0.018982
0.349365 0.145416 0.019470
0.372803 0.146088 0.020172
0.395386 0.146820 0.021118
0.417480 0.147736 0.022278
0.439056 0.148834 0.023560
0.460510 0.150116 0.025024
0.481934 0.151794 0.026764
0.503143 0.153534 0.028442
0.524567 0.155731 0.030334
0.546143 0.158325 0.032440
0.567932 0.161041 0.034698
0.589996 0.164368 0.037170
0.612335 0.167755 0.039886
0.634827 0.171509 0.042480
0.657288 0.175446 0.045319
0.679779 0.179718 0.048065
0.702301 0.184387 0.051086
0.724548 0.189484 0.054352
0.746735 0.194916 0.057922
0.768372 0.200348 0.061798
0.018646 0.152313 0.035004
0.033936 0.155243 0.035492
0.049957 0.158813 0.036011
0.069214 0.161591 0.035461
0.092041 0.163757 0.033966
0.119141 0.165466 0.031403
0.150574 0.166504 0.028442
0.185760 0.167725 0.026581
0.221985 0.170044 0.026276
0.255188 0.171478 0.024963
0.286072 0.171997 0.023560
0.314484 0.172882 0.022736
0.340820 0.173645 0.022369
0.365479 0.174438 0.022522
0.389221 0.175201 0.023102
0.412079 0.176392 0.023987
0.434540 0.177521 0.025208
0.456665 0.178802 0.026550
0.478302 0.180359 0.028107
0.499695 0.182129 0.029816
0.521118 0.184143 0.031708
0.542664 0.186462 0.033600
0.564392 0.188934 0.035736
0.586304 0.191772 0.038208
0.608337 0.195312 0.040741
0.630493 0.198822 0.043610
0.652771 0.202911 0.046478
0.675049 0.207245 0.049469
0.697266 0.212128 0.052765
0.719330 0.217133 0.056152
0.741211 0.222504 0.059479
0.763031 0.228363 0.063385
0.784424 0.234467 0.067719
0.024017 0.181610 0.038910
0.039398 0.184845 0.039459
0.055634 0.188599 0.039978
0.074677 0.191498 0.039551
0.098145 0.194092 0.038177
0.126312 0.196045 0.035858
0.159210 0.196991 0.032471
0.195404 0.197449 0.029144
0.232513 0.199188 0.028961
0.267578 0.200653 0.028839
0.299408 0.201538 0.027832
0.328552 0.202454 0.026764
0.355713 0.203400 0.026184
0.381073 0.204651 0.026245
0.405426 0.205872 0.026550
0.428802 0.207184 0.027435
0.451508 0.208527 0.028809
0.473663 0.210236 0.030121
0.495636 0.211975 0.031708
0.517334 0.213867 0.033600
0.538940 0.216003 0.035645
0.560516 0.218353 0.037811
0.582397 0.221161 0.040070
0.604370 0.224182 0.042480
0.626404 0.227570 0.045074
0.648438 0.231262 0.047974
0.670380 0.235535 0.051239
0.692474 0.240173 0.054688
0.714355 0.245209 0.058136
0.735992 0.250549 0.061920
0.757477 0.256226 0.065857
0.778870 0.262299 0.070038
0.799866 0.268616 0.074951
0.030548 0.212067 0.042877
0.045227 0.215576 0.043304
0.061707 0.219452 0.043671
0.080963 0.222748 0.043152
0.104431 0.225464 0.041809
0.133179 0.227661 0.039795
0.166840 0.229218 0.036835
0.203888 0.229706 0.033325
0.242249 0.230011 0.031250
0.279022 0.231262 0.031982
0.312073 0.232117 0.032166
0.342133 0.232941 0.031586
0.370056 0.234070 0.031036
0.396210 0.235474 0.030670
0.420959 0.236938 0.030884
0.444733 0.238739 0.031616
0.467834 0.240509 0.032837
0.490448 0.242371 0.034424
0.512573 0.244293 0.036102
0.534393 0.246490 0.038055
0.556274 0.248779 0.040283
0.578186 0.251404 0.042480
0.599915 0.254150 0.045013
0.621857 0.257202 0.047729
0.643921 0.260681 0.050598
0.665802 0.264557 0.053528
0.687683 0.268890 0.056885
0.709381 0.273560 0.060791
0.730927 0.278687 0.064850
0.752228 0.283997 0.068970
0.773285 0.289886 0.073547
0.794250 0.296173 0.078430
0.814911 0.302338 0.083374
0.037628 0.243256 0.047394
0.052917 0.246613 0.047699
0.068634 0.250824 0.048096
0.087860 0.254395 0.047516
0.111816 0.257294 0.046051
0.140930 0.259766 0.043701
0.174927 0.261688 0.040955
0.212250 0.262817 0.037842
0.251495 0.263031 0.035522
0.289551 0.263367 0.036011
0.323914 0.263824 0.037231
0.354767 0.264465 0.037201
0.383392 0.265320 0.036865
0.410187 0.266541 0.036346
0.435547 0.268280 0.036499
0.459900 0.270386 0.037018
0.483459 0.272461 0.038055
0.506348 0.274658 0.039307
0.528748 0.276947 0.041138
0.550934 0.279327 0.043365
0.572937 0.281860 0.045593
0.594818 0.284454 0.047974
0.616730 0.287445 0.050842
0.638641 0.290619 0.053833
0.660553 0.294067 0.057007
0.682343 0.298035 0.060425
0.704132 0.302338 0.064148
0.725586 0.307068 0.068085
0.746887 0.312103 0.072418
0.767883 0.317474 0.077087
0.788666 0.323090 0.081848
0.809265 0.329132 0.087250
0.829620 0.335419 0.092834
0.046112 0.274750 0.051971
0.061188 0.278107 0.052277
0.077332 0.282501 0.052551
0.097137 0.285797 0.051788
0.120117 0.289093 0.050781
0.149261 0.291901 0.048767
0.183014 0.294434 0.046234
0.220764 0.296265 0.043396
0.260498 0.297180 0.040771
0.299530 0.297150 0.040314
0.335114 0.296875 0.042938
0.366791 0.296844 0.044006
0.395966 0.297211 0.044128
0.423370 0.298279 0.043915
0.449310 0.299713 0.043610
0.474030 0.301727 0.043701
0.497772 0.304047 0.044556
0.521027 0.306519 0.045837
0.543793 0.309113 0.047424
0.566284 0.311859 0.049316
0.588440 0.314575 0.051697
0.610657 0.317352 0.054474
0.632568 0.320374 0.057343
0.654480 0.323700 0.060516
0.676422 0.327393 0.064087
0.698120 0.331268 0.067993
0.719727 0.335510 0.072021
0.741058 0.340179 0.076233
0.762177 0.345184 0.080902
0.783051 0.350433 0.085754
0.803619 0.355774 0.090912
0.824097 0.361481 0.096191
0.844147 0.367432 0.101868
0.056183 0.305939 0.057159
0.071869 0.309326 0.057159
0.088043 0.313812 0.057678
0.107544 0.317322 0.057159
0.131104 0.320526 0.056122
0.158752 0.323639 0.054443
0.191437 0.326508 0.052429
0.228912 0.328918 0.050140
0.268738 0.330688 0.047821
0.308533 0.331543 0.047363
0.345306 0.330902 0.048889
0.378174 0.330139 0.051483
0.407928 0.329712 0.052368
0.435577 0.330078 0.052399
0.461823 0.331238 0.052124
0.487061 0.333008 0.052032
0.511383 0.335358 0.052551
0.534790 0.337769 0.053223
0.557739 0.340485 0.054779
0.580444 0.343445 0.056610
0.602905 0.346436 0.058929
0.625122 0.349609 0.061523
0.647278 0.352783 0.064484
0.669250 0.356201 0.067749
0.691040 0.359833 0.071442
0.712860 0.363892 0.075592
0.734467 0.368103 0.079987
0.755768 0.372620 0.084473
0.776917 0.377350 0.089355
0.797699 0.382507 0.094482
0.818207 0.387756 0.099731
0.838562 0.393127 0.105286
0.858643 0.398590 0.110840
0.068878 0.336670 0.063019
0.084625 0.340057 0.063110
0.101166 0.344757 0.064148
0.120544 0.348328 0.063934
0.143555 0.351532 0.062836
0.170441 0.354767 0.061462
0.201904 0.357910 0.059967
0.237762 0.360901 0.058411
0.276825 0.363434 0.056946
0.317169 0.365295 0.056488
0.355438 0.365631 0.057587
0.388977 0.364441 0.060822
0.419189 0.363007 0.062531
0.447052 0.362488 0.062836
0.473511 0.362915 0.062225
0.499054 0.364136 0.061768
0.523590 0.366119 0.061523
0.547455 0.368591 0.062164
0.570770 0.371307 0.063232
0.593475 0.374298 0.064728
0.616058 0.377441 0.066803
0.638580 0.380798 0.069244
0.660767 0.384308 0.072205
0.682922 0.387848 0.075531
0.704926 0.391632 0.079224
0.726654 0.395569 0.083313
0.748322 0.399841 0.087860
0.769867 0.404205 0.092651
0.790924 0.408783 0.097443
0.811829 0.413483 0.102631
0.832428 0.418518 0.107971
0.852814 0.423737 0.113525
0.872894 0.428894 0.118958
0.083282 0.366669 0.070801
0.099457 0.370636 0.071228
0.116425 0.375153 0.072327
0.136047 0.378632 0.072327
0.158112 0.381958 0.071777
0.183685 0.385193 0.070679
0.213837 0.388428 0.069489
0.247925 0.391785 0.068329
0.285553 0.395111 0.068146
0.325195 0.397919 0.068695
0.364044 0.399872 0.069672
0.399414 0.399292 0.071960
0.430023 0.397095 0.074738
0.457764 0.395660 0.075470
0.484314 0.395020 0.074615
0.509918 0.395477 0.073517
0.534882 0.396942 0.072601
0.558960 0.399048 0.072235
0.582397 0.401611 0.072632
0.605591 0.404510 0.073700
0.628174 0.407684 0.075287
0.650726 0.411102 0.077454
0.673279 0.414703 0.080231
0.695374 0.418427 0.083435
0.717590 0.422363 0.086945
0.739655 0.426331 0.090973
0.761414 0.430481 0.095184
0.783051 0.434723 0.099884
0.804504 0.439087 0.104736
0.825470 0.443542 0.109650
0.846283 0.448181 0.114838
0.866913 0.452911 0.120148
0.887207 0.457764 0.125488
0.099823 0.395477 0.079651
0.116730 0.400177 0.080414
0.133881 0.404785 0.082092
0.153107 0.408478 0.082825
0.174530 0.411804 0.082672
0.199036 0.414917 0.082153
0.227173 0.418121 0.081390
0.259216 0.421539 0.080750
0.294861 0.425140 0.080902
0.332886 0.428650 0.082001
0.371582 0.431458 0.083862
0.408325 0.432770 0.086456
0.440033 0.431458 0.088715
0.468170 0.429352 0.089935
0.494476 0.427765 0.089355
0.519867 0.427368 0.087738
0.544830 0.427948 0.085724
0.569153 0.429443 0.084259
0.592957 0.431671 0.083740
0.616180 0.434326 0.083893
0.639191 0.437378 0.084686
0.661865 0.440674 0.086182
0.684296 0.444275 0.088348
0.706879 0.447876 0.091064
0.729248 0.451813 0.094208
0.751526 0.455872 0.098053
0.773651 0.459930 0.101959
0.795532 0.463989 0.106232
0.817230 0.468201 0.110565
0.838623 0.472382 0.115326
0.859772 0.476715 0.120270
0.880646 0.481110 0.125214
0.901184 0.485504 0.130341
0.119019 0.424347 0.090729
0.135345 0.429443 0.091919
0.153137 0.433868 0.094177
0.172058 0.437408 0.095184
0.192841 0.440674 0.095612
0.215912 0.443604 0.095337
0.242249 0.446808 0.095123
0.271851 0.450256 0.095123
0.305176 0.454010 0.095978
0.341064 0.457764 0.097595
0.378479 0.461243 0.099854
0.415405 0.464142 0.102631
0.449341 0.464813 0.105682
0.477844 0.462982 0.106995
0.504028 0.460876 0.106323
0.529114 0.459564 0.104095
0.553772 0.459351 0.101379
0.578125 0.460083 0.098633
0.602051 0.461639 0.096649
0.625641 0.463989 0.095734
0.648834 0.466736 0.095520
0.671753 0.469696 0.095917
0.694458 0.473022 0.096985
0.717072 0.476562 0.098938
0.739807 0.480225 0.101135
0.762421 0.484039 0.104095
0.784821 0.488007 0.107574
0.807220 0.492096 0.111481
0.829254 0.496094 0.115356
0.851044 0.500092 0.119598
0.872620 0.504242 0.124176
0.894012 0.508362 0.128815
0.914825 0.512451 0.133575
0.139343 0.451904 0.104126
0.156342 0.457153 0.106018
0.173462 0.461945 0.108887
0.192169 0.465485 0.110382
0.211914 0.468658 0.111298
0.234131 0.471466 0.111450
0.258453 0.474426 0.111481
0.285919 0.477692 0.111969
0.316742 0.481262 0.112823
0.350098 0.485199 0.114441
0.385437 0.489258 0.117279
0.421448 0.492889 0.120575
0.456543 0.495758 0.123840
0.487061 0.496185 0.126221
0.513245 0.493896 0.125824
0.537903 0.492035 0.123322
0.562073 0.490997 0.119446
0.586090 0.490997 0.115509
0.610016 0.492004 0.112152
0.633789 0.493561 0.109344
0.657257 0.495819 0.107758
0.680420 0.498566 0.106934
0.703461 0.501434 0.106720
0.726440 0.504669 0.107269
0.749359 0.508087 0.108551
0.772278 0.511566 0.110291
0.795197 0.515289 0.112671
0.817780 0.519043 0.115784
0.840332 0.522888 0.119080
0.862701 0.526947 0.122955
0.884613 0.530792 0.126923
0.906403 0.534698 0.131073
0.927887 0.538574 0.135315
0.160797 0.478455 0.118835
0.177795 0.484100 0.121704
0.194916 0.489044 0.125092
0.212799 0.492554 0.127014
0.232117 0.495636 0.128418
0.252686 0.498383 0.128937
0.275757 0.501190 0.129456
0.300903 0.504242 0.129944
0.328705 0.507629 0.130920
0.359741 0.511414 0.132629
0.392883 0.515442 0.135284
0.427368 0.519531 0.138580
0.461456 0.523407 0.142303
0.493835 0.526245 0.145752
0.522064 0.526550 0.147064
0.546448 0.524506 0.144714
0.569977 0.522827 0.140411
0.593536 0.522217 0.135162
0.617188 0.522491 0.130005
0.640900 0.523407 0.125549
0.664551 0.524994 0.121948
0.687988 0.527191 0.119507
0.711365 0.529755 0.117981
0.734589 0.532471 0.116943
0.757904 0.535400 0.116577
0.781036 0.538696 0.117157
0.804260 0.541992 0.118256
0.827515 0.545441 0.120056
0.850403 0.549164 0.122528
0.873108 0.552765 0.125488
0.895691 0.556519 0.128693
0.917908 0.560272 0.132294
0.939667 0.563995 0.136017
0.182556 0.504761 0.135223
0.199402 0.510162 0.138580
0.216095 0.515045 0.142151
0.233398 0.518738 0.144928
0.252136 0.521790 0.146667
0.271606 0.524475 0.147491
0.293152 0.527130 0.148254
0.316193 0.529968 0.148834
0.342102 0.533081 0.149811
0.370087 0.536652 0.151520
0.400696 0.540649 0.153870
0.433105 0.544952 0.156982
0.466064 0.549225 0.160736
0.498505 0.553192 0.164673
0.528503 0.556000 0.167725
0.554657 0.556274 0.167450
0.578033 0.554840 0.163513
0.600616 0.553558 0.157349
0.623810 0.553192 0.150970
0.647217 0.553467 0.144775
0.670776 0.554443 0.139099
0.694458 0.555939 0.134308
0.718018 0.557953 0.130981
0.741577 0.560272 0.128418
0.765167 0.562775 0.126526
0.788757 0.565460 0.125214
0.812225 0.568390 0.124939
0.835785 0.571594 0.125427
0.859314 0.574768 0.126251
0.882416 0.578247 0.128143
0.905304 0.581696 0.130432
0.928192 0.585205 0.133026
0.950439 0.588806 0.136169
0.204224 0.529663 0.152649
0.220612 0.535339 0.156464
0.236969 0.540375 0.160156
0.253937 0.544098 0.163422
0.271698 0.547180 0.165527
0.290497 0.549896 0.166687
0.310455 0.552490 0.167603
0.332214 0.555054 0.168243
0.355682 0.557983 0.169312
0.381470 0.561279 0.170746
0.409576 0.565002 0.172791
0.439423 0.569275 0.175690
0.470673 0.573792 0.179321
0.502136 0.578278 0.183228
0.532715 0.582581 0.187073
0.561005 0.585419 0.189453
0.585754 0.585846 0.187927
0.608093 0.584869 0.182098
0.630280 0.583954 0.174561
0.653015 0.583771 0.166748
0.676361 0.584045 0.159180
0.699890 0.584961 0.152466
0.723572 0.586243 0.146637
0.747406 0.587921 0.141785
0.771271 0.589996 0.138214
0.795105 0.592255 0.135468
0.819031 0.594696 0.133270
0.842773 0.597473 0.132111
0.866577 0.600311 0.131592
0.890289 0.603302 0.131744
0.913574 0.606537 0.132843
0.936707 0.609863 0.134399
0.959259 0.613251 0.137024
0.225494 0.553864 0.170349
0.241394 0.559692 0.174683
0.257446 0.565094 0.178925
0.273926 0.568909 0.182434
0.290985 0.571991 0.184601
0.309021 0.574677 0.186005
0.327972 0.577301 0.187286
0.348358 0.579773 0.187988
0.370148 0.582550 0.189117
0.393707 0.585632 0.190399
0.419220 0.589050 0.192169
0.446838 0.593018 0.194672
0.475952 0.597412 0.197876
0.505981 0.602234 0.201630
0.536194 0.607056 0.205658
0.565308 0.611633 0.209442
0.591919 0.614532 0.210632
0.615417 0.615265 0.207764
0.637085 0.614594 0.200745
0.658813 0.613922 0.191650
0.681366 0.613678 0.182648
0.704529 0.614014 0.173920
0.728058 0.614655 0.165588
0.751984 0.615692 0.158356
0.776001 0.617218 0.152496
0.800293 0.619141 0.147980
0.824371 0.621155 0.144073
0.848511 0.623322 0.140778
0.872528 0.625763 0.138763
0.896484 0.628387 0.137207
0.920258 0.631134 0.136475
0.943756 0.634216 0.136780
0.966034 0.637543 0.139374
0.246246 0.577820 0.188446
0.261566 0.583527 0.192841
0.277130 0.589264 0.197388
0.293365 0.592957 0.200928
0.309845 0.596161 0.203400
0.326996 0.598938 0.205078
0.345398 0.601654 0.206573
0.364288 0.604187 0.207520
0.385040 0.606964 0.208954
0.406647 0.609833 0.210175
0.430206 0.613098 0.211945
0.455261 0.616760 0.214081
0.482300 0.620911 0.216797
0.510406 0.625458 0.220032
0.539337 0.630402 0.223755
0.568359 0.635529 0.227814
0.596161 0.640228 0.231079
0.621490 0.643250 0.231689
0.644073 0.644226 0.227570
0.665161 0.643738 0.218964
0.686523 0.643219 0.208832
0.708893 0.642975 0.198334
0.731995 0.643219 0.188324
0.755524 0.643799 0.178711
0.779663 0.644623 0.170074
0.803925 0.645905 0.163086
0.828369 0.647583 0.157349
0.852692 0.649292 0.152252
0.876953 0.651245 0.147858
0.901215 0.653473 0.144775
0.925171 0.655884 0.142456
0.949097 0.658417 0.140686
0.971252 0.661713 0.143555
0.266266 0.601105 0.206238
0.281281 0.607117 0.211090
0.296478 0.612915 0.215881
0.311951 0.616882 0.219696
0.328156 0.620178 0.222321
0.344696 0.623230 0.224426
0.362274 0.625885 0.225983
0.380646 0.628540 0.227356
0.399780 0.631256 0.228668
0.420441 0.634094 0.230042
0.442017 0.637177 0.231628
0.465302 0.640533 0.233612
0.489960 0.644318 0.235718
0.516174 0.648621 0.238556
0.543427 0.653259 0.241913
0.571228 0.658325 0.245575
0.598938 0.663635 0.249298
0.625702 0.668365 0.252319
0.649780 0.671417 0.251831
0.671600 0.672485 0.246704
0.692261 0.672241 0.237244
0.713379 0.671814 0.225861
0.735565 0.671600 0.214142
0.758636 0.671692 0.202301
0.782288 0.672150 0.191284
0.806458 0.672821 0.181519
0.830963 0.673889 0.173279
0.855499 0.675293 0.166229
0.880005 0.676819 0.160095
0.904358 0.678558 0.154633
0.928497 0.680603 0.150543
0.952606 0.682800 0.147064
0.974670 0.685883 0.149872
0.285583 0.624268 0.224213
0.300262 0.630249 0.228943
0.315033 0.636169 0.233765
0.330139 0.640472 0.237701
0.345795 0.644073 0.240875
0.362152 0.647064 0.242920
0.378967 0.649933 0.244934
0.396606 0.652771 0.246552
0.415039 0.655518 0.248108
0.434296 0.658295 0.249542
0.454773 0.661316 0.251282
0.476227 0.664459 0.252960
0.499023 0.667908 0.254974
0.523041 0.671753 0.257416
0.548676 0.676147 0.260223
0.574860 0.680786 0.263336
0.601501 0.685944 0.266785
0.628143 0.691162 0.270325
0.653717 0.695862 0.272675
0.677063 0.698761 0.271515
0.698181 0.700012 0.265656
0.718323 0.699860 0.254822
0.739349 0.699585 0.242340
0.761414 0.699432 0.229095
0.784454 0.699371 0.216156
0.808167 0.699707 0.203888
0.832336 0.700256 0.192749
0.856964 0.701202 0.183380
0.881592 0.702393 0.175171
0.905975 0.703796 0.167694
0.930359 0.705322 0.161102
0.954529 0.707184 0.155792
0.976318 0.710297 0.159637
0.304138 0.647064 0.241394
0.318542 0.653168 0.246338
0.333099 0.659241 0.251312
0.347839 0.663879 0.255432
0.362976 0.667511 0.258545
0.378967 0.670898 0.261292
0.395386 0.673920 0.263397
0.412170 0.676666 0.264984
0.430115 0.679535 0.266876
0.448456 0.682404 0.268555
0.467865 0.685272 0.270233
0.488007 0.688202 0.271942
0.509277 0.691437 0.273926
0.531494 0.694885 0.275970
0.555084 0.698761 0.278351
0.579681 0.703217 0.281097
0.604919 0.707794 0.284088
0.630585 0.712799 0.287292
0.656219 0.717957 0.290497
0.680786 0.722443 0.292389
0.703186 0.725342 0.290405
0.723785 0.726715 0.283569
0.743561 0.726654 0.272095
0.764435 0.726501 0.258545
0.786407 0.726379 0.244141
0.809265 0.726410 0.229675
0.832977 0.726562 0.216034
0.857086 0.726929 0.203644
0.881683 0.727814 0.193146
0.906128 0.728851 0.183594
0.930511 0.730042 0.175018
0.954987 0.731537 0.167297
0.976318 0.734589 0.172638
0.322083 0.669800 0.258423
0.336304 0.676086 0.263611
0.350403 0.682220 0.268646
0.364990 0.686981 0.272644
0.379944 0.690857 0.276062
0.395142 0.694122 0.278625
0.411285 0.697235 0.281006
0.427826 0.700226 0.282990
0.444824 0.703094 0.284882
0.462799 0.706055 0.286896
0.481018 0.708862 0.288635
0.500336 0.711792 0.290558
0.520172 0.714783 0.292297
0.541046 0.717926 0.294250
0.562653 0.721436 0.296295
0.585541 0.725189 0.298553
0.609314 0.729523 0.301208
0.633636 0.733978 0.304047
0.658264 0.738770 0.306885
0.682922 0.743774 0.309692
0.706451 0.748108 0.311066
