lut/retro-80s/Ghostbusters (1984) - Standard.cube
# Created by Benjamin (IWLTBAP): https://luts.iwltbap.com
# Copyright: (C) Copyright 2018 Triune Films and IWLTBAP SAS
# Cannot be resold, shared or otherwise redistributed
TITLE "Triune Films 80s Retro LUTs (Rec.709, sRGB, DCI-P3)"
LUT_3D_SIZE 5
0.001190 0.000000 0.000153
0.126923 0.010742 0.004272
0.317291 0.023010 0.010559
0.483826 0.035645 0.020569
0.663452 0.055634 0.036469
0.024017 0.181610 0.038910
0.232513 0.199188 0.028961
0.451508 0.208527 0.028809
0.626404 0.227570 0.045074
0.799866 0.268616 0.074951
0.119019 0.424347 0.090729
0.305176 0.454010 0.095978
0.553772 0.459351 0.101379
0.739807 0.480225 0.101135
0.914825 0.512451 0.133575
0.285583 0.624268 0.224213
0.415039 0.655518 0.248108
0.601501 0.685944 0.266785
0.784454 0.699371 0.216156
0.976318 0.710297 0.159637
0.417816 0.797394 0.347961
0.524780 0.830231 0.374146
0.654572 0.852478 0.394928
0.796936 0.872711 0.404663
0.948212 0.898041 0.368683
0.005737 0.006989 0.078613
0.128723 0.023041 0.102112
0.321838 0.018097 0.095245
0.481689 0.028046 0.110901
0.648376 0.042694 0.140533
0.029907 0.195099 0.154083
0.219116 0.233337 0.189301
0.465912 0.218903 0.175262
0.635742 0.231934 0.190948
0.799805 0.260376 0.218567
0.127808 0.454956 0.250916
0.292206 0.488556 0.273224
0.550659 0.491577 0.277679
0.749237 0.505310 0.285187
0.932129 0.537109 0.308685
0.303253 0.663330 0.375610
0.433685 0.696472 0.402710
0.605621 0.716125 0.403595
0.793335 0.727081 0.383881
0.987671 0.746338 0.361084
0.437073 0.832855 0.474609
0.552643 0.864471 0.510773
0.680084 0.882080 0.528748
0.813965 0.898773 0.525024
0.961853 0.927307 0.538239
0.019379 0.023926 0.175476
0.151520 0.050262 0.253662
0.360596 0.059631 0.263245
0.528137 0.073120 0.291748
0.679382 0.094788 0.338409
0.050385 0.206207 0.313293
0.224915 0.263916 0.385742
0.474579 0.265808 0.393829
0.652435 0.267029 0.395477
0.799377 0.309357 0.441437
0.139221 0.455658 0.420044
0.308380 0.512482 0.480591
0.551453 0.539490 0.504913
0.750671 0.531708 0.489319
0.917542 0.560547 0.518707
0.307281 0.672760 0.522705
0.451691 0.721497 0.571167
0.627991 0.754883 0.601379
0.803528 0.763428 0.582489
0.988739 0.780762 0.575806
0.451202 0.850616 0.615295
0.581421 0.889771 0.663849
0.719299 0.914948 0.694336
0.842255 0.929138 0.696075
0.970428 0.952240 0.730652
0.046906 0.045807 0.307495
0.198120 0.088226 0.446930
0.377930 0.104889 0.457092
0.572388 0.164001 0.509521
0.740356 0.239014 0.576691
0.105438 0.243652 0.492035
0.278320 0.305817 0.570709
0.486572 0.334473 0.598450
0.676361 0.371887 0.618835
0.829193 0.428619 0.662872
0.191864 0.465057 0.579926
0.357605 0.530304 0.649261
0.568268 0.580048 0.693665
0.755737 0.600403 0.708588
0.900452 0.617584 0.724243
0.329132 0.677032 0.659119
0.467896 0.729309 0.712585
0.646942 0.777222 0.762024
0.818634 0.805573 0.784607
0.965424 0.813934 0.782196
0.454468 0.849457 0.729950
0.585541 0.892578 0.778900
0.737610 0.930756 0.823120
0.874268 0.958984 0.851532
0.984650 0.977753 0.894867
0.081818 0.072601 0.443512
0.250244 0.142731 0.597992
0.420349 0.165558 0.633209
0.592926 0.215393 0.666260
0.759247 0.299377 0.725830
0.188202 0.293610 0.650208
0.344391 0.358398 0.721863
0.523102 0.396057 0.761292
0.693542 0.432220 0.777466
0.838989 0.491791 0.808838
0.284210 0.507965 0.735138
0.440796 0.576202 0.803680
0.617371 0.626038 0.845459
0.775452 0.657593 0.861328
0.902588 0.683472 0.874756
0.381409 0.700348 0.799316
0.514038 0.754303 0.852875
0.677917 0.799347 0.893585
0.837769 0.836487 0.922882
0.955566 0.853760 0.931549
0.475739 0.856812 0.844452
0.599152 0.899261 0.888000
0.745392 0.936859 0.927277
0.889069 0.972839 0.965271
0.999573 0.999420 0.996826
