lut/retro-80s/Gremlins (1984) - Standard.cube
# Created by Benjamin (IWLTBAP): https://luts.iwltbap.com
# Copyright: (C) Copyright 2018 Triune Films and IWLTBAP SAS
# Cannot be resold, shared or otherwise redistributed
TITLE "Triune Films 80s Retro LUTs (Rec.709, sRGB, DCI-P3)"
LUT_3D_SIZE 33
0.000000 0.000000 0.000000
0.015991 0.000000 0.000458
0.035522 0.000000 0.001221
0.055847 0.000824 0.002045
0.076508 0.001404 0.002930
0.098816 0.002502 0.003784
0.121307 0.002808 0.004700
0.143616 0.003510 0.005951
0.166260 0.004578 0.007538
0.189148 0.005798 0.009491
0.211823 0.006805 0.011505
0.233795 0.007568 0.013855
0.255280 0.008362 0.015991
0.276550 0.009247 0.018158
0.297699 0.010071 0.020355
0.319031 0.011017 0.022797
0.340240 0.011932 0.025238
0.361389 0.012909 0.027618
0.382660 0.013855 0.029999
0.403748 0.014587 0.032440
0.425140 0.015381 0.034821
0.446777 0.016113 0.037262
0.468597 0.016785 0.039642
0.490662 0.017670 0.041931
0.513245 0.018341 0.044312
0.536072 0.019104 0.046692
0.559113 0.019714 0.049042
0.582458 0.020233 0.051331
0.606018 0.020721 0.053650
0.629822 0.021271 0.056000
0.653900 0.021729 0.058411
0.678802 0.022247 0.060822
0.700562 0.022583 0.062805
0.005890 0.006531 0.000153
0.038452 0.005249 0.001404
0.054199 0.006134 0.002594
0.068298 0.006622 0.003265
0.085052 0.006073 0.003784
0.104156 0.005615 0.004120
0.124512 0.004669 0.004517
0.146301 0.005096 0.005554
0.168579 0.006042 0.006989
0.191437 0.007599 0.008942
0.214020 0.008881 0.010925
0.235962 0.009918 0.013245
0.257507 0.010986 0.015472
0.278748 0.012146 0.017517
0.299927 0.013306 0.019806
0.321228 0.014557 0.022247
0.342407 0.015717 0.024689
0.363617 0.016937 0.027100
0.384827 0.018188 0.029480
0.405945 0.019196 0.031921
0.427307 0.020233 0.034302
0.448914 0.021179 0.036682
0.470764 0.022156 0.039093
0.492767 0.023254 0.041443
0.515350 0.024200 0.043793
0.538116 0.025208 0.046204
0.561188 0.026062 0.048523
0.584473 0.026794 0.050842
0.608002 0.027527 0.053162
0.631775 0.028320 0.055542
0.655884 0.029022 0.057922
0.680725 0.029694 0.060333
0.702393 0.030212 0.062347
0.018768 0.021118 0.003204
0.056061 0.015961 0.000732
0.076355 0.016815 0.004456
0.089539 0.018280 0.005890
0.103699 0.019043 0.006531
0.120880 0.019012 0.007263
0.138855 0.017700 0.007935
0.157196 0.016022 0.008453
0.176361 0.014282 0.008789
0.196930 0.013580 0.009583
0.217224 0.012726 0.010437
0.238678 0.013489 0.012512
0.260193 0.014740 0.014771
0.281464 0.016113 0.016907
0.302582 0.017456 0.019135
0.323883 0.018921 0.021606
0.345032 0.020264 0.024017
0.366211 0.021698 0.026428
0.387421 0.023163 0.028809
0.408539 0.024384 0.031250
0.429871 0.025665 0.033661
0.451447 0.026855 0.036072
0.473267 0.028015 0.038483
0.495270 0.029327 0.040802
0.517792 0.030457 0.043182
0.540558 0.031738 0.045563
0.563568 0.032776 0.047943
0.586853 0.033752 0.050262
0.610352 0.034668 0.052582
0.634094 0.035675 0.054932
0.658081 0.036591 0.057343
0.682922 0.037445 0.059784
0.704498 0.038208 0.061768
0.035614 0.038483 0.006042
0.067657 0.031464 0.000458
0.092804 0.030823 0.005035
0.111725 0.032043 0.008606
0.125336 0.034241 0.009491
0.140747 0.035980 0.009979
0.158600 0.036133 0.010712
0.177124 0.034973 0.011597
0.195801 0.033630 0.012970
0.213989 0.031189 0.013580
0.231384 0.027893 0.013885
0.248657 0.024536 0.014130
0.265472 0.021423 0.014221
0.285339 0.021606 0.015839
0.306427 0.023010 0.018127
0.327728 0.024506 0.020599
0.348785 0.026001 0.023071
0.369965 0.027557 0.025513
0.391083 0.029114 0.027924
0.412201 0.030457 0.030334
0.433472 0.031891 0.032745
0.455048 0.033234 0.035156
0.476807 0.034607 0.037537
0.498779 0.036072 0.039917
0.521301 0.037415 0.042297
0.544006 0.038818 0.044708
0.566956 0.040070 0.047119
0.590179 0.041168 0.049438
0.613617 0.042328 0.051788
0.637299 0.043488 0.054169
0.661285 0.044556 0.056519
0.686066 0.045624 0.058960
0.707489 0.046539 0.060974
0.050934 0.061096 0.010895
0.080658 0.053619 0.004517
0.104828 0.050964 0.005951
0.130249 0.049744 0.010834
0.148590 0.051849 0.013672
0.162292 0.054413 0.013275
0.178558 0.055664 0.013184
0.196808 0.056244 0.013824
0.216003 0.054993 0.014618
0.235260 0.052979 0.015778
0.253967 0.050873 0.017242
0.271820 0.048187 0.018402
0.288696 0.044769 0.019104
0.304352 0.040619 0.019287
0.319092 0.036469 0.019287
0.333893 0.032898 0.019501
0.354034 0.033600 0.021698
0.375092 0.035095 0.024170
0.396179 0.036652 0.026520
0.417206 0.038025 0.029022
0.438477 0.039490 0.031464
0.459930 0.040894 0.033905
0.481628 0.042328 0.036316
0.503571 0.043884 0.038696
0.526001 0.045319 0.041138
0.548645 0.046814 0.043549
0.571533 0.048218 0.045959
0.594666 0.049469 0.048309
0.618042 0.050690 0.050659
0.641663 0.052032 0.053040
0.665558 0.053223 0.055450
0.690308 0.054413 0.057922
0.711456 0.055450 0.059906
0.067535 0.087189 0.016998
0.096741 0.078125 0.009033
0.118683 0.075439 0.008759
0.144867 0.073914 0.013458
0.169006 0.072937 0.017975
0.185272 0.074554 0.018372
0.199677 0.076599 0.016937
0.216339 0.078857 0.017181
0.234863 0.079926 0.017273
0.254639 0.078369 0.016998
0.274536 0.075745 0.017914
0.293854 0.073364 0.019501
0.312439 0.070831 0.021088
0.330231 0.067902 0.022522
0.347168 0.064575 0.023682
0.362640 0.060516 0.024261
0.375946 0.055176 0.023987
0.387543 0.049316 0.023712
0.404724 0.047882 0.025208
0.423920 0.047852 0.027344
0.445007 0.049133 0.029755
0.466431 0.050446 0.032227
0.488037 0.051849 0.034698
0.509857 0.053375 0.037140
0.532196 0.054779 0.039520
0.554718 0.056305 0.041992
0.577515 0.057709 0.044403
0.600525 0.058990 0.046783
0.623779 0.060303 0.049164
0.647308 0.061676 0.051575
0.671112 0.062958 0.054016
0.695740 0.064240 0.056488
0.716705 0.065369 0.058502
0.086365 0.114258 0.021851
0.112122 0.106354 0.015137
0.134308 0.102631 0.013123
0.157135 0.101471 0.015381
0.184906 0.098724 0.020813
0.208130 0.097778 0.024658
0.222687 0.100281 0.023865
0.237030 0.101898 0.020935
0.254120 0.103760 0.019989
0.273010 0.105133 0.019836
0.293030 0.104919 0.019623
0.313538 0.102478 0.019684
0.333466 0.099274 0.020996
0.352753 0.096100 0.022583
0.371460 0.093109 0.024323
0.389526 0.090057 0.026001
0.406342 0.086395 0.027313
0.422272 0.082489 0.028320
0.436523 0.077789 0.028778
0.448517 0.071747 0.028717
0.460052 0.066040 0.028931
0.477936 0.064789 0.030731
0.496216 0.063873 0.032562
0.517883 0.065186 0.035034
0.540070 0.066437 0.037506
0.562439 0.067780 0.040009
0.585114 0.069092 0.042480
0.607971 0.070343 0.044891
0.631104 0.071594 0.047272
0.654480 0.072906 0.049744
0.678131 0.074158 0.052185
0.702667 0.075470 0.054718
0.723267 0.076569 0.056732
0.101471 0.145996 0.028168
0.126770 0.137238 0.021454
0.150116 0.131500 0.018188
0.171814 0.129578 0.018433
0.196045 0.128967 0.022552
0.224548 0.126068 0.028503
0.245667 0.125366 0.030823
0.259491 0.127563 0.028137
0.273987 0.129578 0.024475
0.291229 0.131470 0.022919
0.310333 0.132996 0.022400
0.330780 0.133392 0.021820
0.351837 0.131866 0.021484
0.372589 0.128601 0.022247
0.392853 0.125031 0.023682
0.412506 0.121490 0.025452
0.431580 0.118164 0.027405
0.449738 0.114624 0.029144
0.467041 0.110962 0.030731
0.483521 0.106842 0.031982
0.498962 0.102295 0.032898
0.512848 0.097046 0.033508
0.523804 0.090515 0.033630
0.538757 0.086884 0.034576
0.552551 0.082458 0.035492
0.571869 0.081726 0.037537
0.594299 0.082764 0.040039
0.617035 0.083832 0.042480
0.639984 0.084900 0.044983
0.663147 0.086029 0.047455
0.686676 0.087158 0.049988
0.710999 0.088348 0.052521
0.731232 0.089386 0.054565
0.118774 0.178223 0.033234
0.141846 0.169830 0.027283
0.164978 0.162598 0.023376
0.186340 0.159454 0.022247
0.208679 0.159088 0.025024
0.236389 0.157715 0.031036
0.262909 0.154541 0.035675
0.281921 0.154175 0.035889
0.295135 0.156677 0.031982
0.309937 0.159027 0.027893
0.327606 0.161072 0.025574
0.347137 0.162781 0.024658
0.367950 0.163574 0.023773
0.389526 0.162872 0.023041
0.411224 0.160248 0.023224
0.432617 0.156830 0.024445
0.453339 0.152985 0.026184
0.473450 0.149078 0.028168
0.492676 0.145325 0.030090
0.511353 0.141541 0.032043
0.529388 0.137543 0.033844
0.546661 0.133392 0.035400
0.562897 0.128906 0.036621
0.577515 0.123657 0.037384
0.590607 0.117371 0.037750
0.602386 0.110901 0.038147
0.613098 0.104004 0.038391
0.627777 0.099915 0.039642
0.650482 0.100677 0.042175
0.673462 0.101501 0.044739
0.696747 0.102356 0.047302
0.720886 0.103302 0.049896
0.740723 0.104126 0.051971
0.135864 0.212250 0.038788
0.158325 0.202728 0.032074
0.179443 0.195435 0.027954
0.201141 0.191162 0.027039
0.222351 0.189514 0.027740
0.246246 0.189148 0.031586
0.275421 0.186554 0.038269
0.300537 0.183289 0.041534
0.317169 0.184265 0.040436
0.330048 0.187500 0.035645
0.345184 0.190277 0.030914
0.363190 0.192596 0.028229
0.383179 0.194397 0.026672
0.404480 0.195465 0.025604
0.426605 0.195435 0.024353
0.449219 0.193878 0.023926
0.471649 0.190826 0.024780
0.493622 0.187134 0.026489
0.514862 0.182983 0.028412
0.535400 0.178894 0.030518
0.555267 0.174774 0.032654
0.574585 0.170654 0.034790
0.593262 0.166412 0.036713
0.611115 0.161804 0.038300
0.628326 0.157104 0.039764
0.644684 0.152130 0.040955
0.659729 0.146454 0.041748
0.673004 0.139954 0.042236
0.683411 0.132141 0.042419
0.690613 0.122803 0.042297
0.708557 0.120239 0.044159
0.732422 0.120819 0.046814
0.751801 0.121277 0.048920
0.152496 0.247559 0.044281
0.171143 0.240631 0.038757
0.191711 0.232758 0.034424
0.215088 0.224762 0.031403
0.236725 0.221222 0.031555
0.258759 0.220276 0.034119
0.284149 0.219543 0.039093
0.312195 0.216797 0.045044
0.335693 0.214020 0.047028
0.351166 0.215851 0.044647
0.364075 0.219757 0.039154
0.379486 0.223206 0.033966
0.397858 0.225800 0.030579
0.418335 0.227814 0.028625
0.440186 0.229065 0.027161
0.462921 0.229523 0.025665
0.486145 0.228882 0.024597
0.509613 0.226715 0.024872
0.532684 0.223297 0.026276
0.555328 0.219360 0.028168
0.577179 0.215027 0.030304
0.598297 0.210632 0.032532
0.618835 0.206421 0.034821
0.638794 0.202057 0.037140
0.658295 0.197418 0.039185
0.676910 0.192566 0.040955
0.694885 0.187561 0.042542
0.712097 0.182281 0.044006
0.728485 0.176575 0.045166
0.743317 0.170197 0.046082
0.755646 0.162598 0.046570
0.763428 0.152466 0.046265
0.771362 0.145691 0.046570
0.169037 0.282928 0.049316
0.187012 0.276123 0.044006
0.206299 0.268402 0.039398
0.228180 0.260223 0.035736
0.249878 0.254974 0.035126
0.270996 0.252838 0.036926
0.293854 0.252045 0.040649
0.320679 0.250916 0.046967
0.347565 0.247864 0.051514
0.368927 0.246582 0.052246
0.383850 0.249115 0.048401
0.397064 0.253571 0.042267
0.412781 0.257507 0.036865
0.431641 0.260376 0.033051
0.452637 0.262543 0.030518
0.475067 0.264008 0.028534
0.498413 0.264740 0.026794
0.522308 0.264862 0.025299
0.546600 0.263611 0.024933
0.570862 0.261078 0.025757
0.594788 0.257568 0.027496
0.617920 0.253326 0.029663
0.640350 0.248901 0.031952
0.662170 0.244354 0.034332
0.683472 0.239655 0.036743
0.704163 0.234894 0.039215
0.724121 0.229950 0.041412
0.743500 0.224792 0.043396
0.762390 0.219543 0.045380
0.780701 0.214081 0.047211
0.797882 0.208191 0.048737
0.814392 0.201782 0.049957
0.823914 0.194336 0.050323
0.186432 0.317810 0.054657
0.202362 0.312561 0.050140
0.219849 0.305847 0.045380
0.240204 0.297943 0.041229
0.261749 0.291046 0.039337
0.282928 0.286865 0.040070
0.304077 0.285309 0.042725
0.327881 0.284546 0.047668
0.355072 0.282898 0.053925
0.380707 0.280518 0.057556
0.400452 0.280273 0.056519
0.415161 0.283600 0.051971
0.428802 0.288544 0.045380
0.445221 0.292755 0.039642
0.464600 0.295837 0.035461
0.486145 0.298187 0.032318
0.509033 0.299896 0.029846
0.532959 0.301025 0.027832
0.557526 0.301483 0.025970
0.582672 0.301270 0.024780
0.607971 0.299622 0.024902
0.632965 0.296692 0.026306
0.657349 0.292816 0.028412
0.681061 0.288513 0.030762
0.704254 0.283875 0.033325
0.726807 0.279022 0.035950
0.748749 0.274078 0.038635
0.769928 0.269104 0.041290
0.790680 0.263885 0.043884
0.810913 0.258484 0.046295
0.830658 0.252869 0.048492
0.850067 0.247131 0.050629
0.863220 0.240692 0.052032
0.201477 0.353699 0.060791
0.216461 0.349030 0.056458
0.232910 0.343475 0.052246
0.252136 0.336395 0.047882
0.273468 0.328217 0.043976
0.294312 0.322510 0.043213
0.314270 0.319763 0.045044
0.335236 0.318634 0.048340
0.360535 0.317413 0.054443
0.387360 0.315674 0.060394
0.411377 0.314148 0.062531
0.430450 0.315155 0.060760
0.445404 0.318939 0.055389
0.459625 0.324158 0.048279
0.476837 0.328461 0.042084
0.496887 0.331818 0.037476
0.518860 0.334412 0.033813
0.542297 0.336395 0.030914
0.566742 0.337799 0.028564
0.591919 0.338715 0.026398
0.617737 0.339050 0.024506
0.643890 0.338348 0.023834
0.669952 0.336212 0.024719
0.695465 0.332794 0.026581
0.720520 0.328857 0.029053
0.744904 0.324402 0.031738
0.768677 0.319580 0.034637
0.791809 0.314575 0.037567
0.814209 0.309448 0.040588
0.836151 0.304260 0.043671
0.857605 0.298920 0.046600
0.879059 0.293427 0.049408
0.894409 0.287262 0.051544
0.217377 0.388458 0.067871
0.231262 0.384735 0.063843
0.246063 0.380310 0.059692
0.264069 0.374023 0.054871
0.284271 0.366821 0.050629
0.304871 0.360229 0.048065
0.324890 0.355408 0.047974
0.344543 0.353119 0.050446
0.366272 0.351929 0.054718
0.391663 0.350494 0.060913
0.417603 0.348969 0.065887
0.440704 0.348511 0.066986
0.459290 0.350372 0.064209
0.474548 0.354645 0.058197
0.489746 0.359894 0.050751
0.507721 0.364471 0.044159
0.528381 0.368103 0.039062
0.550873 0.370880 0.034973
0.574707 0.373047 0.031708
0.599670 0.374695 0.028809
0.625397 0.375793 0.026306
0.651794 0.376617 0.024017
0.678650 0.376709 0.022522
0.705658 0.375397 0.022644
0.732330 0.372772 0.024292
0.758453 0.369232 0.026672
0.783966 0.365112 0.029449
0.808899 0.360535 0.032562
0.833252 0.355743 0.035797
0.856873 0.350647 0.039124
0.879944 0.345520 0.042572
0.902863 0.340271 0.045959
0.920135 0.334503 0.049011
0.232300 0.422913 0.074585
0.244690 0.420135 0.071198
0.258453 0.416382 0.067474
0.275421 0.411194 0.063019
0.294617 0.405029 0.058594
0.314789 0.398407 0.054535
0.334747 0.392700 0.052368
0.353790 0.389038 0.053192
0.373474 0.386902 0.055817
0.396301 0.385284 0.061066
0.421356 0.383820 0.066803
0.446411 0.382812 0.070618
0.468994 0.382996 0.070984
0.487335 0.385590 0.067383
0.503052 0.390289 0.060669
0.519226 0.395752 0.052826
0.537903 0.400513 0.045868
0.559052 0.404327 0.040344
0.581970 0.407288 0.035767
0.606354 0.409637 0.031921
0.631775 0.411438 0.028687
0.658051 0.412720 0.025818
0.684967 0.413757 0.023224
0.712433 0.414368 0.021179
0.740234 0.414032 0.020294
0.767761 0.412109 0.021393
0.794922 0.409149 0.023468
0.821472 0.405518 0.026276
0.847504 0.401428 0.029510
0.872955 0.397003 0.032990
0.897705 0.392242 0.036682
0.922119 0.387268 0.040436
0.941132 0.381744 0.044037
0.246460 0.456665 0.082092
0.258179 0.454285 0.078888
0.270874 0.451477 0.075714
0.286774 0.447266 0.071655
0.304932 0.442047 0.067291
0.324524 0.436249 0.062714
0.344116 0.430573 0.059082
0.363312 0.425781 0.057404
0.381775 0.422760 0.058380
0.401947 0.420441 0.061493
0.425232 0.418396 0.066772
0.449921 0.417114 0.072021
0.474152 0.416779 0.074768
0.496368 0.417694 0.074280
0.514923 0.420837 0.069977
0.531281 0.425934 0.062714
0.548157 0.431519 0.054504
0.567413 0.436523 0.047150
0.589081 0.440430 0.041077
0.612488 0.443542 0.035980
0.637360 0.446045 0.031647
0.663300 0.447968 0.028015
0.690063 0.449463 0.024811
0.717529 0.450653 0.022003
0.745575 0.451599 0.019470
0.773956 0.451935 0.017822
0.802338 0.450836 0.018097
0.830353 0.448578 0.019806
0.857941 0.445587 0.022400
0.885010 0.442047 0.025635
0.911438 0.437988 0.029266
0.937378 0.433563 0.033264
0.958282 0.428589 0.037201
0.260498 0.489807 0.090271
0.271393 0.487823 0.087372
0.283447 0.485443 0.084320
0.298248 0.482056 0.080536
0.315277 0.477844 0.076508
0.334015 0.472870 0.072021
0.353180 0.467804 0.067841
0.372192 0.463257 0.064758
0.390533 0.459167 0.062866
0.409241 0.456116 0.063629
0.430084 0.453491 0.067139
0.453552 0.451385 0.072235
0.477905 0.450348 0.076752
0.501770 0.450500 0.078552
0.523315 0.452393 0.077209
0.541962 0.456146 0.072052
0.558868 0.461395 0.064301
0.576385 0.467163 0.055664
0.596313 0.472290 0.047852
0.618561 0.476349 0.041168
0.642517 0.479553 0.035583
0.667908 0.482178 0.030884
0.694305 0.484253 0.026855
0.721619 0.485840 0.023407
0.749664 0.487152 0.020294
0.778198 0.488281 0.017487
0.807098 0.489105 0.015259
0.836151 0.488831 0.014526
0.865021 0.487366 0.015656
0.893494 0.485016 0.017914
0.921509 0.481995 0.020966
0.948914 0.478424 0.024689
0.971832 0.474182 0.028748
0.274445 0.522034 0.098755
0.284790 0.520447 0.096100
0.296021 0.518555 0.093201
0.309631 0.515900 0.089691
0.325745 0.512390 0.086060
0.343597 0.508148 0.081970
0.362213 0.503815 0.077484
0.380981 0.499512 0.073395
0.399506 0.495453 0.070251
0.417419 0.491943 0.068420
0.436432 0.488953 0.069244
0.457916 0.486176 0.072784
0.481598 0.484131 0.077576
0.505463 0.483582 0.081055
0.528809 0.484375 0.082062
0.549988 0.486969 0.079742
0.568481 0.491302 0.073761
0.585846 0.496887 0.065399
0.604156 0.502716 0.056335
0.624786 0.507812 0.047821
0.647644 0.511932 0.040680
0.672211 0.515320 0.034729
0.698120 0.518036 0.029633
0.725067 0.520142 0.025238
0.752960 0.521851 0.021454
0.781464 0.523285 0.018127
0.810455 0.524506 0.015198
0.839813 0.525604 0.012482
0.869415 0.525970 0.010956
0.899017 0.525330 0.011139
0.928284 0.523590 0.012878
0.957092 0.521149 0.015686
0.982086 0.517944 0.019318
0.288025 0.553436 0.106812
0.297638 0.552216 0.104462
0.308167 0.550720 0.102142
0.321198 0.548523 0.099304
0.336609 0.545532 0.095795
0.353302 0.542236 0.091827
0.371185 0.538513 0.087677
0.389648 0.534668 0.083344
0.408173 0.530823 0.079224
0.426208 0.527252 0.075775
0.444031 0.524231 0.073914
0.463562 0.521301 0.075043
0.485901 0.518402 0.079010
0.509094 0.516846 0.082825
0.532410 0.516998 0.085205
0.555206 0.518494 0.085144
0.576172 0.521698 0.081879
0.594635 0.526459 0.074982
0.612427 0.532227 0.065979
0.631561 0.538025 0.056183
0.652954 0.543213 0.047272
0.676453 0.547333 0.039734
0.701660 0.550720 0.033386
0.728149 0.553467 0.027924
0.755707 0.555634 0.023193
0.784088 0.557434 0.019165
0.812988 0.558960 0.015594
0.842407 0.560272 0.012421
0.872192 0.561432 0.009460
0.902313 0.562317 0.007202
0.932465 0.562286 0.006439
0.962189 0.561218 0.007507
0.989105 0.559235 0.009979
0.301605 0.583984 0.115448
0.310883 0.582977 0.113403
0.320953 0.581757 0.111298
0.333160 0.580048 0.108734
0.347351 0.577698 0.105347
0.363190 0.574982 0.101746
0.380280 0.571930 0.097809
0.398254 0.568542 0.093536
0.416595 0.565033 0.089172
0.434875 0.561676 0.085083
0.452759 0.558746 0.081848
0.470886 0.556061 0.080231
0.490845 0.553253 0.081482
0.513062 0.550842 0.084930
0.535889 0.549988 0.087891
0.558716 0.550720 0.088959
0.581055 0.552979 0.087952
0.601685 0.556641 0.083527
0.620270 0.561798 0.075745
0.638885 0.567566 0.066040
0.658875 0.573303 0.055756
0.681030 0.578339 0.046356
0.705231 0.582489 0.038422
0.731079 0.585846 0.031616
0.758179 0.588562 0.025726
0.786285 0.590820 0.020721
0.815125 0.592651 0.016449
0.844452 0.594208 0.012665
0.874268 0.595581 0.009247
0.904419 0.596832 0.006134
0.934906 0.597900 0.003448
0.965179 0.598389 0.001923
0.993591 0.597931 0.002136
0.315033 0.613708 0.124237
0.323792 0.613007 0.122406
0.333313 0.612061 0.120422
0.344727 0.610748 0.118042
0.358093 0.608978 0.115204
0.373169 0.606720 0.111786
0.389526 0.604156 0.108002
0.406799 0.601227 0.103821
0.424744 0.598236 0.099640
0.442810 0.595245 0.095337
0.460785 0.592651 0.091431
0.478516 0.590271 0.088135
0.497009 0.587952 0.086731
0.517639 0.585327 0.088348
0.539520 0.583710 0.090881
0.561981 0.583649 0.092560
0.584442 0.585022 0.092621
0.606415 0.587677 0.090424
0.626831 0.591827 0.084930
0.645844 0.597076 0.076080
0.665283 0.602753 0.065704
0.686127 0.608368 0.054871
0.709137 0.613312 0.045013
0.734100 0.617340 0.036591
0.760651 0.620636 0.029419
0.788361 0.623383 0.023224
0.816956 0.625641 0.017975
0.846191 0.627472 0.013458
0.875946 0.629059 0.009430
0.906097 0.630524 0.005798
0.936584 0.631805 0.002502
0.966888 0.632965 0.000000
0.996094 0.633850 0.000000
0.327423 0.643127 0.133240
0.335999 0.642487 0.131683
0.345276 0.641785 0.130066
0.356140 0.640717 0.127899
0.368652 0.639343 0.125092
0.382965 0.637543 0.121918
0.398590 0.635437 0.118317
0.415253 0.632996 0.114410
0.432556 0.630493 0.110229
0.450317 0.627899 0.106049
0.468231 0.625610 0.102051
0.485901 0.623718 0.098175
0.503754 0.621979 0.095032
0.522797 0.619843 0.093781
0.543579 0.617920 0.095093
0.565308 0.617035 0.096558
0.587372 0.617615 0.097076
0.609528 0.619537 0.095978
0.631317 0.622650 0.092651
0.651764 0.627014 0.085754
0.671448 0.632263 0.076080
0.691711 0.637817 0.065002
0.713531 0.643219 0.053680
0.737396 0.648010 0.043335
0.763184 0.651917 0.034454
0.790375 0.655151 0.026978
0.818665 0.657867 0.020508
0.847687 0.660065 0.015015
0.877380 0.661957 0.010223
0.907471 0.663605 0.005981
0.937958 0.665070 0.002197
0.968079 0.666443 0.000000
0.997437 0.667664 0.000000
0.339508 0.672028 0.143005
0.347839 0.671539 0.141510
0.356659 0.671021 0.139954
0.366974 0.670197 0.137909
0.378967 0.669067 0.135223
0.392456 0.667603 0.132233
0.407379 0.665863 0.128845
0.423340 0.663879 0.125092
0.440094 0.661774 0.121155
0.457428 0.659607 0.117126
0.475067 0.657684 0.113220
0.492706 0.656097 0.109314
0.510345 0.654785 0.105469
0.528442 0.653595 0.102325
0.547974 0.651947 0.101288
0.568787 0.650665 0.101685
0.590332 0.650482 0.102203
0.612183 0.651703 0.101501
0.634186 0.654083 0.099152
0.655975 0.657593 0.094330
0.676727 0.662079 0.086304
0.697052 0.667297 0.075745
0.718353 0.672607 0.064117
0.741211 0.677826 0.052216
0.766022 0.682373 0.041382
0.792542 0.686188 0.032196
0.820374 0.689362 0.024353
0.849121 0.692017 0.017578
0.878601 0.694244 0.011841
0.908630 0.696167 0.006836
0.939087 0.697845 0.002441
0.968994 0.699371 0.000000
0.998322 0.700714 0.000000
0.350494 0.700348 0.152649
0.358612 0.699982 0.151367
0.367340 0.699524 0.149872
0.377289 0.698853 0.147980
0.388763 0.697937 0.145630
0.401642 0.696808 0.142792
0.415863 0.695435 0.139587
0.431213 0.693817 0.136047
0.447388 0.692078 0.132324
0.464172 0.690399 0.128479
0.481476 0.688751 0.124664
0.498962 0.687317 0.120819
0.516449 0.686279 0.117035
0.534058 0.685486 0.113220
0.552368 0.684784 0.110321
0.572418 0.683746 0.109161
0.593414 0.683228 0.108856
0.614777 0.683899 0.108032
0.636566 0.685699 0.106049
0.658722 0.688477 0.102234
0.680664 0.692230 0.096100
0.701721 0.696838 0.086731
0.722900 0.701935 0.075256
0.745331 0.707062 0.062988
0.769318 0.712036 0.050598
0.794983 0.716461 0.039337
0.822205 0.720184 0.029816
0.850586 0.723297 0.021698
0.879822 0.725952 0.014648
0.909668 0.728210 0.008667
0.940063 0.730164 0.003510
0.969666 0.731812 0.000000
0.998871 0.733368 0.000000
0.361237 0.727875 0.162659
0.369202 0.727600 0.161438
0.377686 0.727295 0.160248
0.387329 0.726776 0.158447
0.398346 0.726013 0.156189
0.410767 0.725098 0.153564
0.424377 0.723999 0.150513
0.438995 0.722778 0.147156
0.454620 0.721405 0.143585
0.470856 0.720001 0.139984
0.487701 0.718658 0.136292
0.504822 0.717499 0.132721
0.522095 0.716614 0.128967
0.539520 0.716034 0.125122
0.557373 0.715698 0.121460
0.576355 0.715332 0.118835
0.596497 0.715057 0.117249
0.617340 0.715424 0.115875
0.638794 0.716827 0.113892
0.660706 0.719208 0.110291
0.682983 0.722473 0.105103
0.705261 0.726440 0.097595
0.727051 0.731079 0.087158
0.749237 0.736115 0.074677
0.772858 0.741089 0.061798
0.797821 0.745941 0.048920
0.824371 0.750275 0.037323
0.852203 0.753937 0.027435
0.881104 0.757019 0.019012
0.910736 0.759674 0.011719
0.940918 0.761963 0.005524
0.970154 0.763855 0.000519
0.999237 0.765564 0.000000
0.371613 0.754547 0.172913
0.379456 0.754364 0.171753
0.387787 0.754028 0.170532
0.397125 0.753693 0.169006
0.407776 0.753113 0.166809
0.419647 0.752380 0.164337
0.432739 0.751495 0.161560
0.446808 0.750519 0.158478
0.461731 0.749451 0.155060
0.477509 0.748322 0.151550
0.493744 0.747314 0.148193
0.510498 0.746399 0.144775
0.527527 0.745728 0.141235
0.544769 0.745239 0.137604
0.562225 0.745117 0.133728
0.580383 0.745209 0.130157
0.599762 0.745239 0.127594
0.619995 0.745697 0.125397
0.640808 0.746918 0.122986
0.662415 0.749084 0.119568
0.684601 0.752136 0.114594
