lut/retro-80s/Gremlins (1984) - Standard.cube
# Created by Benjamin (IWLTBAP): https://luts.iwltbap.com
# Copyright: (C) Copyright 2018 Triune Films and IWLTBAP SAS
# Cannot be resold, shared or otherwise redistributed
TITLE "Triune Films 80s Retro LUTs (Rec.709, sRGB, DCI-P3)"
LUT_3D_SIZE 9
0.000000 0.000000 0.000000
0.076508 0.001404 0.002930
0.166260 0.004578 0.007538
0.255280 0.008362 0.015991
0.340240 0.011932 0.025238
0.425140 0.015381 0.034821
0.513245 0.018341 0.044312
0.606018 0.020721 0.053650
0.700562 0.022583 0.062805
0.050934 0.061096 0.010895
0.148590 0.051849 0.013672
0.216003 0.054993 0.014618
0.288696 0.044769 0.019104
0.354034 0.033600 0.021698
0.438477 0.039490 0.031464
0.526001 0.045319 0.041138
0.618042 0.050690 0.050659
0.711456 0.055450 0.059906
0.118774 0.178223 0.033234
0.208679 0.159088 0.025024
0.295135 0.156677 0.031982
0.367950 0.163574 0.023773
0.453339 0.152985 0.026184
0.529388 0.137543 0.033844
0.590607 0.117371 0.037750
0.650482 0.100677 0.042175
0.740723 0.104126 0.051971
0.186432 0.317810 0.054657
0.261749 0.291046 0.039337
0.355072 0.282898 0.053925
0.428802 0.288544 0.045380
0.509033 0.299896 0.029846
0.607971 0.299622 0.024902
0.704254 0.283875 0.033325
0.790680 0.263885 0.043884
0.863220 0.240692 0.052032
0.246460 0.456665 0.082092
0.304932 0.442047 0.067291
0.381775 0.422760 0.058380
0.474152 0.416779 0.074768
0.548157 0.431519 0.054504
0.637360 0.446045 0.031647
0.745575 0.451599 0.019470
0.857941 0.445587 0.022400
0.958282 0.428589 0.037201
0.301605 0.583984 0.115448
0.347351 0.577698 0.105347
0.416595 0.565033 0.089172
0.490845 0.553253 0.081482
0.581055 0.552979 0.087952
0.658875 0.573303 0.055756
0.758179 0.588562 0.025726
0.874268 0.595581 0.009247
0.993591 0.597931 0.002136
0.350494 0.700348 0.152649
0.388763 0.697937 0.145630
0.447388 0.692078 0.132324
0.516449 0.686279 0.117035
0.593414 0.683228 0.108856
0.680664 0.692230 0.096100
0.769318 0.712036 0.050598
0.879822 0.725952 0.014648
0.998871 0.733368 0.000000
0.392029 0.804047 0.194153
0.426514 0.803284 0.188934
0.476257 0.801239 0.178650
0.538055 0.799255 0.166046
0.606659 0.800354 0.151276
0.686768 0.807068 0.137543
0.780823 0.825500 0.102081
0.885529 0.845978 0.044342
0.998871 0.859222 0.006622
0.432068 0.886871 0.240997
0.464050 0.887146 0.236725
0.506775 0.887604 0.228333
0.560883 0.888824 0.217804
0.623871 0.892609 0.206024
0.695068 0.901123 0.192413
0.780365 0.918976 0.171204
0.886536 0.947815 0.117767
0.990265 0.968903 0.060944
0.004120 0.033020 0.044891
0.069916 0.023315 0.063354
0.166504 0.013580 0.029022
0.253235 0.016418 0.039398
0.336395 0.017700 0.050720
0.419586 0.019653 0.063477
0.506927 0.022308 0.076508
0.598785 0.024170 0.089203
0.693298 0.025543 0.101532
0.000000 0.095276 0.087677
0.103027 0.101837 0.093933
0.215790 0.083374 0.081238
0.298920 0.057983 0.064514
0.354797 0.036652 0.057281
0.431641 0.038239 0.066132
0.518890 0.044891 0.078094
0.610291 0.050568 0.090057
0.703766 0.055511 0.101807
0.057831 0.202087 0.139435
0.164001 0.196045 0.111877
0.287659 0.191650 0.123749
0.372833 0.181427 0.106598
0.460846 0.160522 0.099854
0.534454 0.140717 0.095978
0.595490 0.120636 0.093445
0.642334 0.096619 0.092346
0.732635 0.100983 0.102509
0.161652 0.339935 0.164185
0.229279 0.330902 0.133911
0.339417 0.310699 0.133728
0.427429 0.308105 0.135895
0.511627 0.310608 0.122345
0.611542 0.304321 0.118317
0.706451 0.285522 0.119690
0.791138 0.264404 0.122742
0.862946 0.241119 0.125336
0.232697 0.473846 0.179626
0.286896 0.467499 0.158356
0.377808 0.446960 0.138489
0.468658 0.431641 0.157043
0.546844 0.440308 0.147675
0.637604 0.451019 0.132294
0.746338 0.454498 0.125000
0.858063 0.445923 0.127686
0.957184 0.428223 0.136475
0.295135 0.596863 0.200012
0.337402 0.593445 0.185913
0.413300 0.581360 0.169037
0.491150 0.566864 0.159027
0.579041 0.559692 0.172516
0.658020 0.576752 0.152893
0.757904 0.590454 0.133087
0.874237 0.596741 0.123077
0.993439 0.597961 0.120117
0.349091 0.707001 0.226410
0.385803 0.705444 0.218475
0.445953 0.699951 0.205536
0.517548 0.692963 0.192963
0.593811 0.688141 0.188507
0.680145 0.694397 0.184235
0.769073 0.713226 0.152527
0.879608 0.726685 0.128052
0.998901 0.733826 0.115875
0.394196 0.803497 0.262238
0.427216 0.803070 0.256775
0.476715 0.801361 0.247559
0.538818 0.799530 0.237701
0.607239 0.800629 0.228333
0.686432 0.807465 0.221100
0.780579 0.825989 0.195312
0.885376 0.846497 0.151031
0.998932 0.859619 0.124390
0.437134 0.882050 0.306091
0.467621 0.882660 0.301941
0.509491 0.883759 0.294769
0.562927 0.886017 0.286774
0.625214 0.891052 0.279297
0.695892 0.900940 0.270844
0.780609 0.919220 0.257263
0.886444 0.948212 0.213074
0.990356 0.969421 0.167633
0.009460 0.090759 0.116638
0.055908 0.091248 0.132263
0.169220 0.058197 0.157623
0.282135 0.043518 0.069397
0.339783 0.032928 0.067719
0.414734 0.033875 0.084290
0.496063 0.033630 0.102356
0.584381 0.034180 0.121063
0.677917 0.034332 0.139801
0.001160 0.130096 0.146027
0.052246 0.145447 0.161163
0.205414 0.118652 0.188934
0.329529 0.097778 0.115753
0.390289 0.071381 0.097595
0.427612 0.043854 0.091064
0.504791 0.045929 0.106750
0.593811 0.052032 0.124695
0.687012 0.057098 0.142548
0.000000 0.208496 0.200256
0.097076 0.234253 0.228363
0.251190 0.236420 0.233063
0.383911 0.205414 0.205078
0.473877 0.172546 0.174255
0.544281 0.149017 0.158386
0.605377 0.129456 0.150879
0.651459 0.104645 0.145447
0.713379 0.093872 0.150482
0.059570 0.326141 0.272583
0.128815 0.349060 0.288330
0.310547 0.345947 0.252655
0.428345 0.333374 0.256226
0.515015 0.326355 0.233154
0.617462 0.310364 0.222321
0.708649 0.288147 0.214417
0.789734 0.265900 0.210175
0.860291 0.242950 0.207703
0.175598 0.474915 0.321411
0.247070 0.485687 0.314423
0.359528 0.480804 0.270630
0.465179 0.456665 0.265228
0.547943 0.453491 0.261902
0.637268 0.460083 0.245728
0.747253 0.459503 0.240082
0.857178 0.445984 0.241180
0.952881 0.427094 0.244690
0.283905 0.605286 0.338165
0.326569 0.608002 0.325500
0.399750 0.604553 0.290436
0.493774 0.589355 0.273041
0.576569 0.572968 0.278625
0.656464 0.583344 0.264404
0.756805 0.594696 0.248901
0.873932 0.599396 0.242371
0.992523 0.597565 0.242432
0.347961 0.710907 0.349915
0.383240 0.711548 0.340485
0.441132 0.710052 0.319366
0.518585 0.702972 0.304077
0.594269 0.697906 0.295563
0.678680 0.699371 0.290009
0.768066 0.716003 0.264893
0.879028 0.728485 0.246857
0.998962 0.734985 0.238922
0.404358 0.798248 0.375824
0.434784 0.798767 0.369659
0.480988 0.799469 0.356628
0.543091 0.799164 0.345398
0.610443 0.801575 0.335297
0.686920 0.809296 0.327240
0.780121 0.827545 0.303070
0.884888 0.847809 0.265472
0.999084 0.860626 0.245331
0.456085 0.873840 0.413666
0.483704 0.874939 0.408966
0.521393 0.877960 0.399139
0.572388 0.882477 0.390137
0.632263 0.890106 0.382050
0.700073 0.902130 0.372681
0.782715 0.921051 0.361694
0.886536 0.949615 0.321136
0.990540 0.970673 0.281433
0.016876 0.153168 0.199097
0.019836 0.151733 0.197968
0.167084 0.121918 0.254761
0.283173 0.092194 0.259949
0.405182 0.084290 0.135376
0.447906 0.061401 0.107727
0.497345 0.053589 0.114685
0.574188 0.053528 0.138947
0.661469 0.052826 0.168060
0.004669 0.179291 0.217377
0.007660 0.178589 0.214233
0.177887 0.183899 0.278473
0.315521 0.137054 0.292328
0.442047 0.125092 0.176483
0.497833 0.101318 0.145355
0.525879 0.071381 0.130310
0.579498 0.059235 0.142578
0.668030 0.064331 0.171814
0.000610 0.237274 0.267365
0.033600 0.244598 0.274200
0.172760 0.286896 0.314178
0.368927 0.243530 0.342957
0.499573 0.218445 0.256104
0.568085 0.183716 0.220734
0.625336 0.158600 0.206085
0.677490 0.134033 0.201569
0.712524 0.101624 0.195496
0.000000 0.327637 0.321991
0.088928 0.353394 0.348572
0.229340 0.379425 0.377197
0.415649 0.386902 0.390320
0.538086 0.350037 0.353333
0.629608 0.318054 0.316711
0.708313 0.294128 0.300201
0.782959 0.273132 0.293976
0.852417 0.252380 0.291504
0.073975 0.446838 0.390350
0.140320 0.470459 0.411804
0.262726 0.498901 0.443848
0.462585 0.494751 0.410126
0.558807 0.473877 0.397003
0.641235 0.469116 0.368439
0.749176 0.460205 0.359802
0.851929 0.444336 0.355713
0.941681 0.426361 0.354553
0.198792 0.583099 0.456268
0.253906 0.596954 0.464203
0.368622 0.614532 0.468384
0.500061 0.612427 0.428101
0.586884 0.592010 0.411011
0.662628 0.589783 0.391998
0.756958 0.597992 0.372772
0.872986 0.601837 0.366302
0.988770 0.595581 0.367920
0.321564 0.699951 0.489014
0.366943 0.705444 0.488983
0.447510 0.712494 0.480255
0.525635 0.712982 0.446747
0.605865 0.708496 0.431549
0.682709 0.705963 0.415192
0.769958 0.717407 0.389130
0.878082 0.730255 0.370636
0.998810 0.736847 0.363892
0.416870 0.789246 0.513214
0.448578 0.791748 0.510468
0.500397 0.796234 0.500946
0.559753 0.800415 0.481934
0.624756 0.805298 0.465424
0.693817 0.814484 0.452759
0.782166 0.830444 0.424103
0.884705 0.848938 0.387665
0.999023 0.862366 0.368866
0.490234 0.868378 0.544891
0.515656 0.870514 0.541687
0.552216 0.875153 0.532898
0.596619 0.882721 0.517853
0.651367 0.893097 0.505951
0.712921 0.907379 0.492462
0.789154 0.926025 0.479309
0.887726 0.952667 0.439301
0.991089 0.973206 0.400970
0.029449 0.219879 0.289154
0.032501 0.219604 0.288086
0.117035 0.232574 0.323029
0.290100 0.132477 0.373383
0.402100 0.126892 0.357056
0.519897 0.127686 0.244232
0.574799 0.111084 0.191986
0.593414 0.078094 0.161224
0.660492 0.079956 0.185181
0.015076 0.238342 0.299591
0.018738 0.238342 0.297455
0.109283 0.263214 0.335846
0.309448 0.179260 0.399139
0.430573 0.166748 0.383789
0.545807 0.161865 0.278992
0.606201 0.143280 0.226654
0.644806 0.117767 0.200165
0.662872 0.081268 0.187103
0.003510 0.280640 0.335968
0.013733 0.280365 0.332947
0.113373 0.319275 0.371674
0.331848 0.298279 0.436646
0.476379 0.258759 0.439148
0.592712 0.243469 0.346039
0.659424 0.217957 0.295868
0.711884 0.194397 0.271606
0.759308 0.165802 0.267273
0.004547 0.352997 0.397247
0.036377 0.352325 0.395660
0.163330 0.396027 0.437805
0.323303 0.433594 0.464752
0.527222 0.394135 0.499115
0.643097 0.368927 0.421631
0.714813 0.334076 0.382965
0.779480 0.308685 0.366211
0.844452 0.286774 0.365906
0.000000 0.451050 0.446136
0.089935 0.470276 0.465057
0.215179 0.494812 0.489685
0.384644 0.519684 0.520935
0.570557 0.535614 0.546051
0.665985 0.501007 0.507782
0.752869 0.472748 0.471924
0.836548 0.452301 0.457703
0.916168 0.434662 0.453522
0.081665 0.559753 0.497986
0.147400 0.577271 0.515350
0.274292 0.605469 0.548309
0.438416 0.630493 0.593079
0.607300 0.629669 0.569672
0.677551 0.610229 0.539093
0.758850 0.605164 0.503296
0.869110 0.600800 0.495667
0.972473 0.591370 0.495148
0.225403 0.667633 0.572083
0.278839 0.680054 0.582886
0.392944 0.701385 0.602356
0.528503 0.721954 0.619202
0.637390 0.727142 0.590454
0.701935 0.720367 0.560852
0.777588 0.720825 0.525146
0.878143 0.730072 0.500916
0.996643 0.735565 0.493195
0.379456 0.769073 0.620819
0.419922 0.775970 0.625427
0.499573 0.790070 0.632904
0.593292 0.806183 0.635223
0.660248 0.814423 0.610260
0.720459 0.822784 0.591431
0.793579 0.833862 0.559692
0.887817 0.847412 0.520477
0.998047 0.860596 0.498566
0.501984 0.858307 0.659973
0.530334 0.863037 0.661682
0.580078 0.873169 0.662689
0.636414 0.886230 0.657043
0.688873 0.898041 0.641479
0.741486 0.913208 0.624756
0.806335 0.931488 0.610168
0.893158 0.954041 0.572083
0.990631 0.972260 0.532288
0.042877 0.289093 0.379333
0.046326 0.289398 0.378204
0.050232 0.289459 0.375824
0.249847 0.288879 0.454529
0.402893 0.170227 0.479187
0.514954 0.167755 0.448425
0.620300 0.178894 0.368591
0.688019 0.173401 0.299133
0.735229 0.151703 0.262207
0.030762 0.304077 0.387878
0.034851 0.304352 0.386078
0.037537 0.304871 0.382080
0.256317 0.323334 0.465485
0.423065 0.210052 0.501648
0.537811 0.203247 0.470734
0.639771 0.209198 0.392914
0.708252 0.202271 0.325684
0.761108 0.184265 0.292816
0.015076 0.336975 0.414398
0.023346 0.337250 0.411987
0.040649 0.344025 0.412231
0.256439 0.391174 0.486328
0.462097 0.298157 0.543945
0.578827 0.290192 0.519073
0.677368 0.284546 0.444122
0.746582 0.270416 0.383484
0.804352 0.253601 0.354828
0.006775 0.391541 0.464905
0.027618 0.391357 0.462494
0.092255 0.412720 0.479431
0.265198 0.463379 0.525238
0.497131 0.439117 0.585938
0.619751 0.415405 0.585510
0.718384 0.401215 0.511810
0.787811 0.376984 0.463867
0.849731 0.357147 0.439056
0.004669 0.472351 0.528107
0.051117 0.471832 0.527130
0.165131 0.502075 0.556641
0.318451 0.535889 0.584045
0.487946 0.573059 0.605347
0.663055 0.555511 0.642822
0.751343 0.535065 0.582794
0.818268 0.504822 0.550751
0.887848 0.481689 0.533386
0.000000 0.576996 0.572418
0.092957 0.589539 0.585083
0.217621 0.608643 0.604553
0.368439 0.626373 0.624176
0.546448 0.651062 0.654449
0.704376 0.678253 0.686829
0.772064 0.649323 0.655151
0.851013 0.624939 0.623840
0.933197 0.609100 0.611145
0.087677 0.670929 0.608124
0.158844 0.682251 0.620392
0.282257 0.701385 0.643219
0.451843 0.723541 0.677185
0.617645 0.749817 0.724518
0.736725 0.757690 0.712830
0.792023 0.741821 0.674957
0.876404 0.736969 0.636261
0.985443 0.735016 0.627869
0.258087 0.746887 0.671661
0.311646 0.755157 0.681671
0.424408 0.773102 0.703278
0.565613 0.799622 0.731293
0.684509 0.827972 0.754669
0.766022 0.840607 0.734436
0.818359 0.843658 0.701141
0.894501 0.849030 0.661285
0.995178 0.859344 0.632538
0.437866 0.829559 0.728394
0.474426 0.837341 0.734985
0.551147 0.854736 0.748993
0.645844 0.879913 0.765076
0.733826 0.905029 0.774567
0.787170 0.919708 0.755280
0.834503 0.937897 0.739410
0.905060 0.956909 0.713531
0.990051 0.971161 0.671265
0.062500 0.362000 0.473511
0.066254 0.362610 0.472351
0.069916 0.363739 0.469513
0.190918 0.384491 0.511871
0.382263 0.320068 0.577637
0.512787 0.221649 0.576843
0.612457 0.222473 0.548126
0.713623 0.250214 0.481659
0.789978 0.254242 0.402466
0.051727 0.374573 0.480255
0.056335 0.375122 0.478760
0.059875 0.376282 0.475128
0.190369 0.403137 0.520935
0.391815 0.353333 0.588043
0.529816 0.255096 0.594971
0.629547 0.253693 0.566498
0.727234 0.277710 0.500427
0.802856 0.280304 0.423615
0.033905 0.401611 0.501007
0.041473 0.402161 0.498962
0.045746 0.403625 0.493500
0.192322 0.443420 0.543213
0.410645 0.428375 0.605682
0.564392 0.335846 0.631378
0.663483 0.331177 0.605255
0.753357 0.345001 0.541931
0.827271 0.342682 0.471344
0.018951 0.445068 0.541443
0.034668 0.445435 0.539185
0.044952 0.446472 0.532745
0.211884 0.498932 0.583099
0.416565 0.521088 0.623840
0.609558 0.454620 0.674988
0.701782 0.452972 0.657043
0.782715 0.452148 0.600342
0.853333 0.439362 0.541687
0.012573 0.508057 0.600006
0.045410 0.507935 0.598175
0.077332 0.509399 0.594727
0.256927 0.561646 0.639771
0.429138 0.597961 0.659576
0.650024 0.594421 0.712433
0.736908 0.586151 0.715790
0.808716 0.577698 0.663727
0.873535 0.556549 0.622650
0.005310 0.595184 0.661499
0.064758 0.594849 0.660889
0.168640 0.611542 0.677155
0.320496 0.637756 0.699310
0.486938 0.664520 0.714294
0.644745 0.704865 0.730835
0.778320 0.707581 0.766724
0.839478 0.694183 0.725708
0.897675 0.670929 0.699921
0.000000 0.704987 0.701416
0.096466 0.712097 0.708710
0.224487 0.726288 0.723450
0.369080 0.737305 0.735016
0.526764 0.751099 0.749939
0.690552 0.775848 0.777283
0.820221 0.804626 0.808777
0.873932 0.783447 0.786438
0.947632 0.763885 0.759766
0.096252 0.785767 0.720062
0.174835 0.792755 0.728119
0.296570 0.804626 0.743164
0.451996 0.818420 0.763794
0.619568 0.836426 0.795868
0.762451 0.860168 0.840210
0.851562 0.871826 0.835449
0.904266 0.864929 0.803253
0.988342 0.865234 0.769257
0.288116 0.835968 0.765717
0.341705 0.841248 0.773193
0.445770 0.852692 0.789795
0.583557 0.870880 0.816071
0.718506 0.898132 0.848145
0.814575 0.927795 0.871490
0.877625 0.945374 0.857269
0.923615 0.961975 0.842468
0.990692 0.973267 0.810638
0.083618 0.436523 0.568970
0.087738 0.437286 0.567780
0.091614 0.439087 0.564789
0.098846 0.441681 0.562042
0.343658 0.456726 0.632568
0.517212 0.358398 0.676117
0.613495 0.277069 0.669708
0.699677 0.296997 0.650665
0.795715 0.352051 0.593506
0.075287 0.448273 0.575684
0.080231 0.448853 0.574280
0.084381 0.450439 0.570770
0.098724 0.454773 0.570007
0.346771 0.475372 0.639679
0.527161 0.388397 0.686127
0.627380 0.307587 0.683624
0.711945 0.325531 0.664093
0.803528 0.376526 0.607025
0.058350 0.471649 0.593201
0.065704 0.472290 0.591461
0.071106 0.474152 0.587006
0.100098 0.483887 0.589661
0.351868 0.516174 0.656403
0.548340 0.457428 0.706512
0.656616 0.381927 0.712311
0.737427 0.394409 0.693085
0.819977 0.435272 0.637970
0.038574 0.507538 0.625702
0.051666 0.508118 0.623718
0.061371 0.509796 0.618347
0.118042 0.528229 0.626312
0.358704 0.571991 0.682770
0.573792 0.556976 0.728485
0.695038 0.496582 0.748199
0.769684 0.502350 0.732452
0.839874 0.526428 0.683411
0.024384 0.557404 0.675201
0.049133 0.557678 0.673218
0.069611 0.558563 0.667847
0.176239 0.588379 0.687042
0.377625 0.631653 0.719757
0.574921 0.650879 0.745544
0.737732 0.621674 0.785278
0.802917 0.627350 0.777130
0.862000 0.634338 0.736450
0.015442 0.625671 0.736145
0.060089 0.625549 0.734802
0.101013 0.625244 0.730927
0.250244 0.658264 0.756714
0.426117 0.690460 0.772522
0.587341 0.724701 0.779175
0.778717 0.738800 0.821594
0.838989 0.739227 0.829010
0.890900 0.737183 0.790710
0.005981 0.719299 0.795074
0.076599 0.719086 0.794617
0.168701 0.725433 0.800537
0.327118 0.746094 0.819336
0.485199 0.762573 0.827179
0.640381 0.786896 0.834412
0.776672 0.824341 0.844849
0.879913 0.833313 0.874847
0.928345 0.826019 0.845398
0.000000 0.832916 0.829926
0.098633 0.836517 0.833679
0.230896 0.846985 0.844604
0.372894 0.854980 0.853027
0.519318 0.861328 0.859375
0.668579 0.871704 0.870209
0.813873 0.889526 0.889679
0.917419 0.909729 0.911621
0.968689 0.899506 0.901428
0.108459 0.902740 0.833557
0.193237 0.907227 0.838928
0.314026 0.915558 0.849396
0.457245 0.925110 0.863251
0.609924 0.933899 0.881287
0.758331 0.944702 0.907349
0.877258 0.959259 0.941376
0.948944 0.972229 0.940002
0.993225 0.982025 0.930969
0.103821 0.511688 0.664368
0.108490 0.512634 0.663269
0.113037 0.514862 0.660370
0.116211 0.517975 0.655823
0.272644 0.540375 0.693756
0.492340 0.518250 0.740448
0.634613 0.408264 0.760010
0.703064 0.347656 0.762634
0.776306 0.420776 0.763367
0.096161 0.522003 0.670013
0.101501 0.522827 0.668762
0.106445 0.524750 0.665558
0.109528 0.527435 0.660522
0.272736 0.552582 0.699951
0.497314 0.536163 0.745331
0.643402 0.435730 0.767975
0.713867 0.375244 0.772766
0.784180 0.444427 0.771637
0.078735 0.541931 0.684601
0.086090 0.542725 0.683136
0.092316 0.544769 0.679230
0.095062 0.548004 0.672729
0.273193 0.580475 0.714569
0.505859 0.576019 0.756958
0.663025 0.500122 0.784485
0.737305 0.442017 0.794281
0.801849 0.500549 0.790131
0.054718 0.572571 0.711639
0.066406 0.573334 0.709869
0.075897 0.575409 0.705322
0.079346 0.579224 0.696747
0.276764 0.621613 0.738770
0.509857 0.631714 0.777191
0.691772 0.594635 0.806580
0.768982 0.544800 0.822083
0.827179 0.586029 0.816711
0.033386 0.613159 0.752930
0.053406 0.613708 0.751099
0.070160 0.615234 0.746094
0.078308 0.618256 0.736298
0.295563 0.669891 0.774994
0.512512 0.694305 0.804321
0.720581 0.694580 0.832886
0.805176 0.661072 0.852325
0.858002 0.684204 0.849152
0.022827 0.668335 0.808990
0.057190 0.668549 0.807343
0.088013 0.669098 0.802887
0.140900 0.677643 0.801331
0.347504 0.722443 0.828400
0.533936 0.754761 0.840668
0.716064 0.774658 0.858917
0.846344 0.766602 0.886627
0.893433 0.779327 0.887817
0.016449 0.743317 0.871582
0.071960 0.743164 0.870544
0.124847 0.742859 0.867645
0.248718 0.760040 0.880005
0.423920 0.785522 0.891510
0.584808 0.811127 0.893707
0.723541 0.842621 0.892242
0.884949 0.857483 0.921326
0.931305 0.862335 0.932465
0.001648 0.842499 0.926117
0.081421 0.842346 0.925842
0.163727 0.842743 0.925873
0.332855 0.860352 0.943115
0.488312 0.870911 0.947937
0.635315 0.883240 0.948822
0.772064 0.901825 0.947693
0.885376 0.928833 0.947144
0.968750 0.936340 0.968781
0.000000 0.952454 0.950928
0.089844 0.954041 0.952606
0.229980 0.963837 0.962616
0.374512 0.971710 0.970734
0.518127 0.975220 0.974304
0.660461 0.978088 0.977417
0.799133 0.982941 0.982544
0.921295 0.991028 0.990814
0.999969 1.000000 0.999969
