lut/retro-80s/Gremlins (1984) - Standard.cube
# Created by Benjamin (IWLTBAP): https://luts.iwltbap.com
# Copyright: (C) Copyright 2018 Triune Films and IWLTBAP SAS
# Cannot be resold, shared or otherwise redistributed
TITLE "Triune Films 80s Retro LUTs (Rec.709, sRGB, DCI-P3)"
LUT_3D_SIZE 5
0.000000 0.000000 0.000000
0.166260 0.004578 0.007538
0.340240 0.011932 0.025238
0.513245 0.018341 0.044312
0.700562 0.022583 0.062805
0.118774 0.178223 0.033234
0.295135 0.156677 0.031982
0.453339 0.152985 0.026184
0.590607 0.117371 0.037750
0.740723 0.104126 0.051971
0.246460 0.456665 0.082092
0.381775 0.422760 0.058380
0.548157 0.431519 0.054504
0.745575 0.451599 0.019470
0.958282 0.428589 0.037201
0.350494 0.700348 0.152649
0.447388 0.692078 0.132324
0.593414 0.683228 0.108856
0.769318 0.712036 0.050598
0.998871 0.733368 0.000000
0.432068 0.886871 0.240997
0.506775 0.887604 0.228333
0.623871 0.892609 0.206024
0.780365 0.918976 0.171204
0.990265 0.968903 0.060944
0.009460 0.090759 0.116638
0.169220 0.058197 0.157623
0.339783 0.032928 0.067719
0.496063 0.033630 0.102356
0.677917 0.034332 0.139801
0.000000 0.208496 0.200256
0.251190 0.236420 0.233063
0.473877 0.172546 0.174255
0.605377 0.129456 0.150879
0.713379 0.093872 0.150482
0.175598 0.474915 0.321411
0.359528 0.480804 0.270630
0.547943 0.453491 0.261902
0.747253 0.459503 0.240082
0.952881 0.427094 0.244690
0.347961 0.710907 0.349915
0.441132 0.710052 0.319366
0.594269 0.697906 0.295563
0.768066 0.716003 0.264893
0.998962 0.734985 0.238922
0.456085 0.873840 0.413666
0.521393 0.877960 0.399139
0.632263 0.890106 0.382050
0.782715 0.921051 0.361694
0.990540 0.970673 0.281433
0.029449 0.219879 0.289154
0.117035 0.232574 0.323029
0.402100 0.126892 0.357056
0.574799 0.111084 0.191986
0.660492 0.079956 0.185181
0.003510 0.280640 0.335968
0.113373 0.319275 0.371674
0.476379 0.258759 0.439148
0.659424 0.217957 0.295868
0.759308 0.165802 0.267273
0.000000 0.451050 0.446136
0.215179 0.494812 0.489685
0.570557 0.535614 0.546051
0.752869 0.472748 0.471924
0.916168 0.434662 0.453522
0.225403 0.667633 0.572083
0.392944 0.701385 0.602356
0.637390 0.727142 0.590454
0.777588 0.720825 0.525146
0.996643 0.735565 0.493195
0.501984 0.858307 0.659973
0.580078 0.873169 0.662689
0.688873 0.898041 0.641479
0.806335 0.931488 0.610168
0.990631 0.972260 0.532288
0.062500 0.362000 0.473511
0.069916 0.363739 0.469513
0.382263 0.320068 0.577637
0.612457 0.222473 0.548126
0.789978 0.254242 0.402466
0.033905 0.401611 0.501007
0.045746 0.403625 0.493500
0.410645 0.428375 0.605682
0.663483 0.331177 0.605255
0.827271 0.342682 0.471344
0.012573 0.508057 0.600006
0.077332 0.509399 0.594727
0.429138 0.597961 0.659576
0.736908 0.586151 0.715790
0.873535 0.556549 0.622650
0.000000 0.704987 0.701416
0.224487 0.726288 0.723450
0.526764 0.751099 0.749939
0.820221 0.804626 0.808777
0.947632 0.763885 0.759766
0.288116 0.835968 0.765717
0.445770 0.852692 0.789795
0.718506 0.898132 0.848145
0.877625 0.945374 0.857269
0.990692 0.973267 0.810638
0.103821 0.511688 0.664368
0.113037 0.514862 0.660370
0.272644 0.540375 0.693756
0.634613 0.408264 0.760010
0.776306 0.420776 0.763367
0.078735 0.541931 0.684601
0.092316 0.544769 0.679230
0.273193 0.580475 0.714569
0.663025 0.500122 0.784485
0.801849 0.500549 0.790131
0.033386 0.613159 0.752930
0.070160 0.615234 0.746094
0.295563 0.669891 0.774994
0.720581 0.694580 0.832886
0.858002 0.684204 0.849152
0.016449 0.743317 0.871582
0.124847 0.742859 0.867645
0.423920 0.785522 0.891510
0.723541 0.842621 0.892242
0.931305 0.862335 0.932465
0.000000 0.952454 0.950928
0.229980 0.963837 0.962616
0.518127 0.975220 0.974304
0.799133 0.982941 0.982544
0.999969 1.000000 0.999969
