lut/retro-80s/Labyrinth (1986) - Standard.cube
# Created by Benjamin (IWLTBAP): https://luts.iwltbap.com
# Copyright: (C) Copyright 2018 Triune Films and IWLTBAP SAS
# Cannot be resold, shared or otherwise redistributed
TITLE "Triune Films 80s Retro LUTs (Rec.709, sRGB, DCI-P3)"
LUT_3D_SIZE 5
0.000000 0.000793 0.000793
0.157990 0.000000 0.000000
0.382324 0.000000 0.000000
0.632904 0.000000 0.000000
0.885651 0.000000 0.000000
0.000000 0.212677 0.130981
0.197266 0.227875 0.101166
0.472595 0.223541 0.078430
0.721344 0.208679 0.078735
0.946564 0.203705 0.076477
0.000610 0.476349 0.307648
0.152710 0.498505 0.311768
0.503876 0.523834 0.202393
0.762299 0.511200 0.093964
0.991211 0.513763 0.120605
0.022003 0.735718 0.503265
0.156647 0.753143 0.510101
0.491699 0.776855 0.459534
0.781921 0.779755 0.274872
1.000000 0.766876 0.047821
0.054810 0.954773 0.666809
0.206238 0.964081 0.665344
0.512177 0.982758 0.637848
0.811493 0.998505 0.531403
1.000000 1.000000 0.335876
0.000000 0.005188 0.080750
0.152283 0.003265 0.076691
0.384247 0.000214 0.067871
0.632904 0.000000 0.076111
0.886505 0.000000 0.087067
0.000000 0.211273 0.210815
0.158173 0.213379 0.212341
0.468079 0.189056 0.188324
0.722107 0.187714 0.187347
0.942474 0.192566 0.192566
0.001404 0.488831 0.400787
0.121704 0.512146 0.414032
0.498016 0.524658 0.347046
0.765228 0.509338 0.298096
0.988831 0.509705 0.322906
0.021973 0.748932 0.593689
0.139374 0.767548 0.605499
0.456421 0.781372 0.575470
0.783051 0.781586 0.428741
1.000000 0.766205 0.280365
0.053284 0.962646 0.746490
0.197906 0.972290 0.750366
0.482056 0.981171 0.732666
0.804352 0.998169 0.654266
1.000000 1.000000 0.492126
0.000000 0.034454 0.178345
0.113251 0.033905 0.183441
0.368896 0.017822 0.165131
0.631165 0.002167 0.148895
0.878601 0.000000 0.150513
0.000000 0.216217 0.301941
0.111237 0.215363 0.312897
0.435974 0.181671 0.280396
0.730469 0.161377 0.251617
0.940216 0.169189 0.258362
0.002319 0.493134 0.493347
0.122528 0.517395 0.517700
0.444672 0.526703 0.527924
0.780487 0.494812 0.495209
0.978546 0.493988 0.494171
0.027802 0.752472 0.677704
0.151764 0.776306 0.696228
0.413116 0.794159 0.706238
0.783691 0.784515 0.621002
1.000000 0.765594 0.528564
0.060547 0.965485 0.825439
0.211121 0.978607 0.833282
0.450104 0.986237 0.830475
0.785645 0.995239 0.789185
1.000000 1.000000 0.668579
0.000000 0.076385 0.284058
0.089264 0.079407 0.295197
0.344055 0.069427 0.288696
0.648712 0.027832 0.250061
0.898590 0.001953 0.229340
0.000793 0.235046 0.394165
0.095215 0.238892 0.406647
0.394470 0.223633 0.397156
0.737000 0.179688 0.349518
0.949554 0.165222 0.331116
0.006104 0.501831 0.581268
0.137543 0.520416 0.603241
0.417633 0.526825 0.618835
0.781555 0.502533 0.592865
0.980682 0.490753 0.576019
0.040802 0.752716 0.752899
0.181793 0.773468 0.773560
0.420074 0.797363 0.797638
0.787170 0.806000 0.806305
0.994537 0.780457 0.780731
0.078552 0.963623 0.896698
0.239288 0.977295 0.907990
0.470276 0.990082 0.915588
0.791443 0.996002 0.921600
1.000000 1.000000 0.874207
0.000000 0.115265 0.386169
0.083160 0.118713 0.398132
0.344971 0.118408 0.405060
0.670532 0.082611 0.376312
0.916931 0.020386 0.319855
0.000000 0.260040 0.490326
0.091461 0.265808 0.500732
0.390839 0.257751 0.496796
0.739838 0.219208 0.458160
0.953827 0.181641 0.417297
0.010712 0.520844 0.671478
0.142487 0.538422 0.689453
0.418762 0.541992 0.701324
0.764374 0.522125 0.684570
0.976379 0.509888 0.668030
0.044556 0.764435 0.832397
0.194275 0.782745 0.852783
0.435181 0.799866 0.875885
0.779297 0.809143 0.886017
0.990112 0.797974 0.874054
0.102051 0.963928 0.963867
0.283356 0.976044 0.976044
0.511841 0.987518 0.987518
0.802216 0.997833 0.997864
1.000000 1.000000 1.000000
