lut/retro-80s/Labyrinth (1986) - Standard.cube
# Created by Benjamin (IWLTBAP): https://luts.iwltbap.com
# Copyright: (C) Copyright 2018 Triune Films and IWLTBAP SAS
# Cannot be resold, shared or otherwise redistributed
TITLE "Triune Films 80s Retro LUTs (Rec.709, sRGB, DCI-P3)"
LUT_3D_SIZE 33
0.000000 0.000793 0.000793
0.014343 0.000793 0.000793
0.030182 0.000793 0.000793
0.046661 0.000793 0.000793
0.065277 0.000153 0.000153
0.085724 0.000000 0.000000
0.108215 0.000000 0.000000
0.132507 0.000000 0.000000
0.157990 0.000000 0.000000
0.184570 0.000000 0.000000
0.211670 0.000000 0.000000
0.239044 0.000000 0.000000
0.266785 0.000000 0.000000
0.294800 0.000000 0.000000
0.323334 0.000000 0.000000
0.352509 0.000000 0.000000
0.382324 0.000000 0.000000
0.412537 0.000000 0.000000
0.443207 0.000000 0.000000
0.474152 0.000000 0.000000
0.505310 0.000000 0.000000
0.536804 0.000000 0.000000
0.568512 0.000000 0.000000
0.600464 0.000000 0.000000
0.632904 0.000000 0.000000
0.665619 0.000000 0.000000
0.698425 0.000000 0.000000
0.731171 0.000000 0.000000
0.763702 0.000000 0.000000
0.795685 0.000000 0.000000
0.826843 0.000000 0.000000
0.856964 0.000000 0.000000
0.885651 0.000000 0.000000
0.000000 0.022461 0.013672
0.015289 0.022339 0.013000
0.031555 0.022705 0.012299
0.049957 0.022064 0.012177
0.069183 0.021973 0.011322
0.091003 0.020966 0.011139
0.114380 0.020599 0.010803
0.139496 0.020294 0.009918
0.165863 0.019470 0.009583
0.193054 0.018768 0.009338
0.220551 0.018494 0.009125
0.248230 0.018280 0.008942
0.276154 0.018127 0.008789
0.304535 0.018097 0.008270
0.333313 0.017975 0.007874
0.362701 0.018005 0.007812
0.392578 0.017609 0.007751
0.422882 0.017395 0.007660
0.453522 0.017456 0.007629
0.484528 0.017517 0.007599
0.515747 0.017578 0.007538
0.547333 0.017609 0.007477
0.579193 0.017578 0.006836
0.611359 0.017670 0.006714
0.643860 0.017120 0.006653
0.676483 0.017059 0.006592
0.709198 0.017120 0.006561
0.741791 0.017181 0.006439
0.773987 0.017273 0.005890
0.805511 0.017365 0.005859
0.836212 0.017212 0.005829
0.865814 0.016998 0.005798
0.894012 0.017059 0.005768
0.000000 0.045837 0.027100
0.015747 0.045807 0.026459
0.032654 0.045837 0.025421
0.051971 0.045868 0.024323
0.073303 0.045349 0.023163
0.096191 0.044525 0.022705
0.120850 0.043518 0.021759
0.146820 0.042145 0.020874
0.173889 0.041321 0.020081
0.201630 0.039856 0.019562
0.229492 0.039062 0.018463
0.257660 0.038605 0.018066
0.285889 0.038177 0.017731
0.314514 0.037354 0.017487
0.343506 0.037262 0.016602
0.373047 0.037140 0.016418
0.403015 0.037170 0.016327
0.433380 0.036469 0.016144
0.464081 0.036469 0.015411
0.495178 0.036560 0.015320
0.526550 0.036591 0.015198
0.558167 0.036011 0.015015
0.590088 0.036041 0.014221
0.622406 0.036102 0.014130
0.654938 0.035767 0.013947
0.687531 0.035522 0.013672
0.720123 0.035522 0.013184
0.752441 0.035309 0.013092
0.784332 0.035126 0.012512
0.815430 0.035339 0.012299
0.845642 0.035522 0.012238
0.874725 0.035004 0.012177
0.902405 0.035187 0.011566
0.000000 0.069550 0.040985
0.015350 0.069489 0.040497
0.033051 0.069885 0.039368
0.052216 0.070007 0.037689
0.075745 0.070557 0.035553
0.100739 0.070496 0.033997
0.127197 0.069305 0.032471
0.154541 0.067566 0.031677
0.182251 0.065582 0.030457
0.210632 0.064209 0.029877
0.239014 0.062592 0.028625
0.267548 0.061462 0.028137
0.296234 0.060455 0.027588
0.325104 0.059662 0.026672
0.354309 0.058929 0.026276
0.383972 0.058716 0.025818
0.414001 0.058380 0.025177
0.444397 0.057892 0.024963
0.475098 0.057648 0.024414
0.506165 0.057404 0.023865
0.537598 0.057190 0.023682
0.569336 0.056702 0.023132
0.601318 0.056396 0.022552
0.633606 0.056122 0.021942
0.666107 0.055786 0.021576
0.698639 0.055573 0.021393
0.730988 0.055206 0.020569
0.763062 0.055206 0.020416
0.794647 0.054779 0.019653
0.825317 0.054993 0.019501
0.854950 0.054810 0.019348
0.883362 0.054840 0.018799
0.910431 0.054718 0.018616
0.000000 0.095245 0.056519
0.015411 0.095398 0.055847
0.032288 0.095703 0.054626
0.051544 0.095856 0.052826
0.075043 0.096649 0.049591
0.102844 0.097534 0.046265
0.131927 0.097382 0.044098
0.161407 0.096375 0.042694
0.190887 0.094513 0.041351
0.220093 0.092316 0.040344
0.248993 0.090210 0.039734
0.277954 0.088501 0.038818
0.307007 0.086914 0.038422
0.336243 0.085632 0.037598
0.365692 0.084625 0.036926
0.395538 0.083893 0.036163
0.425598 0.083191 0.035614
0.456055 0.082458 0.035339
0.486694 0.081787 0.034515
0.517792 0.081451 0.034058
0.549133 0.081024 0.033264
0.580841 0.080292 0.032867
0.612854 0.079651 0.031860
0.645111 0.078888 0.030884
0.677551 0.078644 0.030548
0.709778 0.078217 0.029724
0.741913 0.077698 0.029297
0.773590 0.077393 0.028625
0.804688 0.076935 0.028107
0.834808 0.076965 0.027649
0.863953 0.076874 0.027191
0.891846 0.076782 0.026703
0.918274 0.076813 0.026245
0.000000 0.122284 0.073212
0.014984 0.123077 0.072937
0.031464 0.123322 0.072021
0.050201 0.123932 0.070190
0.073303 0.124634 0.066956
0.101257 0.125763 0.061798
0.133209 0.127228 0.057404
0.165497 0.127502 0.054596
0.197693 0.126526 0.052368
0.228851 0.124969 0.051056
0.259033 0.122742 0.050385
0.288635 0.120514 0.050049
0.318146 0.118378 0.049561
0.347778 0.116516 0.048828
0.377594 0.115082 0.048157
0.407532 0.113739 0.047760
0.437653 0.112549 0.046936
0.468109 0.111511 0.046600
0.498779 0.110626 0.045776
0.529785 0.109741 0.044922
0.561096 0.108612 0.044464
0.592712 0.107697 0.043488
0.624634 0.106781 0.042480
0.656708 0.105988 0.041656
0.688873 0.105103 0.041046
0.720856 0.104248 0.040100
0.752625 0.103699 0.039185
0.783966 0.103027 0.038605
0.814545 0.102570 0.037964
0.844238 0.102478 0.037262
0.872742 0.102264 0.036987
0.900085 0.102173 0.036346
0.925964 0.102112 0.036102
0.000000 0.151398 0.091553
0.014130 0.152008 0.091278
0.030243 0.152649 0.090515
0.048309 0.153534 0.089203
0.070496 0.154480 0.086517
0.097778 0.155823 0.081726
0.130432 0.157593 0.074585
0.166107 0.159363 0.068787
0.200928 0.159912 0.064819
0.234741 0.159485 0.062225
0.267426 0.158386 0.060730
0.298523 0.156342 0.060211
0.329010 0.154114 0.059998
0.359222 0.151947 0.059814
0.389404 0.149902 0.059784
0.419647 0.148010 0.059418
0.449921 0.146393 0.059082
0.480377 0.144958 0.058746
0.511047 0.143555 0.058167
0.541962 0.142273 0.057495
0.573151 0.140930 0.056580
0.604675 0.139648 0.055756
0.636444 0.138367 0.054901
0.668274 0.137115 0.053986
0.700104 0.135895 0.053009
0.731781 0.134857 0.052185
0.763184 0.133942 0.051270
0.794037 0.133301 0.050476
0.824097 0.132751 0.049774
0.853210 0.132507 0.049103
0.881165 0.132233 0.048523
0.907867 0.132202 0.048004
0.933167 0.132263 0.047760
0.000000 0.181549 0.110687
0.013855 0.182281 0.110565
0.028625 0.183075 0.110229
0.046295 0.184265 0.109314
0.067413 0.185638 0.107544
0.093689 0.187408 0.103699
0.125610 0.189392 0.097198
0.162567 0.191864 0.087982
0.200989 0.193848 0.080231
0.237457 0.194641 0.075470
0.272217 0.194458 0.072205
0.306091 0.193756 0.069977
0.338379 0.192108 0.069061
0.369598 0.190125 0.069214
0.400513 0.187897 0.069519
0.431183 0.185730 0.069885
0.461792 0.183807 0.070007
0.492401 0.181976 0.070160
0.523071 0.180298 0.069794
0.554016 0.178680 0.069489
0.585144 0.176971 0.069031
0.616516 0.175293 0.068268
0.647980 0.173737 0.067383
0.679535 0.172180 0.066742
0.710968 0.170685 0.065796
0.742279 0.169403 0.065155
0.773163 0.168365 0.064178
0.803467 0.167419 0.063477
0.833099 0.166931 0.062988
0.861603 0.166382 0.062439
0.889008 0.166229 0.062042
0.915192 0.166107 0.061646
0.940002 0.166046 0.061249
0.000000 0.212677 0.130981
0.012817 0.213440 0.130798
0.027069 0.214447 0.130554
0.043549 0.215820 0.130249
0.064087 0.217529 0.129028
0.089294 0.219696 0.126434
0.120270 0.222198 0.121063
0.156799 0.224945 0.112579
0.197266 0.227875 0.101166
0.237274 0.229919 0.091888
0.274567 0.230713 0.085693
0.310150 0.230652 0.081543
0.344543 0.230072 0.078705
0.377808 0.229095 0.076965
0.409973 0.227386 0.076843
0.441437 0.225525 0.077545
0.472595 0.223541 0.078430
0.503571 0.221619 0.079071
0.534454 0.219635 0.079712
0.565399 0.217804 0.079956
0.596436 0.215759 0.080170
0.627716 0.213898 0.080017
0.658966 0.212036 0.079681
0.690186 0.210327 0.079254
0.721344 0.208679 0.078735
0.752228 0.207245 0.078247
0.782715 0.206116 0.077759
0.812531 0.205170 0.077423
0.841583 0.204468 0.076996
0.869568 0.204041 0.076874
0.896484 0.203888 0.076630
0.922150 0.203705 0.076569
0.946564 0.203705 0.076477
0.000000 0.244232 0.151550
0.012360 0.245239 0.151611
0.025574 0.246490 0.151642
0.041687 0.247894 0.151672
0.060608 0.249939 0.151093
0.084869 0.252533 0.149323
0.114777 0.255524 0.145447
0.150574 0.258789 0.138184
0.191010 0.262085 0.127594
0.233673 0.265106 0.114197
0.274475 0.266876 0.102875
0.312195 0.267487 0.095337
0.348145 0.267426 0.090271
0.382935 0.266937 0.086639
0.416718 0.266205 0.084290
0.449524 0.265076 0.083374
0.481598 0.263580 0.084015
0.513123 0.261841 0.085144
0.544434 0.260010 0.086365
0.575592 0.258057 0.087463
0.606750 0.256134 0.088440
0.637878 0.254211 0.089111
0.669037 0.252289 0.089691
0.700043 0.250519 0.089966
0.730835 0.248932 0.090179
0.761414 0.247528 0.090302
0.791443 0.246429 0.090485
0.820862 0.245483 0.090607
0.849426 0.244873 0.090729
0.877014 0.244446 0.091095
0.903442 0.244263 0.091339
0.928589 0.244293 0.091583
0.952667 0.244354 0.091980
0.000000 0.276703 0.173004
0.011719 0.277618 0.173065
0.024353 0.278748 0.173218
0.039764 0.280365 0.173370
0.058197 0.282593 0.173248
0.081238 0.285431 0.172180
0.109924 0.288788 0.169617
0.144440 0.292542 0.164185
0.184174 0.296509 0.155090
0.227264 0.300110 0.142395
0.271362 0.302979 0.126801
0.312347 0.304260 0.113617
0.350037 0.304443 0.104523
0.386078 0.304169 0.098328
0.420807 0.303650 0.093903
0.454834 0.303070 0.090790
0.488068 0.302246 0.088928
0.520508 0.301147 0.088898
0.552429 0.299713 0.090118
0.584015 0.298157 0.091797
0.615417 0.296448 0.093567
0.646576 0.294708 0.095184
0.677643 0.292999 0.096680
0.708557 0.291382 0.097931
0.739136 0.290009 0.099121
0.769348 0.288727 0.100189
0.799042 0.287689 0.101196
0.828094 0.286957 0.102112
0.856293 0.286407 0.103119
0.883423 0.286072 0.104065
0.909546 0.286041 0.105042
0.934448 0.286133 0.105927
0.958313 0.286316 0.106903
0.000000 0.309357 0.194733
0.011200 0.310303 0.194824
0.023926 0.311432 0.195129
0.038300 0.313202 0.195526
0.055481 0.315399 0.195465
0.077637 0.318420 0.195129
0.105103 0.322205 0.193512
0.138306 0.326355 0.189606
0.177368 0.330658 0.182281
0.220428 0.334869 0.171265
0.265533 0.338501 0.156433
0.309937 0.340973 0.139099
0.350494 0.341614 0.124084
0.387970 0.341278 0.113464
0.423645 0.340668 0.105835
0.458221 0.340027 0.100372
0.492218 0.339386 0.096436
0.525513 0.338806 0.093689
0.558197 0.337921 0.092560
0.590363 0.336914 0.093353
0.622162 0.335632 0.095215
0.653534 0.334320 0.097504
0.684662 0.332977 0.099884
0.715424 0.331665 0.102325
0.746033 0.330597 0.104645
0.776093 0.329590 0.106720
0.805542 0.328766 0.108826
0.834412 0.328186 0.110718
0.862366 0.327820 0.112610
0.889313 0.327698 0.114441
0.915222 0.327728 0.116211
0.939972 0.327942 0.117950
0.963776 0.328247 0.119568
0.000000 0.342346 0.216766
0.011047 0.343384 0.217072
0.023376 0.344543 0.217316
0.036774 0.346252 0.217743
0.053802 0.348572 0.218109
0.074554 0.351624 0.218262
0.101074 0.355499 0.217346
0.132965 0.359894 0.214630
0.170898 0.364594 0.208954
0.213257 0.369232 0.199799
0.258759 0.373352 0.186584
0.304749 0.376740 0.170197
0.348877 0.378693 0.151306
0.388824 0.378571 0.134460
0.425659 0.377777 0.122162
0.460754 0.376740 0.113037
0.495026 0.375885 0.106262
0.528839 0.375153 0.101288
0.562073 0.374573 0.097687
0.594757 0.373993 0.095520
0.626984 0.373260 0.095367
0.658722 0.372437 0.097015
0.690002 0.371521 0.099670
0.720917 0.370667 0.102722
0.751495 0.369843 0.105957
0.781525 0.369232 0.109192
0.811066 0.368683 0.112335
0.839813 0.368286 0.115356
0.867676 0.368164 0.118317
0.894623 0.368164 0.121185
0.920502 0.368347 0.123810
0.945374 0.368652 0.126404
0.969238 0.369080 0.128815
0.000000 0.375549 0.239075
0.011200 0.376678 0.239441
0.022949 0.377991 0.239990
0.036346 0.379669 0.240509
0.052521 0.381927 0.240997
0.072601 0.385040 0.241486
0.097504 0.388885 0.241058
0.128204 0.393433 0.239319
0.164978 0.398346 0.235046
0.206512 0.403259 0.227722
0.251709 0.407837 0.216583
0.298309 0.411774 0.201874
0.344513 0.414764 0.184143
0.388123 0.415955 0.163696
0.426941 0.415192 0.145264
0.462860 0.413788 0.130951
0.497437 0.412415 0.119934
0.531250 0.411255 0.111603
0.564667 0.410431 0.105408
0.597656 0.409790 0.100891
0.630219 0.409332 0.097656
0.662262 0.408936 0.096375
0.693878 0.408447 0.097504
0.724976 0.407959 0.100159
0.755707 0.407562 0.103668
0.785858 0.407227 0.107605
0.815521 0.406921 0.111694
0.844360 0.406830 0.115662
0.872406 0.406830 0.119568
0.899445 0.407013 0.123413
0.925446 0.407318 0.127136
0.950500 0.407715 0.130646
0.974670 0.408142 0.134033
0.000122 0.409058 0.261719
0.010742 0.410278 0.262299
0.022552 0.411682 0.262878
0.035889 0.413391 0.263611
0.051849 0.415588 0.264252
0.070923 0.418579 0.264832
0.095093 0.422363 0.264832
0.124512 0.426880 0.263733
0.160034 0.431763 0.260681
0.200287 0.436951 0.255005
0.244843 0.441833 0.246063
0.291565 0.446167 0.233276
0.338776 0.449615 0.217133
0.384827 0.452118 0.198181
0.427124 0.452637 0.176575
0.464691 0.451202 0.156158
0.499695 0.449249 0.139648
0.533508 0.447479 0.126587
0.566742 0.446045 0.116547
0.599640 0.445038 0.108765
0.632294 0.444366 0.103149
0.664520 0.443970 0.099091
0.696411 0.443726 0.096649
0.727814 0.443542 0.096741
0.758759 0.443390 0.099030
0.789185 0.443329 0.102692
0.818970 0.443298 0.106903
0.848083 0.443390 0.111542
0.876404 0.443573 0.116241
0.903748 0.443817 0.120911
0.930115 0.444183 0.125488
0.955536 0.444672 0.129944
0.980164 0.445160 0.134216
0.000275 0.442627 0.284576
0.011322 0.443970 0.285309
0.022888 0.445404 0.286163
0.035767 0.447174 0.286957
0.051727 0.449432 0.287781
0.070435 0.452271 0.288513
0.093597 0.455933 0.288879
0.122009 0.460327 0.288452
0.155945 0.465210 0.286194
0.194946 0.470398 0.282043
0.238678 0.475464 0.274841
0.285034 0.480011 0.264130
0.332764 0.483856 0.249847
0.380035 0.486786 0.232391
0.424988 0.488678 0.212555
0.465759 0.488647 0.189606
0.502014 0.486603 0.167114
0.535950 0.484253 0.148254
0.568878 0.482147 0.132965
0.601440 0.480469 0.120789
0.633820 0.479248 0.111359
0.666046 0.478424 0.104462
0.698029 0.477997 0.099487
0.729645 0.477783 0.095947
0.760925 0.477722 0.094696
0.791534 0.477783 0.096100
0.821686 0.477905 0.099396
0.851166 0.478088 0.103729
0.879913 0.478363 0.108704
0.907745 0.478729 0.113922
0.934570 0.479187 0.119202
0.960541 0.479675 0.124481
0.985718 0.480194 0.129608
0.000610 0.476349 0.307648
0.011780 0.477722 0.308685
0.023682 0.479309 0.309662
0.036530 0.481110 0.310699
0.052032 0.483307 0.311768
0.070587 0.486084 0.312653
0.092987 0.489563 0.313232
0.120178 0.493774 0.313171
0.152710 0.498505 0.311768
0.190613 0.503601 0.308563
0.233246 0.508698 0.302887
0.278961 0.513489 0.294189
0.326843 0.517456 0.281738
0.374695 0.520721 0.266144
0.421173 0.523102 0.247772
0.464783 0.524506 0.226807
0.503876 0.523834 0.202393
0.538666 0.521423 0.177704
0.571533 0.518707 0.156555
0.603577 0.516235 0.138794
0.635437 0.514313 0.124390
0.667358 0.512909 0.113220
0.699219 0.512054 0.104797
0.730896 0.511444 0.098572
0.762299 0.511200 0.093964
0.793304 0.511108 0.091248
0.823730 0.511261 0.091400
0.853607 0.511444 0.094055
0.882843 0.511780 0.098267
0.911285 0.512177 0.103394
0.938782 0.512634 0.108948
0.965363 0.513153 0.114777
0.991211 0.513763 0.120605
0.001373 0.509888 0.331116
0.012543 0.511383 0.332336
0.024475 0.513062 0.333649
0.037842 0.514954 0.334900
0.053284 0.517151 0.336121
0.071503 0.519867 0.337128
0.093048 0.523224 0.338013
0.119476 0.527161 0.338165
0.150696 0.531708 0.337341
0.187347 0.536652 0.334961
0.228729 0.541687 0.330475
0.273682 0.546448 0.323364
0.321259 0.550690 0.312683
0.369476 0.554138 0.298920
0.416779 0.556732 0.281891
0.462036 0.558502 0.262299
0.504059 0.559387 0.240295
0.541351 0.558319 0.214478
0.574677 0.555573 0.187744
0.606415 0.552582 0.164154
0.637604 0.549927 0.143921
0.668884 0.547821 0.127289
0.700317 0.546234 0.114136
0.731812 0.545135 0.104004
0.763214 0.544464 0.096375
0.794403 0.544037 0.090607
0.825195 0.543884 0.086578
0.855469 0.544006 0.085236
0.885162 0.544281 0.086914
0.914185 0.544586 0.090698
0.942444 0.545013 0.095856
0.969879 0.545532 0.101746
0.996429 0.546112 0.107971
0.002716 0.543304 0.355072
0.014252 0.544983 0.356567
0.026520 0.546783 0.358124
0.039703 0.548706 0.359650
0.054749 0.550934 0.360992
0.072601 0.553558 0.362213
0.093964 0.556763 0.363098
0.119507 0.560547 0.363556
0.149536 0.564758 0.363037
0.185028 0.569427 0.361237
0.225128 0.574280 0.357666
0.269196 0.578979 0.351685
0.316223 0.583191 0.342590
0.364410 0.586823 0.330383
0.412354 0.589691 0.315033
0.458588 0.591675 0.296753
0.502319 0.593018 0.276062
0.542572 0.593445 0.252991
0.578094 0.592041 0.225861
0.610016 0.589020 0.196960
0.640686 0.585907 0.170959
0.671204 0.583069 0.148407
0.701813 0.580780 0.129517
0.732788 0.579010 0.114227
0.763916 0.577789 0.102112
0.795074 0.576935 0.092957
0.826080 0.576416 0.086060
0.856720 0.576172 0.081024
0.886902 0.576172 0.078064
0.916534 0.576385 0.078400
0.945496 0.576691 0.081512
0.973816 0.577118 0.086456
1.000000 0.577667 0.092407
0.004974 0.576569 0.379547
0.016266 0.578308 0.381317
0.028595 0.580231 0.383118
0.041656 0.582214 0.384766
0.057068 0.584473 0.386261
0.074463 0.587036 0.387482
0.095428 0.590027 0.388489
0.120026 0.593536 0.389008
0.149292 0.597534 0.388702
0.183533 0.601929 0.387299
0.222382 0.606537 0.384369
0.265564 0.611023 0.379242
0.311951 0.615234 0.371338
0.359924 0.618896 0.360535
0.408142 0.621887 0.346619
0.455139 0.624054 0.329742
0.500000 0.625549 0.310211
0.541992 0.626495 0.288544
0.580383 0.626617 0.264587
0.614075 0.624969 0.236115
0.644714 0.621857 0.205261
0.674438 0.618652 0.177063
0.704224 0.615723 0.152222
0.734253 0.613342 0.131073
0.764771 0.611450 0.113586
0.795532 0.610107 0.099518
0.826447 0.609131 0.088837
0.857269 0.608459 0.080688
0.887909 0.608093 0.074463
0.918060 0.608002 0.070190
0.947784 0.608124 0.068878
0.976959 0.608368 0.071167
1.000000 0.608765 0.075623
0.007355 0.609436 0.404449
0.019165 0.611328 0.406433
0.031281 0.613281 0.408417
0.044586 0.615356 0.410126
0.059479 0.617584 0.411652
0.077118 0.620087 0.412903
0.097168 0.622864 0.413818
0.121155 0.626160 0.414307
0.149658 0.629913 0.414124
0.182861 0.634003 0.413025
0.220520 0.638336 0.410583
0.262848 0.642578 0.405975
0.308411 0.646698 0.398987
0.355957 0.650330 0.389435
0.404358 0.653381 0.376740
0.451874 0.655792 0.361206
0.497589 0.657471 0.342957
0.540710 0.658539 0.322418
0.580933 0.659088 0.299957
0.617279 0.658875 0.275146
0.649261 0.657135 0.245392
0.678741 0.654053 0.212799
0.707581 0.650879 0.182587
0.736603 0.648010 0.155518
0.766144 0.645538 0.131897
0.796204 0.643616 0.112366
0.826721 0.642151 0.096405
0.857452 0.641083 0.084137
0.888184 0.640320 0.074524
0.918793 0.639862 0.067139
0.949158 0.639648 0.061951
0.979187 0.639618 0.059082
1.000000 0.639862 0.060089
0.010681 0.641907 0.429626
0.022491 0.643921 0.431732
0.034851 0.645935 0.433746
0.047607 0.648010 0.435516
0.062561 0.650146 0.436981
0.079498 0.652588 0.438141
0.099365 0.655273 0.438934
0.122833 0.658325 0.439362
0.150452 0.661774 0.439178
0.182709 0.665588 0.438202
0.219696 0.669525 0.435883
0.260925 0.673584 0.431824
0.305695 0.677521 0.425690
0.352936 0.681122 0.416962
0.401154 0.684204 0.405457
0.448975 0.686676 0.391144
0.495422 0.688507 0.374298
0.539520 0.689728 0.354889
0.580780 0.690460 0.333344
0.618896 0.690796 0.310272
0.653290 0.690430 0.284546
0.683777 0.688660 0.253723
0.712097 0.685669 0.219666
0.740082 0.682617 0.187439
0.768494 0.679810 0.158142
0.797485 0.677460 0.132477
0.827271 0.675507 0.110779
0.857513 0.673981 0.093018
0.888123 0.672913 0.079010
0.918854 0.672058 0.067902
0.949677 0.671478 0.059357
0.980408 0.671204 0.053192
1.000000 0.671051 0.049225
0.014404 0.673859 0.454712
0.025848 0.675842 0.456787
0.037994 0.677948 0.458832
0.051270 0.679993 0.460480
0.065552 0.682159 0.461884
0.082397 0.684448 0.462830
0.101929 0.687012 0.463531
0.124908 0.689880 0.463837
0.151886 0.693024 0.463654
0.183289 0.696533 0.462677
0.219666 0.700165 0.460510
0.260101 0.703979 0.456757
0.304047 0.707703 0.451263
0.350800 0.711212 0.443329
0.398804 0.714294 0.432831
0.446716 0.716827 0.419861
0.493561 0.718781 0.404205
0.538452 0.720154 0.385956
0.580566 0.721100 0.365601
0.619751 0.721497 0.343231
0.655853 0.721710 0.319519
0.688416 0.721283 0.293213
0.717407 0.719574 0.261322
0.744690 0.716766 0.225800
0.771912 0.713959 0.191742
0.799774 0.711334 0.160461
0.828400 0.709045 0.132751
0.857849 0.707184 0.109070
0.888031 0.705719 0.089325
0.918579 0.704559 0.073547
0.949524 0.703674 0.061066
0.980682 0.703064 0.051331
1.000000 0.702698 0.044128
0.018219 0.705139 0.479401
0.029358 0.707184 0.481384
0.041687 0.709259 0.483276
0.054688 0.711304 0.484833
0.069000 0.713348 0.485992
0.085541 0.715576 0.486877
0.104828 0.717957 0.487427
0.127441 0.720612 0.487671
0.153748 0.723480 0.487335
0.184875 0.726654 0.486267
0.220428 0.730042 0.484222
0.260162 0.733612 0.480865
0.303467 0.737183 0.475739
0.349670 0.740570 0.468536
0.397339 0.743622 0.459045
0.445221 0.746185 0.447052
0.492310 0.748199 0.432587
0.537598 0.749756 0.415619
0.580536 0.750824 0.396332
0.620575 0.751495 0.375122
0.657593 0.751831 0.352234
0.691711 0.751923 0.328125
0.722504 0.751465 0.301147
0.750183 0.749908 0.268372
0.776520 0.747437 0.231445
0.803101 0.744934 0.195709
0.830505 0.742523 0.162628
0.858795 0.740479 0.132996
0.888123 0.738708 0.107300
0.918182 0.737274 0.085663
0.948975 0.736145 0.068237
0.980225 0.735291 0.054291
1.000000 0.734619 0.043274
0.022003 0.735718 0.503265
0.032867 0.737701 0.505127
0.045013 0.739716 0.506866
0.057983 0.741699 0.508301
0.072449 0.743713 0.509369
0.088745 0.745789 0.510132
0.107910 0.748047 0.510498
0.130310 0.750458 0.510559
0.156647 0.753143 0.510101
0.187134 0.756012 0.509033
0.222076 0.759186 0.507050
0.261108 0.762512 0.503998
0.303986 0.765900 0.499207
0.349579 0.769135 0.492645
0.396790 0.772125 0.483948
0.444489 0.774719 0.473022
0.491699 0.776855 0.459534
0.537292 0.778564 0.443787
0.580750 0.779816 0.425781
0.621429 0.780609 0.405640
0.659241 0.781128 0.383789
0.694183 0.781403 0.360474
0.726410 0.781494 0.335999
0.755524 0.781097 0.308502
0.781921 0.779755 0.274872
0.807495 0.777679 0.236816
0.833557 0.775482 0.199615
0.860565 0.773438 0.164825
0.888702 0.771637 0.133362
0.917908 0.770050 0.105682
0.948151 0.768768 0.082336
0.979279 0.767700 0.063202
1.000000 0.766876 0.047821
0.025574 0.765533 0.526367
0.036560 0.767456 0.528076
0.048553 0.769379 0.529663
0.061676 0.771301 0.530884
0.075806 0.773224 0.531769
0.092438 0.775177 0.532379
0.111572 0.777222 0.532593
0.133972 0.779449 0.532501
0.160126 0.781952 0.532013
0.190399 0.784637 0.530914
0.224640 0.787598 0.529083
0.263306 0.790680 0.526123
0.305542 0.793854 0.521698
0.350525 0.796997 0.515717
0.397308 0.799896 0.507690
0.444733 0.802521 0.497559
0.491821 0.804718 0.485229
0.537567 0.806549 0.470642
0.581329 0.807983 0.453827
0.622528 0.808990 0.434814
0.660889 0.809631 0.414032
0.696533 0.810089 0.391724
0.729462 0.810394 0.368103
0.759857 0.810516 0.343445
0.787384 0.810242 0.315430
0.812714 0.809174 0.281036
0.837677 0.807526 0.241852
0.863281 0.805786 0.203400
0.890076 0.804077 0.166962
0.918121 0.802582 0.133759
0.947510 0.801270 0.104340
0.978149 0.800140 0.079285
1.000000 0.799194 0.058502
0.028961 0.794525 0.548523
0.040131 0.796356 0.550049
0.052246 0.798218 0.551453
0.065521 0.800049 0.552551
0.079926 0.801788 0.553314
0.096832 0.803650 0.553741
0.116119 0.805603 0.553833
0.138397 0.807678 0.553680
0.164276 0.809937 0.553101
0.194244 0.812469 0.552002
0.228424 0.815216 0.550171
0.266571 0.818085 0.547333
0.308197 0.821014 0.543274
0.352478 0.824066 0.537750
0.398804 0.826935 0.530396
0.445831 0.829559 0.521149
0.492737 0.831818 0.509674
0.538452 0.833832 0.496155
0.582367 0.835419 0.480469
0.623810 0.836609 0.462708
0.662720 0.837494 0.443115
