lut/retro-80s/Labyrinth (1986) - Standard.cube
# Created by Benjamin (IWLTBAP): https://luts.iwltbap.com
# Copyright: (C) Copyright 2018 Triune Films and IWLTBAP SAS
# Cannot be resold, shared or otherwise redistributed
TITLE "Triune Films 80s Retro LUTs (Rec.709, sRGB, DCI-P3)"
LUT_3D_SIZE 9
0.000000 0.000793 0.000793
0.065277 0.000153 0.000153
0.157990 0.000000 0.000000
0.266785 0.000000 0.000000
0.382324 0.000000 0.000000
0.505310 0.000000 0.000000
0.632904 0.000000 0.000000
0.763702 0.000000 0.000000
0.885651 0.000000 0.000000
0.000000 0.095245 0.056519
0.075043 0.096649 0.049591
0.190887 0.094513 0.041351
0.307007 0.086914 0.038422
0.425598 0.083191 0.035614
0.549133 0.081024 0.033264
0.677551 0.078644 0.030548
0.804688 0.076935 0.028107
0.918274 0.076813 0.026245
0.000000 0.212677 0.130981
0.064087 0.217529 0.129028
0.197266 0.227875 0.101166
0.344543 0.230072 0.078705
0.472595 0.223541 0.078430
0.596436 0.215759 0.080170
0.721344 0.208679 0.078735
0.841583 0.204468 0.076996
0.946564 0.203705 0.076477
0.000000 0.342346 0.216766
0.053802 0.348572 0.218109
0.170898 0.364594 0.208954
0.348877 0.378693 0.151306
0.495026 0.375885 0.106262
0.626984 0.373260 0.095367
0.751495 0.369843 0.105957
0.867676 0.368164 0.118317
0.969238 0.369080 0.128815
0.000610 0.476349 0.307648
0.052032 0.483307 0.311768
0.152710 0.498505 0.311768
0.326843 0.517456 0.281738
0.503876 0.523834 0.202393
0.635437 0.514313 0.124390
0.762299 0.511200 0.093964
0.882843 0.511780 0.098267
0.991211 0.513763 0.120605
0.007355 0.609436 0.404449
0.059479 0.617584 0.411652
0.149658 0.629913 0.414124
0.308411 0.646698 0.398987
0.497589 0.657471 0.342957
0.649261 0.657135 0.245392
0.766144 0.645538 0.131897
0.888184 0.640320 0.074524
1.000000 0.639862 0.060089
0.022003 0.735718 0.503265
0.072449 0.743713 0.509369
0.156647 0.753143 0.510101
0.303986 0.765900 0.499207
0.491699 0.776855 0.459534
0.659241 0.781128 0.383789
0.781921 0.779755 0.274872
0.888702 0.771637 0.133362
1.000000 0.766876 0.047821
0.036682 0.850311 0.590424
0.089447 0.856598 0.593842
0.175415 0.863678 0.592865
0.316254 0.873505 0.584045
0.496796 0.884064 0.555450
0.666687 0.891083 0.497650
0.798950 0.894135 0.412933
0.899078 0.895264 0.298218
1.000000 0.894257 0.138824
0.054810 0.954773 0.666809
0.115143 0.959045 0.667603
0.206238 0.964081 0.665344
0.342468 0.972168 0.657959
0.512177 0.982758 0.637848
0.677307 0.992310 0.596313
0.811493 0.998505 0.531403
0.914520 1.000000 0.447388
1.000000 1.000000 0.335876
0.000000 0.000793 0.036896
0.063904 0.000793 0.035553
0.158722 0.000000 0.033203
0.270386 0.000000 0.032928
0.385986 0.000000 0.034668
0.509003 0.000000 0.036957
0.636261 0.000000 0.039398
0.766724 0.000000 0.041779
0.888214 0.000000 0.043945
0.000000 0.092896 0.092041
0.067657 0.092682 0.091278
0.181427 0.086609 0.084625
0.306519 0.078217 0.076447
0.427826 0.075684 0.073975
0.552216 0.075256 0.073700
0.679779 0.074921 0.073608
0.806427 0.074341 0.073212
0.919037 0.074524 0.073334
0.000000 0.213745 0.166901
0.058502 0.218445 0.168793
0.190460 0.224182 0.152039
0.345551 0.224304 0.142578
0.474060 0.213226 0.140106
0.598480 0.206177 0.138092
0.722321 0.201904 0.136139
0.841583 0.199432 0.134491
0.945129 0.199738 0.134766
0.000000 0.347168 0.255554
0.048248 0.354706 0.258667
0.155304 0.366211 0.255127
0.345734 0.377625 0.211243
0.497498 0.373993 0.186646
0.629364 0.370483 0.184265
0.753143 0.366486 0.192627
0.868042 0.364685 0.200562
0.967712 0.365753 0.208191
0.001007 0.483368 0.351807
0.047607 0.492218 0.356812
0.137878 0.503967 0.359039
0.312317 0.520172 0.338867
0.503540 0.525208 0.271240
0.637268 0.514099 0.214111
0.763824 0.510712 0.194855
0.883881 0.510956 0.202423
0.990936 0.512482 0.220734
0.008759 0.617340 0.452179
0.056274 0.626984 0.459137
0.137390 0.636993 0.462402
0.290497 0.650299 0.451935
0.489288 0.660339 0.405273
0.650055 0.658783 0.318146
0.767303 0.645416 0.226685
0.888885 0.640076 0.184235
1.000000 0.639648 0.176422
0.022705 0.742950 0.548737
0.069000 0.751648 0.554321
0.146576 0.759552 0.556335
0.286713 0.769135 0.548248
0.478699 0.778839 0.515747
0.656067 0.783020 0.448639
0.782776 0.780792 0.350433
0.889404 0.771515 0.232056
1.000000 0.766663 0.164368
0.036591 0.855957 0.632507
0.086273 0.862671 0.636078
0.167328 0.868561 0.636475
0.301910 0.875641 0.629486
0.482727 0.884552 0.606262
0.660522 0.891754 0.556366
0.798096 0.895020 0.479767
0.899567 0.895752 0.376129
1.000000 0.894226 0.239807
0.053772 0.958984 0.706268
0.112549 0.963684 0.707825
0.200348 0.967651 0.706818
0.330811 0.973083 0.700562
0.499023 0.981659 0.683990
0.669556 0.991516 0.649200
0.809082 0.998596 0.591827
0.914124 1.000000 0.515076
1.000000 1.000000 0.413605
0.000000 0.005188 0.080750
0.057190 0.004486 0.080444
0.152283 0.003265 0.076691
0.269043 0.001282 0.070923
0.384247 0.000214 0.067871
0.505768 0.000000 0.070801
0.632904 0.000000 0.076111
0.764038 0.000000 0.081665
0.886505 0.000000 0.087067
0.000000 0.091217 0.135559
0.057404 0.091400 0.137634
0.163666 0.083008 0.129059
0.298737 0.070770 0.114044
0.425262 0.066010 0.108093
0.551575 0.066589 0.110199
0.679138 0.068237 0.114075
0.805756 0.069550 0.117798
0.917877 0.070801 0.121643
0.000000 0.211273 0.210815
0.051422 0.217255 0.216461
0.158173 0.213379 0.212341
0.325195 0.200317 0.199249
0.468079 0.189056 0.188324
0.597290 0.186584 0.186096
0.722107 0.187714 0.187347
0.840546 0.189575 0.189362
0.942474 0.192566 0.192566
0.000000 0.349304 0.302368
0.044098 0.360199 0.309113
0.134399 0.368408 0.313171
0.331238 0.372711 0.286957
0.496643 0.368805 0.273041
0.630585 0.361786 0.273102
0.754547 0.356903 0.275940
0.867828 0.356049 0.279602
0.964783 0.358154 0.284332
0.001404 0.488831 0.400787
0.045227 0.501038 0.408325
0.121704 0.512146 0.414032
0.285461 0.523102 0.403778
0.498016 0.524658 0.347046
0.638092 0.512268 0.306152
0.765228 0.509338 0.298096
0.884583 0.508881 0.309387
0.988831 0.509705 0.322906
0.009186 0.623871 0.500549
0.054688 0.635986 0.508850
0.126465 0.646179 0.514893
0.263641 0.655731 0.509949
0.471436 0.663177 0.472321
0.648926 0.659760 0.395447
0.768066 0.644318 0.321381
0.889618 0.639435 0.294495
1.000000 0.639526 0.296021
0.021973 0.748932 0.593689
0.067596 0.759125 0.600555
0.139374 0.767548 0.605499
0.265747 0.774414 0.601349
0.456421 0.781372 0.575470
0.648376 0.784912 0.516937
0.783051 0.781586 0.428741
0.890106 0.770844 0.330048
1.000000 0.766205 0.280365
0.035522 0.860809 0.674774
0.085754 0.868652 0.679535
0.162933 0.874878 0.682587
0.286652 0.879700 0.678558
0.462219 0.885620 0.659943
0.648987 0.892242 0.617950
0.795654 0.895844 0.548950
0.899841 0.896118 0.455017
1.000000 0.893982 0.340027
0.053284 0.962646 0.746490
0.112762 0.968140 0.749176
0.197906 0.972290 0.750366
0.319977 0.975586 0.746277
0.482056 0.981171 0.732666
0.656952 0.989990 0.703888
0.804352 0.998169 0.654266
0.913208 1.000000 0.584351
1.000000 1.000000 0.492126
0.000000 0.017120 0.128998
0.048248 0.017303 0.131714
0.133179 0.014374 0.128693
0.254791 0.009094 0.119965
0.380524 0.004242 0.112030
0.504120 0.001068 0.107788
0.627655 0.000000 0.107758
0.757355 0.000000 0.114471
0.880585 0.000000 0.123322
0.000000 0.097137 0.182648
0.046234 0.097382 0.187866
0.137115 0.091400 0.184448
0.278656 0.078094 0.169006
0.420502 0.067078 0.153473
0.551971 0.061737 0.145172
0.678131 0.060791 0.144684
0.803619 0.062592 0.151093
0.915222 0.064697 0.159393
0.000000 0.211670 0.256866
0.043793 0.215179 0.264832
0.130737 0.210815 0.264374
0.290802 0.191711 0.245850
0.456818 0.171326 0.222290
0.596039 0.164398 0.212402
0.723206 0.167999 0.217072
0.840820 0.174683 0.226013
0.940155 0.181335 0.235107
0.000000 0.350311 0.350128
0.042816 0.360626 0.360474
0.121063 0.367706 0.367615
0.281281 0.362885 0.363037
0.479797 0.346344 0.346710
0.630402 0.335510 0.335846
0.756958 0.334991 0.335358
0.868561 0.339417 0.339813
0.961060 0.345612 0.345947
0.001862 0.491638 0.448639
0.046326 0.505219 0.459686
0.116302 0.518341 0.468719
0.253845 0.527740 0.475250
0.482056 0.523376 0.441132
0.637970 0.509705 0.410461
0.768921 0.505157 0.408722
0.885803 0.503418 0.414032
0.984222 0.504211 0.420044
0.010590 0.627380 0.546539
0.057739 0.640961 0.557098
0.124786 0.653748 0.565277
0.239929 0.663971 0.570221
0.444794 0.668274 0.551270
0.645050 0.660675 0.485992
0.769623 0.642944 0.428253
0.890656 0.638885 0.410645
1.000000 0.639099 0.418732
0.023529 0.752167 0.637299
0.071442 0.763672 0.645844
0.140869 0.774353 0.652344
0.248474 0.782104 0.654572
0.426453 0.786438 0.641113
0.634552 0.787598 0.593842
0.783386 0.782440 0.517365
0.891418 0.769684 0.433960
1.000000 0.765594 0.397095
0.037384 0.863617 0.716461
0.090179 0.872437 0.722656
0.166290 0.880310 0.726868
0.276337 0.885651 0.727356
0.436066 0.889008 0.716187
0.629242 0.893219 0.683258
0.790680 0.896820 0.624786
0.900665 0.896393 0.543152
1.000000 0.893433 0.440155
0.055176 0.964966 0.786774
0.116852 0.971222 0.790466
0.201630 0.976501 0.792450
0.314514 0.979797 0.791748
0.462158 0.982544 0.782501
0.636200 0.988434 0.759613
0.794952 0.997101 0.718903
0.911316 1.000000 0.658264
1.000000 1.000000 0.576141
0.000000 0.034454 0.178345
0.041321 0.035767 0.183075
0.113251 0.033905 0.183441
0.232544 0.028290 0.176727
0.368896 0.017822 0.165131
0.501740 0.007660 0.154358
0.631165 0.002167 0.148895
0.760651 0.000549 0.147919
0.878601 0.000000 0.150513
0.000000 0.109497 0.230530
0.040192 0.110291 0.236908
0.114807 0.107513 0.238281
0.248077 0.097595 0.229034
0.404755 0.081635 0.210693
0.550446 0.067566 0.193726
0.683746 0.060913 0.185059
0.808228 0.058655 0.182495
0.914612 0.058929 0.184418
0.000000 0.216217 0.301941
0.040619 0.218689 0.309814
0.111237 0.215363 0.312897
0.253113 0.202728 0.303497
0.435974 0.181671 0.280396
0.595886 0.166016 0.260040
0.730469 0.161377 0.251617
0.846344 0.163391 0.251312
0.940216 0.169189 0.258362
0.000916 0.352142 0.395050
0.045105 0.359711 0.405518
0.115479 0.363831 0.414124
0.251343 0.359558 0.414001
0.451447 0.340698 0.395050
0.628265 0.320526 0.371429
0.764984 0.314453 0.361969
0.874512 0.320190 0.367798
0.959900 0.330414 0.379913
0.002319 0.493134 0.493347
0.052521 0.505280 0.505524
0.122528 0.517395 0.517700
0.244568 0.527557 0.528381
0.444672 0.526703 0.527924
0.637909 0.508789 0.509583
0.780487 0.494812 0.495209
0.891571 0.491333 0.491577
0.978546 0.493988 0.494171
0.013275 0.628052 0.588959
0.065826 0.641266 0.600739
0.134430 0.655121 0.612030
0.239868 0.668457 0.622162
0.424164 0.676910 0.629883
0.637360 0.666077 0.593262
0.772583 0.644348 0.545593
0.893799 0.639343 0.538574
0.999481 0.637573 0.542725
0.027802 0.752472 0.677704
0.080902 0.764160 0.687408
0.151764 0.776306 0.696228
0.250397 0.787292 0.702026
0.413116 0.794159 0.706238
0.622955 0.793335 0.683289
0.783691 0.784515 0.621002
0.893707 0.769318 0.552979
1.000000 0.765594 0.528564
0.042633 0.863922 0.755859
0.100098 0.873291 0.763092
0.177307 0.882568 0.768982
0.278473 0.890259 0.771210
0.423645 0.894714 0.771179
0.614960 0.896332 0.755676
0.785797 0.897705 0.710175
0.901855 0.896423 0.641113
1.000000 0.892700 0.557434
0.060547 0.965485 0.825439
0.125977 0.972229 0.830048
0.211121 0.978607 0.833282
0.316711 0.983459 0.833160
0.450104 0.986237 0.830475
0.620361 0.988708 0.818909
0.785645 0.995239 0.789185
0.909271 1.000000 0.738708
1.000000 1.000000 0.668579
0.000000 0.055206 0.230865
0.036743 0.056732 0.236603
0.098724 0.056976 0.239655
0.211731 0.052765 0.237061
0.354645 0.041534 0.226044
0.498505 0.024994 0.209137
0.638306 0.010315 0.195343
0.771637 0.002380 0.189453
0.887360 0.000061 0.189362
0.000000 0.124756 0.279877
0.036774 0.126465 0.286835
0.100983 0.125732 0.290680
0.223969 0.120148 0.287506
0.386566 0.105835 0.272766
0.545868 0.084900 0.250183
0.690125 0.067596 0.231903
0.817993 0.058960 0.223419
0.921448 0.056885 0.221802
0.000793 0.224457 0.347290
0.038422 0.227020 0.354980
0.100708 0.225861 0.359680
0.226593 0.218658 0.356873
0.410889 0.202515 0.341034
0.587952 0.180756 0.316437
0.735199 0.166138 0.298187
0.854675 0.162354 0.291656
0.945038 0.165039 0.292633
0.001678 0.356293 0.439087
0.046844 0.362457 0.448486
0.112579 0.365448 0.456665
0.231293 0.362244 0.459534
0.423218 0.349274 0.448730
0.616882 0.329071 0.425812
0.769318 0.316498 0.408722
0.882965 0.316467 0.404846
0.963348 0.323578 0.409027
0.004211 0.496033 0.536957
0.058655 0.506622 0.548584
0.131409 0.516449 0.560913
0.244293 0.524200 0.572449
0.428070 0.526276 0.576416
0.627350 0.513916 0.563110
0.787048 0.495209 0.542633
0.901550 0.485596 0.531128
0.978455 0.486298 0.531616
0.017090 0.629089 0.629578
0.075165 0.641083 0.641388
0.148163 0.653717 0.653931
0.248413 0.666992 0.667358
0.419769 0.679413 0.679993
0.624664 0.680267 0.680878
0.786560 0.662354 0.662811
0.903290 0.647064 0.647430
0.990356 0.638977 0.639252
0.034607 0.751678 0.715515
0.093689 0.762634 0.725464
0.167358 0.774475 0.735779
0.261322 0.786957 0.745636
0.416443 0.798096 0.755585
0.617096 0.803131 0.760742
0.785034 0.792267 0.728271
0.897095 0.772675 0.677155
1.000000 0.767792 0.666473
0.050690 0.862762 0.792511
0.113525 0.871918 0.800232
0.192169 0.881500 0.807678
0.288391 0.890869 0.813171
0.430023 0.898438 0.817871
0.615509 0.901947 0.821228
0.785614 0.901123 0.800507
0.903809 0.897430 0.750305
1.000000 0.892639 0.683136
0.068634 0.964600 0.861938
0.137970 0.971588 0.867340
0.223755 0.978577 0.871857
0.325287 0.984924 0.873962
0.457092 0.989471 0.874298
0.624817 0.991486 0.875610
0.785583 0.994324 0.863281
0.909424 0.999969 0.828247
1.000000 1.000000 0.774567
0.000000 0.076385 0.284058
0.034119 0.078247 0.290497
0.089264 0.079407 0.295197
0.196930 0.077911 0.295990
0.344055 0.069427 0.288696
0.498322 0.051483 0.271667
0.648712 0.027832 0.250061
0.785919 0.009827 0.234497
0.898590 0.001953 0.229340
0.000000 0.141418 0.329803
0.034943 0.143402 0.336945
0.093384 0.144135 0.342194
0.209595 0.141510 0.342621
0.374420 0.131439 0.333588
0.543457 0.110321 0.312286
0.697784 0.083618 0.285828
0.829071 0.064331 0.267365
0.929199 0.056793 0.260773
0.000793 0.235046 0.394165
0.037506 0.238617 0.401398
0.095215 0.238892 0.406647
0.212433 0.234863 0.406891
0.394470 0.223633 0.397156
0.579590 0.202667 0.374908
0.737000 0.179688 0.349518
0.861145 0.166504 0.334167
0.949554 0.165222 0.331116
0.002899 0.362762 0.484070
0.047211 0.369263 0.492401
0.109467 0.372437 0.499878
0.220642 0.370789 0.503662
0.404144 0.361481 0.497742
0.601898 0.343811 0.479156
0.765564 0.326752 0.458557
0.885864 0.321014 0.448792
0.966156 0.325775 0.450226
0.006104 0.501831 0.581268
0.062866 0.511841 0.591858
0.137543 0.520416 0.603241
0.247711 0.526184 0.613983
0.417633 0.526825 0.618835
0.613220 0.518188 0.610443
0.781555 0.502533 0.592865
0.902954 0.492035 0.579803
0.980682 0.490753 0.576019
0.019409 0.633270 0.671021
0.082184 0.644348 0.682434
0.159149 0.655731 0.695099
0.260284 0.666840 0.708862
0.419250 0.677704 0.721954
0.616791 0.682678 0.726990
0.785248 0.674255 0.718079
0.907135 0.659821 0.703156
0.987579 0.649292 0.691986
0.040802 0.752716 0.752899
0.104858 0.762695 0.762787
0.181793 0.773468 0.773560
0.274567 0.785034 0.785156
0.420074 0.797363 0.797638
0.615845 0.806519 0.806824
0.787170 0.806000 0.806305
0.907318 0.792572 0.792847
0.994537 0.780457 0.780731
0.059937 0.861938 0.827728
0.127563 0.870392 0.835541
0.208313 0.879486 0.843719
0.302155 0.888916 0.851501
0.437622 0.898254 0.859406
0.620697 0.904999 0.866150
0.788239 0.907166 0.868530
0.907471 0.901672 0.845245
1.000000 0.894287 0.804291
0.078552 0.963623 0.896698
0.151917 0.970428 0.902527
0.239288 0.977295 0.907990
0.340149 0.984070 0.912140
0.470276 0.990082 0.915588
0.636322 0.993927 0.919098
0.791443 0.996002 0.921600
0.912323 0.998962 0.907867
1.000000 1.000000 0.874207
0.000000 0.096680 0.336334
0.032654 0.098663 0.342865
0.084442 0.100067 0.348267
0.189301 0.100342 0.351074
0.340912 0.095856 0.348694
0.503357 0.081146 0.336517
0.659882 0.053711 0.312195
0.799774 0.025238 0.286285
0.909393 0.007843 0.271759
0.000000 0.157959 0.379547
0.034119 0.160522 0.386780
0.090271 0.161743 0.392365
0.203857 0.160797 0.394684
0.371338 0.154663 0.390625
0.546143 0.136719 0.374329
0.705383 0.106873 0.345581
0.838715 0.077850 0.317383
0.935913 0.061432 0.302185
0.000793 0.247253 0.442291
0.036469 0.251343 0.449066
0.092773 0.252838 0.453735
0.207336 0.250366 0.454895
0.388580 0.242279 0.448822
0.576324 0.224426 0.430847
0.738037 0.198639 0.403809
0.865204 0.177521 0.381012
0.952576 0.170227 0.371948
0.003387 0.371826 0.530060
0.045868 0.378510 0.537598
0.106659 0.382538 0.544006
0.215851 0.381683 0.547516
0.396301 0.374542 0.543640
0.592407 0.359741 0.528961
0.759308 0.342133 0.508881
0.884216 0.331665 0.495117
0.966248 0.333069 0.493408
0.008759 0.510498 0.626373
0.065094 0.520203 0.635925
0.140503 0.528412 0.646210
0.252167 0.533325 0.655701
0.415253 0.532776 0.660126
0.602905 0.524658 0.654144
0.771851 0.511322 0.639526
0.898254 0.501190 0.626953
0.979309 0.499237 0.622375
0.021484 0.641083 0.714081
0.086060 0.651733 0.725067
0.165894 0.662201 0.737335
0.272034 0.671661 0.750427
0.424194 0.679047 0.762146
0.610657 0.682739 0.767212
0.777710 0.677917 0.761780
0.903076 0.667206 0.750244
0.986786 0.657837 0.740021
0.043762 0.756989 0.791779
0.111237 0.766418 0.801605
0.191162 0.776306 0.812408
0.287872 0.786652 0.824402
0.427155 0.797028 0.836700
0.614441 0.806244 0.846313
0.783020 0.808716 0.848450
0.906952 0.802704 0.842194
0.991119 0.792694 0.832092
0.068146 0.862946 0.863007
0.139709 0.870697 0.870758
0.223724 0.879120 0.879150
0.319916 0.887817 0.887878
0.449585 0.896698 0.896820
0.625153 0.904877 0.905060
0.788940 0.909363 0.909515
0.912506 0.908447 0.908661
0.998505 0.901672 0.901825
0.090118 0.963135 0.930420
0.168396 0.969666 0.936371
0.260529 0.976257 0.942383
0.364349 0.982666 0.947784
0.489655 0.988861 0.952759
0.647552 0.994110 0.957794
0.797363 0.997681 0.961487
0.916534 1.000000 0.964050
1.000000 1.000000 0.952606
0.000000 0.115265 0.386169
0.032379 0.117065 0.392578
0.083160 0.118713 0.398132
0.188171 0.119873 0.402832
0.344971 0.118408 0.405060
0.512238 0.108063 0.398224
0.670532 0.082611 0.376312
0.810333 0.048889 0.345123
0.916931 0.020386 0.319855
0.000000 0.173767 0.428741
0.033783 0.176300 0.436005
0.089447 0.177704 0.441742
0.204620 0.177734 0.445190
0.376099 0.173798 0.443970
0.552856 0.160034 0.432373
0.712341 0.132751 0.406494
0.845276 0.099182 0.373962
0.940033 0.073914 0.349243
0.000000 0.260040 0.490326
0.035706 0.264008 0.496735
0.091461 0.265808 0.500732
0.208405 0.264343 0.501495
0.390839 0.257751 0.496796
0.578369 0.242981 0.482544
0.739838 0.219208 0.458160
0.867188 0.195038 0.432526
0.953827 0.181641 0.417297
0.003326 0.382629 0.576111
0.044220 0.389160 0.583099
0.104279 0.393494 0.588409
0.216003 0.393372 0.591003
0.396332 0.387177 0.587524
0.589539 0.374664 0.575562
0.755066 0.358734 0.557953
0.881348 0.346893 0.543518
0.964935 0.344849 0.538757
0.010712 0.520844 0.671478
0.066589 0.530365 0.680206
0.142487 0.538422 0.689453
0.256958 0.542908 0.697632
0.418762 0.541992 0.701324
0.599091 0.533905 0.696503
0.764374 0.522125 0.684570
0.892212 0.512909 0.673340
0.976379 0.509888 0.668030
0.023834 0.651489 0.758209
0.088165 0.661835 0.768646
0.169525 0.671600 0.780365
0.281616 0.679871 0.792328
0.432526 0.684509 0.802368
0.608521 0.685150 0.806274
0.771454 0.680878 0.801849
0.897827 0.672729 0.792725
0.984467 0.664490 0.783539
0.044556 0.764435 0.832397
0.112976 0.773529 0.842133
0.194275 0.782745 0.852783
0.296600 0.791870 0.864380
0.435181 0.799866 0.875885
0.614471 0.806519 0.883850
0.779297 0.809143 0.886017
0.903534 0.805573 0.882019
0.990112 0.797974 0.874054
0.072357 0.866272 0.899170
0.147186 0.873566 0.906921
0.234283 0.881287 0.915314
0.335052 0.889099 0.924255
0.462646 0.896637 0.933136
0.629944 0.903931 0.940948
0.788879 0.909027 0.945801
0.911224 0.909973 0.946564
0.996704 0.906647 0.943054
0.102051 0.963928 0.963867
0.185272 0.969879 0.969879
0.283356 0.976044 0.976044
0.391632 0.981964 0.981964
0.511841 0.987518 0.987518
0.658844 0.993164 0.993195
0.802216 0.997833 0.997864
0.917999 1.000000 1.000000
1.000000 1.000000 1.000000
