lut/retro-80s/Poltergeist (1982) - Standard.cube
# Created by Benjamin (IWLTBAP): https://luts.iwltbap.com
# Copyright: (C) Copyright 2018 Triune Films and IWLTBAP SAS
# Cannot be resold, shared or otherwise redistributed
TITLE "Triune Films 80s Retro LUTs (Rec.709, sRGB, DCI-P3)"
LUT_3D_SIZE 9
0.007141 0.008850 0.008575
0.065369 0.006653 0.000092
0.162628 0.006348 0.000031
0.276154 0.005157 0.000000
0.359314 0.004059 0.000000
0.418732 0.004578 0.000000
0.471619 0.005859 0.000000
0.527344 0.006683 0.000000
0.588409 0.007965 0.000000
0.016266 0.060425 0.022003
0.078888 0.059509 0.004913
0.179443 0.057770 0.000275
0.290314 0.055695 0.000275
0.376862 0.057098 0.000244
0.446899 0.059845 0.000183
0.513397 0.062134 0.000061
0.582275 0.067169 0.000000
0.655609 0.073334 0.000000
0.035339 0.156403 0.053833
0.086823 0.160126 0.044647
0.199951 0.164124 0.000885
0.322968 0.177490 0.000946
0.426117 0.183319 0.001007
0.508942 0.186829 0.000946
0.583405 0.191803 0.000885
0.657166 0.197449 0.000824
0.732666 0.203094 0.000732
0.052460 0.266663 0.088867
0.089050 0.276550 0.086761
0.192749 0.282684 0.055756
0.338043 0.296631 0.001587
0.458405 0.322235 0.002380
0.567657 0.334747 0.002960
0.661285 0.337860 0.003082
0.743774 0.339661 0.003143
0.822449 0.343567 0.003357
0.064911 0.352814 0.111206
0.090332 0.363159 0.110840
0.171234 0.380554 0.095947
0.327118 0.394470 0.050690
0.460999 0.425079 0.004028
0.582733 0.460968 0.005798
0.701385 0.476959 0.006012
0.812531 0.483795 0.006378
0.905365 0.483490 0.006927
0.072693 0.421143 0.123749
0.091461 0.433411 0.126251
0.150909 0.453796 0.113312
0.295319 0.477325 0.089661
0.448761 0.501099 0.039215
0.574554 0.550476 0.016357
0.706818 0.597290 0.018005
0.837860 0.618347 0.009918
0.967926 0.630066 0.007599
0.075470 0.486084 0.130829
0.088959 0.505341 0.135925
0.132904 0.519287 0.122681
0.252869 0.555176 0.104218
0.420807 0.576813 0.073486
0.559326 0.620697 0.029724
0.694641 0.686157 0.047516
0.838318 0.740570 0.038452
0.980438 0.765137 0.018738
0.068176 0.579315 0.125000
0.083038 0.618896 0.128937
0.131409 0.623840 0.119171
0.231140 0.666229 0.100525
0.397705 0.695923 0.079712
0.553589 0.727600 0.046051
0.691345 0.778534 0.069672
0.829956 0.839386 0.083008
0.972534 0.885345 0.059692
0.061340 0.728333 0.113617
0.094330 0.755157 0.139404
0.154541 0.771179 0.128998
0.246643 0.810333 0.102570
0.400360 0.846344 0.079834
0.567200 0.869934 0.075256
0.708069 0.902740 0.097900
0.837799 0.945312 0.123718
0.960968 0.982208 0.146790
0.006042 0.017822 0.044983
0.062531 0.019165 0.050598
0.170532 0.000244 0.023926
0.290375 0.000183 0.015015
0.381927 0.000458 0.009186
0.449158 0.000977 0.007294
0.510529 0.001495 0.006042
0.574371 0.002869 0.005676
0.642303 0.003235 0.005676
0.007446 0.070038 0.062256
0.066895 0.075348 0.066040
0.190735 0.061676 0.035309
0.306854 0.054138 0.005646
0.400299 0.055908 0.006165
0.475494 0.057678 0.006683
0.544891 0.058807 0.007080
0.615936 0.062897 0.007416
0.690369 0.064514 0.007599
0.021820 0.163544 0.091156
0.074188 0.173004 0.096069
0.200043 0.181000 0.076660
0.339264 0.186523 0.037537
0.440155 0.187469 0.026062
0.524719 0.189545 0.022095
0.601654 0.193939 0.020508
0.677979 0.199341 0.019897
0.755951 0.204376 0.019531
0.042633 0.273132 0.121155
0.079437 0.286285 0.127106
0.184937 0.298492 0.114899
0.345367 0.312561 0.078674
0.469604 0.332397 0.052490
0.576080 0.341949 0.059296
0.668671 0.343658 0.054932
0.752106 0.346252 0.050110
0.833252 0.350739 0.047211
0.058777 0.359406 0.141083
0.083527 0.372314 0.146698
0.163147 0.393585 0.141785
0.325409 0.410706 0.114807
0.470490 0.439270 0.085602
0.591431 0.470886 0.075256
0.708740 0.484436 0.084229
0.818634 0.490082 0.085083
0.911865 0.490448 0.080597
0.068817 0.428375 0.151825
0.086365 0.442780 0.159363
0.145813 0.465759 0.153687
0.290283 0.492554 0.138306
0.453461 0.515869 0.113525
0.584290 0.563446 0.090363
0.715027 0.606598 0.096008
0.845184 0.625519 0.097595
0.974640 0.636292 0.097107
0.072479 0.493805 0.157135
0.084106 0.516022 0.167511
0.129639 0.530975 0.159149
0.248260 0.570068 0.146912
0.421722 0.593140 0.128510
0.566284 0.635620 0.105713
0.704376 0.698486 0.107147
0.846436 0.749237 0.115051
0.987610 0.772186 0.103516
0.065491 0.589661 0.154327
0.080231 0.632050 0.166656
0.130829 0.637817 0.158936
0.230255 0.681458 0.145905
0.398590 0.712433 0.131775
0.559784 0.743225 0.110809
0.701324 0.792633 0.118317
0.839447 0.850464 0.142395
0.980560 0.893768 0.128052
0.061188 0.741882 0.150879
0.095062 0.763763 0.187103
0.157440 0.782532 0.179993
0.255524 0.822571 0.159515
0.412964 0.857361 0.148438
0.580780 0.881866 0.142975
0.722076 0.915222 0.158752
0.850983 0.955170 0.198395
0.968262 0.988647 0.241272
0.007294 0.037415 0.087555
0.048187 0.055634 0.126801
0.184052 0.045685 0.149994
0.319122 0.006134 0.128998
0.395874 0.000000 0.117584
0.458527 0.000244 0.113251
0.520142 0.000671 0.108032
0.584351 0.001221 0.104095
0.653076 0.001862 0.100494
0.007874 0.086243 0.111389
0.047394 0.104675 0.142456
0.182617 0.108398 0.166351
0.333466 0.080414 0.146790
0.430664 0.059875 0.133087
0.502075 0.043823 0.127380
0.566467 0.023376 0.121399
0.630920 0.007507 0.113770
0.698273 0.008820 0.113953
0.006866 0.175323 0.144592
0.042755 0.194641 0.170074
0.172089 0.211792 0.193848
0.348969 0.204803 0.184906
0.464020 0.195129 0.167938
0.550568 0.192383 0.160065
0.628357 0.190399 0.154419
0.705658 0.186310 0.146423
0.784302 0.177673 0.131958
0.008575 0.282990 0.173859
0.042511 0.302460 0.194855
0.149261 0.327850 0.217316
0.345276 0.341888 0.212585
0.483917 0.351196 0.213837
0.591522 0.353027 0.208099
0.683838 0.352417 0.198151
0.769073 0.352417 0.187012
0.853455 0.351837 0.169037
0.029541 0.371948 0.194031
0.051300 0.388794 0.210907
0.131165 0.418671 0.230865
0.310730 0.443909 0.231873
0.481781 0.465118 0.227081
0.604218 0.486786 0.231995
0.720795 0.495117 0.230896
0.826294 0.496277 0.224121
0.920471 0.495239 0.206055
0.045563 0.443420 0.206085
0.058075 0.461090 0.222992
0.119019 0.489014 0.237946
0.268188 0.525482 0.244904
0.456757 0.547913 0.240021
0.597961 0.586670 0.245331
0.726440 0.619568 0.245575
0.853302 0.632050 0.239960
0.978455 0.638550 0.234528
0.053101 0.510864 0.212646
0.056305 0.536987 0.233856
0.106110 0.553894 0.240814
0.224854 0.601013 0.252106
0.413116 0.628510 0.247009
0.575745 0.663239 0.252686
0.716614 0.717102 0.263702
0.854248 0.757324 0.257416
0.991089 0.773987 0.245117
0.049103 0.606598 0.219727
0.055359 0.651520 0.246643
0.109650 0.658630 0.247955
0.209381 0.704834 0.257111
0.380463 0.742401 0.255524
0.558960 0.769989 0.259308
0.707458 0.811768 0.271729
0.846802 0.861267 0.282013
0.984253 0.896912 0.266602
0.042664 0.754059 0.237213
0.061584 0.782837 0.284180
0.124207 0.801483 0.285645
0.230896 0.839661 0.282593
0.387695 0.878937 0.283569
0.568695 0.904785 0.290985
0.721069 0.932953 0.310791
0.853943 0.967194 0.338409
0.972687 0.990692 0.374725
0.013000 0.062866 0.137512
0.039734 0.091217 0.195251
0.166351 0.104523 0.277557
0.336609 0.071259 0.289429
0.429840 0.045471 0.279297
0.489594 0.023926 0.265350
0.536957 0.005707 0.248352
0.583923 0.000488 0.235840
0.643616 0.001099 0.231384
0.013947 0.106995 0.162994
0.037018 0.134033 0.211609
0.156952 0.157867 0.290985
0.343292 0.135651 0.310455
0.452576 0.112549 0.299255
0.523193 0.096283 0.291504
0.583191 0.078369 0.284302
0.644531 0.055237 0.277039
0.704773 0.010132 0.266022
0.007416 0.189636 0.203674
0.023682 0.215637 0.243652
0.131531 0.252258 0.314789
0.345978 0.253204 0.346954
0.486359 0.232544 0.329193
0.571686 0.220490 0.318787
0.644775 0.210480 0.313934
0.718201 0.199097 0.309296
0.793640 0.182129 0.302277
0.002563 0.293427 0.238068
0.006439 0.316833 0.270355
0.099274 0.358337 0.329590
0.321594 0.385132 0.372925
0.499573 0.375488 0.364410
0.606537 0.369019 0.353333
0.695099 0.366058 0.347656
0.779358 0.362549 0.342712
0.863525 0.356232 0.335480
0.000366 0.383636 0.260315
0.003998 0.402435 0.284119
0.078522 0.442291 0.330902
0.280792 0.483002 0.375275
0.490723 0.495392 0.378693
0.614899 0.500702 0.372833
0.726685 0.503296 0.370331
0.827454 0.503143 0.367218
0.921326 0.501862 0.361511
0.002655 0.458466 0.274475
0.004333 0.476349 0.294373
0.064728 0.510468 0.329132
0.238281 0.560272 0.372131
0.457520 0.583679 0.384796
0.610535 0.607269 0.385284
0.734100 0.628510 0.380707
0.858856 0.637604 0.376617
0.978271 0.640839 0.374481
0.005035 0.529083 0.283051
0.004913 0.554688 0.305115
0.047760 0.575623 0.326935
0.193481 0.631409 0.368591
0.403076 0.667236 0.382782
0.585205 0.692841 0.390228
0.727478 0.732910 0.396881
0.860748 0.764221 0.389038
0.992188 0.776978 0.379669
0.005127 0.626709 0.297913
0.017822 0.671539 0.328735
0.052246 0.679352 0.337921
0.176971 0.728424 0.368622
0.364044 0.774170 0.385681
0.557159 0.799988 0.389313
0.715027 0.831909 0.402435
0.854187 0.872131 0.411682
0.989227 0.901642 0.398621
0.021027 0.772644 0.328400
0.064087 0.800903 0.372772
0.120270 0.819763 0.380585
0.190948 0.856018 0.392487
0.372772 0.898895 0.407013
0.560425 0.925476 0.411560
0.722076 0.948822 0.429382
0.858032 0.976440 0.455505
0.975586 0.991547 0.490875
0.017212 0.086884 0.184509
0.037537 0.119354 0.247711
0.146942 0.145874 0.357056
0.338348 0.116669 0.394379
0.439117 0.090210 0.393341
0.499908 0.076019 0.390869
0.551025 0.059967 0.383850
0.599335 0.036957 0.373749
0.646576 0.006317 0.359894
0.017090 0.127014 0.209503
0.034393 0.157654 0.263519
0.135803 0.192291 0.369202
0.338623 0.176453 0.421814
0.457703 0.152161 0.418335
0.528961 0.138000 0.417694
0.588531 0.122620 0.414429
0.644745 0.102081 0.409485
0.702301 0.072662 0.402679
0.008698 0.203552 0.254028
0.021454 0.232666 0.299744
0.110992 0.278961 0.393097
0.330658 0.292175 0.467468
0.489258 0.272766 0.463654
0.579437 0.258179 0.453583
0.651001 0.243958 0.447571
0.717560 0.226074 0.441650
0.786041 0.202484 0.435425
0.003143 0.302399 0.297638
0.005463 0.328064 0.334503
0.069183 0.377747 0.411530
0.300232 0.418884 0.493805
0.505127 0.416168 0.508453
0.621613 0.399567 0.489441
0.705139 0.385773 0.476318
0.782684 0.371796 0.467163
0.861389 0.355469 0.458008
0.000031 0.392609 0.322540
0.003174 0.413147 0.350311
0.028870 0.456238 0.411591
0.260223 0.510529 0.489990
0.490173 0.528076 0.523895
0.627075 0.517914 0.509491
0.729431 0.510803 0.497711
0.822113 0.504974 0.489777
0.912567 0.497650 0.480927
0.000275 0.470215 0.337524
0.003571 0.488373 0.358521
0.007507 0.521881 0.402649
0.215515 0.581787 0.473419
0.455536 0.612000 0.515747
0.619934 0.623718 0.519409
0.738373 0.633057 0.508636
0.855835 0.637482 0.504486
0.965118 0.636658 0.500488
0.001129 0.543549 0.347015
0.004974 0.568542 0.367920
0.011902 0.589691 0.396484
0.165161 0.649353 0.457581
0.398865 0.693329 0.499695
0.593475 0.712860 0.517242
0.733368 0.740509 0.521545
0.861969 0.764740 0.513702
0.991730 0.775543 0.508209
0.004639 0.644623 0.370697
0.022278 0.688202 0.404572
0.057495 0.696503 0.415955
0.136322 0.742889 0.456573
0.355225 0.794037 0.494293
0.558777 0.819519 0.508911
0.719421 0.843506 0.522186
0.856842 0.875763 0.530029
0.990173 0.901550 0.520782
0.024902 0.788727 0.415039
0.069519 0.814514 0.455963
0.126556 0.833496 0.466431
0.192627 0.868927 0.484924
0.364990 0.911926 0.511292
0.558838 0.938660 0.523499
0.724152 0.958221 0.542053
0.860748 0.980560 0.568329
0.975952 0.991425 0.607697
0.019196 0.107300 0.227875
0.036102 0.142517 0.294128
0.135651 0.175751 0.412872
0.337097 0.151489 0.463898
0.446869 0.118347 0.459625
0.507355 0.103210 0.465027
0.556000 0.090973 0.464996
0.603943 0.075348 0.460358
0.651642 0.051056 0.453461
0.017731 0.146210 0.252960
0.033081 0.178497 0.308990
0.125275 0.218658 0.424713
0.333405 0.208527 0.497467
0.463287 0.177826 0.491669
0.533386 0.162781 0.495758
0.590240 0.150787 0.498352
0.645416 0.134888 0.496857
0.700073 0.111786 0.493164
0.009125 0.218109 0.298401
0.020477 0.249542 0.347198
0.105530 0.299988 0.449677
0.322968 0.318787 0.548615
0.489685 0.298798 0.553223
0.579254 0.285248 0.545258
0.649384 0.274445 0.544403
0.715698 0.258759 0.541626
0.779327 0.236206 0.537506
0.003418 0.313690 0.350037
0.005432 0.339233 0.388275
0.062622 0.393768 0.474182
0.295471 0.441467 0.575500
0.502380 0.443512 0.608612
0.622406 0.428436 0.594849
0.707642 0.413361 0.583344
0.783905 0.395599 0.573639
0.855194 0.372162 0.562805
0.000031 0.398743 0.380615
0.003204 0.420319 0.410736
0.008392 0.468903 0.481903
0.256622 0.530090 0.575500
0.489410 0.553009 0.625122
0.636841 0.547180 0.623596
0.737030 0.531006 0.604431
0.821167 0.513367 0.588867
0.904327 0.493042 0.574860
0.000397 0.476685 0.396484
0.003693 0.495514 0.419891
0.007660 0.534210 0.474579
0.207733 0.597321 0.559265
0.456726 0.633331 0.616791
0.626923 0.641052 0.632904
0.742249 0.636841 0.623444
0.844055 0.631531 0.613739
0.944824 0.625183 0.604370
0.001465 0.553406 0.405792
0.005341 0.576935 0.428436
0.015381 0.601562 0.464386
0.146118 0.661591 0.534851
0.401428 0.711334 0.595734
0.601410 0.729248 0.625946
0.738281 0.744812 0.634399
0.860962 0.762726 0.633118
0.986359 0.771271 0.631622
0.005524 0.658722 0.439789
0.027100 0.701904 0.478180
0.063721 0.709351 0.490448
0.110474 0.753296 0.535278
0.355957 0.808075 0.588196
0.566315 0.834015 0.617615
0.724609 0.850586 0.634338
0.857391 0.875671 0.645813
0.988861 0.899445 0.642670
0.029419 0.802338 0.498840
0.075562 0.826385 0.536469
0.133575 0.845001 0.548889
0.200256 0.879272 0.573090
0.366913 0.922272 0.607910
0.566742 0.949005 0.632141
0.730591 0.964813 0.653076
0.864380 0.982086 0.679474
0.975739 0.990814 0.722595
0.019592 0.127899 0.271484
0.034668 0.165283 0.340790
0.128876 0.201843 0.464508
0.331146 0.185944 0.529297
0.452026 0.147797 0.515106
0.515869 0.125336 0.519928
0.564362 0.112183 0.526001
0.610016 0.099579 0.526825
0.655762 0.082458 0.523407
0.017273 0.166687 0.298187
0.031952 0.199707 0.355103
0.120331 0.242889 0.476868
0.327057 0.239716 0.566681
0.467407 0.204163 0.554047
0.540558 0.182800 0.554443
0.596710 0.170166 0.562469
0.649200 0.158325 0.566223
0.701477 0.141418 0.565704
0.007874 0.234344 0.342590
0.018951 0.268402 0.394592
0.108246 0.320892 0.503387
0.320526 0.343079 0.619659
0.492310 0.321533 0.629211
0.583466 0.304077 0.614929
0.650696 0.295349 0.618256
0.713531 0.284973 0.620880
0.775360 0.267731 0.620209
0.003174 0.326660 0.399506
0.004944 0.354309 0.440979
0.071075 0.411652 0.532990
0.302551 0.461639 0.645355
0.505157 0.464630 0.692413
0.624176 0.450256 0.677795
0.705139 0.438751 0.669922
0.779358 0.424744 0.667114
0.850647 0.403503 0.661133
0.000092 0.409637 0.439209
0.003265 0.430878 0.470367
0.010681 0.483887 0.549133
0.268219 0.548767 0.648499
0.495087 0.572296 0.705505
0.640808 0.568756 0.712708
0.738434 0.554779 0.699677
0.822144 0.536560 0.688904
0.902588 0.511108 0.676239
0.000488 0.482574 0.459106
0.003876 0.501801 0.484589
0.009247 0.547363 0.548859
0.218384 0.614655 0.641388
0.466431 0.649963 0.699127
0.635071 0.660370 0.722565
0.749603 0.652740 0.716156
0.842438 0.637482 0.702606
0.933472 0.619324 0.690704
0.001770 0.559204 0.469025
0.005951 0.582794 0.495392
0.020477 0.614075 0.539551
0.152954 0.676514 0.618652
0.414307 0.724670 0.683167
0.612335 0.745453 0.719269
0.744843 0.750244 0.729340
0.857300 0.757111 0.736023
0.965637 0.756897 0.732452
0.006561 0.669922 0.512177
0.032471 0.712860 0.557129
0.071381 0.721161 0.570007
0.119080 0.765381 0.619751
0.366943 0.818634 0.678436
0.579041 0.846405 0.716705
0.732635 0.858276 0.736115
0.858459 0.874664 0.751709
0.986267 0.896027 0.759247
0.034149 0.814880 0.582855
0.082458 0.837280 0.617828
0.141663 0.855682 0.633118
0.209320 0.889130 0.662140
0.379547 0.931152 0.702759
0.581787 0.958099 0.735352
0.741364 0.971619 0.758362
0.869476 0.982697 0.782928
0.976746 0.990173 0.829346
0.018646 0.149994 0.317932
0.033112 0.190216 0.390686
0.125946 0.228729 0.520386
0.322418 0.221375 0.602631
0.452606 0.184113 0.577759
0.521515 0.154449 0.571167
0.573151 0.134491 0.579224
0.619080 0.119507 0.585052
0.663086 0.104797 0.586578
0.015198 0.190094 0.347351
0.030731 0.223999 0.405853
0.119720 0.268677 0.533661
0.321472 0.271942 0.642456
0.468567 0.237793 0.625824
0.545959 0.210052 0.611053
0.604797 0.191254 0.619537
0.657501 0.178040 0.628510
0.707520 0.163574 0.633301
0.007294 0.253967 0.391449
0.019104 0.291290 0.447723
0.116333 0.344696 0.562042
0.322083 0.368927 0.694061
0.495483 0.347595 0.712433
0.589081 0.325470 0.683594
0.656555 0.312805 0.682465
0.717285 0.303619 0.690155
0.774994 0.291931 0.694580
0.002716 0.342255 0.450256
0.004303 0.374207 0.498474
0.092346 0.434296 0.596710
0.318939 0.483551 0.718170
0.513184 0.486450 0.781128
0.631348 0.470154 0.761749
0.708557 0.458313 0.744812
0.777679 0.448425 0.746796
0.843933 0.434296 0.748108
0.000153 0.425537 0.499054
0.003418 0.447723 0.533752
0.035522 0.504700 0.619659
0.295258 0.569824 0.721008
0.507935 0.592834 0.788544
0.649506 0.588715 0.802490
0.740784 0.576843 0.785034
0.818207 0.563904 0.779938
0.895203 0.543518 0.778717
0.000732 0.495392 0.526794
0.004211 0.514038 0.553223
0.012848 0.564728 0.626282
0.250214 0.635498 0.723022
0.484558 0.669159 0.779144
0.646332 0.679230 0.808197
0.755585 0.673279 0.808472
0.844391 0.659607 0.803070
0.932709 0.640503 0.799866
0.002228 0.566559 0.541138
0.006653 0.590424 0.571106
0.027161 0.629517 0.623596
0.190002 0.697174 0.711884
0.440582 0.740387 0.773926
0.625641 0.759888 0.808655
0.755096 0.766052 0.825714
0.858032 0.761932 0.826599
0.955048 0.753113 0.822906
0.007538 0.678284 0.595703
0.038269 0.722229 0.646118
0.080292 0.733673 0.659851
0.146484 0.781189 0.715759
0.394135 0.830017 0.775055
0.594696 0.855835 0.813782
0.744476 0.869812 0.838196
0.862335 0.876038 0.849823
0.980133 0.889435 0.865234
0.039337 0.824310 0.673889
0.090271 0.845734 0.705505
0.151031 0.866089 0.723450
0.220154 0.899841 0.756927
0.406311 0.939667 0.800354
0.600128 0.964844 0.835266
0.755188 0.979370 0.860931
0.878204 0.985199 0.880402
0.981232 0.989807 0.924652
0.016449 0.174957 0.367859
0.032288 0.217499 0.444366
0.123932 0.256042 0.575867
0.313843 0.254852 0.678802
0.451202 0.222260 0.653290
0.523468 0.191742 0.625610
0.578491 0.164612 0.628754
0.627686 0.142822 0.637238
0.672577 0.125031 0.643097
0.012268 0.217072 0.401276
0.030792 0.251801 0.462341
0.122528 0.296204 0.594818
0.318329 0.303711 0.722595
0.469177 0.273895 0.711792
0.549133 0.245331 0.674011
0.609589 0.220642 0.672913
0.665680 0.199829 0.684174
0.716675 0.183411 0.693359
0.006500 0.278870 0.446991
0.022461 0.318390 0.507294
0.131042 0.370850 0.627472
0.329712 0.395599 0.772400
0.500214 0.377380 0.803864
0.595245 0.351746 0.760010
0.661591 0.334534 0.742828
0.723328 0.321106 0.750641
0.780792 0.309601 0.760620
0.001740 0.362244 0.507660
0.004272 0.400177 0.564484
0.126801 0.462128 0.667816
0.344238 0.507568 0.795563
0.527557 0.510345 0.871826
0.642670 0.491486 0.851898
0.716125 0.476593 0.816620
0.782104 0.466034 0.814056
0.844788 0.455353 0.822021
0.000275 0.441101 0.557800
0.003723 0.470032 0.603516
0.088440 0.533417 0.697723
0.333557 0.594025 0.796417
0.529022 0.615082 0.874664
0.663788 0.610535 0.896973
0.749725 0.596344 0.866821
0.820465 0.584595 0.854156
0.891174 0.569794 0.864105
0.001190 0.513000 0.595184
0.004852 0.532593 0.625610
0.041168 0.589386 0.709839
0.299377 0.660065 0.804749
0.511566 0.691620 0.859558
0.662689 0.700470 0.896423
0.765320 0.692261 0.896973
0.846008 0.679901 0.889252
0.926361 0.667236 0.897583
0.003113 0.583374 0.620819
0.008392 0.604889 0.650787
0.037109 0.650330 0.714783
0.250183 0.722015 0.811279
0.477081 0.759918 0.867249
0.643036 0.776764 0.899139
0.765320 0.781372 0.918427
0.862823 0.777740 0.923065
0.955261 0.770538 0.928589
0.012421 0.691071 0.686737
0.045929 0.729126 0.733215
0.090790 0.749054 0.756744
0.221375 0.803406 0.824188
0.436127 0.844574 0.880829
0.615723 0.866028 0.914490
0.755249 0.879517 0.937866
0.870361 0.886383 0.952667
0.975006 0.887543 0.959869
0.044983 0.833893 0.772552
0.098450 0.855164 0.797913
0.161377 0.878204 0.821136
0.251770 0.913544 0.860291
0.444092 0.948853 0.903290
0.621399 0.970123 0.934448
0.769043 0.984924 0.958374
0.891235 0.989441 0.971191
0.992004 0.989807 0.986603
