lut/retro-80s/Poltergeist (1982) - Standard.cube
# Created by Benjamin (IWLTBAP): https://luts.iwltbap.com
# Copyright: (C) Copyright 2018 Triune Films and IWLTBAP SAS
# Cannot be resold, shared or otherwise redistributed
TITLE "Triune Films 80s Retro LUTs (Rec.709, sRGB, DCI-P3)"
LUT_3D_SIZE 5
0.007141 0.008850 0.008575
0.162628 0.006348 0.000031
0.359314 0.004059 0.000000
0.471619 0.005859 0.000000
0.588409 0.007965 0.000000
0.035339 0.156403 0.053833
0.199951 0.164124 0.000885
0.426117 0.183319 0.001007
0.583405 0.191803 0.000885
0.732666 0.203094 0.000732
0.064911 0.352814 0.111206
0.171234 0.380554 0.095947
0.460999 0.425079 0.004028
0.701385 0.476959 0.006012
0.905365 0.483490 0.006927
0.075470 0.486084 0.130829
0.132904 0.519287 0.122681
0.420807 0.576813 0.073486
0.694641 0.686157 0.047516
0.980438 0.765137 0.018738
0.061340 0.728333 0.113617
0.154541 0.771179 0.128998
0.400360 0.846344 0.079834
0.708069 0.902740 0.097900
0.960968 0.982208 0.146790
0.007294 0.037415 0.087555
0.184052 0.045685 0.149994
0.395874 0.000000 0.117584
0.520142 0.000671 0.108032
0.653076 0.001862 0.100494
0.006866 0.175323 0.144592
0.172089 0.211792 0.193848
0.464020 0.195129 0.167938
0.628357 0.190399 0.154419
0.784302 0.177673 0.131958
0.029541 0.371948 0.194031
0.131165 0.418671 0.230865
0.481781 0.465118 0.227081
0.720795 0.495117 0.230896
0.920471 0.495239 0.206055
0.053101 0.510864 0.212646
0.106110 0.553894 0.240814
0.413116 0.628510 0.247009
0.716614 0.717102 0.263702
0.991089 0.773987 0.245117
0.042664 0.754059 0.237213
0.124207 0.801483 0.285645
0.387695 0.878937 0.283569
0.721069 0.932953 0.310791
0.972687 0.990692 0.374725
0.017212 0.086884 0.184509
0.146942 0.145874 0.357056
0.439117 0.090210 0.393341
0.551025 0.059967 0.383850
0.646576 0.006317 0.359894
0.008698 0.203552 0.254028
0.110992 0.278961 0.393097
0.489258 0.272766 0.463654
0.651001 0.243958 0.447571
0.786041 0.202484 0.435425
0.000031 0.392609 0.322540
0.028870 0.456238 0.411591
0.490173 0.528076 0.523895
0.729431 0.510803 0.497711
0.912567 0.497650 0.480927
0.001129 0.543549 0.347015
0.011902 0.589691 0.396484
0.398865 0.693329 0.499695
0.733368 0.740509 0.521545
0.991730 0.775543 0.508209
0.024902 0.788727 0.415039
0.126556 0.833496 0.466431
0.364990 0.911926 0.511292
0.724152 0.958221 0.542053
0.975952 0.991425 0.607697
0.019592 0.127899 0.271484
0.128876 0.201843 0.464508
0.452026 0.147797 0.515106
0.564362 0.112183 0.526001
0.655762 0.082458 0.523407
0.007874 0.234344 0.342590
0.108246 0.320892 0.503387
0.492310 0.321533 0.629211
0.650696 0.295349 0.618256
0.775360 0.267731 0.620209
0.000092 0.409637 0.439209
0.010681 0.483887 0.549133
0.495087 0.572296 0.705505
0.738434 0.554779 0.699677
0.902588 0.511108 0.676239
0.001770 0.559204 0.469025
0.020477 0.614075 0.539551
0.414307 0.724670 0.683167
0.744843 0.750244 0.729340
0.965637 0.756897 0.732452
0.034149 0.814880 0.582855
0.141663 0.855682 0.633118
0.379547 0.931152 0.702759
0.741364 0.971619 0.758362
0.976746 0.990173 0.829346
0.016449 0.174957 0.367859
0.123932 0.256042 0.575867
0.451202 0.222260 0.653290
0.578491 0.164612 0.628754
0.672577 0.125031 0.643097
0.006500 0.278870 0.446991
0.131042 0.370850 0.627472
0.500214 0.377380 0.803864
0.661591 0.334534 0.742828
0.780792 0.309601 0.760620
0.000275 0.441101 0.557800
0.088440 0.533417 0.697723
0.529022 0.615082 0.874664
0.749725 0.596344 0.866821
0.891174 0.569794 0.864105
0.003113 0.583374 0.620819
0.037109 0.650330 0.714783
0.477081 0.759918 0.867249
0.765320 0.781372 0.918427
0.955261 0.770538 0.928589
0.044983 0.833893 0.772552
0.161377 0.878204 0.821136
0.444092 0.948853 0.903290
0.769043 0.984924 0.958374
0.992004 0.989807 0.986603
