lut/retro-80s/Poltergeist (1982) - Standard.cube
# Created by Benjamin (IWLTBAP): https://luts.iwltbap.com
# Copyright: (C) Copyright 2018 Triune Films and IWLTBAP SAS
# Cannot be resold, shared or otherwise redistributed
TITLE "Triune Films 80s Retro LUTs (Rec.709, sRGB, DCI-P3)"
LUT_3D_SIZE 33
0.007141 0.008850 0.008575
0.017670 0.008606 0.007355
0.031525 0.008179 0.005981
0.049164 0.007202 0.002808
0.065369 0.006653 0.000092
0.084167 0.006592 0.000000
0.106476 0.006714 0.000031
0.132996 0.006653 0.000031
0.162628 0.006348 0.000031
0.192322 0.006287 0.000000
0.223755 0.005585 0.000000
0.250153 0.005432 0.000000
0.276154 0.005157 0.000000
0.300232 0.004547 0.000000
0.322327 0.004272 0.000000
0.341766 0.004120 0.000000
0.359314 0.004059 0.000000
0.375824 0.004089 0.000000
0.390900 0.004028 0.000000
0.404907 0.004089 0.000000
0.418732 0.004578 0.000000
0.431793 0.004669 0.000000
0.445435 0.004578 0.000000
0.458832 0.004333 0.000000
0.471619 0.005859 0.000000
0.485352 0.005798 0.000000
0.499237 0.006226 0.000000
0.513275 0.006500 0.000000
0.527344 0.006683 0.000000
0.542297 0.006744 0.000000
0.557373 0.006958 0.000000
0.573090 0.007141 0.000000
0.588409 0.007965 0.000000
0.007660 0.016846 0.011017
0.019287 0.016022 0.007782
0.034393 0.014160 0.006409
0.051666 0.011230 0.003906
0.068756 0.009552 0.000702
0.087341 0.009399 0.000031
0.109314 0.009491 0.000031
0.136047 0.009369 0.000031
0.164215 0.009308 0.000031
0.194397 0.008972 0.000031
0.224091 0.008728 0.000031
0.252716 0.008301 0.000000
0.279510 0.007874 0.000000
0.302490 0.007538 0.000000
0.324554 0.007721 0.000000
0.342987 0.007599 0.000000
0.361755 0.007080 0.000000
0.377991 0.007477 0.000000
0.393799 0.007294 0.000000
0.409058 0.007538 0.000000
0.423676 0.007477 0.000000
0.438049 0.007263 0.000000
0.452423 0.007324 0.000000
0.466370 0.008728 0.000000
0.480591 0.008789 0.000000
0.495392 0.009094 0.000000
0.510651 0.009155 0.000000
0.525940 0.009125 0.000000
0.541168 0.009155 0.000000
0.557159 0.009277 0.000000
0.573151 0.009399 0.000000
0.589203 0.012573 0.000000
0.605591 0.015564 0.000000
0.009766 0.029144 0.013733
0.021393 0.029236 0.010956
0.036224 0.027740 0.007172
0.054443 0.026001 0.004883
0.072998 0.023132 0.001190
0.092133 0.021820 0.000092
0.114136 0.021545 0.000092
0.140289 0.021210 0.000092
0.168030 0.020752 0.000092
0.197845 0.019653 0.000092
0.227264 0.018890 0.000092
0.255341 0.018219 0.000061
0.281860 0.016663 0.000061
0.306580 0.015076 0.000061
0.327911 0.015991 0.000031
0.348236 0.014709 0.000031
0.366516 0.014771 0.000000
0.384399 0.013031 0.000000
0.400696 0.012695 0.000000
0.416016 0.013702 0.000000
0.431488 0.013275 0.000000
0.446838 0.013519 0.000000
0.461884 0.015381 0.000000
0.476837 0.016937 0.000000
0.492096 0.017609 0.000000
0.507629 0.017944 0.000000
0.523407 0.017639 0.000000
0.539398 0.017761 0.000000
0.555817 0.019470 0.000000
0.572754 0.020782 0.000000
0.589325 0.025269 0.000000
0.606628 0.027954 0.000000
0.623932 0.029816 0.000000
0.013062 0.043823 0.017365
0.024780 0.043701 0.014740
0.038544 0.043274 0.009827
0.056152 0.042053 0.006287
0.076813 0.040253 0.002167
0.096954 0.038544 0.000183
0.119568 0.038177 0.000183
0.145325 0.037720 0.000183
0.173126 0.037445 0.000153
0.201996 0.036346 0.000153
0.230743 0.036072 0.000153
0.258667 0.035309 0.000153
0.284760 0.034698 0.000122
0.308472 0.035248 0.000122
0.330902 0.034424 0.000122
0.351929 0.033112 0.000122
0.370789 0.032928 0.000122
0.388763 0.033417 0.000092
0.405823 0.033508 0.000092
0.422241 0.034271 0.000061
0.438629 0.034058 0.000031
0.454407 0.035248 0.000000
0.470673 0.035095 0.000000
0.486603 0.034882 0.000000
0.502625 0.036377 0.000000
0.518677 0.037720 0.000000
0.535400 0.038940 0.000000
0.552155 0.040131 0.000000
0.568909 0.041870 0.000000
0.586548 0.043274 0.000000
0.604401 0.044708 0.000000
0.622131 0.046692 0.000000
0.640045 0.049133 0.000000
0.016266 0.060425 0.022003
0.027618 0.060883 0.020508
0.041229 0.060638 0.016327
0.058502 0.059845 0.008087
0.078888 0.059509 0.004913
0.101501 0.058777 0.000946
0.125214 0.058350 0.000244
0.151154 0.058289 0.000275
0.179443 0.057770 0.000275
0.207916 0.057343 0.000275
0.236633 0.056610 0.000275
0.264099 0.056061 0.000275
0.290314 0.055695 0.000275
0.314087 0.056152 0.000244
0.336761 0.055908 0.000244
0.357452 0.056335 0.000244
0.376862 0.057098 0.000244
0.395081 0.057892 0.000214
0.412781 0.058594 0.000214
0.429901 0.059509 0.000183
0.446899 0.059845 0.000183
0.463440 0.060608 0.000153
0.479797 0.062073 0.000122
0.496918 0.060425 0.000092
0.513397 0.062134 0.000061
0.530518 0.062683 0.000031
0.547668 0.063751 0.000000
0.564850 0.065430 0.000000
0.582275 0.067169 0.000000
0.600952 0.066467 0.000000
0.619049 0.068420 0.000000
0.637360 0.070587 0.000000
0.655609 0.073334 0.000000
0.020782 0.080017 0.027985
0.030579 0.081665 0.027100
0.044769 0.081085 0.023773
0.060822 0.080627 0.016998
0.080841 0.080322 0.007507
0.104950 0.080688 0.002838
0.130127 0.081238 0.000610
0.157135 0.081726 0.000397
0.185669 0.082306 0.000427
0.214874 0.082794 0.000458
0.244019 0.082214 0.000458
0.271576 0.081970 0.000458
0.297485 0.081879 0.000427
0.322144 0.081696 0.000397
0.344818 0.082031 0.000397
0.365997 0.082886 0.000397
0.386322 0.083252 0.000366
0.405090 0.084595 0.000366
0.423218 0.085999 0.000336
0.441559 0.085876 0.000305
0.458862 0.086945 0.000305
0.475800 0.088104 0.000275
0.492615 0.089233 0.000275
0.509979 0.089569 0.000244
0.526917 0.090790 0.000214
0.543915 0.092560 0.000183
0.561462 0.093597 0.000183
0.580048 0.092621 0.000153
0.597656 0.094788 0.000092
0.615967 0.096527 0.000061
0.634766 0.097473 0.000031
0.653717 0.098114 0.000000
0.672394 0.100098 0.000000
0.024902 0.103149 0.035828
0.034851 0.105438 0.036133
0.048096 0.105194 0.032959
0.063904 0.104248 0.027466
0.083008 0.103912 0.018402
0.106873 0.104218 0.006592
0.133698 0.105469 0.002167
0.162323 0.107025 0.000519
0.191650 0.108795 0.000519
0.221222 0.110199 0.000580
0.251221 0.111023 0.000610
0.279785 0.111664 0.000610
0.306763 0.111664 0.000610
0.331665 0.112000 0.000610
0.355408 0.112305 0.000580
0.377136 0.113068 0.000549
0.398041 0.114075 0.000519
0.418121 0.114471 0.000519
0.436981 0.115906 0.000488
0.455688 0.116608 0.000488
0.473602 0.117828 0.000458
0.491486 0.118744 0.000458
0.508698 0.120270 0.000427
0.526184 0.121155 0.000397
0.543457 0.122650 0.000397
0.561279 0.123505 0.000366
0.578888 0.125214 0.000336
0.597076 0.126129 0.000336
0.615173 0.127899 0.000305
0.633850 0.128967 0.000275
0.652588 0.130127 0.000244
0.671326 0.131805 0.000214
0.690613 0.132111 0.000183
0.030182 0.128723 0.044769
0.038818 0.132538 0.045990
0.051208 0.132233 0.043518
0.066284 0.131653 0.039398
0.084900 0.131012 0.031677
0.107880 0.130798 0.019806
0.135406 0.131500 0.006195
0.166016 0.133575 0.001495
0.196259 0.136230 0.000549
0.226746 0.139038 0.000641
0.257416 0.140961 0.000702
0.287262 0.142853 0.000763
0.315918 0.144287 0.000793
0.342224 0.145355 0.000793
0.367126 0.145782 0.000793
0.390015 0.146637 0.000763
0.412079 0.147156 0.000732
0.432617 0.148315 0.000702
0.452759 0.149048 0.000702
0.471924 0.150238 0.000671
0.490753 0.151337 0.000671
0.509094 0.152405 0.000641
0.527100 0.153748 0.000641
0.544983 0.155151 0.000641
0.562805 0.156372 0.000610
0.580872 0.157684 0.000610
0.598602 0.159424 0.000610
0.617249 0.160187 0.000580
0.635529 0.161957 0.000580
0.654388 0.162750 0.000519
0.672852 0.164795 0.000488
0.692017 0.165405 0.000458
0.710510 0.167694 0.000427
0.035339 0.156403 0.053833
0.042938 0.161682 0.056152
0.054443 0.161652 0.054352
0.068970 0.160736 0.050568
0.086823 0.160126 0.044647
0.108551 0.160095 0.035553
0.135742 0.160126 0.020996
0.167511 0.161224 0.005920
0.199951 0.164124 0.000885
0.231293 0.167938 0.000671
0.262512 0.171783 0.000793
0.293518 0.174805 0.000854
0.322968 0.177490 0.000946
0.351562 0.179565 0.000977
0.377960 0.181549 0.001007
0.402557 0.182709 0.001007
0.426117 0.183319 0.001007
0.447968 0.184235 0.000977
0.469055 0.185120 0.000977
0.489319 0.185974 0.000946
0.508942 0.186829 0.000946
0.527863 0.188141 0.000946
0.546661 0.189301 0.000946
0.565186 0.190430 0.000916
0.583405 0.191803 0.000885
0.601898 0.192993 0.000885
0.620026 0.194702 0.000885
0.638824 0.195679 0.000854
0.657166 0.197449 0.000824
0.676208 0.198364 0.000824
0.694916 0.199921 0.000793
0.713867 0.201202 0.000763
0.732666 0.203094 0.000732
0.040131 0.185089 0.063477
0.046692 0.191620 0.066406
0.057190 0.191772 0.064941
0.071259 0.190857 0.061554
0.087952 0.190765 0.056732
0.109070 0.190765 0.049469
0.135132 0.190765 0.038483
0.166290 0.191071 0.022827
0.201141 0.192780 0.005829
0.234680 0.196533 0.000793
0.266785 0.201447 0.000793
0.298401 0.206238 0.000946
0.328888 0.210236 0.001068
0.358307 0.213379 0.001190
0.386414 0.216431 0.001251
0.413147 0.218842 0.001312
0.438507 0.220459 0.001343
0.462189 0.221558 0.001373
0.484558 0.222412 0.001373
0.506134 0.223206 0.001343
0.526947 0.223816 0.001343
0.546875 0.224823 0.001312
0.566223 0.225922 0.001312
0.585510 0.226746 0.001282
0.604248 0.228149 0.001282
0.623260 0.229034 0.001251
0.641907 0.230530 0.001251
0.661011 0.231415 0.001221
0.679565 0.233093 0.001221
0.698608 0.234375 0.001190
0.717590 0.235596 0.001160
0.736420 0.237244 0.001160
0.755524 0.238586 0.001160
0.044769 0.213470 0.072754
0.050415 0.220978 0.076050
0.060059 0.221466 0.074799
0.072784 0.220886 0.071838
0.088623 0.220947 0.067932
0.108734 0.221466 0.062073
0.134003 0.221680 0.052917
0.164307 0.222198 0.040222
0.199280 0.222809 0.022644
0.235596 0.225372 0.005646
0.269531 0.229828 0.001404
0.301880 0.235748 0.000916
0.333313 0.241425 0.001160
0.363586 0.246124 0.001343
0.392670 0.250000 0.001465
0.420776 0.253326 0.001587
0.447601 0.256287 0.001678
0.473419 0.258453 0.001740
0.497955 0.260071 0.001801
0.521210 0.260803 0.001831
0.543213 0.261749 0.001831
0.564545 0.262268 0.001801
0.585205 0.262726 0.001801
0.605225 0.263550 0.001770
0.624786 0.264496 0.001740
0.644348 0.265259 0.001709
0.663452 0.266388 0.001709
0.682800 0.267395 0.001678
0.701996 0.268555 0.001678
0.720947 0.269867 0.001678
0.740173 0.271210 0.001709
0.759033 0.272797 0.001709
0.778503 0.273743 0.001709
0.048798 0.240906 0.081024
0.054138 0.248352 0.084534
0.062469 0.250000 0.083862
0.074371 0.249023 0.080841
0.088837 0.249756 0.077850
0.107880 0.250732 0.073151
0.131897 0.251740 0.065979
0.161987 0.252533 0.055084
0.196472 0.253204 0.040436
0.233459 0.254669 0.021851
0.270111 0.257904 0.005615
0.304321 0.263245 0.001648
0.336121 0.270294 0.001160
0.367035 0.276733 0.001434
0.397217 0.282074 0.001678
0.425964 0.286377 0.001862
0.454102 0.289978 0.002014
0.481110 0.293274 0.002167
0.507690 0.295898 0.002289
0.533081 0.297882 0.002350
0.557129 0.299011 0.002380
0.580017 0.299591 0.002380
0.602081 0.300079 0.002380
0.623383 0.300507 0.002380
0.643890 0.301117 0.002350
0.664215 0.301697 0.002319
0.684296 0.302216 0.002319
0.703735 0.303314 0.002319
0.723389 0.304047 0.002319
0.742920 0.305023 0.002350
0.762177 0.306427 0.002380
0.781494 0.307556 0.002411
0.800537 0.309021 0.002441
0.052460 0.266663 0.088867
0.057678 0.273682 0.091949
0.064911 0.276642 0.092316
0.075623 0.275665 0.089508
0.089050 0.276550 0.086761
0.106750 0.278076 0.082642
0.129364 0.279907 0.076935
0.158508 0.281464 0.068237
0.192749 0.282684 0.055756
0.229950 0.283875 0.040161
0.268250 0.285919 0.020294
0.304596 0.290161 0.005493
0.338043 0.296631 0.001587
0.369232 0.304504 0.001526
0.399963 0.311584 0.001862
0.429688 0.317535 0.002167
0.458405 0.322235 0.002380
0.486511 0.326050 0.002563
0.514099 0.329498 0.002747
0.541107 0.332489 0.002869
0.567657 0.334747 0.002960
0.592712 0.336212 0.003021
0.616516 0.337006 0.003052
0.639496 0.337402 0.003052
0.661285 0.337860 0.003082
0.682465 0.338257 0.003082
0.703339 0.338440 0.003082
0.723694 0.338928 0.003113
0.743774 0.339661 0.003143
0.763641 0.340454 0.003204
0.783417 0.341339 0.003235
0.802887 0.342438 0.003296
0.822449 0.343567 0.003357
0.056274 0.290802 0.095764
0.061340 0.297363 0.098511
0.067291 0.301147 0.099609
0.076752 0.300262 0.096893
0.089233 0.301056 0.094086
0.105499 0.303253 0.090973
0.126740 0.305847 0.086243
0.154541 0.308441 0.079193
0.187866 0.310364 0.069214
0.225281 0.311981 0.055786
0.264404 0.313812 0.038971
0.302734 0.316864 0.019287
0.338287 0.322235 0.004913
0.370453 0.329620 0.001770
0.401306 0.338196 0.002075
0.431732 0.345978 0.002472
0.461212 0.352325 0.002777
0.490082 0.357483 0.003021
0.518433 0.361664 0.003265
0.546417 0.365143 0.003418
0.574036 0.368225 0.003571
0.601410 0.370850 0.003662
0.627594 0.372833 0.003754
0.652618 0.373810 0.003845
0.676392 0.374451 0.003876
0.699066 0.374512 0.003937
0.720917 0.374725 0.003967
0.742218 0.375122 0.004028
0.763123 0.375458 0.004089
0.783691 0.375824 0.004150
0.803864 0.376495 0.004211
0.823853 0.377136 0.004303
0.843719 0.378052 0.004395
0.059448 0.313019 0.101776
0.064301 0.318848 0.104156
0.069427 0.323547 0.105774
0.078125 0.322540 0.103302
0.089539 0.323395 0.100464
0.104584 0.326050 0.097565
0.124420 0.329407 0.093781
0.150208 0.332947 0.088440
0.182434 0.335846 0.080048
0.219666 0.338196 0.068848
0.259155 0.340210 0.054474
0.298828 0.342926 0.037506
0.336273 0.347107 0.017578
0.370422 0.353394 0.004486
0.401672 0.361816 0.002258
0.432343 0.371246 0.002777
0.462555 0.379852 0.003204
0.491974 0.386688 0.003571
0.521118 0.392242 0.003845
0.549927 0.396667 0.004059
0.578491 0.400360 0.004181
0.606720 0.403625 0.004333
0.634796 0.406555 0.004456
0.662109 0.408813 0.004578
0.688324 0.410187 0.004669
0.713196 0.410858 0.004761
0.736633 0.411194 0.004852
0.759430 0.411255 0.004913
0.781189 0.411469 0.005035
0.802612 0.411621 0.005127
0.823578 0.411896 0.005219
0.844269 0.412262 0.005310
0.864655 0.412781 0.005432
0.062408 0.333649 0.106812
0.066956 0.338959 0.108978
0.071472 0.344269 0.111206
0.079285 0.343445 0.108795
0.089691 0.344177 0.105988
0.103638 0.346893 0.103058
0.121826 0.350800 0.099884
0.146332 0.355164 0.095428
0.176971 0.359131 0.088989
0.213104 0.362366 0.079712
0.252991 0.364990 0.067596
0.293427 0.367615 0.052734
0.332520 0.371338 0.035461
0.368286 0.376740 0.015625
0.401398 0.384216 0.003906
0.431732 0.393585 0.003052
0.462189 0.403961 0.003632
0.492584 0.413300 0.004150
0.522369 0.420746 0.004517
0.552002 0.426666 0.004761
0.581329 0.431458 0.004944
0.610321 0.435364 0.005035
0.639252 0.438782 0.005127
0.668060 0.441742 0.005249
0.696411 0.444397 0.005341
0.723907 0.446228 0.005493
0.749969 0.447205 0.005585
0.774506 0.447571 0.005707
0.797852 0.447693 0.005829
0.820526 0.447723 0.005951
0.842590 0.447632 0.006073
0.864105 0.447723 0.006195
0.885254 0.447968 0.006317
0.064911 0.352814 0.111206
0.069458 0.357758 0.113251
0.073975 0.362762 0.115417
0.080444 0.363190 0.114227
0.090332 0.363159 0.110840
0.102997 0.366150 0.108185
0.119690 0.370514 0.105011
0.142365 0.375641 0.101166
0.171234 0.380554 0.095947
0.206055 0.384674 0.088623
0.245575 0.387970 0.078308
0.286713 0.390839 0.065826
0.327118 0.394470 0.050690
0.364716 0.399384 0.033417
0.399078 0.406067 0.012421
0.430908 0.414612 0.003845
0.460999 0.425079 0.004028
0.491699 0.436462 0.004761
0.522400 0.446564 0.005280
0.552582 0.454498 0.005585
0.582733 0.460968 0.005798
0.612640 0.466064 0.005890
0.642303 0.470215 0.005920
0.671875 0.473816 0.005951
0.701385 0.476959 0.006012
0.730652 0.479675 0.006073
0.759338 0.482025 0.006195
0.786743 0.483276 0.006287
0.812531 0.483795 0.006378
0.836945 0.483978 0.006531
0.860474 0.483856 0.006653
0.883240 0.483673 0.006805
0.905365 0.483490 0.006927
0.067505 0.370789 0.115021
0.071686 0.375519 0.116882
0.075958 0.380341 0.118744
0.081665 0.381897 0.118500
0.090576 0.381348 0.115326
0.102356 0.384277 0.112610
0.117981 0.388916 0.109467
0.138641 0.394592 0.106049
0.166107 0.400360 0.101501
0.199402 0.405396 0.095306
0.237610 0.409515 0.087372
0.279266 0.412903 0.076385
0.320679 0.416443 0.063446
0.359650 0.421021 0.048187
0.395508 0.427246 0.030823
0.428711 0.435303 0.008545
0.459717 0.444977 0.004578
0.489685 0.456482 0.005280
0.520844 0.468842 0.006042
0.552032 0.479645 0.006561
0.582825 0.488190 0.006836
0.613464 0.495087 0.006927
0.644073 0.500610 0.006866
0.674500 0.505066 0.006805
0.704926 0.508789 0.006714
0.735046 0.512054 0.006714
0.765015 0.514862 0.006683
0.794830 0.517426 0.006714
0.823608 0.519196 0.006805
0.850861 0.520142 0.006897
0.876434 0.520264 0.007019
0.900848 0.520172 0.007172
0.924469 0.519989 0.007324
0.069580 0.388062 0.118164
0.073883 0.392578 0.119934
0.077972 0.397247 0.121765
0.082764 0.399933 0.122437
0.091156 0.398865 0.119293
0.101868 0.401489 0.116333
0.116150 0.406342 0.113373
0.135315 0.412445 0.110199
0.160645 0.418976 0.106018
0.192749 0.424866 0.100830
0.229919 0.429718 0.094147
0.270874 0.433716 0.085266
0.313080 0.437469 0.074249
0.353363 0.441864 0.061218
0.390747 0.447571 0.045959
0.425079 0.455109 0.027985
0.457275 0.464478 0.007202
0.487732 0.475220 0.005890
0.518158 0.487854 0.006714
0.549927 0.501038 0.007477
0.581604 0.512512 0.008087
0.613007 0.521729 0.008698
0.644501 0.529175 0.008453
0.675751 0.535156 0.007874
0.706879 0.539856 0.007629
0.737915 0.543793 0.007446
0.768921 0.547211 0.007324
0.799713 0.550140 0.007202
0.830383 0.552826 0.007172
0.860565 0.555023 0.007172
0.889465 0.556427 0.007233
0.916534 0.556854 0.007355
0.942444 0.557068 0.007507
0.071228 0.404755 0.121246
0.075195 0.409180 0.122833
0.079193 0.413696 0.124451
0.083466 0.417877 0.125946
0.091217 0.416168 0.122833
0.101288 0.418152 0.119812
0.114441 0.423035 0.116913
0.131989 0.429504 0.113708
0.155823 0.436737 0.109985
0.185791 0.443420 0.105286
0.221893 0.449005 0.099365
0.262207 0.453705 0.092072
0.304718 0.457703 0.082642
0.346069 0.461884 0.071564
0.384918 0.467133 0.058197
0.420441 0.474060 0.042816
0.453522 0.482880 0.023743
0.484863 0.493591 0.007263
0.515350 0.505554 0.007416
0.546356 0.519104 0.009460
0.578735 0.533142 0.012512
0.611084 0.545410 0.014038
0.643311 0.555237 0.014099
0.675507 0.563232 0.013275
0.707550 0.569641 0.011871
0.739441 0.574768 0.010254
0.771332 0.578888 0.008850
0.803131 0.582458 0.007874
0.834625 0.585632 0.007629
0.866364 0.588440 0.007507
0.897827 0.591034 0.007446
0.928558 0.593079 0.007446
0.957550 0.594147 0.007568
0.072693 0.421143 0.123749
0.076691 0.425507 0.125214
0.080627 0.429962 0.126831
0.084595 0.434509 0.128387
0.091461 0.433411 0.126251
0.100769 0.434692 0.123138
0.112885 0.439392 0.119995
0.129028 0.446045 0.116730
0.150909 0.453796 0.113312
0.179443 0.461334 0.109100
0.213837 0.467773 0.103882
0.253326 0.472931 0.097412
0.295319 0.477325 0.089661
0.337891 0.481537 0.079987
0.377777 0.486420 0.068512
0.414612 0.492798 0.054932
0.448761 0.501099 0.039215
0.480927 0.511230 0.018646
0.512146 0.523010 0.009125
0.542755 0.535950 0.012695
0.574554 0.550476 0.016357
0.607574 0.565247 0.019012
0.640808 0.578217 0.019928
0.673859 0.588776 0.019531
0.706818 0.597290 0.018005
0.739594 0.604156 0.015930
0.772369 0.609711 0.013580
0.805115 0.614319 0.011597
0.837860 0.618347 0.009918
0.870636 0.621765 0.008514
0.903320 0.624878 0.007782
0.935822 0.627655 0.007660
0.967926 0.630066 0.007599
0.073944 0.437286 0.125885
0.077789 0.441681 0.127319
0.081665 0.446167 0.128784
0.085419 0.450745 0.130310
0.091187 0.450836 0.129242
0.099884 0.451172 0.126007
0.111237 0.455597 0.122864
0.126129 0.462311 0.119659
0.146454 0.470306 0.116058
0.173035 0.478638 0.112091
0.205627 0.486084 0.107300
0.243896 0.491943 0.101776
0.285736 0.496643 0.094757
0.328522 0.501007 0.086548
0.369904 0.505646 0.076660
0.407745 0.511414 0.065033
0.443054 0.518982 0.050964
0.476105 0.528625 0.033417
0.507904 0.539978 0.016144
0.539215 0.552582 0.015991
0.570374 0.566650 0.020081
0.602844 0.581909 0.023438
0.636597 0.597443 0.025574
0.670715 0.611176 0.025940
0.704681 0.622406 0.024933
0.738556 0.631683 0.022827
0.772369 0.639404 0.020081
0.806061 0.645630 0.017059
0.839844 0.650635 0.014465
0.873596 0.654907 0.012146
0.907196 0.658539 0.010101
0.940582 0.661652 0.008545
0.973755 0.664368 0.007782
0.074768 0.453461 0.127716
0.078522 0.457794 0.129028
0.082306 0.462433 0.130554
0.085968 0.467010 0.132080
0.090759 0.468597 0.131958
0.099457 0.467926 0.128662
0.109741 0.471710 0.125580
0.123474 0.478394 0.122162
0.141846 0.486816 0.118561
0.166718 0.495697 0.114685
0.197571 0.503845 0.110382
0.234161 0.510681 0.105164
0.275299 0.515991 0.099060
0.318329 0.520477 0.091644
0.360413 0.525055 0.083099
0.400146 0.530334 0.072754
0.436493 0.537079 0.060516
0.470428 0.545898 0.045593
0.502716 0.556641 0.026917
0.534760 0.569061 0.019287
0.566162 0.582397 0.023376
0.598053 0.597504 0.027527
0.631439 0.613739 0.030487
0.666443 0.630493 0.032349
0.701813 0.645538 0.032410
0.736755 0.657684 0.030884
0.771332 0.667572 0.027893
0.805847 0.675568 0.024353
0.840393 0.682068 0.020630
0.874939 0.687408 0.017303
0.909302 0.691742 0.014374
0.943542 0.695404 0.011658
0.977600 0.698486 0.009552
0.075317 0.469696 0.129395
0.078979 0.474121 0.130676
0.082428 0.478729 0.132050
0.085907 0.483429 0.133423
0.089935 0.486969 0.134216
0.098206 0.485046 0.131042
0.107788 0.488129 0.127869
0.120514 0.494598 0.124512
0.137390 0.503082 0.120728
0.160278 0.512604 0.116913
0.189575 0.521667 0.112518
0.224304 0.529297 0.107849
0.264252 0.535370 0.102173
0.307098 0.540253 0.095581
0.349945 0.544647 0.087921
0.390747 0.549500 0.078918
0.428802 0.555695 0.067902
0.463959 0.563812 0.054779
0.497162 0.573975 0.036987
0.529572 0.586029 0.023163
0.562347 0.599854 0.026733
0.594696 0.615265 0.031555
0.627930 0.632111 0.036377
0.662506 0.649323 0.038818
0.698181 0.666473 0.040070
0.734192 0.681610 0.039490
0.769592 0.693878 0.036926
0.804688 0.703949 0.033142
0.839752 0.712128 0.028748
0.874908 0.718750 0.024292
0.909973 0.724121 0.020233
0.944946 0.728516 0.016479
0.979736 0.732239 0.013275
0.075470 0.486084 0.130829
0.078918 0.490662 0.132019
0.082275 0.495331 0.133331
0.085663 0.500031 0.134705
0.088959 0.505341 0.135925
0.096863 0.502380 0.133270
0.105896 0.504547 0.130096
0.117462 0.510773 0.126678
0.132904 0.519287 0.122681
0.153961 0.529419 0.118591
0.181030 0.539429 0.114227
0.214539 0.548218 0.109619
0.252869 0.555176 0.104218
0.295441 0.560852 0.098145
0.338837 0.565704 0.091370
0.381042 0.570587 0.083160
0.420807 0.576813 0.073486
0.457703 0.584930 0.061737
0.492401 0.595093 0.045959
0.525879 0.607178 0.028961
0.559326 0.620697 0.029724
0.592560 0.635681 0.036011
0.625488 0.651825 0.041321
0.659454 0.668884 0.045471
0.694641 0.686157 0.047516
0.730713 0.703217 0.048004
0.766968 0.718170 0.046509
0.802795 0.730530 0.043182
0.838318 0.740570 0.038452
0.873871 0.748688 0.033142
0.909424 0.755371 0.027985
0.944916 0.760803 0.023132
0.980438 0.765137 0.018738
0.075195 0.502625 0.132050
0.078400 0.507751 0.132904
0.081543 0.513153 0.133972
0.084595 0.519226 0.134766
0.087585 0.527100 0.135315
0.094818 0.524231 0.133942
0.104095 0.523895 0.131104
0.115112 0.529602 0.127472
0.129547 0.538239 0.123444
0.149078 0.548676 0.119019
0.174622 0.559845 0.114502
0.206543 0.569916 0.109833
0.243896 0.578186 0.104645
0.285492 0.585052 0.098938
0.329224 0.591003 0.092743
0.372620 0.596680 0.085724
0.413879 0.602966 0.077148
0.452454 0.610535 0.066681
0.488617 0.619873 0.052917
0.522827 0.631073 0.035614
0.556824 0.643707 0.032898
0.590851 0.657745 0.039673
0.623749 0.673248 0.045685
0.657593 0.689819 0.051361
0.692139 0.706726 0.054626
0.727600 0.723816 0.056488
0.763885 0.740509 0.056030
0.800323 0.755188 0.053711
0.836334 0.767181 0.049377
0.872101 0.777100 0.043823
0.907867 0.785187 0.037720
0.943695 0.791779 0.031799
0.979675 0.797211 0.026184
0.073853 0.522430 0.131500
0.076569 0.529999 0.131531
0.079651 0.537720 0.132050
0.082764 0.546143 0.132538
0.085876 0.554840 0.133179
0.093048 0.554962 0.132355
0.103394 0.551392 0.129639
0.114594 0.555145 0.126221
0.128632 0.563019 0.122131
0.146912 0.573364 0.117859
0.171234 0.584869 0.113251
0.201630 0.595917 0.108643
0.237457 0.605469 0.103607
0.277924 0.613251 0.098236
0.321259 0.619720 0.092712
0.365265 0.625549 0.086578
0.407684 0.631561 0.079315
0.447540 0.638611 0.070038
0.484985 0.647186 0.057922
0.520264 0.657379 0.041504
0.554749 0.669159 0.036804
