lut/retro-80s/Purple Rain (1984) - Standard.cube
# Created by Benjamin (IWLTBAP): https://luts.iwltbap.com
# Copyright: (C) Copyright 2018 Triune Films and IWLTBAP SAS
# Cannot be resold, shared or otherwise redistributed
TITLE "Triune Films 80s Retro LUTs (Rec.709, sRGB, DCI-P3)"
LUT_3D_SIZE 9
0.001709 0.001617 0.000000
0.127899 0.016113 0.016205
0.271179 0.034546 0.040314
0.419159 0.052429 0.061340
0.558441 0.070221 0.079926
0.678619 0.089508 0.098663
0.782257 0.111908 0.118591
0.868378 0.140411 0.136169
0.939850 0.161255 0.147858
0.062317 0.074585 0.065125
0.126312 0.090454 0.051636
0.250854 0.105133 0.035950
0.405365 0.114960 0.047119
0.554321 0.126587 0.068115
0.679169 0.141449 0.089325
0.783630 0.160919 0.110565
0.870544 0.187866 0.129181
0.943085 0.208588 0.141632
0.125153 0.161591 0.121826
0.173798 0.175537 0.123199
0.250946 0.205658 0.084869
0.391052 0.224365 0.042786
0.544800 0.231537 0.042694
0.681183 0.240997 0.062714
0.792664 0.254364 0.084808
0.883087 0.271179 0.105347
0.957642 0.282501 0.120880
0.193390 0.267120 0.177338
0.251678 0.276978 0.184143
0.302002 0.302094 0.178497
0.387054 0.339172 0.116028
0.528625 0.358490 0.048950
0.669098 0.364502 0.031525
0.793121 0.370483 0.044403
0.896820 0.379517 0.063873
0.982208 0.386017 0.080872
0.277191 0.390167 0.241486
0.342285 0.395020 0.248657
0.399231 0.411255 0.253632
0.441650 0.441376 0.233978
0.523682 0.476624 0.144440
0.655945 0.492493 0.051880
0.784424 0.496368 0.020111
0.900299 0.499084 0.023071
1.000000 0.499908 0.035370
0.375122 0.518646 0.312958
0.443237 0.519958 0.319458
0.504425 0.527588 0.325623
0.546021 0.549286 0.321564
0.578766 0.581390 0.280975
0.654755 0.612305 0.165375
0.778046 0.624146 0.053955
0.900269 0.625641 0.012390
1.000000 0.625061 0.005798
0.472900 0.641693 0.385498
0.537811 0.640411 0.390015
0.595001 0.641693 0.394592
0.639709 0.653381 0.393921
0.669800 0.679565 0.373840
0.701630 0.712280 0.309753
0.777985 0.741608 0.174316
0.897919 0.752319 0.052368
1.000000 0.752380 0.006744
0.552979 0.762268 0.445465
0.611969 0.761871 0.449341
0.664185 0.761169 0.452148
0.707031 0.764252 0.450195
0.740814 0.780792 0.436157
0.769196 0.810272 0.394165
0.809875 0.844452 0.308258
0.896637 0.871979 0.166351
1.000000 0.880463 0.051422
0.609161 0.880890 0.474457
0.657898 0.884094 0.474854
0.703949 0.886932 0.476685
0.745453 0.890686 0.475494
0.782318 0.902100 0.464386
0.815735 0.927795 0.434692
0.854645 0.958282 0.376434
0.914734 0.985138 0.283020
1.000000 1.000000 0.158508
0.005646 0.015472 0.117554
0.125000 0.028625 0.125000
0.270935 0.048096 0.134125
0.420593 0.065674 0.143250
0.562286 0.080475 0.152893
0.682861 0.096954 0.166138
0.785919 0.117859 0.183929
0.871521 0.144531 0.199219
0.940460 0.164917 0.208466
0.035736 0.087799 0.125824
0.112976 0.093384 0.126099
0.244110 0.107513 0.123871
0.402069 0.118835 0.129028
0.555054 0.129333 0.141571
0.682281 0.143066 0.157410
0.786682 0.162628 0.176727
0.873199 0.189178 0.193939
0.943237 0.210449 0.204559
0.110016 0.170380 0.168213
0.163239 0.177063 0.172302
0.245514 0.203705 0.158783
0.387177 0.224701 0.131226
0.543762 0.231567 0.126862
0.682617 0.240662 0.138916
0.794189 0.254181 0.156281
0.884064 0.271301 0.174622
0.956818 0.283112 0.188690
0.188171 0.272400 0.231201
0.246765 0.278320 0.237579
0.298706 0.299683 0.240570
0.384003 0.337067 0.197815
0.527374 0.357971 0.140686
0.670471 0.363922 0.122375
0.794891 0.370026 0.129852
0.897369 0.379486 0.144684
0.981018 0.386322 0.158447
0.270813 0.391266 0.304108
0.337006 0.395142 0.309967
0.396301 0.409332 0.318054
0.439270 0.438965 0.308197
0.522186 0.474884 0.234070
0.656128 0.491547 0.148651
0.785400 0.495667 0.118591
0.900940 0.498474 0.119995
1.000000 0.499512 0.128326
0.366150 0.516418 0.382172
0.436951 0.518585 0.387909
0.502350 0.526489 0.394836
0.545929 0.547852 0.395721
0.578918 0.580261 0.365417
0.654907 0.611481 0.262299
0.778564 0.623505 0.157196
0.900665 0.625244 0.119019
1.000000 0.624603 0.113861
0.461121 0.638000 0.458649
0.531006 0.638245 0.463409
0.593781 0.640869 0.468445
0.641205 0.652771 0.469727
0.672058 0.678986 0.455109
0.703339 0.711975 0.400696
0.778656 0.741180 0.276764
0.898224 0.752014 0.162048
1.000000 0.752045 0.120941
0.538940 0.759705 0.519836
0.603180 0.759399 0.523285
0.661316 0.759399 0.526459
0.708038 0.763153 0.525604
0.743195 0.779816 0.514221
0.771423 0.809326 0.478119
0.811127 0.843658 0.402069
0.896912 0.871460 0.272858
1.000000 0.880219 0.167175
0.594971 0.882996 0.545044
0.648590 0.884644 0.547852
0.699524 0.886597 0.550232
0.744690 0.889832 0.549103
0.783630 0.900787 0.539520
0.817566 0.926453 0.513367
0.856140 0.957092 0.461700
0.915436 0.984344 0.379150
1.000000 1.000000 0.269196
0.014069 0.042206 0.236053
0.117767 0.048737 0.245575
0.268921 0.066193 0.253235
0.419525 0.086792 0.258911
0.563049 0.107697 0.266113
0.688019 0.124237 0.275146
0.790192 0.143433 0.288696
0.874084 0.166351 0.298126
0.939941 0.182983 0.300385
0.019958 0.112640 0.228455
0.090668 0.108551 0.229675
0.233063 0.117706 0.235077
0.396027 0.131195 0.241577
0.554535 0.144745 0.250916
0.687073 0.157898 0.262909
0.790863 0.176788 0.278961
0.875671 0.201721 0.291595
0.943054 0.220795 0.296326
0.063049 0.196930 0.240082
0.117279 0.193726 0.239014
0.222168 0.201019 0.240326
0.375336 0.219940 0.237274
0.539795 0.232422 0.236938
0.683838 0.242981 0.243713
0.795471 0.256439 0.255615
0.883575 0.274048 0.269928
0.953827 0.286102 0.280029
0.160522 0.291016 0.284729
0.218170 0.291962 0.286896
0.286865 0.302765 0.295135
0.379974 0.334900 0.283447
0.523865 0.358398 0.251068
0.671783 0.364563 0.236847
0.796967 0.371063 0.239075
0.896362 0.380798 0.247833
0.976135 0.387787 0.255829
0.264648 0.402679 0.360443
0.330597 0.404327 0.364075
0.396393 0.414459 0.374878
0.444489 0.440430 0.380096
0.523773 0.474884 0.329254
0.656830 0.491638 0.259216
0.787659 0.494812 0.232086
0.902100 0.496979 0.230316
0.998016 0.497620 0.233978
0.361938 0.523987 0.447449
0.433258 0.525146 0.451324
0.503967 0.531525 0.459595
0.553375 0.550903 0.468811
0.585083 0.581970 0.451691
0.657440 0.611633 0.364044
0.780090 0.622772 0.266754
0.901825 0.623779 0.231323
1.000000 0.621979 0.225555
0.454132 0.640625 0.528137
0.525482 0.640839 0.531494
0.593964 0.644104 0.537506
0.647308 0.655212 0.543091
0.679413 0.680328 0.536957
0.708313 0.712585 0.494476
0.780609 0.740906 0.383392
0.899017 0.751251 0.274109
1.000000 0.750824 0.235687
0.528320 0.759705 0.589966
0.595123 0.759033 0.592590
0.658722 0.759583 0.596771
0.711700 0.763580 0.599152
0.749207 0.779572 0.593231
0.776855 0.808411 0.565460
0.813995 0.842621 0.500702
0.897491 0.870605 0.383636
1.000000 0.879639 0.284546
0.578857 0.884583 0.615875
0.636871 0.885651 0.618408
0.693756 0.886597 0.621063
0.744873 0.888550 0.621887
0.786987 0.898682 0.615814
0.821564 0.924042 0.595123
0.859100 0.954987 0.551544
0.916534 0.982880 0.480194
1.000000 1.000000 0.384583
0.025085 0.072327 0.359894
0.107361 0.072327 0.372589
0.259125 0.086334 0.382507
0.416748 0.103973 0.388458
0.563904 0.126129 0.394714
0.687469 0.153015 0.404907
0.790497 0.182159 0.418457
0.872345 0.208557 0.424530
0.935120 0.223511 0.423492
0.027466 0.139160 0.354523
0.075684 0.128723 0.359985
0.217773 0.133392 0.367767
0.391296 0.146698 0.375061
0.553894 0.163239 0.381989
0.686737 0.184143 0.392944
0.792053 0.207458 0.408020
0.874054 0.233887 0.417114
0.937775 0.251770 0.418823
0.041321 0.233429 0.360229
0.075378 0.224274 0.359436
0.186981 0.217041 0.358368
0.360382 0.228821 0.362854
0.534943 0.243713 0.365295
0.684448 0.257965 0.368683
0.797363 0.271545 0.376221
0.880829 0.289154 0.385742
0.946381 0.301575 0.394104
0.090820 0.336243 0.376862
0.133820 0.330963 0.373871
0.219452 0.324951 0.371765
0.356934 0.334503 0.374023
0.520874 0.354706 0.368164
0.675537 0.366638 0.361298
0.799042 0.375671 0.361572
0.892273 0.385986 0.364624
0.965363 0.393372 0.368439
0.217285 0.435242 0.424896
0.276520 0.431458 0.422516
0.351471 0.433258 0.426117
0.436371 0.447662 0.439117
0.527435 0.477203 0.422546
0.658295 0.494141 0.379181
0.791077 0.496918 0.359924
0.901550 0.498230 0.356018
0.989777 0.498230 0.355530
0.352722 0.543671 0.504578
0.422607 0.541290 0.504364
0.495789 0.545685 0.510620
0.560883 0.561188 0.526825
0.599884 0.589020 0.530029
0.664764 0.615356 0.466431
0.782837 0.623840 0.385590
0.903015 0.622620 0.355713
1.000000 0.617859 0.348206
0.452393 0.655334 0.588715
0.523834 0.653473 0.589325
0.593658 0.655762 0.593872
0.656219 0.665436 0.604553
0.695251 0.688019 0.612183
0.720673 0.717926 0.586395
0.785706 0.742737 0.491180
0.900696 0.750549 0.390717
1.000000 0.748260 0.355591
0.523651 0.768311 0.653625
0.591217 0.765991 0.653625
0.656128 0.766144 0.656647
0.715942 0.769745 0.662750
0.760193 0.783447 0.666962
0.788239 0.809906 0.651917
0.820740 0.842682 0.600922
0.899323 0.870087 0.496246
1.000000 0.878601 0.402527
0.566833 0.888763 0.680725
0.628693 0.889313 0.682251
0.688446 0.889984 0.684601
0.744659 0.890961 0.687683
0.792480 0.898468 0.688782
0.829529 0.921570 0.677246
0.865173 0.952484 0.643463
0.918854 0.981110 0.584259
1.000000 1.000000 0.502991
0.039795 0.101257 0.480621
0.102386 0.099487 0.497406
0.245422 0.110748 0.513092
0.404938 0.126007 0.522125
0.558990 0.146149 0.529907
0.689178 0.170868 0.539642
0.793518 0.202698 0.552368
0.872589 0.242554 0.559082
0.927307 0.272644 0.558472
0.038208 0.166443 0.486542
0.072693 0.153778 0.496063
0.196869 0.155060 0.508698
0.375336 0.166321 0.516907
0.548981 0.182007 0.523773
0.689056 0.202606 0.532349
0.794250 0.230164 0.545105
0.873260 0.266479 0.553406
0.929016 0.294830 0.554413
0.047241 0.260315 0.492950
0.067780 0.251495 0.498566
0.158478 0.239349 0.505524
0.339020 0.245361 0.510498
0.529205 0.261749 0.514923
0.685638 0.278900 0.515564
0.797729 0.298401 0.519379
0.877838 0.319519 0.522156
0.935577 0.334106 0.525177
0.064789 0.375641 0.501740
0.087555 0.373291 0.503662
0.157074 0.361877 0.507843
0.313843 0.353516 0.506165
0.509430 0.367249 0.508240
0.676880 0.382263 0.504425
0.800385 0.394775 0.499939
0.887024 0.404236 0.492859
0.950867 0.409821 0.488312
0.117767 0.489685 0.525238
0.156921 0.487030 0.523468
0.224274 0.481659 0.522369
0.351044 0.475220 0.520996
0.512207 0.485291 0.522583
0.667694 0.500732 0.508209
0.798584 0.506104 0.493744
0.897339 0.507324 0.484589
0.973297 0.506134 0.477081
0.275879 0.588287 0.574280
0.336182 0.583710 0.570343
0.407227 0.580811 0.568695
0.503082 0.584869 0.574738
0.597351 0.601654 0.589569
0.675690 0.623871 0.564392
0.787140 0.629120 0.508820
0.903931 0.624969 0.483459
1.000000 0.617462 0.472626
0.437286 0.681152 0.643311
0.507111 0.677032 0.640594
0.576630 0.675964 0.641235
0.647339 0.683289 0.650269
0.707336 0.701630 0.668701
0.739746 0.728119 0.667786
0.794800 0.748108 0.596161
0.903046 0.751526 0.509705
1.000000 0.746429 0.478546
0.520447 0.782990 0.708374
0.588989 0.780090 0.706696
0.654114 0.778748 0.707458
0.715637 0.781769 0.712799
0.770142 0.793518 0.725983
0.805237 0.815704 0.729797
0.832672 0.845612 0.697021
0.902893 0.870514 0.606842
1.000000 0.877686 0.519379
0.560120 0.897461 0.740051
0.623444 0.897614 0.739716
0.684692 0.897858 0.740936
0.742493 0.898743 0.743744
0.796661 0.903503 0.750824
0.840637 0.920685 0.753662
0.875641 0.950012 0.733215
0.923370 0.979370 0.687653
1.000000 1.000000 0.621155
0.060608 0.130585 0.593597
0.113159 0.128571 0.610107
0.236359 0.139679 0.628632
0.392700 0.153931 0.642853
0.548462 0.172119 0.653259
0.683655 0.195526 0.663879
0.792877 0.223663 0.677216
0.877045 0.259583 0.687103
0.932709 0.292725 0.688324
0.053955 0.197723 0.606262
0.084290 0.182983 0.615845
0.181122 0.182648 0.631348
0.355499 0.192657 0.644806
0.534119 0.206818 0.653961
0.683258 0.226379 0.662872
0.794586 0.250702 0.674377
0.877655 0.284119 0.683502
0.933563 0.315765 0.685547
0.058807 0.286224 0.616241
0.076447 0.277069 0.622955
0.138947 0.265228 0.637207
0.311310 0.268219 0.648865
0.509644 0.282318 0.655579
0.680786 0.299835 0.659851
0.800751 0.319550 0.663391
0.881195 0.343811 0.663971
0.935608 0.363617 0.664307
0.076843 0.402466 0.621979
0.091705 0.400757 0.625366
0.134766 0.390320 0.638641
0.277252 0.375885 0.649567
0.485382 0.383209 0.653381
0.672516 0.401672 0.655273
0.802399 0.418243 0.651245
0.885040 0.434418 0.640472
0.940826 0.443939 0.630249
0.085205 0.523865 0.633759
0.104767 0.523804 0.634552
0.150909 0.522888 0.641724
0.267151 0.512787 0.650848
0.463409 0.505005 0.650604
0.662018 0.518585 0.651184
0.801300 0.529297 0.644135
0.890778 0.533478 0.628815
0.952728 0.531281 0.612579
0.146332 0.635742 0.661377
0.182709 0.635101 0.660889
0.235748 0.634766 0.661591
0.337494 0.633057 0.663605
0.502289 0.629883 0.664612
0.670197 0.640411 0.666565
0.800049 0.646515 0.646332
0.901978 0.639709 0.621643
0.979645 0.628784 0.604156
0.329651 0.727081 0.709839
0.389069 0.724823 0.707245
0.453522 0.722198 0.704773
0.539001 0.721405 0.704834
0.649750 0.727142 0.712677
0.742279 0.743744 0.727173
0.806519 0.759247 0.695953
0.904816 0.756805 0.633911
1.000000 0.747437 0.604919
0.496674 0.807556 0.760315
0.564087 0.804535 0.757324
0.629578 0.802063 0.755768
0.694489 0.802094 0.757446
0.761017 0.810730 0.768250
0.816833 0.827881 0.785858
0.849487 0.852570 0.780457
0.908661 0.873169 0.712494
1.000000 0.877899 0.636322
0.553040 0.908813 0.793915
0.618225 0.908783 0.793213
0.681427 0.908478 0.793335
0.740295 0.908478 0.794647
0.795715 0.913177 0.801178
0.848389 0.925446 0.814484
0.889343 0.948334 0.814209
0.930695 0.977661 0.785614
1.000000 1.000000 0.734955
0.103088 0.160339 0.688477
0.154175 0.158997 0.704895
0.251556 0.170837 0.723267
0.393402 0.186401 0.742249
0.541656 0.203583 0.757690
0.676971 0.224823 0.770264
0.787750 0.251923 0.782776
0.873260 0.286285 0.795288
0.932587 0.315948 0.802032
0.081146 0.231201 0.708069
0.120239 0.213959 0.715759
0.195435 0.212646 0.729950
0.349182 0.223846 0.747437
0.521271 0.237518 0.761780
0.673645 0.254578 0.772583
0.789398 0.277771 0.783234
0.874847 0.309509 0.794373
0.934052 0.337952 0.800812
0.074524 0.315552 0.721985
0.094360 0.304993 0.727722
0.141144 0.291931 0.741058
0.290436 0.295685 0.756714
0.486694 0.308624 0.769165
0.665253 0.324097 0.777740
0.795441 0.343811 0.784454
0.881714 0.368286 0.789215
0.938934 0.386688 0.792328
0.093048 0.424744 0.729584
0.107208 0.422211 0.732452
0.133270 0.410095 0.744965
0.248474 0.397583 0.763184
0.456329 0.402466 0.774780
0.654053 0.419006 0.780273
0.798126 0.438110 0.782532
0.888336 0.458466 0.778870
0.944946 0.472198 0.774109
0.123566 0.543610 0.733887
0.137115 0.543610 0.734650
0.161224 0.541992 0.742767
0.238525 0.533081 0.762299
0.423645 0.520782 0.775909
0.639954 0.528992 0.779602
0.797363 0.545074 0.780273
0.892059 0.556885 0.771179
0.949341 0.563080 0.759308
0.143951 0.654663 0.745728
0.159241 0.654968 0.746490
0.185242 0.656860 0.750916
0.251038 0.661530 0.764587
0.404999 0.657166 0.776459
0.625519 0.654236 0.779510
0.795837 0.664551 0.779510
0.897156 0.665863 0.766876
0.958771 0.659210 0.748871
0.217285 0.756775 0.771179
0.241943 0.757660 0.773224
0.274780 0.758850 0.776031
0.338257 0.762787 0.781586
0.470703 0.765289 0.786774
0.656281 0.767273 0.791412
0.804169 0.777069 0.793121
0.906525 0.774200 0.768250
0.989716 0.760345 0.740662
0.384491 0.841858 0.816772
0.434479 0.842194 0.817169
0.489227 0.841858 0.817017
0.555420 0.841644 0.816925
0.654633 0.843506 0.819244
0.766541 0.850800 0.827759
0.852356 0.865723 0.840515
0.915375 0.880463 0.811493
1.000000 0.881287 0.757843
0.530579 0.922485 0.850433
0.594971 0.922485 0.849792
0.658783 0.922211 0.849365
0.719910 0.922089 0.849487
0.781799 0.925964 0.852966
0.843964 0.937195 0.863190
0.899200 0.952332 0.876770
0.941711 0.976776 0.872223
1.000000 1.000000 0.839905
0.152161 0.197571 0.771179
0.205414 0.191803 0.787415
0.283600 0.203064 0.802490
0.412750 0.219818 0.821014
0.548401 0.238708 0.838715
0.675873 0.259338 0.854767
0.785004 0.286011 0.868744
0.869446 0.321228 0.882446
0.928131 0.350433 0.891327
0.130829 0.265900 0.789429
0.175507 0.246796 0.796600
0.238373 0.244751 0.808777
0.369507 0.256927 0.825745
0.525879 0.272217 0.842896
0.669830 0.288635 0.857849
0.785339 0.311218 0.870392
0.870697 0.344055 0.882782
0.929413 0.372375 0.891052
0.104156 0.347137 0.807800
0.130920 0.334625 0.810913
0.180725 0.318878 0.820312
0.302338 0.323547 0.835327
0.481415 0.338318 0.851868
0.653320 0.354462 0.866150
0.787109 0.373474 0.876892
0.877289 0.399750 0.885651
0.935394 0.419312 0.891541
0.108704 0.449066 0.818665
0.123505 0.445099 0.820282
0.149048 0.428223 0.828705
0.238617 0.416809 0.844543
0.434296 0.423889 0.860992
0.634094 0.440643 0.872589
0.786499 0.460052 0.880829
0.884583 0.483887 0.886444
0.944855 0.500427 0.889709
0.168243 0.559601 0.819702
0.181213 0.559113 0.820160
0.194550 0.552582 0.825897
0.233978 0.539703 0.843475
0.392273 0.530975 0.866028
0.613892 0.538696 0.877563
0.783630 0.555847 0.882965
0.889252 0.574677 0.884827
0.951904 0.587555 0.884247
0.222198 0.661835 0.821960
0.235229 0.661896 0.822113
0.251801 0.661530 0.824493
0.285156 0.661987 0.838593
0.375549 0.661835 0.863373
0.585571 0.656647 0.879761
0.777710 0.666077 0.884552
0.893982 0.677460 0.884338
0.960541 0.681244 0.878632
0.233826 0.763641 0.833832
0.247620 0.763947 0.834625
0.264404 0.764801 0.837006
0.299744 0.769470 0.846771
0.376160 0.777527 0.864227
0.556641 0.779724 0.880005
0.765106 0.781616 0.886658
0.899048 0.786469 0.886078
0.976196 0.782379 0.875793
0.303558 0.851379 0.856354
0.322937 0.852417 0.858948
0.345306 0.853668 0.862274
0.378052 0.856812 0.868042
0.449890 0.864502 0.878662
0.592102 0.872101 0.888794
0.772766 0.879883 0.897736
0.906677 0.890411 0.900940
1.000000 0.890778 0.883270
0.411041 0.932281 0.898895
0.447998 0.933929 0.901550
0.490753 0.935455 0.903931
0.540833 0.936951 0.906006
0.616486 0.940674 0.909424
0.729736 0.949127 0.915588
0.841797 0.961578 0.925262
0.934326 0.979004 0.937805
1.000000 1.000000 0.931335
0.197510 0.228577 0.833466
0.251587 0.221649 0.845886
0.313019 0.231598 0.858643
0.431244 0.247864 0.878510
0.559418 0.267792 0.898163
0.679657 0.290131 0.916809
0.785522 0.318695 0.935669
0.869385 0.355835 0.951263
0.927216 0.384125 0.960480
0.183136 0.295013 0.850555
0.226074 0.276825 0.857391
0.280334 0.274200 0.868622
0.392395 0.285400 0.884766
0.538666 0.300568 0.902283
0.673370 0.319153 0.919739
0.785034 0.344360 0.937317
0.870148 0.379547 0.951996
0.928314 0.406677 0.960754
0.156952 0.372864 0.868591
0.184570 0.360657 0.870636
0.234436 0.343933 0.879120
0.331604 0.347473 0.892609
0.494629 0.362274 0.909760
0.653870 0.381226 0.927521
0.783112 0.404724 0.944305
0.874268 0.433136 0.956879
0.932983 0.453156 0.963531
0.147217 0.470001 0.883118
0.163239 0.465240 0.883667
0.194611 0.444672 0.888916
0.264832 0.431519 0.901276
0.433868 0.440460 0.919495
0.624664 0.459259 0.936218
0.777740 0.483093 0.951721
0.879303 0.509552 0.962677
0.941467 0.528809 0.968506
0.187317 0.576080 0.889984
0.200378 0.575165 0.890106
0.213104 0.564056 0.893066
0.239868 0.543671 0.904144
0.366882 0.536469 0.926514
0.589844 0.546600 0.944397
0.770325 0.568085 0.956818
0.882263 0.591400 0.965363
0.948578 0.609589 0.970795
0.285736 0.670166 0.885895
0.298615 0.670166 0.886017
0.311127 0.667480 0.887268
0.324097 0.658173 0.895538
0.367004 0.653076 0.920776
0.547333 0.652161 0.949951
0.757568 0.664398 0.963287
0.885132 0.681915 0.968750
0.958496 0.694794 0.972809
0.306000 0.765717 0.893799
0.319092 0.765717 0.893860
0.333344 0.765472 0.894287
0.360779 0.764038 0.899536
0.407959 0.765961 0.916962
0.510803 0.772034 0.946411
0.724915 0.772827 0.966980
0.885254 0.781036 0.973450
0.974487 0.788879 0.977600
0.297333 0.851868 0.907867
0.312622 0.852203 0.908508
0.329773 0.852661 0.910095
0.355621 0.854309 0.914886
0.402649 0.860535 0.928345
0.474579 0.870056 0.948792
0.649414 0.878082 0.970825
0.858765 0.886505 0.982666
0.993652 0.894836 0.988342
0.331390 0.926208 0.925873
0.352478 0.927032 0.927124
0.374817 0.928101 0.929382
0.399353 0.929688 0.933075
0.433685 0.934296 0.941071
0.483002 0.943695 0.955231
0.569489 0.957428 0.971680
0.774567 0.978394 0.987457
1.000000 1.000000 1.000000
