lut/retro-80s/Purple Rain (1984) - Standard.cube
# Created by Benjamin (IWLTBAP): https://luts.iwltbap.com
# Copyright: (C) Copyright 2018 Triune Films and IWLTBAP SAS
# Cannot be resold, shared or otherwise redistributed
TITLE "Triune Films 80s Retro LUTs (Rec.709, sRGB, DCI-P3)"
LUT_3D_SIZE 33
0.001709 0.001617 0.000000
0.031464 0.004517 0.003204
0.062439 0.007751 0.007111
0.094513 0.011566 0.011444
0.127899 0.016113 0.016205
0.162354 0.020050 0.021881
0.198090 0.024963 0.028381
0.234436 0.030060 0.034393
0.271179 0.034546 0.040314
0.308258 0.038971 0.045929
0.345337 0.043823 0.051605
0.382355 0.047821 0.056458
0.419159 0.052429 0.061340
0.455505 0.056580 0.066254
0.491058 0.060791 0.070557
0.525391 0.065460 0.075409
0.558441 0.070221 0.079926
0.590210 0.074951 0.084381
0.620758 0.079895 0.089020
0.650177 0.084656 0.093842
0.678619 0.089508 0.098663
0.706146 0.094543 0.103516
0.732666 0.099945 0.108612
0.758148 0.105560 0.113739
0.782257 0.111908 0.118591
0.805237 0.118866 0.123352
0.827209 0.126160 0.127960
0.848297 0.133514 0.132263
0.868378 0.140411 0.136169
0.887421 0.146820 0.139740
0.905548 0.152405 0.142822
0.922974 0.157196 0.145477
0.939850 0.161255 0.147858
0.015717 0.018463 0.015961
0.039795 0.021362 0.016357
0.066101 0.024658 0.018219
0.094299 0.028351 0.019653
0.124603 0.032104 0.021820
0.157318 0.035950 0.024750
0.192078 0.040222 0.028046
0.228394 0.044159 0.032715
0.265442 0.048340 0.038025
0.303009 0.052307 0.043060
0.340881 0.056427 0.048279
0.378662 0.060425 0.053619
0.416138 0.064331 0.058746
0.453156 0.068146 0.063660
0.489349 0.072174 0.068573
0.524231 0.076294 0.073212
0.557617 0.080841 0.077911
0.589630 0.085266 0.082703
0.620392 0.089935 0.087433
0.649933 0.094757 0.092285
0.678406 0.099487 0.097229
0.705994 0.104492 0.102325
0.732513 0.109863 0.107269
0.758026 0.115509 0.112366
0.782227 0.121979 0.117462
0.805267 0.128998 0.122253
0.827301 0.136292 0.126770
0.848419 0.143829 0.131195
0.868591 0.151001 0.135193
0.887695 0.157593 0.138672
0.905914 0.163269 0.141815
0.923431 0.168182 0.144470
0.940308 0.172394 0.146759
0.030792 0.036530 0.032837
0.050232 0.039215 0.032013
0.071136 0.042816 0.031006
0.095367 0.046570 0.029572
0.122711 0.050110 0.028870
0.153412 0.054047 0.028870
0.187012 0.057312 0.029846
0.222717 0.060852 0.031952
0.259888 0.064301 0.035797
0.297791 0.068024 0.040497
0.336212 0.071320 0.045074
0.374695 0.074768 0.050568
0.412872 0.078186 0.055573
0.450531 0.081696 0.060516
0.487335 0.085419 0.065857
0.522797 0.089233 0.070679
0.556732 0.093201 0.075745
0.589111 0.097473 0.080658
0.620117 0.101837 0.085541
0.649750 0.106384 0.090454
0.678375 0.110962 0.095520
0.705963 0.115845 0.100494
0.732574 0.121094 0.105713
0.758087 0.126678 0.110840
0.782318 0.133057 0.115906
0.805420 0.139984 0.120819
0.827484 0.147369 0.125366
0.848663 0.154877 0.129822
0.868927 0.162170 0.133820
0.888123 0.168762 0.137451
0.906372 0.174622 0.140533
0.923950 0.179596 0.143311
0.940918 0.183929 0.145508
0.046539 0.055054 0.049347
0.061829 0.058075 0.048157
0.078979 0.061615 0.045929
0.098846 0.065735 0.042084
0.123199 0.070007 0.038300
0.151581 0.073822 0.035309
0.183441 0.077148 0.033539
0.218109 0.080139 0.033295
0.254791 0.083099 0.034851
0.292847 0.086151 0.037781
0.331512 0.089111 0.041687
0.370422 0.092010 0.046631
0.409241 0.095032 0.051575
0.447571 0.098083 0.056824
0.485016 0.101166 0.062073
0.521118 0.104584 0.067291
0.555634 0.108307 0.072327
0.588501 0.112122 0.077545
0.619904 0.116119 0.082733
0.649811 0.120270 0.087769
0.678589 0.124634 0.092896
0.706268 0.129181 0.098145
0.732910 0.134247 0.103363
0.758484 0.139618 0.108612
0.782715 0.145752 0.113678
0.805878 0.152405 0.118652
0.827972 0.159637 0.123474
0.849182 0.167023 0.127838
0.869507 0.174225 0.131897
0.888763 0.180786 0.135590
0.907104 0.186432 0.138794
0.924805 0.191559 0.141479
0.941803 0.195892 0.143890
0.062317 0.074585 0.065125
0.075104 0.077759 0.064209
0.089203 0.081146 0.062042
0.105988 0.085297 0.057892
0.126312 0.090454 0.051636
0.152008 0.095123 0.045380
0.181885 0.099213 0.040680
0.215149 0.102325 0.037231
0.250854 0.105133 0.035950
0.288422 0.107605 0.036865
0.327087 0.110199 0.038940
0.366180 0.112488 0.042633
0.405365 0.114960 0.047119
0.444244 0.117554 0.052124
0.482391 0.120422 0.057098
0.519104 0.123322 0.062653
0.554321 0.126587 0.068115
0.587891 0.130096 0.073486
0.619751 0.133606 0.078674
0.650085 0.137360 0.083923
0.679169 0.141449 0.089325
0.707031 0.145569 0.094513
0.733765 0.150177 0.099884
0.759369 0.155304 0.105255
0.783630 0.160919 0.110565
0.806793 0.167206 0.115662
0.828949 0.173981 0.120422
0.850250 0.181091 0.125031
0.870544 0.187866 0.129181
0.889893 0.194092 0.132996
0.908264 0.199615 0.136230
0.925995 0.204468 0.139099
0.943085 0.208588 0.141632
0.077881 0.095337 0.080078
0.089111 0.098083 0.079865
0.101746 0.101532 0.078461
0.115967 0.105835 0.075104
0.133453 0.111053 0.068939
0.155334 0.117096 0.060211
0.182526 0.122284 0.052155
0.213928 0.126495 0.045746
0.248260 0.129944 0.040894
0.285004 0.132538 0.038147
0.323120 0.134705 0.037628
0.362213 0.136749 0.039368
0.401520 0.138763 0.042572
0.440765 0.140839 0.046906
0.479462 0.143158 0.051788
0.516876 0.145599 0.057037
0.552826 0.148499 0.062469
0.587067 0.151611 0.068085
0.619690 0.154907 0.073456
0.650604 0.158417 0.079163
0.680054 0.162018 0.084503
0.708282 0.165771 0.089813
0.735260 0.169952 0.095337
0.760925 0.174500 0.100861
0.785309 0.179688 0.106079
0.808472 0.185394 0.111267
0.830719 0.191589 0.116333
0.851990 0.197968 0.120941
0.872406 0.204163 0.125397
0.891754 0.209900 0.129333
0.910156 0.214874 0.132782
0.927917 0.219208 0.135803
0.945068 0.223083 0.138458
0.093323 0.116547 0.094391
0.104736 0.119324 0.094879
0.116394 0.122498 0.094604
0.129059 0.126801 0.092285
0.144043 0.132080 0.087433
0.162567 0.138336 0.079590
0.186066 0.145172 0.068756
0.214752 0.151031 0.058868
0.247284 0.155548 0.050568
0.282684 0.159027 0.044037
0.320099 0.161865 0.039734
0.358551 0.163818 0.038177
0.397797 0.165588 0.039124
0.437195 0.167328 0.042053
0.476227 0.169159 0.045807
0.514282 0.171387 0.050568
0.550903 0.173828 0.055969
0.585907 0.176544 0.061462
0.619293 0.179535 0.067108
0.650940 0.182678 0.072693
0.681091 0.186035 0.078247
0.709778 0.189514 0.083893
0.737122 0.193359 0.089325
0.763062 0.197449 0.094818
0.787659 0.202148 0.100220
0.811005 0.207214 0.105530
0.833374 0.212677 0.110657
0.854767 0.218384 0.115570
0.875214 0.223816 0.120148
0.894684 0.228638 0.124237
0.913147 0.233002 0.127869
0.930969 0.236816 0.131165
0.948212 0.239990 0.133972
0.109192 0.138580 0.108337
0.120728 0.141235 0.109283
0.132538 0.144226 0.109924
0.144531 0.148254 0.108948
0.157623 0.153442 0.105804
0.173340 0.159698 0.099579
0.193237 0.167053 0.089691
0.218018 0.174744 0.077057
0.247955 0.181122 0.065033
0.281616 0.186005 0.054901
0.317749 0.189667 0.046844
0.355560 0.192505 0.041168
0.394226 0.194672 0.038544
0.433472 0.196259 0.038788
0.472565 0.197906 0.040955
0.511047 0.199585 0.044373
0.548279 0.201630 0.049194
0.584045 0.203979 0.054199
0.618225 0.206665 0.059753
0.650665 0.209564 0.065399
0.681610 0.212616 0.070984
0.711029 0.215851 0.076508
0.738892 0.219330 0.082184
0.765320 0.223206 0.087646
0.790253 0.227325 0.093109
0.813965 0.231842 0.098419
0.836609 0.236755 0.103668
0.858246 0.241669 0.108734
0.878906 0.246368 0.113434
0.898499 0.250519 0.117676
0.917145 0.254120 0.121521
0.935089 0.257263 0.125061
0.952393 0.259918 0.128113
0.125153 0.161591 0.121826
0.137268 0.164032 0.123138
0.149414 0.166931 0.124207
0.161469 0.170685 0.124573
0.173798 0.175537 0.123199
0.187469 0.181824 0.118927
0.204071 0.189240 0.111053
0.225128 0.197388 0.099365
0.250946 0.205658 0.084869
0.281952 0.212524 0.071045
0.316345 0.217651 0.059265
0.353027 0.221527 0.049835
0.391052 0.224365 0.042786
0.429810 0.226624 0.039124
0.468689 0.228302 0.038147
0.507202 0.229858 0.039612
0.544800 0.231537 0.042694
0.581238 0.233459 0.046967
0.616150 0.235657 0.051819
0.649445 0.238220 0.057220
0.681183 0.240997 0.062714
0.711426 0.243958 0.068359
0.740112 0.247040 0.073761
0.767151 0.250549 0.079407
0.792664 0.254364 0.084808
0.816895 0.258453 0.090088
0.839996 0.262756 0.095459
0.862091 0.267120 0.100433
0.883087 0.271179 0.105347
0.902985 0.274750 0.109833
0.921936 0.277771 0.113892
0.940125 0.280273 0.117584
0.957642 0.282501 0.120880
0.141266 0.185913 0.135376
0.154114 0.187927 0.136963
0.167114 0.190704 0.138367
0.179535 0.194336 0.139313
0.191772 0.198792 0.139160
0.204193 0.204865 0.137024
0.218414 0.212006 0.131622
0.235840 0.220245 0.122284
0.257751 0.229004 0.108948
0.284485 0.237946 0.092621
0.316284 0.245056 0.076965
0.351257 0.250488 0.063538
0.388275 0.254456 0.052856
0.426392 0.257324 0.044769
0.464905 0.259644 0.039459
0.503082 0.261383 0.037506
0.540741 0.262878 0.038086
0.577454 0.264465 0.040405
0.613007 0.266174 0.044067
0.647034 0.268311 0.048981
0.679596 0.270660 0.053986
0.710693 0.273193 0.059235
0.740234 0.275940 0.064606
0.768158 0.278992 0.069946
0.794403 0.282440 0.075287
0.819305 0.286102 0.080688
0.843079 0.289978 0.086060
0.865814 0.293854 0.091248
0.887360 0.297394 0.096161
0.907745 0.300476 0.100739
0.927155 0.303101 0.104858
0.945740 0.305206 0.108795
0.963684 0.307037 0.112183
0.157959 0.211487 0.148926
0.171539 0.213470 0.150726
0.185181 0.216034 0.152191
0.198364 0.219299 0.153717
0.210999 0.223663 0.154480
0.223206 0.229034 0.153900
0.235870 0.235840 0.150818
0.250488 0.243835 0.144165
0.268524 0.252747 0.133514
0.291046 0.262054 0.118652
0.318451 0.271179 0.100525
0.350769 0.278564 0.082916
0.386017 0.283966 0.068085
0.423187 0.288025 0.055878
0.461212 0.290955 0.046204
0.499146 0.293121 0.039856
0.536530 0.294891 0.036560
0.573212 0.296417 0.036163
0.608978 0.297821 0.037659
0.643555 0.299408 0.040924
0.676758 0.301270 0.045044
0.708618 0.303284 0.049713
0.739044 0.305634 0.054840
0.767883 0.308167 0.059967
0.795105 0.311066 0.065186
0.820862 0.314331 0.070435
0.845428 0.317719 0.075775
0.868896 0.321136 0.080963
0.891266 0.324310 0.085876
0.912354 0.327026 0.090485
0.932312 0.329376 0.094818
0.951569 0.331299 0.098724
0.970032 0.332886 0.102509
0.175171 0.238617 0.162903
0.189331 0.240417 0.164551
0.203827 0.242676 0.166321
0.217651 0.245697 0.167908
0.231018 0.249664 0.169220
0.243622 0.254730 0.169769
0.255737 0.261017 0.168579
0.268494 0.268463 0.164581
0.283417 0.277008 0.156891
0.301788 0.286285 0.144806
0.324860 0.295898 0.128113
0.352722 0.304993 0.108368
0.385254 0.312408 0.089081
0.420654 0.317902 0.072601
0.457733 0.321869 0.058716
0.495270 0.324707 0.047852
0.532562 0.326843 0.040161
0.569092 0.328522 0.035828
0.604736 0.329956 0.034027
0.639404 0.331238 0.034790
0.673096 0.332611 0.037170
0.705566 0.334167 0.040802
0.736725 0.335999 0.045166
0.766418 0.338074 0.049866
0.794617 0.340424 0.054749
0.821411 0.343109 0.059875
0.846893 0.345947 0.064941
0.871216 0.348877 0.070038
0.894379 0.351624 0.075073
0.916382 0.354004 0.079742
0.937164 0.356079 0.084106
0.957092 0.357788 0.088135
0.976318 0.359283 0.091888
0.193390 0.267120 0.177338
0.207977 0.268616 0.179047
0.222992 0.270691 0.180756
0.237610 0.273346 0.182495
0.251678 0.276978 0.184143
0.264923 0.281555 0.185242
0.277374 0.287323 0.185272
0.289337 0.294159 0.183319
0.302002 0.302094 0.178497
0.316956 0.311035 0.169586
0.335632 0.320526 0.155914
0.358978 0.330078 0.137573
0.387054 0.339172 0.116028
0.419708 0.346466 0.095093
0.455017 0.351837 0.076843
0.491669 0.355743 0.061310
0.528625 0.358490 0.048950
0.565155 0.360413 0.040131
0.600830 0.362000 0.034637
0.635376 0.363342 0.031860
0.669098 0.364502 0.031525
0.701904 0.365631 0.033203
0.733643 0.367035 0.036285
0.764069 0.368652 0.040222
0.793121 0.370483 0.044403
0.820862 0.372559 0.049072
0.847412 0.374847 0.054108
0.872711 0.377258 0.059021
0.896820 0.379517 0.063873
0.919678 0.381500 0.068481
0.941437 0.383209 0.072906
0.962219 0.384735 0.076996
0.982208 0.386017 0.080872
0.212494 0.296631 0.192383
0.227539 0.297943 0.194031
0.243011 0.299683 0.195831
0.258209 0.302063 0.197632
0.273010 0.305237 0.199402
0.287109 0.309418 0.200989
0.300079 0.314606 0.201630
0.312073 0.320892 0.201080
0.323669 0.328125 0.198456
0.336121 0.336395 0.192566
0.351074 0.345428 0.182190
0.369873 0.354980 0.166962
0.393311 0.364502 0.147003
0.421417 0.373413 0.123657
0.453979 0.380554 0.100769
0.488892 0.385803 0.080627
0.524933 0.389557 0.063599
0.561249 0.392120 0.049957
0.597076 0.393921 0.039856
0.631775 0.395294 0.033356
0.665436 0.396515 0.029602
0.698242 0.397614 0.028381
0.730194 0.398651 0.029327
0.761200 0.399902 0.031708
0.790955 0.401276 0.035034
0.819550 0.402893 0.039001
0.847076 0.404602 0.043365
0.873444 0.406433 0.047913
0.898468 0.408203 0.052643
0.922333 0.409729 0.057159
0.945038 0.411041 0.061462
0.966858 0.412170 0.065552
0.987793 0.413300 0.069458
0.232880 0.327148 0.208099
0.248230 0.328186 0.209686
0.264130 0.329651 0.211548
0.279755 0.331665 0.213348
0.295135 0.334351 0.215271
0.309998 0.338043 0.216980
0.323639 0.342773 0.218170
0.336090 0.348480 0.218414
0.347565 0.355103 0.217224
0.358734 0.362701 0.213684
0.370880 0.371063 0.206635
0.385712 0.380249 0.194794
0.404449 0.389709 0.177887
0.427826 0.399048 0.156219
0.455750 0.407776 0.131012
0.487854 0.414642 0.106110
0.522217 0.419678 0.084290
0.557678 0.423248 0.065704
0.593292 0.425690 0.050537
0.628265 0.427338 0.039368
0.662231 0.428558 0.031921
0.695129 0.429596 0.027405
0.727081 0.430603 0.025299
0.758209 0.431641 0.025299
0.788483 0.432678 0.027191
0.817810 0.433899 0.030029
0.846130 0.435150 0.033447
0.873413 0.436462 0.037415
0.899567 0.437683 0.041656
0.924408 0.438721 0.045898
0.948120 0.439697 0.050079
0.970978 0.440491 0.054047
0.992950 0.441223 0.057831
0.254517 0.358337 0.224518
0.270233 0.359192 0.226166
0.286438 0.360291 0.227936
0.302460 0.362030 0.229797
0.318298 0.364349 0.231689
0.333649 0.367584 0.233551
0.348022 0.371643 0.235016
0.361206 0.376801 0.235901
0.372986 0.382904 0.235565
0.383820 0.389862 0.233551
0.394348 0.397644 0.228973
0.406158 0.406128 0.220459
0.420776 0.415222 0.207153
0.439331 0.424622 0.188660
0.462402 0.433807 0.165283
0.489838 0.442169 0.137939
0.521393 0.448792 0.111267
0.555145 0.453583 0.087799
0.589966 0.456940 0.067657
0.624786 0.459137 0.051331
0.659027 0.460632 0.039001
0.692322 0.461670 0.030701
0.724579 0.462616 0.025452
0.755768 0.463593 0.022736
0.786194 0.464478 0.021790
0.815948 0.465424 0.023010
0.844910 0.466339 0.025269
0.873016 0.467255 0.028198
0.900085 0.468048 0.031616
0.926086 0.468689 0.035339
0.950836 0.469238 0.039124
0.974701 0.469696 0.042816
0.997681 0.470123 0.046356
0.277191 0.390167 0.241486
0.293274 0.390778 0.243103
0.309723 0.391724 0.244843
0.326019 0.393066 0.246674
0.342285 0.395020 0.248657
0.358093 0.397705 0.250488
0.373047 0.401276 0.252197
0.386871 0.405701 0.253357
0.399231 0.411255 0.253632
0.410217 0.417633 0.252747
0.420227 0.424866 0.249695
0.430176 0.432831 0.243866
0.441650 0.441376 0.233978
0.455902 0.450470 0.219086
0.474091 0.459686 0.198944
0.496735 0.468628 0.173584
0.523682 0.476624 0.144440
0.554596 0.482941 0.116089
0.587769 0.487427 0.091003
0.621796 0.490509 0.069397
0.655945 0.492493 0.051880
0.689514 0.493805 0.038727
0.722168 0.494720 0.029633
0.753784 0.495544 0.023712
0.784424 0.496368 0.020111
0.814362 0.497192 0.018677
0.843689 0.497925 0.019073
0.872406 0.498535 0.020691
0.900299 0.499084 0.023071
0.927216 0.499359 0.025818
0.953064 0.499573 0.028900
0.977966 0.499756 0.032196
1.000000 0.499908 0.035370
0.300751 0.422333 0.258942
0.317078 0.422791 0.260468
0.333862 0.423523 0.262177
0.350433 0.424591 0.264038
0.366913 0.426147 0.265961
0.383118 0.428345 0.267883
0.398590 0.431396 0.269623
0.412933 0.435242 0.270996
0.425934 0.440125 0.271790
0.437347 0.445923 0.271454
0.447388 0.452698 0.269501
0.456604 0.460114 0.265411
0.466034 0.468170 0.258240
0.476929 0.476807 0.246979
0.490784 0.485809 0.230591
0.508575 0.494812 0.208496
0.530762 0.503418 0.181366
0.557129 0.511017 0.150513
0.587433 0.516968 0.120514
0.619934 0.521118 0.093781
0.653290 0.523895 0.070984
0.686768 0.525726 0.052521
0.719757 0.526825 0.038513
0.751831 0.527649 0.028656
0.782898 0.528351 0.022034
0.813171 0.529022 0.017883
0.842743 0.529663 0.015747
0.871796 0.530182 0.015533
0.900238 0.530487 0.016479
0.927917 0.530609 0.018097
0.954773 0.530609 0.020203
0.980774 0.530548 0.022736
1.000000 0.530457 0.025330
0.325043 0.454620 0.276733
0.341644 0.454956 0.278290
0.358582 0.455475 0.279938
0.375397 0.456329 0.281738
0.392242 0.457520 0.283691
0.408630 0.459320 0.285583
0.424316 0.461792 0.287354
0.439087 0.465118 0.288788
0.452545 0.469330 0.289734
0.464569 0.474518 0.289856
0.474854 0.480774 0.288727
0.483948 0.487701 0.285828
0.492462 0.495331 0.280548
0.501282 0.503479 0.272064
0.511719 0.512115 0.259247
0.525177 0.520966 0.241058
0.542572 0.529724 0.217346
0.564301 0.537964 0.188599
0.590149 0.545166 0.156128
0.619873 0.550720 0.124451
0.651703 0.554535 0.096405
0.684448 0.557098 0.072601
0.717377 0.558746 0.053131
0.749786 0.559723 0.038330
0.781311 0.560425 0.027802
0.812042 0.560944 0.020477
0.842072 0.561462 0.015839
0.871399 0.561890 0.013184
0.900146 0.562164 0.012177
0.928436 0.562225 0.012482
0.956055 0.562103 0.013397
0.983032 0.561890 0.014923
1.000000 0.561615 0.016785
0.349884 0.486816 0.294800
0.366699 0.487000 0.296234
0.383911 0.487335 0.297943
0.400909 0.487946 0.299652
0.417755 0.488892 0.301483
0.434204 0.490234 0.303406
0.450104 0.492188 0.305115
0.465118 0.494934 0.306610
0.478882 0.498535 0.307770
0.491180 0.503174 0.308197
0.501923 0.508728 0.307587
0.511169 0.515259 0.305542
0.519409 0.522461 0.301544
0.527313 0.530243 0.294952
0.535583 0.538452 0.285065
0.545685 0.547058 0.270569
0.558929 0.555756 0.250763
0.575989 0.564270 0.225494
0.597321 0.572144 0.195190
0.622681 0.578979 0.161102
0.651855 0.584137 0.127991
0.683136 0.587738 0.098846
0.715393 0.590088 0.074005
0.747803 0.591553 0.053650
0.779724 0.592407 0.038025
0.810913 0.592987 0.026886
0.841339 0.593384 0.019135
0.871063 0.593689 0.014099
0.900299 0.593842 0.010956
0.928864 0.593903 0.009338
0.957092 0.593811 0.008942
0.984863 0.593567 0.009277
1.000000 0.593231 0.010193
0.375122 0.518646 0.312958
0.392059 0.518707 0.314362
0.409393 0.518890 0.315979
0.426422 0.519287 0.317657
0.443237 0.519958 0.319458
0.459747 0.520966 0.321289
0.475494 0.522430 0.323029
0.490509 0.524567 0.324493
0.504425 0.527588 0.325623
0.517029 0.531525 0.326294
0.528076 0.536530 0.326050
0.537720 0.542511 0.324615
0.546021 0.549286 0.321564
0.553558 0.556671 0.316315
0.560883 0.564575 0.308441
0.568848 0.572876 0.297028
0.578766 0.581390 0.280975
0.591858 0.589996 0.259583
0.608673 0.598236 0.232819
0.629700 0.605835 0.200928
0.654755 0.612305 0.165375
0.683441 0.617188 0.131104
0.714294 0.620575 0.100922
0.746124 0.622772 0.075134
0.778046 0.624146 0.053955
0.809570 0.624878 0.037781
0.840454 0.625305 0.026154
0.870636 0.625580 0.017914
0.900269 0.625641 0.012390
0.929291 0.625610 0.008942
0.957886 0.625519 0.006989
0.986298 0.625366 0.006012
1.000000 0.625061 0.005798
0.400452 0.550018 0.331238
0.417419 0.549957 0.332550
0.434723 0.549957 0.334076
0.451630 0.550140 0.335632
0.468353 0.550507 0.337372
0.484619 0.551270 0.339111
0.500275 0.552338 0.340759
0.515076 0.553955 0.342194
0.529022 0.556366 0.343353
0.541809 0.559692 0.344086
0.553162 0.564087 0.344025
0.563049 0.569458 0.343079
0.571716 0.575684 0.340698
0.579285 0.582733 0.336578
0.586243 0.590302 0.330109
0.593262 0.598297 0.320740
0.601105 0.606628 0.307800
0.610962 0.615112 0.290253
0.623932 0.623535 0.267426
0.640656 0.631592 0.239075
0.661499 0.638916 0.205719
0.686249 0.645233 0.169006
0.714661 0.649902 0.133667
0.745178 0.653107 0.102386
0.776611 0.655212 0.075714
0.808167 0.656464 0.054016
0.839386 0.657135 0.037292
0.870026 0.657440 0.025238
0.900024 0.657532 0.016724
0.929474 0.657410 0.010956
0.958557 0.657257 0.007294
0.987366 0.657074 0.004913
1.000000 0.656860 0.003448
0.425446 0.580994 0.349548
0.442322 0.580719 0.350800
0.459503 0.580597 0.352112
0.476257 0.580597 0.353607
0.492676 0.580750 0.355072
0.508698 0.581146 0.356720
0.524048 0.581879 0.358337
0.538666 0.583069 0.359650
0.552460 0.584869 0.360779
0.565247 0.587555 0.361542
0.576813 0.591309 0.361694
0.587067 0.596100 0.360992
0.596039 0.601807 0.359222
0.603943 0.608337 0.355927
0.610962 0.615540 0.350464
0.617615 0.623230 0.342590
0.624542 0.631348 0.331757
0.632355 0.639740 0.317352
0.642242 0.648132 0.298370
0.655212 0.656433 0.273956
0.671906 0.664368 0.244141
0.692719 0.671539 0.209595
0.717316 0.677673 0.171814
0.745544 0.682220 0.135437
0.775757 0.685364 0.103271
0.806885 0.687408 0.076019
0.838165 0.688568 0.053741
0.869171 0.689178 0.036621
0.899567 0.689331 0.024384
0.929443 0.689270 0.015625
0.958893 0.689087 0.009674
0.988129 0.688812 0.005707
1.000000 0.688629 0.002899
0.449707 0.611542 0.367645
0.466431 0.611176 0.368805
0.483337 0.610870 0.370087
0.499847 0.610657 0.371338
0.515961 0.610626 0.372742
0.531555 0.610809 0.374207
0.546539 0.611176 0.375580
0.560883 0.612000 0.376831
0.574432 0.613281 0.377869
0.587219 0.615295 0.378601
0.598907 0.618347 0.378876
0.609436 0.622467 0.378418
0.618805 0.627625 0.376984
0.627136 0.633636 0.374237
0.634552 0.640411 0.369812
0.641205 0.647827 0.362976
0.647736 0.655640 0.353668
0.654602 0.663757 0.341431
0.662537 0.672058 0.325531
0.672485 0.680481 0.304901
0.685608 0.688751 0.279053
0.702423 0.696564 0.248016
0.723267 0.703674 0.212433
0.747864 0.709778 0.173737
0.776001 0.714264 0.136353
0.806030 0.717377 0.103577
0.836975 0.719391 0.075836
0.868073 0.720520 0.053162
0.898865 0.721008 0.035858
0.929138 0.721039 0.023438
0.958984 0.720886 0.014648
0.988647 0.720673 0.008392
1.000000 0.720459 0.003876
0.472900 0.641693 0.385498
0.489349 0.641296 0.386505
0.505920 0.640930 0.387604
0.522064 0.640625 0.388763
0.537811 0.640411 0.390015
0.552979 0.640350 0.391327
0.567657 0.640442 0.392487
0.581635 0.640839 0.393646
0.595001 0.641693 0.394592
0.607605 0.643188 0.395233
0.619293 0.645477 0.395447
0.629974 0.648895 0.395081
0.639709 0.653381 0.393921
0.648438 0.658844 0.391602
0.656189 0.665039 0.387756
0.663208 0.672058 0.381927
0.669800 0.679565 0.373840
0.676300 0.687439 0.363129
0.683228 0.695557 0.349365
0.691284 0.703918 0.331818
0.701630 0.712280 0.309753
0.715057 0.720581 0.282562
0.732147 0.728394 0.250427
0.753204 0.735504 0.213928
0.777985 0.741608 0.174316
0.806122 0.746124 0.136444
0.836121 0.749298 0.103271
0.866943 0.751251 0.075165
0.897919 0.752319 0.052368
0.928558 0.752716 0.035065
0.958801 0.752716 0.022705
0.988861 0.752563 0.013580
1.000000 0.752380 0.006744
0.494751 0.671783 0.402649
0.510986 0.671417 0.403564
0.527283 0.671021 0.404572
0.543091 0.670654 0.405670
0.558411 0.670288 0.406738
0.573334 0.670044 0.407867
0.587585 0.669922 0.408966
0.601257 0.669983 0.409851
0.614288 0.670441 0.410675
0.626740 0.671448 0.411224
0.638306 0.673126 0.411346
0.649109 0.675720 0.410980
0.658966 0.679504 0.409851
0.667938 0.684326 0.407837
0.676147 0.689972 0.404449
0.683502 0.696411 0.399323
0.690308 0.703491 0.392212
0.696808 0.711090 0.382721
0.703339 0.718994 0.370544
0.710571 0.727173 0.355133
0.718994 0.735565 0.336121
0.729706 0.744019 0.312622
0.743622 0.752319 0.284271
0.761169 0.760223 0.251190
0.782684 0.767426 0.213867
0.807800 0.773590 0.173798
0.836090 0.778168 0.135590
0.866119 0.781281 0.102142
0.896912 0.783173 0.074036
0.927734 0.784088 0.051483
0.958374 0.784454 0.034363
0.988831 0.784454 0.021759
1.000000 0.784393 0.012207
0.515472 0.701874 0.418671
0.531342 0.701508 0.419586
0.547333 0.701172 0.420593
0.562775 0.700806 0.421600
0.577850 0.700470 0.422577
0.592407 0.700134 0.423645
0.606323 0.699890 0.424561
0.619659 0.699738 0.425385
0.632477 0.699860 0.426025
0.644623 0.700378 0.426392
0.656006 0.701508 0.426361
0.666687 0.703522 0.425903
0.676636 0.706421 0.424805
0.685822 0.710480 0.422913
0.694275 0.715515 0.419830
0.701935 0.721405 0.415192
0.709076 0.728027 0.408783
0.715759 0.735199 0.400299
0.722321 0.742859 0.389343
0.729095 0.750916 0.375549
0.736633 0.759247 0.358551
