lut/retro-80s/Purple Rain (1984) - Standard.cube
# Created by Benjamin (IWLTBAP): https://luts.iwltbap.com
# Copyright: (C) Copyright 2018 Triune Films and IWLTBAP SAS
# Cannot be resold, shared or otherwise redistributed
TITLE "Triune Films 80s Retro LUTs (Rec.709, sRGB, DCI-P3)"
LUT_3D_SIZE 5
0.001709 0.001617 0.000000
0.271179 0.034546 0.040314
0.558441 0.070221 0.079926
0.782257 0.111908 0.118591
0.939850 0.161255 0.147858
0.125153 0.161591 0.121826
0.250946 0.205658 0.084869
0.544800 0.231537 0.042694
0.792664 0.254364 0.084808
0.957642 0.282501 0.120880
0.277191 0.390167 0.241486
0.399231 0.411255 0.253632
0.523682 0.476624 0.144440
0.784424 0.496368 0.020111
1.000000 0.499908 0.035370
0.472900 0.641693 0.385498
0.595001 0.641693 0.394592
0.669800 0.679565 0.373840
0.777985 0.741608 0.174316
1.000000 0.752380 0.006744
0.609161 0.880890 0.474457
0.703949 0.886932 0.476685
0.782318 0.902100 0.464386
0.854645 0.958282 0.376434
1.000000 1.000000 0.158508
0.014069 0.042206 0.236053
0.268921 0.066193 0.253235
0.563049 0.107697 0.266113
0.790192 0.143433 0.288696
0.939941 0.182983 0.300385
0.063049 0.196930 0.240082
0.222168 0.201019 0.240326
0.539795 0.232422 0.236938
0.795471 0.256439 0.255615
0.953827 0.286102 0.280029
0.264648 0.402679 0.360443
0.396393 0.414459 0.374878
0.523773 0.474884 0.329254
0.787659 0.494812 0.232086
0.998016 0.497620 0.233978
0.454132 0.640625 0.528137
0.593964 0.644104 0.537506
0.679413 0.680328 0.536957
0.780609 0.740906 0.383392
1.000000 0.750824 0.235687
0.578857 0.884583 0.615875
0.693756 0.886597 0.621063
0.786987 0.898682 0.615814
0.859100 0.954987 0.551544
1.000000 1.000000 0.384583
0.039795 0.101257 0.480621
0.245422 0.110748 0.513092
0.558990 0.146149 0.529907
0.793518 0.202698 0.552368
0.927307 0.272644 0.558472
0.047241 0.260315 0.492950
0.158478 0.239349 0.505524
0.529205 0.261749 0.514923
0.797729 0.298401 0.519379
0.935577 0.334106 0.525177
0.117767 0.489685 0.525238
0.224274 0.481659 0.522369
0.512207 0.485291 0.522583
0.798584 0.506104 0.493744
0.973297 0.506134 0.477081
0.437286 0.681152 0.643311
0.576630 0.675964 0.641235
0.707336 0.701630 0.668701
0.794800 0.748108 0.596161
1.000000 0.746429 0.478546
0.560120 0.897461 0.740051
0.684692 0.897858 0.740936
0.796661 0.903503 0.750824
0.875641 0.950012 0.733215
1.000000 1.000000 0.621155
0.103088 0.160339 0.688477
0.251556 0.170837 0.723267
0.541656 0.203583 0.757690
0.787750 0.251923 0.782776
0.932587 0.315948 0.802032
0.074524 0.315552 0.721985
0.141144 0.291931 0.741058
0.486694 0.308624 0.769165
0.795441 0.343811 0.784454
0.938934 0.386688 0.792328
0.123566 0.543610 0.733887
0.161224 0.541992 0.742767
0.423645 0.520782 0.775909
0.797363 0.545074 0.780273
0.949341 0.563080 0.759308
0.217285 0.756775 0.771179
0.274780 0.758850 0.776031
0.470703 0.765289 0.786774
0.804169 0.777069 0.793121
0.989716 0.760345 0.740662
0.530579 0.922485 0.850433
0.658783 0.922211 0.849365
0.781799 0.925964 0.852966
0.899200 0.952332 0.876770
1.000000 1.000000 0.839905
0.197510 0.228577 0.833466
0.313019 0.231598 0.858643
0.559418 0.267792 0.898163
0.785522 0.318695 0.935669
0.927216 0.384125 0.960480
0.156952 0.372864 0.868591
0.234436 0.343933 0.879120
0.494629 0.362274 0.909760
0.783112 0.404724 0.944305
0.932983 0.453156 0.963531
0.187317 0.576080 0.889984
0.213104 0.564056 0.893066
0.366882 0.536469 0.926514
0.770325 0.568085 0.956818
0.948578 0.609589 0.970795
0.306000 0.765717 0.893799
0.333344 0.765472 0.894287
0.407959 0.765961 0.916962
0.724915 0.772827 0.966980
0.974487 0.788879 0.977600
0.331390 0.926208 0.925873
0.374817 0.928101 0.929382
0.433685 0.934296 0.941071
0.569489 0.957428 0.971680
1.000000 1.000000 1.000000
