lut/retro-80s/Raiders of the Lost Ark (1981) - Standard.cube
# Created by Benjamin (IWLTBAP): https://luts.iwltbap.com
# Copyright: (C) Copyright 2018 Triune Films and IWLTBAP SAS
# Cannot be resold, shared or otherwise redistributed
TITLE "Triune Films 80s Retro LUTs (Rec.709, sRGB, DCI-P3)"
LUT_3D_SIZE 33
0.000000 0.000000 0.000000
0.010193 0.001007 0.000000
0.021851 0.001648 0.000000
0.035339 0.002167 0.000000
0.050629 0.003143 0.000000
0.068420 0.003326 0.000000
0.089233 0.004303 0.000000
0.111389 0.004852 0.000000
0.135071 0.005463 0.000000
0.159363 0.005676 0.000000
0.183746 0.005829 0.000000
0.207642 0.006500 0.000000
0.231415 0.006989 0.000000
0.255554 0.007324 0.000000
0.280029 0.008148 0.000000
0.304901 0.008911 0.000000
0.330505 0.009308 0.000000
0.356964 0.010315 0.000000
0.383728 0.009796 0.000000
0.411102 0.010529 0.000000
0.439026 0.010529 0.000000
0.467682 0.011017 0.000000
0.496735 0.010712 0.000000
0.526489 0.010559 0.000000
0.556885 0.011353 0.000000
0.587830 0.011353 0.000000
0.619354 0.010803 0.000000
0.651398 0.011261 0.000000
0.684540 0.012268 0.000000
0.717957 0.013245 0.000000
0.751617 0.014252 0.000488
0.785583 0.015228 0.000854
0.819122 0.015411 0.000854
0.000000 0.014801 0.002045
0.012878 0.016144 0.001404
0.027069 0.017517 0.001038
0.044128 0.019135 0.001038
0.062500 0.020294 0.001038
0.083954 0.021362 0.001038
0.107269 0.021606 0.000214
0.131592 0.022186 0.000214
0.156555 0.022614 0.000000
0.181824 0.022797 0.000000
0.206696 0.022797 0.000000
0.231110 0.022797 0.000000
0.255402 0.023163 0.000000
0.279510 0.023621 0.000000
0.303802 0.024506 0.000000
0.328613 0.025482 0.000000
0.353973 0.026245 0.000000
0.379700 0.026642 0.000000
0.405975 0.027649 0.000214
0.432831 0.027985 0.000000
0.460358 0.028687 0.000000
0.488525 0.029144 0.000000
0.517151 0.029510 0.000000
0.546417 0.029694 0.000000
0.576294 0.030457 0.000000
0.606750 0.030609 0.000000
0.637787 0.031158 0.000214
0.669586 0.032318 0.000214
0.701996 0.033356 0.000214
0.734619 0.034393 0.001038
0.767578 0.035522 0.001038
0.800781 0.036926 0.001495
0.833466 0.037323 0.001709
0.000000 0.030334 0.004456
0.013519 0.031891 0.004303
0.031189 0.034607 0.003723
0.050720 0.037567 0.002045
0.072937 0.039764 0.002045
0.097839 0.041168 0.002045
0.123932 0.042755 0.001801
0.150696 0.042847 0.000854
0.177307 0.042847 0.000244
0.203674 0.042847 0.000366
0.229706 0.042847 0.000244
0.254852 0.042847 0.000366
0.279449 0.042847 0.000366
0.303772 0.043488 0.000366
0.328186 0.044373 0.000366
0.352692 0.044983 0.000366
0.377594 0.045898 0.000366
0.402893 0.046600 0.000000
0.428802 0.047577 0.000793
0.455261 0.048279 0.000366
0.482330 0.049316 0.000366
0.510010 0.049774 0.000366
0.538208 0.050354 0.000000
0.567017 0.051086 0.000000
0.596405 0.051941 0.000214
0.626343 0.052582 0.000366
0.657013 0.053467 0.000580
0.688324 0.054901 0.001221
0.719971 0.056183 0.001221
0.751862 0.057922 0.001221
0.783997 0.059113 0.002045
0.816223 0.060211 0.002045
0.848114 0.060608 0.002045
0.000000 0.047974 0.006989
0.011658 0.050415 0.007324
0.031281 0.053253 0.006683
0.054108 0.055817 0.005280
0.079437 0.060699 0.003601
0.108063 0.064240 0.002991
0.137299 0.066101 0.002533
0.166718 0.067169 0.001801
0.195892 0.067596 0.001862
0.224030 0.067596 0.001373
0.251099 0.067261 0.001007
0.277191 0.067261 0.001099
0.302490 0.067261 0.001404
0.327179 0.067383 0.001404
0.351532 0.067780 0.001404
0.376007 0.068085 0.001190
0.400787 0.068848 0.000854
0.425903 0.069580 0.000793
0.451477 0.070496 0.000793
0.477661 0.071320 0.000854
0.504303 0.072418 0.000854
0.531525 0.073212 0.000854
0.559296 0.074219 0.000732
0.587677 0.074860 0.000549
0.616547 0.075958 0.000549
0.646149 0.076996 0.001251
0.676331 0.078247 0.001404
0.707062 0.079620 0.002136
0.738068 0.081177 0.002258
0.769196 0.082733 0.002258
0.800293 0.084045 0.002258
0.831696 0.084869 0.002533
0.862823 0.085785 0.002533
0.000000 0.066711 0.012695
0.007233 0.071045 0.010773
0.027588 0.074615 0.010834
0.052612 0.077362 0.009369
0.081757 0.080627 0.006592
0.112793 0.087433 0.004730
0.146637 0.091766 0.003998
0.179260 0.094360 0.003540
0.210846 0.095459 0.003143
0.241272 0.096039 0.003174
0.270050 0.095978 0.002319
0.297455 0.095978 0.002411
0.323608 0.095703 0.002411
0.348907 0.095245 0.001709
0.373627 0.095215 0.001709
0.398438 0.095398 0.001434
0.423370 0.095886 0.001282
0.448517 0.096771 0.001556
0.473999 0.097351 0.001556
0.499908 0.098022 0.001556
0.526276 0.098969 0.001556
0.553131 0.100006 0.001556
0.580444 0.100922 0.001556
0.608368 0.101868 0.001556
0.636993 0.102875 0.001556
0.666260 0.104034 0.001953
0.695923 0.105408 0.002411
0.725983 0.106812 0.003174
0.756256 0.108307 0.003265
0.786591 0.109772 0.003265
0.816833 0.110779 0.003265
0.847290 0.111694 0.003265
0.877747 0.112579 0.003265
0.000000 0.086884 0.020905
0.000000 0.093048 0.014740
0.020203 0.097717 0.014740
0.046478 0.101685 0.014191
0.078247 0.105225 0.012421
0.113922 0.109131 0.007629
0.149872 0.117523 0.005951
0.186859 0.123016 0.005188
0.221893 0.126160 0.004547
0.254517 0.127655 0.004242
0.285065 0.128113 0.004120
0.313934 0.128113 0.003174
0.341431 0.127960 0.002594
0.367859 0.127533 0.002594
0.393677 0.127136 0.002594
0.419067 0.127136 0.002594
0.444427 0.127258 0.002594
0.469788 0.127655 0.002594
0.495361 0.128082 0.002594
0.521271 0.128815 0.002594
0.547485 0.129486 0.002380
0.574097 0.130066 0.002258
0.601196 0.130890 0.002594
0.628937 0.131989 0.002625
0.657471 0.132843 0.002808
0.686218 0.134033 0.003448
0.715363 0.135376 0.003510
0.744720 0.136627 0.003510
0.774231 0.138031 0.004242
0.803650 0.139069 0.004242
0.833160 0.139954 0.004242
0.862976 0.141052 0.004242
0.892731 0.141937 0.004242
0.000000 0.109253 0.031616
0.000000 0.116943 0.022858
0.009552 0.122833 0.020844
0.037903 0.127777 0.020294
0.072998 0.132385 0.018555
0.110596 0.136566 0.014801
0.150360 0.141479 0.009186
0.189087 0.150696 0.008270
0.227661 0.156891 0.006592
0.263397 0.160431 0.005585
0.296021 0.162231 0.005127
0.326324 0.162476 0.004456
0.355164 0.162628 0.003937
0.383148 0.162598 0.003601
0.410156 0.162354 0.003601
0.436676 0.162079 0.003601
0.462769 0.162079 0.003601
0.488708 0.162201 0.003601
0.514709 0.162476 0.003601
0.540802 0.162750 0.003601
0.567230 0.163330 0.003906
0.593933 0.163818 0.003906
0.621185 0.164429 0.003906
0.648956 0.165253 0.003906
0.677002 0.166168 0.004700
0.705383 0.166962 0.004700
0.733978 0.168060 0.005035
0.762756 0.169128 0.005554
0.791382 0.170044 0.005402
0.820068 0.170929 0.005554
0.849030 0.171906 0.005554
0.878357 0.172882 0.005554
0.907593 0.174011 0.005554
0.000000 0.133575 0.044128
0.000000 0.141571 0.035156
0.001282 0.149170 0.026703
0.027893 0.155212 0.025970
0.065521 0.160828 0.024231
0.105713 0.166138 0.021179
0.147858 0.170380 0.015808
0.189453 0.176331 0.011353
0.229340 0.185516 0.009308
0.267975 0.191956 0.007629
0.303284 0.195953 0.006317
0.335815 0.198029 0.005585
0.366119 0.198700 0.005402
0.394958 0.198761 0.005096
0.423096 0.198761 0.005096
0.450745 0.198730 0.004852
0.478058 0.198761 0.005066
0.504822 0.198761 0.005096
0.531403 0.198761 0.005096
0.558167 0.199005 0.005096
0.585175 0.199280 0.005096
0.612396 0.199738 0.005920
0.639832 0.200256 0.005920
0.667480 0.200775 0.005951
0.695343 0.201447 0.006744
0.723328 0.202057 0.006744
0.751434 0.202728 0.006744
0.779510 0.203461 0.007080
0.807709 0.204224 0.007202
0.836029 0.205048 0.007599
0.864441 0.205902 0.007599
0.893311 0.206909 0.008057
0.922089 0.207977 0.008057
0.000000 0.159119 0.052917
0.000000 0.167389 0.045349
0.000000 0.175934 0.034149
0.016418 0.183105 0.031067
0.055511 0.189972 0.029968
0.098022 0.196045 0.026917
0.142578 0.201721 0.022583
0.187927 0.206329 0.016815
0.230164 0.212982 0.012970
0.270294 0.221893 0.010925
0.307831 0.228180 0.008453
0.342346 0.232239 0.007629
0.374359 0.234619 0.006592
0.404510 0.235474 0.006500
0.433441 0.235596 0.006500
0.461761 0.235718 0.006500
0.489777 0.235779 0.006287
0.517822 0.235992 0.007111
0.545593 0.236267 0.006500
0.573273 0.236481 0.007141
0.600922 0.236725 0.007446
0.628632 0.236908 0.007751
0.656311 0.237274 0.007965
0.684082 0.237701 0.007996
0.711853 0.237946 0.008789
0.739532 0.238342 0.008789
0.767273 0.238770 0.008789
0.795074 0.239197 0.008789
0.823059 0.239868 0.009644
0.851044 0.240631 0.009644
0.879242 0.241425 0.010132
0.907684 0.242371 0.010284
0.936157 0.243378 0.011108
0.000000 0.185974 0.056915
0.000000 0.194336 0.050293
0.000000 0.203156 0.040558
0.006226 0.211182 0.035370
0.042664 0.218597 0.034332
0.088135 0.226105 0.032318
0.135284 0.232910 0.028717
0.183075 0.238892 0.023621
0.230408 0.244141 0.017853
0.272736 0.251038 0.015015
0.311340 0.259216 0.012817
0.347260 0.265198 0.010468
0.380463 0.268890 0.009430
0.411743 0.271118 0.008453
0.441589 0.272217 0.008331
0.470734 0.272552 0.008331
0.499603 0.272888 0.008331
0.528198 0.273254 0.008911
0.556793 0.273590 0.009155
0.585327 0.274017 0.009155
0.613861 0.274384 0.009491
0.642151 0.274658 0.010010
0.670349 0.274780 0.010712
0.698151 0.274933 0.010834
0.725891 0.274963 0.010834
0.753601 0.275146 0.010834
0.781372 0.275452 0.011414
0.809235 0.275909 0.011658
0.837128 0.276337 0.011688
0.865051 0.277069 0.011963
0.893097 0.277863 0.012970
0.921448 0.278687 0.013336
0.949738 0.279541 0.014191
0.000000 0.213501 0.058990
0.000000 0.221466 0.053314
0.000000 0.230286 0.045349
0.000000 0.238831 0.039734
0.028046 0.247223 0.038269
0.077698 0.255554 0.036743
0.127869 0.263641 0.033661
0.177856 0.271057 0.030029
0.227661 0.277527 0.025085
0.274994 0.283173 0.020630
0.316284 0.290009 0.018402
0.352814 0.297333 0.016357
0.386169 0.302551 0.014313
0.418030 0.305817 0.012817
0.448334 0.307892 0.011658
0.478027 0.309143 0.011505
0.507385 0.309784 0.011383
0.536438 0.310059 0.011383
0.565338 0.310303 0.011505
0.594299 0.310669 0.012207
0.623260 0.311035 0.012024
0.652161 0.311279 0.012024
0.680756 0.311371 0.012024
0.709106 0.311432 0.012085
0.737366 0.311584 0.012878
0.765472 0.311768 0.012878
0.793488 0.312012 0.013458
0.821564 0.312439 0.013733
0.849640 0.312897 0.014557
0.877686 0.313538 0.014862
0.905823 0.314209 0.015564
0.934174 0.314941 0.016052
0.962524 0.315735 0.016418
0.000000 0.241058 0.061432
0.000000 0.248840 0.056580
0.000000 0.257538 0.048523
0.000000 0.266327 0.042999
0.019714 0.275238 0.041565
0.068085 0.284515 0.041931
0.120026 0.293823 0.040894
0.172058 0.302612 0.037415
0.223969 0.310425 0.034058
0.274689 0.317139 0.029144
0.321136 0.323059 0.025696
0.360504 0.329559 0.024536
0.394379 0.335968 0.022491
0.425415 0.340363 0.020081
0.455322 0.342926 0.017731
0.484314 0.344482 0.016296
0.513489 0.345520 0.015533
0.542725 0.346069 0.014801
0.571930 0.346313 0.014893
0.601013 0.346558 0.014923
0.630127 0.346558 0.014618
0.659210 0.346802 0.014069
0.688324 0.346924 0.014069
0.717438 0.347107 0.014069
0.746460 0.347382 0.014587
0.775238 0.347626 0.014923
0.803711 0.347900 0.015198
0.832153 0.348297 0.015778
0.860565 0.348694 0.016388
0.888977 0.349274 0.016907
0.917358 0.349945 0.017578
0.945923 0.350586 0.018311
0.974457 0.351288 0.019104
0.000000 0.269196 0.062256
0.000000 0.276611 0.059326
0.000000 0.285065 0.052826
0.000000 0.293884 0.046387
0.015381 0.302887 0.046051
0.063660 0.312744 0.047394
0.113953 0.323059 0.047546
0.167603 0.332947 0.045898
0.221283 0.342285 0.042511
0.273987 0.350647 0.039917
0.324219 0.357635 0.035004
0.368317 0.363770 0.034210
0.405121 0.369690 0.034241
0.435913 0.374695 0.031494
0.464020 0.377777 0.027924
0.491455 0.379364 0.025238
0.519287 0.380219 0.021881
0.547729 0.380768 0.019623
0.576782 0.381073 0.018066
0.606018 0.381226 0.016968
0.635315 0.381287 0.016663
0.664703 0.381378 0.016113
0.694092 0.381592 0.016113
0.723511 0.381805 0.016113
0.753021 0.382050 0.016113
0.782562 0.382385 0.016113
0.812012 0.382721 0.016449
0.841034 0.383148 0.016693
0.869934 0.383606 0.017395
0.898834 0.384064 0.018127
0.927704 0.384644 0.018921
0.956757 0.385315 0.019623
0.985779 0.386108 0.021149
0.000000 0.297058 0.068207
0.000000 0.304626 0.063812
0.000000 0.312653 0.060089
0.000000 0.321442 0.052643
0.014557 0.330566 0.051239
0.063538 0.340515 0.052338
0.112305 0.351440 0.053955
0.164398 0.362518 0.054230
0.219330 0.373291 0.052704
0.273529 0.383209 0.051361
0.325775 0.391693 0.049042
0.374268 0.398529 0.046417
0.415436 0.404327 0.047577
0.448822 0.409180 0.047272
0.475983 0.412445 0.042786
0.500824 0.414093 0.037109
0.526337 0.414703 0.031647
0.553101 0.414948 0.026825
0.581024 0.415039 0.022919
0.609924 0.415161 0.020172
0.639374 0.415222 0.018707
0.668915 0.415344 0.017670
0.698578 0.415466 0.017487
0.728271 0.415680 0.017456
0.758057 0.415985 0.016785
0.787964 0.416290 0.016785
0.817841 0.416626 0.017365
0.847839 0.417053 0.017487
0.877686 0.417389 0.017609
0.907257 0.417877 0.018036
0.936829 0.418549 0.018921
0.966614 0.419342 0.019928
0.996277 0.420074 0.021790
0.000000 0.325623 0.071320
0.000000 0.332672 0.069366
0.000000 0.341064 0.061432
0.000000 0.349457 0.056427
0.017059 0.358215 0.057159
0.065857 0.368134 0.058258
0.115692 0.379395 0.060547
0.165985 0.391418 0.062256
0.219910 0.403137 0.063324
0.275055 0.414276 0.062988
0.328278 0.424072 0.062469
0.378204 0.432281 0.062317
0.422943 0.438629 0.062286
0.460541 0.443756 0.064728
0.490448 0.447388 0.063293
0.514038 0.449005 0.056274
0.536316 0.449615 0.047394
0.560242 0.449432 0.039429
0.586121 0.448944 0.032104
0.613556 0.448700 0.026733
0.642426 0.448547 0.022766
0.672119 0.448578 0.020111
0.701996 0.448669 0.018646
0.731995 0.448822 0.017609
0.762054 0.449036 0.017395
0.792175 0.449371 0.016785
0.822418 0.449707 0.016785
0.852722 0.449951 0.016785
0.883118 0.450348 0.016876
0.913971 0.450958 0.017853
0.944641 0.451660 0.018463
0.975128 0.452362 0.019653
1.000000 0.453064 0.020844
0.000000 0.353729 0.078949
0.000000 0.361420 0.072418
0.000000 0.369202 0.068115
0.000000 0.377472 0.063446
0.024689 0.386169 0.064087
0.074829 0.396118 0.065887
0.123077 0.407318 0.068542
0.171570 0.419525 0.071899
0.222992 0.431946 0.074341
0.277832 0.443787 0.075684
0.330841 0.454651 0.077087
0.381348 0.464020 0.078766
0.428345 0.471649 0.080139
0.469879 0.477600 0.082062
0.503967 0.482239 0.085571
0.530060 0.484680 0.082489
0.550873 0.485077 0.072144
0.571228 0.484528 0.059692
0.593506 0.483551 0.048065
0.618347 0.482544 0.038391
0.645538 0.481903 0.030640
0.674438 0.481567 0.024811
0.704346 0.481415 0.020935
0.734619 0.481415 0.018219
0.765045 0.481567 0.017395
0.795532 0.481812 0.016541
0.826111 0.482117 0.016541
0.856934 0.482513 0.016785
0.887909 0.483124 0.016785
0.919037 0.483643 0.017365
0.950287 0.484222 0.017853
0.981689 0.484711 0.018188
1.000000 0.485352 0.019043
0.000000 0.382751 0.082764
0.000000 0.390228 0.078064
0.000000 0.397980 0.075012
0.002747 0.405975 0.071747
0.038269 0.414398 0.073303
0.087311 0.424042 0.075439
0.133759 0.435028 0.078674
0.180695 0.446930 0.082184
0.229279 0.459564 0.086304
0.281891 0.471802 0.089081
0.334747 0.483276 0.092041
0.385742 0.493866 0.095276
0.433502 0.502838 0.098541
0.477112 0.510071 0.101776
0.514648 0.515656 0.105530
0.544830 0.519592 0.108795
0.567841 0.521088 0.103516
0.586151 0.520325 0.088959
0.604797 0.518799 0.072662
0.625763 0.517120 0.057495
0.650055 0.515656 0.044098
0.677094 0.514709 0.034210
0.706085 0.514191 0.027191
0.736206 0.513947 0.022095
0.767120 0.514008 0.018219
0.798218 0.514191 0.016815
0.829254 0.514557 0.016357
0.860474 0.514984 0.016296
0.891815 0.515533 0.016449
0.923187 0.515991 0.016785
0.954712 0.516479 0.016846
0.986359 0.516998 0.017548
1.000000 0.517303 0.017456
0.000000 0.412323 0.086700
0.000000 0.419373 0.085083
0.000000 0.427185 0.080170
0.014709 0.434540 0.081787
0.056610 0.442596 0.084137
0.102478 0.451935 0.086945
0.146820 0.462280 0.090332
0.192261 0.473785 0.093933
0.238922 0.486084 0.098755
0.288849 0.498657 0.103149
0.340912 0.510590 0.107330
0.391388 0.521912 0.111877
0.439087 0.532074 0.117310
0.483368 0.540680 0.122253
0.523163 0.547424 0.126587
0.556519 0.552460 0.131317
0.583588 0.555756 0.133209
0.603790 0.556366 0.124786
0.619995 0.554779 0.106384
0.637238 0.552307 0.085480
0.657440 0.550140 0.066132
0.681488 0.548401 0.050079
0.708679 0.547333 0.037811
0.737946 0.546783 0.029541
0.768585 0.546661 0.023285
0.800018 0.546753 0.019043
0.831787 0.546936 0.016846
0.863190 0.547333 0.015991
0.894806 0.547729 0.015930
0.926514 0.548157 0.016144
0.958282 0.548492 0.016052
0.990082 0.548767 0.015961
1.000000 0.548920 0.015137
0.000000 0.441406 0.095215
0.000000 0.448853 0.089172
0.000610 0.455780 0.092041
0.031311 0.462891 0.094788
0.077240 0.470520 0.097412
0.120270 0.479095 0.099792
0.162567 0.488983 0.103455
0.206146 0.500000 0.107391
0.251251 0.512024 0.112732
0.297943 0.524628 0.118317
0.348450 0.536774 0.123810
0.397705 0.548645 0.130005
0.445068 0.559509 0.136139
0.489563 0.569153 0.142639
0.530212 0.577209 0.148254
0.565948 0.583344 0.153442
0.596069 0.588104 0.157898
0.620575 0.590912 0.158325
0.638458 0.590881 0.146454
0.652954 0.588501 0.123627
0.669464 0.585602 0.098389
0.689423 0.583038 0.075409
0.713257 0.581238 0.056458
0.740601 0.580048 0.042542
0.770264 0.579498 0.032166
0.801270 0.579285 0.024933
0.833099 0.579315 0.020081
0.865234 0.579498 0.016846
0.897217 0.579834 0.015900
0.929047 0.580109 0.015442
0.960785 0.580200 0.014343
0.992798 0.580292 0.013855
1.000000 0.580353 0.012878
0.000000 0.470245 0.103943
0.000000 0.477051 0.102814
0.014771 0.483612 0.106415
0.058136 0.490265 0.109253
0.100403 0.497559 0.112091
0.140198 0.505798 0.115082
0.180542 0.515198 0.118591
0.222290 0.525726 0.123138
0.265656 0.537231 0.128357
0.310333 0.549591 0.134796
0.357758 0.561920 0.141357
0.405945 0.573792 0.148010
0.452606 0.585114 0.154877
0.496887 0.595459 0.162048
0.537903 0.604706 0.168976
0.574615 0.612335 0.175659
0.607025 0.618408 0.180847
0.634186 0.622772 0.185150
0.656067 0.624969 0.183563
0.671661 0.624329 0.168060
0.685059 0.621552 0.140594
0.701080 0.618347 0.111725
0.720978 0.615601 0.084991
0.744690 0.613739 0.063446
0.772491 0.612457 0.046417
0.802429 0.611847 0.034729
0.833801 0.611664 0.026276
0.865997 0.611633 0.020111
0.898438 0.611542 0.015472
0.930725 0.611542 0.013275
0.962738 0.611603 0.011993
0.994812 0.611725 0.010986
1.000000 0.611725 0.010559
0.000000 0.498138 0.115570
0.009796 0.504364 0.119263
0.044525 0.510773 0.122955
0.086609 0.517273 0.126312
0.124786 0.524261 0.129211
0.162018 0.532043 0.132080
0.200104 0.540894 0.135864
0.239777 0.550934 0.140076
0.281250 0.561981 0.145660
0.324097 0.573792 0.152161
0.368713 0.585999 0.159332
0.415527 0.597900 0.166046
0.461182 0.609528 0.173523
0.504883 0.620514 0.181519
0.545715 0.630554 0.189453
0.582886 0.639313 0.196930
0.616302 0.646393 0.203522
0.645508 0.651855 0.208374
0.669830 0.655762 0.211823
0.689209 0.657410 0.207977
0.703156 0.656433 0.188599
0.715912 0.653412 0.157196
0.731781 0.650177 0.124268
0.751740 0.647461 0.094055
0.775757 0.645569 0.068542
0.803772 0.644409 0.049652
0.834106 0.643738 0.035736
0.865753 0.643372 0.025726
0.898254 0.643250 0.018433
0.931030 0.643188 0.013000
0.963837 0.643158 0.010071
0.996307 0.643188 0.008362
1.000000 0.643188 0.007507
0.004211 0.525085 0.133850
0.038483 0.531158 0.138000
0.078735 0.537476 0.141876
0.115173 0.543701 0.144989
0.149841 0.550415 0.147949
0.184601 0.557861 0.150879
0.220673 0.566254 0.154144
0.258331 0.575653 0.158447
0.297882 0.586151 0.163757
0.338989 0.597473 0.170105
0.381256 0.609344 0.177612
0.426208 0.621246 0.184723
0.470703 0.632935 0.192657
0.513611 0.644348 0.200775
0.554077 0.654846 0.208954
0.591187 0.664093 0.216888
0.625031 0.672119 0.224365
0.655090 0.678528 0.230560
0.681152 0.683411 0.235229
0.702606 0.686737 0.237427
0.719757 0.687897 0.230591
0.732361 0.686707 0.206909
0.744720 0.683868 0.171021
0.760651 0.680695 0.133606
0.781250 0.678223 0.099640
0.805969 0.676575 0.071777
0.834381 0.675598 0.050842
0.865234 0.675140 0.035858
0.897491 0.674927 0.024689
0.930359 0.674896 0.016693
0.963531 0.674866 0.011078
0.996735 0.674866 0.007660
1.000000 0.674805 0.005432
0.039795 0.551331 0.154388
0.077087 0.557312 0.158508
0.111023 0.563477 0.162292
0.142761 0.569550 0.165405
0.174530 0.575958 0.168091
0.207458 0.583038 0.170685
0.241699 0.590942 0.173615
0.277618 0.599915 0.177673
0.315277 0.609680 0.182526
0.354767 0.620453 0.188538
0.395477 0.631989 0.195862
0.438385 0.643799 0.203400
0.481598 0.655487 0.211060
0.523438 0.666870 0.219299
0.563293 0.677521 0.227539
0.599976 0.687164 0.235748
0.633331 0.695618 0.243713
0.663483 0.702820 0.250854
0.689850 0.708618 0.255920
0.712372 0.712860 0.258392
0.731323 0.715668 0.257751
0.746704 0.716583 0.247040
0.758728 0.715424 0.219452
0.771515 0.712921 0.179749
0.788513 0.710327 0.139465
0.810089 0.708405 0.103455
0.835785 0.707214 0.073669
0.864777 0.706665 0.051727
0.896393 0.706421 0.035828
0.929138 0.706451 0.023926
0.962463 0.706543 0.015503
0.995972 0.706604 0.009644
1.000000 0.706635 0.005524
0.080322 0.576996 0.176483
0.110535 0.582825 0.180420
0.140411 0.588898 0.183929
0.169403 0.594727 0.186676
0.199280 0.600861 0.188782
0.230286 0.607513 0.191071
0.262970 0.615021 0.193573
0.297455 0.623413 0.197144
0.333527 0.632660 0.201630
0.371521 0.642975 0.207275
0.410858 0.654236 0.214417
0.451538 0.665710 0.221802
0.493347 0.677094 0.229248
0.534119 0.688263 0.237091
0.572723 0.699036 0.245209
0.607574 0.708832 0.252197
0.639679 0.717651 0.258881
0.669037 0.725311 0.265045
0.695587 0.731781 0.270050
0.718964 0.736877 0.273315
0.739258 0.740662 0.274445
0.756744 0.743103 0.271759
0.771301 0.743927 0.258240
0.783417 0.743073 0.227844
0.797485 0.741241 0.185486
0.815735 0.739502 0.143250
0.838562 0.738159 0.105713
0.865356 0.737549 0.074554
0.895294 0.737488 0.051300
0.927582 0.737640 0.034668
0.960785 0.737946 0.022675
0.994507 0.738190 0.013977
1.000000 0.738373 0.008240
0.114105 0.601990 0.198914
0.140564 0.607727 0.202332
0.167725 0.613617 0.205414
0.194977 0.619263 0.207703
0.223236 0.625153 0.209351
0.252869 0.631531 0.210938
0.283997 0.638733 0.213074
0.317078 0.646790 0.215973
0.351959 0.655701 0.219971
0.388458 0.665558 0.225037
0.425690 0.676453 0.230652
0.463928 0.687683 0.236938
0.503571 0.698853 0.243134
0.542206 0.709930 0.249603
0.578522 0.720367 0.256104
0.612274 0.730072 0.262573
0.643921 0.738983 0.268768
0.673035 0.746796 0.274628
0.699646 0.753601 0.279694
0.723511 0.759277 0.283630
0.744781 0.763794 0.285797
0.763519 0.767120 0.285431
0.780029 0.769257 0.281067
0.794250 0.770081 0.265259
0.807281 0.769836 0.232208
0.822662 0.768860 0.188477
0.842468 0.768005 0.144989
0.866760 0.767548 0.106262
0.894928 0.767670 0.074707
0.925934 0.768158 0.050293
0.958771 0.768738 0.033112
0.992554 0.769318 0.020844
1.000000 0.769745 0.012878
0.142853 0.628632 0.218353
0.166992 0.634094 0.221252
0.192291 0.639771 0.223816
0.218140 0.645325 0.225372
0.245117 0.651123 0.226440
0.273438 0.657349 0.227203
0.303467 0.664307 0.228516
0.335052 0.672028 0.230438
0.368286 0.680664 0.233337
0.402863 0.690033 0.237152
0.438385 0.700134 0.241913
0.474487 0.710693 0.247437
0.511841 0.721191 0.252869
0.548615 0.731598 0.258545
0.583588 0.741669 0.264465
0.616577 0.751129 0.270355
0.647644 0.759857 0.275940
0.676544 0.767731 0.281189
0.703094 0.774750 0.286072
0.726959 0.780701 0.290009
0.748566 0.785706 0.292908
0.768219 0.789764 0.294037
0.785858 0.792755 0.292419
0.801819 0.794739 0.286102
0.816254 0.795715 0.267883
0.830475 0.796051 0.233246
0.847565 0.796112 0.188507
0.869141 0.796265 0.144470
0.895111 0.796783 0.105530
0.924622 0.797729 0.073517
0.956573 0.798798 0.048950
0.990082 0.799805 0.031342
1.000000 0.800598 0.019287
0.166412 0.657471 0.233307
0.189362 0.662750 0.235840
0.213562 0.668182 0.237885
0.238220 0.673431 0.238953
0.264435 0.678925 0.239441
0.291809 0.684814 0.239746
0.320679 0.691254 0.240417
0.350891 0.698425 0.241638
0.382599 0.706329 0.243866
0.415771 0.715057 0.246948
0.449677 0.724365 0.250885
0.483978 0.734039 0.255310
0.519196 0.743805 0.260010
0.554413 0.753540 0.264893
0.588348 0.763123 0.270050
0.620483 0.772247 0.275238
0.650848 0.780823 0.280243
0.679138 0.788666 0.285156
0.705292 0.795746 0.289581
0.729126 0.801880 0.293396
0.750946 0.807129 0.296295
