lut/retro-80s/Raiders of the Lost Ark (1981) - Standard.cube
# Created by Benjamin (IWLTBAP): https://luts.iwltbap.com
# Copyright: (C) Copyright 2018 Triune Films and IWLTBAP SAS
# Cannot be resold, shared or otherwise redistributed
TITLE "Triune Films 80s Retro LUTs (Rec.709, sRGB, DCI-P3)"
LUT_3D_SIZE 9
0.000000 0.000000 0.000000
0.050629 0.003143 0.000000
0.135071 0.005463 0.000000
0.231415 0.006989 0.000000
0.330505 0.009308 0.000000
0.439026 0.010529 0.000000
0.556885 0.011353 0.000000
0.684540 0.012268 0.000000
0.819122 0.015411 0.000854
0.000000 0.066711 0.012695
0.081757 0.080627 0.006592
0.210846 0.095459 0.003143
0.323608 0.095703 0.002411
0.423370 0.095886 0.001282
0.526276 0.098969 0.001556
0.636993 0.102875 0.001556
0.756256 0.108307 0.003265
0.877747 0.112579 0.003265
0.000000 0.159119 0.052917
0.055511 0.189972 0.029968
0.230164 0.212982 0.012970
0.374359 0.234619 0.006592
0.489777 0.235779 0.006287
0.600922 0.236725 0.007446
0.711853 0.237946 0.008789
0.823059 0.239868 0.009644
0.936157 0.243378 0.011108
0.000000 0.269196 0.062256
0.015381 0.302887 0.046051
0.221283 0.342285 0.042511
0.405121 0.369690 0.034241
0.519287 0.380219 0.021881
0.635315 0.381287 0.016663
0.753021 0.382050 0.016113
0.869934 0.383606 0.017395
0.985779 0.386108 0.021149
0.000000 0.382751 0.082764
0.038269 0.414398 0.073303
0.229279 0.459564 0.086304
0.433502 0.502838 0.098541
0.567841 0.521088 0.103516
0.650055 0.515656 0.044098
0.767120 0.514008 0.018219
0.891815 0.515533 0.016449
1.000000 0.517303 0.017456
0.000000 0.498138 0.115570
0.124786 0.524261 0.129211
0.281250 0.561981 0.145660
0.461182 0.609528 0.173523
0.616302 0.646393 0.203522
0.703156 0.656433 0.188599
0.775757 0.645569 0.068542
0.898254 0.643250 0.018433
1.000000 0.643188 0.007507
0.114105 0.601990 0.198914
0.223236 0.625153 0.209351
0.351959 0.655701 0.219971
0.503571 0.698853 0.243134
0.643921 0.738983 0.268768
0.744781 0.763794 0.285797
0.807281 0.769836 0.232208
0.894928 0.767670 0.074707
1.000000 0.769745 0.012878
0.201965 0.717896 0.254486
0.293884 0.736542 0.256989
0.404907 0.759613 0.256805
0.530304 0.791077 0.266510
0.653320 0.824463 0.281494
0.752197 0.850403 0.293579
0.829346 0.865753 0.292023
0.900238 0.875214 0.217255
1.000000 0.888306 0.067230
0.225739 0.851074 0.257538
0.316559 0.863434 0.254669
0.420624 0.879028 0.248169
0.532410 0.901337 0.248566
0.643829 0.926758 0.253082
0.742920 0.949585 0.255585
0.829498 0.966095 0.249512
0.912262 0.978119 0.232849
1.000000 0.992676 0.165161
0.000000 0.007904 0.044525
0.048157 0.008728 0.040649
0.130005 0.008820 0.032684
0.229706 0.008118 0.031738
0.327789 0.009644 0.040436
0.434601 0.010529 0.050842
0.551147 0.011353 0.061096
0.677979 0.012268 0.069977
0.812805 0.015411 0.079376
0.000000 0.073639 0.065155
0.073456 0.083588 0.067444
0.204254 0.087921 0.067474
0.324066 0.084412 0.061615
0.423401 0.085663 0.062683
0.523315 0.091675 0.069305
0.631042 0.098480 0.076721
0.748932 0.105743 0.084625
0.870453 0.111145 0.091095
0.000000 0.172180 0.086731
0.035431 0.198792 0.079926
0.221039 0.211945 0.069183
0.376526 0.230469 0.094055
0.493195 0.229614 0.097870
0.600616 0.230621 0.101013
0.707916 0.234222 0.105865
0.817078 0.237946 0.110321
0.929443 0.242737 0.115082
0.000000 0.285980 0.103638
0.000000 0.317169 0.086975
0.191864 0.348053 0.084595
0.397522 0.369720 0.088867
0.520752 0.380188 0.121887
0.636841 0.380707 0.127991
0.753357 0.381653 0.131042
0.868195 0.383362 0.134613
0.982666 0.386230 0.138947
0.000000 0.402924 0.129395
0.012177 0.432098 0.119781
0.200043 0.468048 0.125824
0.411133 0.506714 0.139709
0.565277 0.524689 0.157471
0.651306 0.517426 0.147430
0.768311 0.514801 0.139709
0.892487 0.516052 0.140503
1.000000 0.517609 0.142517
0.000000 0.516663 0.177704
0.111389 0.541138 0.182983
0.258514 0.571686 0.190643
0.435333 0.613739 0.212097
0.605103 0.651154 0.239655
0.704102 0.661926 0.240204
0.777496 0.648224 0.169800
0.899414 0.644073 0.141937
1.000000 0.643555 0.136719
0.113403 0.617798 0.256897
0.213257 0.639923 0.260529
0.335754 0.665649 0.264648
0.481659 0.703064 0.280762
0.629700 0.742126 0.304413
0.741241 0.768860 0.325317
0.809296 0.774933 0.291077
0.896912 0.770264 0.178772
1.000000 0.770538 0.138977
0.198059 0.729889 0.312714
0.286499 0.747925 0.312500
0.394470 0.767731 0.309570
0.516632 0.794800 0.314941
0.641937 0.826508 0.328888
0.747192 0.853455 0.344513
0.829041 0.869598 0.349121
0.902008 0.878906 0.292450
1.000000 0.890594 0.177094
0.221619 0.858887 0.325226
0.312103 0.870972 0.322113
0.415009 0.884918 0.315338
0.524994 0.904327 0.313782
0.636597 0.928223 0.318359
0.738922 0.951294 0.324280
0.828430 0.968445 0.323944
0.912689 0.980499 0.313751
1.000000 0.994659 0.260468
0.000000 0.021088 0.112244
0.035095 0.020966 0.115723
0.118256 0.015198 0.100006
0.206299 0.011963 0.076202
0.299896 0.011139 0.079651
0.405548 0.011353 0.097931
0.521790 0.010529 0.119751
0.649261 0.011353 0.139862
0.786469 0.014008 0.158173
0.000000 0.079590 0.154083
0.051605 0.087799 0.169800
0.177002 0.075745 0.152557
0.303650 0.060547 0.124512
0.407440 0.064362 0.123749
0.504578 0.075562 0.136932
0.608948 0.087341 0.153992
0.725098 0.098572 0.170746
0.847351 0.106567 0.184967
0.000000 0.179443 0.169708
0.023132 0.203552 0.187347
0.195862 0.205627 0.181366
0.369904 0.207794 0.185760
0.490723 0.205841 0.185120
0.592316 0.211823 0.191895
0.694092 0.221527 0.202545
0.799591 0.230438 0.213043
0.910309 0.238647 0.222961
0.000000 0.297455 0.189117
0.000000 0.329041 0.189911
0.150177 0.353790 0.186615
0.380127 0.364899 0.184479
0.521027 0.375793 0.234924
0.637726 0.375885 0.244293
0.750610 0.377075 0.248505
0.860779 0.379822 0.253204
0.971832 0.383911 0.258942
0.000000 0.417633 0.219391
0.000000 0.449341 0.213470
0.157532 0.478699 0.209381
0.368042 0.509064 0.212463
0.553925 0.523346 0.231476
0.650696 0.516327 0.260834
0.768738 0.514282 0.265137
0.892120 0.515533 0.268036
1.000000 0.517273 0.270966
0.000000 0.531647 0.269196
0.088135 0.558014 0.270844
0.220215 0.583801 0.266846
0.385254 0.617035 0.270660
0.574707 0.651703 0.288208
0.698303 0.663147 0.303925
0.777771 0.648224 0.280823
0.900482 0.643951 0.270050
1.000000 0.643524 0.268585
0.098389 0.631439 0.340179
0.192657 0.654907 0.341949
0.302643 0.677429 0.337524
0.436859 0.705963 0.335876
0.591187 0.741241 0.348999
0.724518 0.769928 0.371338
0.806915 0.777100 0.360748
0.897980 0.771301 0.292175
1.000000 0.770752 0.269165
0.180450 0.741058 0.395355
0.266571 0.759705 0.395172
0.367218 0.777039 0.387817
0.481293 0.797455 0.380829
0.606964 0.824585 0.384949
0.726624 0.852539 0.400146
0.821533 0.871124 0.411957
0.901245 0.881012 0.377686
1.000000 0.892303 0.295532
0.204742 0.866425 0.414459
0.295105 0.878998 0.412323
0.394287 0.891571 0.403564
0.499420 0.906464 0.394379
0.610046 0.926514 0.391663
0.720459 0.949371 0.396454
0.819489 0.968872 0.401794
0.909607 0.981934 0.398987
1.000000 0.996246 0.361969
0.000000 0.034271 0.168427
0.014130 0.036377 0.188690
0.097382 0.025848 0.178833
0.184937 0.017853 0.155182
0.266418 0.015900 0.134064
0.355072 0.015076 0.137695
0.465668 0.013275 0.166992
0.592682 0.011871 0.199829
0.732178 0.013000 0.231110
0.000000 0.086609 0.235901
0.022614 0.094330 0.267090
0.147461 0.079254 0.263306
0.274353 0.059814 0.232666
0.379028 0.050934 0.199127
0.469330 0.058411 0.197418
0.567932 0.073242 0.220337
0.679810 0.088104 0.247406
0.802612 0.100464 0.272827
0.000000 0.183899 0.271362
0.001251 0.205872 0.317688
0.152496 0.205353 0.328766
0.336548 0.180023 0.294403
0.473785 0.162933 0.256866
0.571136 0.176147 0.260712
0.664093 0.197327 0.281036
0.764435 0.216492 0.302673
0.872650 0.231659 0.321991
0.000000 0.302460 0.291748
0.000000 0.334717 0.320526
0.131653 0.356049 0.335144
0.349731 0.356689 0.326782
0.522949 0.355988 0.335510
0.636017 0.355591 0.339844
0.736542 0.361511 0.348145
0.838989 0.370392 0.359497
0.945953 0.379028 0.370453
0.000000 0.424500 0.322144
0.000000 0.459534 0.335236
0.127533 0.488892 0.339600
0.324646 0.513458 0.340424
0.539185 0.521027 0.343628
0.651154 0.513947 0.381042
0.767822 0.512390 0.388367
0.888275 0.514038 0.393036
1.000000 0.516571 0.397156
0.000000 0.539276 0.366180
0.076233 0.569672 0.375336
0.190247 0.597076 0.371216
0.341492 0.624756 0.365051
0.538696 0.653717 0.372253
0.689880 0.663239 0.387451
0.777802 0.647614 0.398529
0.900757 0.643829 0.399292
1.000000 0.643372 0.399567
0.094666 0.639404 0.425934
0.181305 0.666229 0.432953
0.274933 0.690674 0.426361
0.392181 0.714539 0.411896
0.546204 0.743195 0.412781
0.701813 0.770172 0.429382
0.803009 0.778290 0.435547
0.899109 0.771912 0.408234
1.000000 0.770782 0.399445
0.172607 0.748505 0.479248
0.254181 0.768890 0.482330
0.344574 0.787506 0.474182
0.445435 0.804810 0.457062
0.566895 0.825897 0.448181
0.699341 0.851532 0.457916
0.810699 0.871887 0.473602
0.900208 0.882690 0.460968
1.000000 0.894043 0.413727
0.195648 0.872223 0.503784
0.283661 0.885803 0.503662
0.377136 0.899261 0.495209
0.474274 0.912201 0.479828
0.580231 0.927704 0.466919
0.696167 0.947906 0.467010
0.806793 0.968750 0.476044
0.905487 0.983398 0.480591
1.000000 0.998016 0.460327
0.000000 0.041748 0.201630
0.003723 0.045990 0.229156
0.071259 0.038483 0.234192
0.158630 0.026550 0.221222
0.245575 0.021088 0.206512
0.325928 0.020660 0.196594
0.404236 0.020264 0.199585
0.518982 0.018127 0.235870
0.652618 0.016235 0.279602
0.000000 0.091217 0.284882
0.007721 0.101105 0.325073
0.114349 0.090881 0.340088
0.236603 0.070404 0.324402
0.349335 0.061218 0.297028
0.440216 0.061340 0.274353
0.518555 0.068176 0.271179
0.618378 0.081635 0.299927
0.735077 0.095581 0.336761
0.000000 0.187408 0.350708
0.000000 0.209320 0.405212
0.115387 0.210083 0.434540
0.292053 0.184509 0.418030
0.438843 0.164948 0.378723
0.543549 0.161407 0.342651
0.622864 0.176300 0.339355
0.712006 0.201843 0.366760
0.812775 0.223450 0.397064
0.000000 0.304657 0.384583
0.000000 0.336426 0.433807
0.116364 0.356628 0.473114
0.302490 0.354645 0.480804
0.497498 0.333984 0.443787
0.623291 0.320679 0.407135
0.709015 0.332520 0.412811
0.796326 0.352386 0.435608
0.894531 0.370544 0.458527
0.000000 0.425781 0.416260
0.016388 0.461151 0.448730
0.137299 0.491364 0.474579
0.303314 0.514313 0.488678
0.517090 0.518646 0.482971
0.655884 0.509277 0.487335
0.760895 0.504517 0.491180
0.864899 0.507202 0.498596
0.974213 0.513000 0.508484
0.000000 0.541138 0.455139
0.085175 0.573883 0.476776
0.182495 0.604248 0.487915
0.319366 0.632568 0.494049
0.511078 0.658478 0.502716
0.679810 0.665070 0.506256
0.777252 0.647675 0.522980
0.897186 0.644196 0.527039
1.000000 0.643494 0.529083
0.104736 0.642456 0.506073
0.181274 0.671997 0.521576
0.261078 0.699768 0.523773
0.365204 0.724640 0.516235
0.518585 0.749176 0.518097
0.681610 0.771973 0.529572
0.796906 0.779388 0.536316
0.899323 0.772278 0.532043
1.000000 0.770905 0.531067
0.174377 0.752594 0.558258
0.249817 0.774475 0.566925
0.329681 0.795227 0.563690
0.418610 0.813568 0.548523
0.538666 0.831512 0.539215
0.676971 0.852722 0.546356
0.799072 0.872314 0.559601
0.897919 0.884003 0.558075
1.000000 0.895477 0.537140
0.193237 0.875946 0.588715
0.277466 0.890656 0.592346
0.364197 0.905426 0.587067
0.452423 0.919098 0.571594
0.555878 0.932465 0.557190
0.675720 0.949005 0.556427
0.794403 0.968597 0.565430
0.900665 0.984589 0.573059
1.000000 0.999725 0.564880
0.000000 0.045990 0.219940
0.000000 0.052521 0.254242
0.054504 0.048828 0.271545
0.139709 0.035065 0.271149
0.224274 0.027771 0.266113
0.307587 0.026276 0.261047
0.386200 0.027283 0.260895
0.464630 0.029602 0.267914
0.571167 0.028259 0.303925
0.000000 0.095306 0.318634
0.001495 0.106995 0.361694
0.094635 0.101746 0.386749
0.209503 0.082794 0.385712
0.316345 0.072662 0.372040
0.414490 0.071808 0.354950
0.496674 0.077057 0.344910
0.568298 0.085022 0.344879
0.661530 0.096771 0.374603
0.000000 0.190765 0.402374
0.000000 0.212769 0.458008
0.097748 0.216095 0.493591
0.251495 0.197510 0.497192
0.394073 0.177826 0.473755
0.511383 0.173370 0.442749
0.596405 0.181641 0.421173
0.660858 0.198242 0.416687
0.742950 0.221039 0.443878
0.000000 0.306976 0.458344
0.000000 0.338104 0.509521
0.120850 0.357422 0.556427
0.264252 0.357361 0.581207
0.450897 0.335999 0.557190
0.590149 0.323273 0.518555
0.680115 0.323730 0.486786
0.744843 0.339355 0.483704
0.824921 0.363434 0.511200
0.000000 0.426056 0.495148
0.038971 0.461517 0.536346
0.148926 0.490906 0.575806
0.289764 0.510986 0.607208
0.478058 0.514923 0.607788
0.638977 0.504883 0.578156
0.738281 0.493164 0.551117
0.818695 0.494293 0.558594
0.913849 0.504395 0.582245
0.035431 0.539917 0.530182
0.119476 0.573700 0.560242
0.202789 0.604675 0.586029
0.320526 0.633453 0.608063
0.491028 0.659454 0.623383
0.665680 0.668640 0.621460
0.774109 0.654694 0.629791
0.878296 0.646118 0.636230
0.990631 0.643524 0.642273
0.123291 0.643463 0.573364
0.192291 0.674225 0.597046
0.264954 0.703217 0.612579
0.360107 0.730103 0.621765
0.508423 0.755066 0.632965
0.668427 0.775604 0.643646
0.789154 0.781616 0.648651
0.897095 0.773163 0.658051
1.000000 0.771515 0.661011
0.182129 0.754852 0.628723
0.252869 0.777496 0.643280
0.326477 0.799316 0.648804
0.408966 0.819580 0.645844
0.529236 0.838623 0.646759
0.667511 0.857239 0.655396
0.790405 0.873657 0.664978
0.893829 0.884949 0.668365
1.000000 0.896606 0.664551
0.194702 0.878662 0.668427
0.275940 0.894043 0.676208
0.357666 0.909668 0.676239
0.440521 0.924683 0.668152
0.545715 0.938904 0.662201
0.668518 0.953461 0.664642
0.787384 0.969940 0.672180
0.896362 0.985596 0.679901
1.000000 1.000000 0.679169
0.000000 0.050018 0.238342
0.000000 0.058563 0.278351
0.044861 0.057129 0.302979
0.127838 0.044189 0.310974
0.208832 0.034668 0.312469
0.292328 0.031830 0.314056
0.375763 0.032806 0.320587
0.457642 0.035156 0.331787
0.532928 0.039124 0.344635
0.000000 0.099701 0.348206
0.000000 0.112518 0.392578
0.084930 0.110260 0.422211
0.191681 0.094910 0.430145
0.291962 0.083710 0.425568
0.389923 0.081604 0.417175
0.478912 0.086212 0.412842
0.556000 0.093201 0.414398
0.622498 0.103119 0.420746
0.000000 0.193390 0.445709
0.000000 0.216187 0.496429
0.090240 0.221893 0.532440
0.227753 0.209045 0.544952
0.361084 0.191132 0.533630
0.476746 0.186554 0.514374
0.571381 0.193695 0.497406
0.642609 0.208099 0.489319
0.697968 0.226654 0.489319
0.000000 0.308899 0.517181
0.011780 0.340271 0.561646
0.121002 0.360199 0.605927
0.246582 0.361816 0.634918
0.410065 0.344330 0.627258
0.550507 0.331726 0.600677
0.652740 0.333252 0.572845
0.721039 0.345856 0.555389
0.770264 0.366211 0.550659
0.000000 0.427979 0.558990
0.061829 0.463196 0.597168
0.165161 0.491455 0.638489
0.286072 0.508484 0.676025
0.441071 0.510742 0.688904
0.603821 0.501343 0.665558
0.714050 0.494293 0.637665
0.785248 0.493530 0.616516
0.849823 0.502136 0.620972
0.057648 0.539856 0.590240
0.138153 0.574219 0.622772
0.219666 0.604462 0.656250
0.323120 0.630829 0.689209
0.474579 0.652771 0.710602
0.639038 0.664276 0.710388
0.756958 0.661438 0.698059
0.835541 0.652405 0.689240
0.924713 0.645660 0.705750
0.149109 0.644073 0.630676
0.213989 0.675049 0.658295
0.283997 0.703552 0.683014
0.370087 0.729767 0.704529
0.502075 0.755219 0.723145
0.655823 0.775970 0.736389
0.779541 0.784424 0.741058
0.881073 0.778412 0.760040
0.994965 0.774048 0.771942
0.193359 0.756805 0.690735
0.261108 0.779541 0.709442
0.332642 0.801239 0.723114
0.411194 0.821991 0.732330
0.526947 0.842438 0.742554
0.663483 0.861511 0.754211
0.784912 0.875916 0.763489
0.888733 0.885620 0.772369
1.000000 0.896973 0.789856
0.197754 0.881409 0.743317
0.277435 0.896942 0.754333
0.357391 0.912567 0.760193
0.438354 0.928131 0.761230
0.543335 0.943817 0.763885
0.667297 0.958984 0.770508
0.784912 0.973297 0.778229
0.893768 0.987122 0.786377
1.000000 1.000000 0.793182
0.000000 0.055237 0.258331
0.000000 0.064423 0.301422
0.039917 0.064209 0.330109
0.120117 0.052521 0.343262
0.200592 0.041534 0.350128
0.283325 0.037415 0.360016
0.368530 0.038208 0.373230
0.451324 0.040710 0.387848
0.527557 0.045349 0.403198
0.000000 0.103943 0.374481
0.000244 0.117706 0.419403
0.082428 0.117157 0.450531
0.181244 0.104828 0.463745
0.277985 0.093292 0.466156
0.372955 0.090515 0.466400
0.463928 0.093536 0.467804
0.544403 0.100189 0.472015
0.613586 0.110596 0.479675
0.000000 0.195770 0.485260
0.000000 0.219482 0.529144
0.088745 0.227112 0.562469
0.216156 0.218567 0.578003
0.342010 0.202881 0.573730
0.451691 0.198517 0.563477
0.548615 0.204346 0.552612
0.625549 0.217987 0.546967
0.685822 0.236176 0.546692
0.000000 0.312256 0.563568
0.011780 0.343964 0.602264
0.121338 0.364105 0.640289
0.241974 0.367218 0.667755
0.386505 0.354034 0.668732
0.520874 0.342133 0.651489
0.625031 0.344177 0.631378
0.700928 0.356689 0.616516
0.756348 0.375885 0.609955
0.000000 0.430725 0.607849
0.080017 0.466187 0.641541
0.180939 0.493561 0.679260
0.292114 0.508789 0.716095
0.420593 0.510040 0.736053
0.571625 0.500366 0.722717
0.686981 0.495819 0.701630
0.767731 0.498871 0.684967
0.834412 0.508331 0.685822
0.077423 0.541473 0.636383
0.155853 0.576233 0.667999
0.237946 0.605682 0.702942
0.332672 0.629364 0.739990
0.460907 0.646149 0.767090
0.611877 0.654938 0.772644
0.736511 0.655426 0.764709
0.821808 0.652405 0.759247
0.892944 0.649780 0.759735
0.163208 0.646423 0.678497
0.228577 0.677246 0.707520
0.299744 0.704803 0.737122
0.380341 0.728790 0.766876
0.498322 0.751007 0.791992
0.641785 0.770538 0.807129
0.766205 0.781128 0.813843
0.857727 0.782104 0.817596
0.938293 0.778625 0.823578
0.205841 0.759216 0.748932
0.273499 0.781647 0.769073
0.345032 0.802704 0.787598
0.420807 0.822479 0.804962
0.525909 0.842712 0.821472
0.657959 0.862030 0.836884
0.779419 0.876648 0.849060
0.881561 0.885345 0.859741
0.996368 0.893585 0.888916
0.203186 0.884705 0.815460
0.280762 0.900116 0.828094
0.360626 0.915375 0.838593
0.440948 0.930603 0.846985
0.542694 0.946503 0.856079
0.665710 0.962646 0.866913
0.783844 0.976990 0.877625
0.892822 0.989380 0.888123
1.000000 1.000000 0.901978
0.000000 0.060303 0.278503
0.000000 0.069550 0.321960
0.039490 0.069336 0.352295
0.117523 0.058746 0.370056
0.197906 0.046753 0.384674
0.279449 0.042938 0.402222
0.364136 0.042938 0.419373
0.446686 0.045441 0.436035
0.522583 0.051086 0.452606
0.000000 0.107452 0.399048
0.001678 0.121460 0.445099
0.082458 0.122192 0.477173
0.176727 0.112030 0.494202
0.271454 0.100372 0.502289
0.363159 0.097046 0.508453
0.453491 0.099396 0.513092
0.534851 0.105957 0.518768
0.605408 0.117218 0.526978
0.000000 0.198059 0.519318
0.000000 0.222565 0.561188
0.088715 0.231842 0.590820
0.211090 0.226196 0.605713
0.330078 0.213562 0.605896
0.436646 0.208405 0.600403
0.532257 0.213776 0.593994
0.611389 0.227081 0.590454
0.674561 0.245361 0.590668
0.000000 0.315857 0.603821
0.004639 0.348145 0.637482
0.124908 0.368286 0.668518
0.243500 0.372894 0.691986
0.376282 0.363647 0.695984
0.503357 0.353424 0.684631
0.604248 0.355896 0.671143
0.682983 0.368164 0.659973
0.744232 0.386505 0.656555
0.000000 0.434265 0.647705
0.095612 0.469849 0.676392
0.195496 0.496826 0.709106
0.303009 0.511230 0.742218
0.414429 0.513123 0.764618
0.549103 0.504089 0.760315
0.664337 0.499603 0.744751
0.751099 0.504639 0.736755
0.825409 0.514893 0.744995
0.095795 0.544434 0.672913
0.172791 0.579437 0.702393
0.255371 0.608307 0.736115
0.346649 0.630157 0.773254
0.457001 0.642975 0.805237
0.590424 0.648163 0.819214
0.717468 0.648651 0.816986
0.809967 0.649567 0.819336
0.888184 0.650696 0.827942
0.176697 0.650238 0.720520
0.242523 0.680756 0.749420
0.315094 0.707275 0.781097
0.393311 0.729065 0.815460
0.496033 0.747650 0.846619
0.627960 0.763824 0.865875
0.751495 0.774414 0.876770
0.849426 0.778320 0.885590
0.933502 0.778412 0.896851
0.213135 0.763275 0.803894
0.281494 0.785126 0.824646
0.354431 0.805359 0.846436
0.429291 0.823700 0.869537
0.526672 0.841797 0.891968
0.652405 0.859955 0.910156
0.772430 0.874725 0.925934
0.876251 0.883942 0.940643
0.971497 0.888794 0.954895
0.204742 0.889221 0.888153
0.284546 0.904022 0.901459
0.365753 0.918671 0.914825
0.446228 0.933014 0.928284
0.542694 0.948425 0.942566
0.662964 0.964661 0.957642
0.781952 0.979462 0.972565
0.892395 0.991608 0.987335
0.999817 1.000000 1.000000
