lut/retro-80s/Raiders of the Lost Ark (1981) - Standard.cube
# Created by Benjamin (IWLTBAP): https://luts.iwltbap.com
# Copyright: (C) Copyright 2018 Triune Films and IWLTBAP SAS
# Cannot be resold, shared or otherwise redistributed
TITLE "Triune Films 80s Retro LUTs (Rec.709, sRGB, DCI-P3)"
LUT_3D_SIZE 5
0.000000 0.000000 0.000000
0.135071 0.005463 0.000000
0.330505 0.009308 0.000000
0.556885 0.011353 0.000000
0.819122 0.015411 0.000854
0.000000 0.159119 0.052917
0.230164 0.212982 0.012970
0.489777 0.235779 0.006287
0.711853 0.237946 0.008789
0.936157 0.243378 0.011108
0.000000 0.382751 0.082764
0.229279 0.459564 0.086304
0.567841 0.521088 0.103516
0.767120 0.514008 0.018219
1.000000 0.517303 0.017456
0.114105 0.601990 0.198914
0.351959 0.655701 0.219971
0.643921 0.738983 0.268768
0.807281 0.769836 0.232208
1.000000 0.769745 0.012878
0.225739 0.851074 0.257538
0.420624 0.879028 0.248169
0.643829 0.926758 0.253082
0.829498 0.966095 0.249512
1.000000 0.992676 0.165161
0.000000 0.021088 0.112244
0.118256 0.015198 0.100006
0.299896 0.011139 0.079651
0.521790 0.010529 0.119751
0.786469 0.014008 0.158173
0.000000 0.179443 0.169708
0.195862 0.205627 0.181366
0.490723 0.205841 0.185120
0.694092 0.221527 0.202545
0.910309 0.238647 0.222961
0.000000 0.417633 0.219391
0.157532 0.478699 0.209381
0.553925 0.523346 0.231476
0.768738 0.514282 0.265137
1.000000 0.517273 0.270966
0.098389 0.631439 0.340179
0.302643 0.677429 0.337524
0.591187 0.741241 0.348999
0.806915 0.777100 0.360748
1.000000 0.770752 0.269165
0.204742 0.866425 0.414459
0.394287 0.891571 0.403564
0.610046 0.926514 0.391663
0.819489 0.968872 0.401794
1.000000 0.996246 0.361969
0.000000 0.041748 0.201630
0.071259 0.038483 0.234192
0.245575 0.021088 0.206512
0.404236 0.020264 0.199585
0.652618 0.016235 0.279602
0.000000 0.187408 0.350708
0.115387 0.210083 0.434540
0.438843 0.164948 0.378723
0.622864 0.176300 0.339355
0.812775 0.223450 0.397064
0.000000 0.425781 0.416260
0.137299 0.491364 0.474579
0.517090 0.518646 0.482971
0.760895 0.504517 0.491180
0.974213 0.513000 0.508484
0.104736 0.642456 0.506073
0.261078 0.699768 0.523773
0.518585 0.749176 0.518097
0.796906 0.779388 0.536316
1.000000 0.770905 0.531067
0.193237 0.875946 0.588715
0.364197 0.905426 0.587067
0.555878 0.932465 0.557190
0.794403 0.968597 0.565430
1.000000 0.999725 0.564880
0.000000 0.050018 0.238342
0.044861 0.057129 0.302979
0.208832 0.034668 0.312469
0.375763 0.032806 0.320587
0.532928 0.039124 0.344635
0.000000 0.193390 0.445709
0.090240 0.221893 0.532440
0.361084 0.191132 0.533630
0.571381 0.193695 0.497406
0.697968 0.226654 0.489319
0.000000 0.427979 0.558990
0.165161 0.491455 0.638489
0.441071 0.510742 0.688904
0.714050 0.494293 0.637665
0.849823 0.502136 0.620972
0.149109 0.644073 0.630676
0.283997 0.703552 0.683014
0.502075 0.755219 0.723145
0.779541 0.784424 0.741058
0.994965 0.774048 0.771942
0.197754 0.881409 0.743317
0.357391 0.912567 0.760193
0.543335 0.943817 0.763885
0.784912 0.973297 0.778229
1.000000 1.000000 0.793182
0.000000 0.060303 0.278503
0.039490 0.069336 0.352295
0.197906 0.046753 0.384674
0.364136 0.042938 0.419373
0.522583 0.051086 0.452606
0.000000 0.198059 0.519318
0.088715 0.231842 0.590820
0.330078 0.213562 0.605896
0.532257 0.213776 0.593994
0.674561 0.245361 0.590668
0.000000 0.434265 0.647705
0.195496 0.496826 0.709106
0.414429 0.513123 0.764618
0.664337 0.499603 0.744751
0.825409 0.514893 0.744995
0.176697 0.650238 0.720520
0.315094 0.707275 0.781097
0.496033 0.747650 0.846619
0.751495 0.774414 0.876770
0.933502 0.778412 0.896851
0.204742 0.889221 0.888153
0.365753 0.918671 0.914825
0.542694 0.948425 0.942566
0.781952 0.979462 0.972565
0.999817 1.000000 1.000000
