lut/retro-80s/RoboCop (1987) - Standard.cube
# Created by Benjamin (IWLTBAP): https://luts.iwltbap.com
# Copyright: (C) Copyright 2018 Triune Films and IWLTBAP SAS
# Cannot be resold, shared or otherwise redistributed
TITLE "Triune Films 80s Retro LUTs (Rec.709, sRGB, DCI-P3)"
LUT_3D_SIZE 5
0.002380 0.000000 0.000000
0.163635 0.022400 0.014282
0.425995 0.078827 0.047150
0.658783 0.122742 0.065765
0.858734 0.150879 0.082855
0.056854 0.132568 0.076263
0.198273 0.173248 0.052032
0.465851 0.213135 0.046143
0.688782 0.242584 0.065918
0.884521 0.271332 0.082428
0.157043 0.348175 0.172852
0.245758 0.373260 0.153503
0.490112 0.453949 0.083252
0.735077 0.487274 0.040314
0.952057 0.493439 0.056824
0.244293 0.553619 0.244110
0.328552 0.580109 0.234619
0.534790 0.646149 0.196136
0.742798 0.715973 0.086639
0.993347 0.745850 0.015015
0.309357 0.731262 0.293427
0.409363 0.762970 0.292816
0.606781 0.818817 0.270111
0.778687 0.884247 0.212982
0.980896 0.960510 0.095245
0.005463 0.043671 0.064178
0.122864 0.071014 0.116913
0.386353 0.118744 0.164276
0.634979 0.158844 0.191681
0.840668 0.178986 0.212585
0.045990 0.170898 0.142822
0.141144 0.193054 0.169952
0.425232 0.229980 0.208801
0.666718 0.265076 0.222687
0.867706 0.292358 0.236237
0.141174 0.386658 0.266357
0.203186 0.404388 0.268707
0.472473 0.467957 0.269592
0.734253 0.493683 0.258820
0.946320 0.501862 0.265289
0.232361 0.584839 0.348358
0.297913 0.603271 0.350525
0.516113 0.662811 0.352844
0.743378 0.726715 0.292206
0.994568 0.747986 0.256592
0.303406 0.755341 0.400177
0.389679 0.782440 0.418396
0.599365 0.841339 0.433258
0.779785 0.906158 0.396423
0.980652 0.971863 0.316040
0.024200 0.123932 0.156921
0.092804 0.151093 0.239777
0.320038 0.188110 0.373749
0.599365 0.219757 0.406372
0.806488 0.244049 0.421814
0.062195 0.233612 0.245758
0.119904 0.258423 0.304230
0.355530 0.286316 0.410522
0.623077 0.311615 0.440369
0.825165 0.336090 0.453827
0.141937 0.433990 0.394165
0.174774 0.452515 0.418213
0.394928 0.484955 0.476105
0.688965 0.509979 0.505127
0.901031 0.530487 0.512024
0.219177 0.627991 0.498535
0.251862 0.641571 0.507629
0.460022 0.684418 0.552429
0.734924 0.737457 0.543304
0.990845 0.750580 0.509521
0.286774 0.799988 0.559174
0.340149 0.816345 0.577545
0.574615 0.865479 0.634613
0.783112 0.924896 0.644623
0.979401 0.981110 0.565704
0.059631 0.208954 0.264008
0.103760 0.231018 0.350708
0.264618 0.264587 0.567322
0.563690 0.274994 0.642151
0.816040 0.286530 0.658112
0.099792 0.305847 0.369843
0.136597 0.323883 0.430664
0.315186 0.348114 0.596344
0.598633 0.356720 0.671143
0.839020 0.369598 0.684174
0.165253 0.478943 0.523804
0.191162 0.495148 0.559113
0.364471 0.524597 0.645660
0.662445 0.544678 0.716278
0.883514 0.565186 0.732574
0.231049 0.658966 0.632202
0.250977 0.673340 0.649048
0.418518 0.716003 0.703400
0.712830 0.753662 0.760071
0.934174 0.772888 0.776581
0.293427 0.836609 0.702484
0.321075 0.851532 0.716339
0.534546 0.897339 0.772217
0.789246 0.933533 0.821899
0.971344 0.978668 0.803955
0.100220 0.290710 0.385864
0.134827 0.308838 0.467255
0.278870 0.336456 0.711395
0.547699 0.339111 0.845551
0.837036 0.343750 0.873810
0.139008 0.374908 0.499146
0.164062 0.387024 0.558044
0.303009 0.408020 0.740021
0.588867 0.413574 0.861786
0.865234 0.420776 0.891022
0.198486 0.522949 0.660828
0.217865 0.533600 0.697632
0.345184 0.562225 0.800385
0.654724 0.582245 0.883911
0.904114 0.592926 0.914276
0.253021 0.683899 0.765564
0.273956 0.700226 0.790527
0.425293 0.745148 0.857208
0.711517 0.776154 0.911743
0.928406 0.791351 0.942017
0.311310 0.860291 0.839539
0.338531 0.880493 0.857971
0.533844 0.925781 0.904602
0.780914 0.954285 0.943451
0.957733 0.972382 0.968567
