lut/retro-80s/RoboCop (1987) - Standard.cube
# Created by Benjamin (IWLTBAP): https://luts.iwltbap.com
# Copyright: (C) Copyright 2018 Triune Films and IWLTBAP SAS
# Cannot be resold, shared or otherwise redistributed
TITLE "Triune Films 80s Retro LUTs (Rec.709, sRGB, DCI-P3)"
LUT_3D_SIZE 9
0.002380 0.000000 0.000000
0.063477 0.008331 0.004700
0.163635 0.022400 0.014282
0.292755 0.050140 0.032440
0.425995 0.078827 0.047150
0.547882 0.102722 0.056183
0.658783 0.122742 0.065765
0.761383 0.138580 0.075226
0.858734 0.150879 0.082855
0.020752 0.053406 0.032898
0.079224 0.067474 0.028778
0.183777 0.082825 0.029358
0.310974 0.099609 0.039703
0.441956 0.122345 0.048553
0.561249 0.145538 0.056244
0.669708 0.166443 0.066284
0.770691 0.184021 0.075500
0.867004 0.198334 0.082977
0.056854 0.132568 0.076263
0.097595 0.141815 0.069366
0.198273 0.173248 0.052032
0.336151 0.199799 0.041992
0.465851 0.213135 0.046143
0.582367 0.226929 0.056000
0.688782 0.242584 0.065918
0.788696 0.257690 0.074951
0.884521 0.271332 0.082428
0.105988 0.236725 0.125549
0.136017 0.243835 0.116608
0.212250 0.265656 0.101685
0.345428 0.309906 0.070221
0.482513 0.339233 0.049774
0.605164 0.351288 0.047211
0.715149 0.357666 0.056885
0.816925 0.365479 0.067780
0.913971 0.374603 0.077179
0.157043 0.348175 0.172852
0.181976 0.354401 0.164337
0.245758 0.373260 0.153503
0.359314 0.410065 0.129395
0.490112 0.453949 0.083252
0.615021 0.478241 0.050873
0.735077 0.487274 0.040314
0.848358 0.490570 0.044525
0.952057 0.493439 0.056824
0.203644 0.454590 0.212677
0.227234 0.460907 0.205017
0.286682 0.479523 0.198059
0.389496 0.512878 0.181732
0.506195 0.552216 0.145172
0.620605 0.588959 0.087646
0.740631 0.609650 0.045410
0.863464 0.617279 0.028656
0.984650 0.620026 0.024689
0.244293 0.553619 0.244110
0.269012 0.561127 0.238953
0.328552 0.580109 0.234619
0.427155 0.611084 0.223083
0.534790 0.646149 0.196136
0.635559 0.681396 0.150696
0.742798 0.715973 0.086639
0.865387 0.737518 0.037354
0.993347 0.745850 0.015015
0.278748 0.645447 0.269836
0.306885 0.654663 0.267487
0.369385 0.674286 0.265259
0.466919 0.703094 0.256104
0.569580 0.734589 0.235931
0.661957 0.767487 0.203125
0.754669 0.803528 0.153198
0.863434 0.840546 0.085205
0.990326 0.864136 0.031494
0.309357 0.731262 0.293427
0.342255 0.742554 0.293762
0.409363 0.762970 0.292816
0.507141 0.790070 0.285217
0.606781 0.818817 0.270111
0.694824 0.849487 0.247314
0.778687 0.884247 0.212982
0.870209 0.922546 0.162231
0.980896 0.960510 0.095245
0.003082 0.016846 0.026062
0.053497 0.027527 0.042633
0.143311 0.042725 0.060638
0.272308 0.066833 0.080109
0.410645 0.092163 0.095703
0.536224 0.115265 0.109344
0.649567 0.134308 0.121155
0.753998 0.148865 0.130951
0.852448 0.159790 0.138763
0.016937 0.069183 0.058746
0.062347 0.078247 0.068481
0.156891 0.092590 0.082794
0.289368 0.110962 0.095398
0.426331 0.133759 0.106659
0.549438 0.156647 0.117218
0.660370 0.176910 0.127014
0.763123 0.193573 0.135529
0.860657 0.206909 0.143036
0.049988 0.148834 0.104919
0.083496 0.156891 0.107635
0.181671 0.185272 0.114929
0.325165 0.209808 0.121246
0.454803 0.220215 0.125641
0.573730 0.234802 0.131134
0.681885 0.250854 0.137390
0.783020 0.265808 0.143890
0.879974 0.279022 0.150238
0.097260 0.253937 0.160767
0.121429 0.260834 0.158203
0.191925 0.279144 0.156036
0.333221 0.320221 0.147736
0.477631 0.346161 0.141693
0.602203 0.355896 0.142029
0.712402 0.362366 0.146667
0.814575 0.370789 0.152252
0.912231 0.380280 0.158020
0.148651 0.365295 0.213104
0.168884 0.370758 0.207733
0.226715 0.386719 0.204193
0.342957 0.419708 0.194427
0.484222 0.460693 0.169098
0.614197 0.482422 0.150909
0.735474 0.490051 0.145477
0.848236 0.492981 0.148834
0.951752 0.496490 0.155945
0.196960 0.469910 0.254822
0.216461 0.475067 0.249115
0.270538 0.491058 0.246948
0.374176 0.521606 0.240723
0.498810 0.559265 0.218140
0.619568 0.593933 0.179169
0.741394 0.612427 0.151917
0.864380 0.618866 0.141937
0.984833 0.621124 0.140533
0.239349 0.566589 0.287109
0.260559 0.572723 0.283295
0.315857 0.589661 0.283508
0.414948 0.619080 0.280182
0.528595 0.653687 0.262573
0.634674 0.688049 0.228760
0.743744 0.720367 0.182892
0.866272 0.739624 0.149384
0.993866 0.746704 0.134766
0.275574 0.656219 0.313080
0.300415 0.664337 0.312866
0.359619 0.682739 0.315735
0.458008 0.711273 0.314453
0.565521 0.743286 0.300934
0.661926 0.775970 0.274536
0.755920 0.810425 0.236115
0.864258 0.844727 0.186371
0.990784 0.865845 0.147583
0.307343 0.740448 0.336670
0.337158 0.750946 0.340485
0.401886 0.771118 0.346069
0.501099 0.799133 0.346619
0.604675 0.829041 0.336975
0.695557 0.859924 0.317352
0.779907 0.893677 0.288940
0.870667 0.930023 0.250244
0.980865 0.965240 0.199371
0.005463 0.043671 0.064178
0.044586 0.055939 0.088684
0.122864 0.071014 0.116913
0.246460 0.092255 0.145081
0.386353 0.118744 0.164276
0.517731 0.141754 0.178864
0.634979 0.158844 0.191681
0.741333 0.170898 0.202942
0.840668 0.178986 0.212585
0.017700 0.093048 0.094299
0.053894 0.104523 0.112762
0.129791 0.117584 0.136169
0.255951 0.134735 0.160339
0.398163 0.156647 0.178253
0.529266 0.178406 0.191620
0.644440 0.197174 0.202637
0.749207 0.211975 0.212616
0.847809 0.223175 0.221527
0.045990 0.170898 0.142822
0.073425 0.181061 0.154175
0.141144 0.193054 0.169952
0.278534 0.212158 0.194550
0.425232 0.229980 0.208801
0.554413 0.248138 0.216614
0.666718 0.265076 0.222687
0.769623 0.279846 0.229279
0.867706 0.292358 0.236237
0.091827 0.275665 0.205872
0.109406 0.283752 0.209839
0.164795 0.295715 0.218414
0.308014 0.328491 0.235718
0.467346 0.353516 0.245178
0.592804 0.361328 0.246735
0.703094 0.369568 0.247681
0.805237 0.379486 0.250153
0.903137 0.389832 0.254211
0.141174 0.386658 0.266357
0.155731 0.392395 0.264740
0.203186 0.404388 0.268707
0.316345 0.430756 0.275146
0.472473 0.467957 0.269592
0.611755 0.487885 0.260956
0.734253 0.493683 0.258820
0.844330 0.496765 0.261353
0.946320 0.501862 0.265289
0.188995 0.490051 0.313507
0.203735 0.494568 0.309814
0.249603 0.506866 0.312744
0.350189 0.532471 0.318451
0.484619 0.567657 0.310669
0.615845 0.600464 0.284668
0.741638 0.616455 0.265717
0.865082 0.621246 0.259979
0.983246 0.622864 0.260986
0.232361 0.584839 0.348358
0.249207 0.589691 0.345764
0.297913 0.603271 0.350525
0.395264 0.629272 0.357880
0.516113 0.662811 0.352844
0.630249 0.696686 0.328827
0.743378 0.726715 0.292206
0.867096 0.742798 0.266724
0.994568 0.747986 0.256592
0.270020 0.672638 0.375641
0.290680 0.679108 0.376770
0.344727 0.694855 0.384918
0.442902 0.721588 0.394623
0.556519 0.753754 0.392975
0.658875 0.786774 0.374603
0.755371 0.819977 0.342194
0.864471 0.850922 0.299866
0.991425 0.868469 0.267670
0.303406 0.755341 0.400177
0.328949 0.764069 0.406036
0.389679 0.782440 0.418396
0.490234 0.810211 0.431030
0.599365 0.841339 0.433258
0.694336 0.873016 0.421021
0.779785 0.906158 0.396423
0.870209 0.940338 0.361725
0.980652 0.971863 0.316040
0.012848 0.081360 0.109589
0.041809 0.093842 0.136566
0.103180 0.109711 0.179932
0.215607 0.129150 0.229797
0.358124 0.150604 0.262909
0.496399 0.173004 0.277649
0.615845 0.193756 0.286560
0.723022 0.205017 0.297363
0.822876 0.210175 0.308655
0.023132 0.126495 0.139893
0.052032 0.138824 0.163239
0.111786 0.153412 0.200562
0.226166 0.170105 0.245667
0.369385 0.188629 0.277466
0.505554 0.208679 0.291321
0.623138 0.227417 0.299500
0.729126 0.240112 0.309845
0.828339 0.248627 0.320862
0.050385 0.200073 0.190857
0.072357 0.211487 0.208649
0.124512 0.225128 0.236969
0.238953 0.239899 0.273621
0.386108 0.255737 0.302277
0.522644 0.272888 0.315155
0.641418 0.288696 0.322937
0.747131 0.301849 0.331207
0.846436 0.312927 0.340576
0.092346 0.301575 0.260468
0.105927 0.310852 0.270966
0.147339 0.323639 0.289062
0.253693 0.338806 0.315369
0.415924 0.356750 0.343018
0.558929 0.370605 0.353973
0.677734 0.382996 0.357178
0.783142 0.394684 0.360657
0.882690 0.405792 0.366180
0.137970 0.410583 0.329712
0.147583 0.417114 0.333191
0.182281 0.428650 0.343506
0.277069 0.445831 0.362274
0.445526 0.474579 0.379120
0.601959 0.492279 0.380859
0.723450 0.497986 0.381348
0.830872 0.504181 0.383118
0.931488 0.512115 0.386414
0.181976 0.512970 0.384521
0.191589 0.517456 0.383942
0.225708 0.528168 0.390564
0.314758 0.547272 0.406464
0.457367 0.576172 0.417267
0.606079 0.605835 0.404907
0.739075 0.619965 0.388885
0.863647 0.623901 0.383972
0.977081 0.626282 0.387573
0.223358 0.607056 0.424133
0.234894 0.610992 0.423065
0.273163 0.622070 0.430237
0.363678 0.642944 0.446808
0.493134 0.672577 0.458466
0.620605 0.705292 0.447632
0.740570 0.732666 0.416199
0.867096 0.746033 0.389923
0.995453 0.749359 0.380157
0.260956 0.694336 0.454010
0.275970 0.699036 0.455383
0.321136 0.711884 0.466034
0.416931 0.734772 0.485413
0.540039 0.764801 0.499725
0.652435 0.797760 0.494415
0.753326 0.830017 0.467255
0.863892 0.857391 0.424408
0.992493 0.871368 0.390045
0.295166 0.776672 0.479919
0.314606 0.782806 0.485382
0.368256 0.798187 0.500916
0.470551 0.823303 0.524231
0.590179 0.853546 0.542297
0.692719 0.885498 0.543121
0.779938 0.918457 0.524323
0.869965 0.950745 0.488770
0.980865 0.978638 0.439453
0.024200 0.123932 0.156921
0.045624 0.134827 0.183594
0.092804 0.151093 0.239777
0.184570 0.170319 0.316711
0.320038 0.188110 0.373749
0.468445 0.204041 0.397736
0.599365 0.219757 0.406372
0.709106 0.233734 0.413177
0.806488 0.244049 0.421814
0.037201 0.165039 0.190735
0.057892 0.176208 0.214966
0.103516 0.191315 0.263519
0.198456 0.208038 0.333008
0.334320 0.223694 0.388000
0.479523 0.238037 0.411621
0.607269 0.252289 0.419037
0.714294 0.265991 0.424896
0.810730 0.276611 0.433594
0.062195 0.233612 0.245758
0.079803 0.244446 0.266357
0.119904 0.258423 0.304230
0.215820 0.273224 0.360626
0.355530 0.286316 0.410522
0.498962 0.298706 0.433960
0.623077 0.311615 0.440369
0.727448 0.325073 0.445038
0.825165 0.336090 0.453827
0.099915 0.329498 0.319885
0.112152 0.338898 0.334747
0.143921 0.351807 0.360687
0.233063 0.366425 0.400482
0.377167 0.379272 0.441101
0.524597 0.391022 0.464294
0.647827 0.403381 0.471100
0.755005 0.415436 0.475800
0.855713 0.426727 0.483124
0.141937 0.433990 0.394165
0.149719 0.441040 0.402344
0.174774 0.452515 0.418213
0.253143 0.468536 0.445068
0.394928 0.484955 0.476105
0.557892 0.499298 0.498199
0.688965 0.509979 0.505127
0.799377 0.520172 0.507935
0.901031 0.530487 0.512024
0.181854 0.534058 0.454224
0.187866 0.539001 0.457275
0.211151 0.549103 0.467102
0.284210 0.566650 0.487640
0.419434 0.587646 0.513641
0.586426 0.611938 0.523895
0.731110 0.623962 0.515656
0.850250 0.628754 0.515930
0.956299 0.635071 0.521332
0.219177 0.627991 0.498535
0.225800 0.631836 0.499359
0.251862 0.641571 0.507629
0.328156 0.660278 0.527283
0.460022 0.684418 0.552429
0.604523 0.712646 0.562927
0.734924 0.737457 0.543304
0.863556 0.748260 0.518707
0.990845 0.750580 0.509521
0.253998 0.716278 0.531555
0.262909 0.720001 0.532990
0.295319 0.730560 0.543365
0.381378 0.750946 0.565796
0.514099 0.776733 0.592682
0.643250 0.805878 0.606232
0.751282 0.836334 0.591766
0.861877 0.860809 0.553497
0.990173 0.872345 0.518280
0.286774 0.799988 0.559174
0.298798 0.804047 0.562897
0.340149 0.816345 0.577545
0.439270 0.838776 0.604614
0.574615 0.865479 0.634613
0.692169 0.893921 0.651611
0.783112 0.924896 0.644623
0.870911 0.955566 0.613770
0.979401 0.981110 0.565704
0.040100 0.166443 0.207367
0.055847 0.175354 0.232147
0.093567 0.191162 0.295074
0.166229 0.210541 0.394226
0.284119 0.226013 0.477264
0.435669 0.236542 0.515961
0.580414 0.245789 0.528046
0.702057 0.255096 0.534515
0.807556 0.264618 0.542206
0.055511 0.205231 0.245850
0.069977 0.213989 0.268097
0.106293 0.228241 0.322388
0.182922 0.245117 0.411133
0.302643 0.258698 0.490234
0.449890 0.268127 0.528656
0.590698 0.276276 0.539886
0.709564 0.285400 0.545166
0.813080 0.295166 0.552094
0.080139 0.269257 0.305603
0.092926 0.278137 0.325409
0.125549 0.291016 0.367950
0.204437 0.305420 0.439240
0.329834 0.316681 0.509735
0.474182 0.324677 0.548279
0.609711 0.332153 0.559479
0.724915 0.341522 0.563660
0.825745 0.352570 0.569672
0.114044 0.358612 0.382629
0.124329 0.366882 0.398956
0.151062 0.378845 0.429108
0.225494 0.392670 0.478851
0.356689 0.403748 0.534790
0.505096 0.412109 0.572662
0.637878 0.420349 0.586334
0.749420 0.431030 0.590820
0.847107 0.444153 0.596252
0.151367 0.456390 0.457916
0.159027 0.463287 0.469177
0.180115 0.474335 0.489166
0.245880 0.489594 0.522186
0.376007 0.504700 0.563080
0.531738 0.516907 0.597504
0.667114 0.527863 0.614899
0.776672 0.540222 0.621765
0.875793 0.552490 0.627411
0.188171 0.552094 0.519379
0.193573 0.557404 0.525696
0.211517 0.567505 0.538605
0.271667 0.584473 0.562469
0.396851 0.604828 0.594452
0.553894 0.622803 0.624664
0.699127 0.635742 0.641388
0.815613 0.645660 0.647583
0.919434 0.654999 0.651459
0.223053 0.644928 0.566376
0.227570 0.649078 0.569336
0.245941 0.658661 0.578766
0.307251 0.676788 0.599457
0.431946 0.700409 0.628784
0.583984 0.722534 0.656952
0.725708 0.743195 0.661316
0.856262 0.751892 0.646515
0.974091 0.755646 0.645203
0.255951 0.734528 0.602325
0.261169 0.738037 0.604187
0.283203 0.747894 0.613800
0.353577 0.767242 0.635834
0.485229 0.792175 0.666138
0.630035 0.815582 0.694000
0.748993 0.840454 0.700989
0.858887 0.862793 0.676971
0.984802 0.873108 0.647583
0.287201 0.820496 0.632202
0.294128 0.823730 0.634552
0.322876 0.834656 0.646912
0.409088 0.855682 0.673218
0.552124 0.880707 0.706329
0.688171 0.903198 0.734467
0.787781 0.927765 0.744293
0.872772 0.956085 0.726837
0.976288 0.980743 0.688599
0.059631 0.208954 0.264008
0.071228 0.216309 0.286499
0.103760 0.231018 0.350708
0.165466 0.250092 0.462250
0.264618 0.264587 0.567322
0.408875 0.271301 0.623383
0.563690 0.274994 0.642151
0.698395 0.279785 0.649719
0.816040 0.286530 0.658112
0.075439 0.245667 0.305908
0.085724 0.252502 0.325684
0.116699 0.265472 0.380920
0.182251 0.281860 0.480225
0.286102 0.294586 0.578979
0.426605 0.300781 0.634552
0.576355 0.303894 0.653320
0.708282 0.308441 0.660187
0.824188 0.315369 0.667847
0.099792 0.305847 0.369843
0.109192 0.312531 0.387329
0.136597 0.323883 0.430664
0.203461 0.337646 0.510101
0.315186 0.348114 0.596344
0.455017 0.353638 0.651031
0.598633 0.356720 0.671143
0.726196 0.361664 0.677582
0.839020 0.369598 0.684174
0.131989 0.388672 0.449188
0.139862 0.395264 0.464691
0.162781 0.405701 0.496277
0.225250 0.418640 0.552155
0.342926 0.429138 0.619263
0.489380 0.435883 0.670746
0.630341 0.440796 0.694153
0.752838 0.447449 0.701660
0.860901 0.457306 0.707275
0.165253 0.478943 0.523804
0.172272 0.485046 0.536469
0.191162 0.495148 0.559113
0.247467 0.509766 0.597290
0.364471 0.524597 0.645660
0.518890 0.535980 0.689850
0.662445 0.544678 0.716278
0.781006 0.553833 0.726807
0.883514 0.565186 0.732574
0.198242 0.568848 0.584473
0.203796 0.574066 0.593201
0.220062 0.584045 0.609253
0.272705 0.601013 0.637177
0.386566 0.621490 0.673950
0.542816 0.638977 0.710388
0.688293 0.651917 0.736694
0.804291 0.663177 0.750214
0.901794 0.675171 0.757507
0.231049 0.658966 0.632202
0.235321 0.663391 0.637390
0.250977 0.673340 0.649048
0.303864 0.692017 0.671722
0.418518 0.716003 0.703400
0.572266 0.737610 0.735626
0.712830 0.753662 0.760071
0.830688 0.764496 0.771484
0.934174 0.772888 0.776581
0.262878 0.748688 0.670166
0.266907 0.752563 0.673340
0.284668 0.762939 0.683533
0.344269 0.783020 0.705383
0.467773 0.807983 0.735901
0.617920 0.830170 0.766174
0.746002 0.847260 0.788879
0.854553 0.865173 0.788513
0.975281 0.874664 0.773010
0.293427 0.836609 0.702484
0.298523 0.840088 0.705048
0.321075 0.851532 0.716339
0.395142 0.873077 0.740601
0.534546 0.897339 0.772217
0.678986 0.917358 0.801117
0.789246 0.933533 0.821899
0.874420 0.954987 0.824738
0.971344 0.978668 0.803955
0.080139 0.250824 0.324890
0.089203 0.257111 0.345886
0.118744 0.270630 0.408661
0.176727 0.288574 0.524384
0.265289 0.302032 0.644531
0.395721 0.306854 0.718628
0.552643 0.306976 0.747803
0.698242 0.308380 0.758698
0.826630 0.313477 0.768433
0.095612 0.285339 0.368683
0.103699 0.290771 0.386841
0.130859 0.302551 0.441284
0.190369 0.317749 0.544312
0.285126 0.329590 0.655487
0.415253 0.334351 0.727661
0.567352 0.334564 0.757629
0.710083 0.336182 0.768738
0.836884 0.341461 0.778076
0.119690 0.341583 0.435608
0.126617 0.346527 0.451080
0.149963 0.356293 0.494385
0.207062 0.369110 0.577362
0.308167 0.379120 0.672272
0.443237 0.383911 0.740570
0.591888 0.384979 0.772308
0.729858 0.387115 0.783997
0.853271 0.393188 0.792389
0.150726 0.418274 0.517426
0.156769 0.423004 0.531158
0.176056 0.431641 0.563568
0.227264 0.443726 0.623566
0.330658 0.454468 0.696350
0.475739 0.461243 0.756592
0.625366 0.464905 0.790375
0.757568 0.468750 0.803467
0.875061 0.475800 0.810791
0.181549 0.501526 0.592316
0.187347 0.506256 0.604523
0.204132 0.515045 0.629028
0.251862 0.528961 0.672089
0.354462 0.544128 0.725128
0.506287 0.555847 0.773743
0.658722 0.563629 0.807098
0.785675 0.569916 0.822571
0.895844 0.577881 0.829742
0.211121 0.585388 0.651764
0.216461 0.590118 0.661530
0.231995 0.599792 0.680328
0.279541 0.616882 0.713074
0.382660 0.637543 0.753906
0.534882 0.654755 0.792480
0.686035 0.666534 0.822174
0.808197 0.675079 0.839355
0.911469 0.683716 0.847931
0.241302 0.671753 0.698700
0.245789 0.676270 0.705597
0.261169 0.686951 0.720093
0.310974 0.706818 0.746582
0.418213 0.731018 0.780640
0.568298 0.751526 0.813446
0.711548 0.765747 0.839203
0.827087 0.776123 0.856140
0.924011 0.785645 0.866394
0.271698 0.760406 0.737366
0.275940 0.764801 0.742126
0.293030 0.776520 0.754364
0.349152 0.798096 0.777771
0.466339 0.823029 0.807953
0.613770 0.843719 0.837219
0.744049 0.858459 0.860260
0.848602 0.869843 0.875977
0.945007 0.879517 0.885498
0.301819 0.849243 0.771667
0.306763 0.853577 0.775299
0.327911 0.866669 0.787384
0.396820 0.889343 0.810364
0.529419 0.912872 0.838318
0.671783 0.930939 0.864197
0.785217 0.944550 0.884277
0.874908 0.956207 0.898926
0.964844 0.975494 0.901611
0.100220 0.290710 0.385864
0.107788 0.296387 0.406281
0.134827 0.308838 0.467255
0.192078 0.324768 0.582672
0.278870 0.336456 0.711395
0.395966 0.340424 0.802246
0.547699 0.339111 0.845551
0.701050 0.339081 0.862396
0.837036 0.343750 0.873810
0.115234 0.322754 0.430267
0.121582 0.327484 0.448120
0.145813 0.338104 0.502106
0.200745 0.351685 0.605438
0.291504 0.362000 0.722321
0.413422 0.366119 0.808411
0.563721 0.365540 0.852631
0.714203 0.366119 0.870544
0.848480 0.371368 0.881531
0.139008 0.374908 0.499146
0.143982 0.378601 0.513763
0.164062 0.387024 0.558044
0.211945 0.398560 0.642792
0.303009 0.408020 0.740021
0.435394 0.412659 0.817017
0.588867 0.413574 0.861786
0.734924 0.415039 0.880859
0.865234 0.420776 0.891022
0.169037 0.445831 0.584076
0.173401 0.448822 0.596069
0.189941 0.455811 0.629883
0.230774 0.466797 0.693817
0.318359 0.477905 0.767487
0.461670 0.485291 0.829895
0.621765 0.489258 0.872589
0.762390 0.492310 0.892609
0.885803 0.498077 0.901947
0.198486 0.522949 0.660828
0.203064 0.526276 0.671539
0.217865 0.533600 0.697632
0.257690 0.546753 0.745697
0.345184 0.562225 0.800385
0.492523 0.574402 0.847229
0.654724 0.582245 0.883911
0.789124 0.587372 0.904724
0.904114 0.592926 0.914276
0.225342 0.601471 0.719879
0.230560 0.605499 0.729462
0.245483 0.614868 0.750366
0.289062 0.632202 0.788086
0.381836 0.652679 0.831268
0.527954 0.669098 0.867432
0.683380 0.680023 0.896698
0.810394 0.686981 0.917023
0.917480 0.692810 0.928162
0.253021 0.683899 0.765564
0.257904 0.688507 0.773376
0.273956 0.700226 0.790527
0.323151 0.721436 0.821350
0.425293 0.745148 0.857208
0.569397 0.763702 0.887848
0.711517 0.776154 0.911743
0.828796 0.784760 0.929626
0.928406 0.791351 0.942017
0.281830 0.771088 0.804016
0.286469 0.776123 0.810120
0.304626 0.789490 0.824768
0.361328 0.812561 0.850555
0.475403 0.836670 0.880402
0.616730 0.855133 0.906921
0.743927 0.867889 0.927643
0.849548 0.877167 0.943024
0.941193 0.884949 0.955017
0.311310 0.860291 0.839539
0.316711 0.865662 0.844421
0.338531 0.880493 0.857971
0.406647 0.903748 0.880280
0.533844 0.925781 0.904602
0.669037 0.942230 0.926086
0.780914 0.954285 0.943451
0.874207 0.963745 0.957184
0.957733 0.972382 0.968567
