lut/retro-80s/RoboCop (1987) - Standard.cube
# Created by Benjamin (IWLTBAP): https://luts.iwltbap.com
# Copyright: (C) Copyright 2018 Triune Films and IWLTBAP SAS
# Cannot be resold, shared or otherwise redistributed
TITLE "Triune Films 80s Retro LUTs (Rec.709, sRGB, DCI-P3)"
LUT_3D_SIZE 33
0.002380 0.000000 0.000000
0.015076 0.001923 0.000977
0.029022 0.003845 0.001953
0.044800 0.005737 0.003448
0.063477 0.008331 0.004700
0.084747 0.010406 0.006531
0.108704 0.013428 0.008484
0.135468 0.017120 0.010834
0.163635 0.022400 0.014282
0.193634 0.028625 0.018036
0.225739 0.035065 0.023346
0.259003 0.042816 0.027924
0.292755 0.050140 0.032440
0.326782 0.057495 0.036316
0.360413 0.064911 0.040558
0.393555 0.072052 0.043976
0.425995 0.078827 0.047150
0.457672 0.085175 0.049713
0.488556 0.091400 0.051880
0.518585 0.097137 0.054260
0.547882 0.102722 0.056183
0.576508 0.108093 0.058350
0.604523 0.113220 0.060699
0.631927 0.118042 0.063110
0.658783 0.122742 0.065765
0.685089 0.127075 0.068390
0.710938 0.131134 0.070862
0.736359 0.134888 0.073242
0.761383 0.138580 0.075226
0.785980 0.141815 0.077362
0.810364 0.144958 0.079315
0.834747 0.148010 0.081146
0.858734 0.150879 0.082855
0.006226 0.011688 0.006897
0.018372 0.014008 0.007690
0.032806 0.016113 0.008514
0.049011 0.018097 0.009277
0.067444 0.020477 0.010223
0.088470 0.022705 0.011780
0.112549 0.025726 0.013580
0.138947 0.029449 0.015625
0.167206 0.034576 0.018463
0.197357 0.040771 0.022156
0.229492 0.046692 0.025787
0.262787 0.053436 0.030121
0.296570 0.060059 0.034149
0.330475 0.067047 0.038147
0.364105 0.074005 0.041656
0.397095 0.080750 0.044800
0.429443 0.087311 0.047668
0.460968 0.093689 0.050049
0.491730 0.099854 0.052032
0.521576 0.105774 0.053986
0.550751 0.111389 0.056274
0.579193 0.116943 0.058441
0.607086 0.122192 0.060791
0.634338 0.127106 0.063141
0.661041 0.131866 0.065826
0.687256 0.136444 0.068359
0.713013 0.140656 0.070862
0.738312 0.144653 0.073181
0.763245 0.148407 0.075470
0.787781 0.151917 0.077301
0.812073 0.155212 0.079254
0.836365 0.158356 0.081085
0.860321 0.161438 0.082764
0.010406 0.024536 0.014923
0.022247 0.026886 0.015350
0.036530 0.029510 0.015472
0.053162 0.032196 0.015839
0.072235 0.034760 0.015961
0.093384 0.037201 0.016815
0.117218 0.040039 0.017792
0.143433 0.043732 0.019653
0.171478 0.048065 0.022400
0.201599 0.053406 0.025848
0.233765 0.058838 0.029175
0.266907 0.064697 0.032745
0.300598 0.071014 0.036316
0.334412 0.077545 0.039520
0.367981 0.084320 0.042786
0.400879 0.090729 0.045624
0.433075 0.097198 0.048248
0.464508 0.103424 0.050354
0.495117 0.109680 0.052307
0.524841 0.115540 0.054138
0.553802 0.121246 0.056274
0.582062 0.126831 0.058594
0.609802 0.132263 0.060913
0.636932 0.137329 0.063232
0.663513 0.142212 0.065918
0.689545 0.146851 0.068604
0.715271 0.151184 0.071045
0.740479 0.155334 0.073181
0.765289 0.159180 0.075409
0.789734 0.162811 0.077484
0.813965 0.166290 0.079407
0.838196 0.169586 0.081207
0.862091 0.172729 0.082855
0.015228 0.038483 0.023560
0.026794 0.040558 0.023407
0.040131 0.043182 0.023163
0.056396 0.047272 0.022125
0.076233 0.050873 0.022003
0.098541 0.053986 0.021820
0.122986 0.056793 0.022491
0.149078 0.059845 0.023834
0.177063 0.063782 0.025818
0.207092 0.068085 0.028839
0.238953 0.072662 0.031769
0.271820 0.077942 0.035065
0.305328 0.083832 0.037994
0.339020 0.089844 0.041229
0.372467 0.096100 0.043884
0.405182 0.102325 0.046204
0.437225 0.108643 0.048584
0.468475 0.114807 0.050659
0.498932 0.120850 0.052277
0.528473 0.126770 0.054169
0.557251 0.132538 0.056274
0.585419 0.138031 0.058350
0.612915 0.143402 0.061066
0.639923 0.148590 0.063385
0.666351 0.153503 0.066162
0.692322 0.158295 0.068634
0.717865 0.162689 0.071014
0.743011 0.166962 0.073364
0.767731 0.170929 0.075500
0.792114 0.174652 0.077393
0.816284 0.178253 0.079315
0.840454 0.181671 0.081268
0.864258 0.184937 0.082886
0.020752 0.053406 0.032898
0.031738 0.055328 0.032074
0.044464 0.057770 0.031616
0.059723 0.061829 0.030548
0.079224 0.067474 0.028778
0.102356 0.072235 0.027496
0.128021 0.076111 0.027527
0.155304 0.079620 0.027924
0.183777 0.082825 0.029358
0.213776 0.086090 0.031952
0.245209 0.090118 0.034210
0.277771 0.094574 0.037048
0.310974 0.099609 0.039703
0.344360 0.105103 0.042267
0.377563 0.110748 0.044708
0.410156 0.116547 0.046631
0.441956 0.122345 0.048553
0.473022 0.128387 0.050446
0.503296 0.134247 0.052368
0.532654 0.139862 0.054169
0.561249 0.145538 0.056244
0.589172 0.151001 0.058533
0.616547 0.156311 0.061096
0.643372 0.161499 0.063751
0.669708 0.166443 0.066284
0.695557 0.171204 0.068756
0.720978 0.175720 0.071014
0.746002 0.179932 0.073303
0.770691 0.184021 0.075500
0.794983 0.187805 0.077484
0.819092 0.191437 0.079376
0.843201 0.195038 0.081116
0.867004 0.198334 0.082977
0.027557 0.070404 0.042511
0.038147 0.072083 0.042267
0.049866 0.074615 0.041229
0.063934 0.078033 0.040253
0.081726 0.083160 0.038422
0.104584 0.089844 0.035767
0.131531 0.096252 0.033813
0.160004 0.100830 0.033295
0.189941 0.104828 0.033295
0.220886 0.108429 0.034424
0.252441 0.111938 0.036133
0.284698 0.115417 0.038239
0.317535 0.119446 0.040558
0.350555 0.124023 0.042877
0.383362 0.128937 0.044830
0.415741 0.134094 0.046600
0.447327 0.139465 0.048462
0.478210 0.144958 0.050232
0.508209 0.150421 0.052094
0.537384 0.155823 0.054047
0.565765 0.161102 0.056274
0.593567 0.166382 0.058594
0.620758 0.171661 0.061249
0.647369 0.176605 0.063873
0.673584 0.181549 0.066345
0.699310 0.186188 0.068726
0.724670 0.190643 0.071014
0.749634 0.194946 0.073242
0.774170 0.198914 0.075378
0.798492 0.202820 0.077393
0.822540 0.206482 0.079224
0.846588 0.210083 0.081116
0.870300 0.213531 0.082825
0.036743 0.089050 0.053253
0.046509 0.090790 0.052887
0.056946 0.093109 0.051788
0.069244 0.096161 0.050415
0.085510 0.100616 0.048279
0.106537 0.107056 0.045410
0.133331 0.115509 0.041840
0.163116 0.122650 0.039368
0.194061 0.128174 0.037933
0.226135 0.132812 0.037842
0.259064 0.136993 0.037903
0.291931 0.140564 0.039062
0.324615 0.143951 0.040649
0.357361 0.147614 0.042542
0.389862 0.151428 0.044373
0.421875 0.155823 0.046173
0.453278 0.160309 0.047974
0.483887 0.165070 0.049774
0.513702 0.170074 0.051697
0.542664 0.174988 0.054047
0.570862 0.179871 0.056366
0.598450 0.184845 0.058868
0.625519 0.189789 0.061340
0.652039 0.194611 0.063873
0.678101 0.199188 0.066254
0.703705 0.203766 0.068817
0.728973 0.208069 0.071075
0.753876 0.212280 0.073273
0.778412 0.216278 0.075195
0.802612 0.220032 0.077240
0.826630 0.223694 0.079254
0.850647 0.227234 0.081024
0.874359 0.230713 0.082764
0.046875 0.109894 0.064911
0.055115 0.111511 0.063782
0.064514 0.113403 0.062683
0.076111 0.116241 0.061066
0.090729 0.120117 0.058990
0.110107 0.125824 0.055939
0.134949 0.133789 0.052063
0.164612 0.143341 0.047516
0.196960 0.151520 0.043976
0.230011 0.157806 0.041992
0.263702 0.163025 0.040833
0.297699 0.167572 0.040344
0.331299 0.171417 0.040741
0.364166 0.174683 0.042084
0.396576 0.177917 0.043518
0.428375 0.181274 0.045349
0.459503 0.184937 0.047089
0.489960 0.188965 0.049164
0.519592 0.193207 0.051300
0.548370 0.197449 0.053741
0.576416 0.201843 0.056274
0.603882 0.206329 0.058807
0.630798 0.210785 0.061432
0.657227 0.215271 0.063934
0.683167 0.219604 0.066315
0.708710 0.223785 0.068665
0.733887 0.227997 0.070923
0.758728 0.231995 0.073059
0.783203 0.235809 0.075134
0.807404 0.239502 0.077087
0.831360 0.243073 0.079132
0.855377 0.246582 0.080994
0.879089 0.250000 0.082611
0.056854 0.132568 0.076263
0.064301 0.134125 0.075012
0.073242 0.135956 0.073425
0.083862 0.138367 0.071655
0.097595 0.141815 0.069366
0.115356 0.146729 0.066650
0.138275 0.153839 0.062531
0.166016 0.162750 0.057648
0.198273 0.173248 0.052032
0.232574 0.182404 0.047760
0.267181 0.189362 0.044739
0.301788 0.194977 0.042999
0.336151 0.199799 0.041992
0.370056 0.204010 0.041809
0.402893 0.207336 0.042633
0.434753 0.210266 0.044250
0.465851 0.213135 0.046143
0.496124 0.216309 0.048523
0.525696 0.219696 0.050781
0.554352 0.223236 0.053467
0.582367 0.226929 0.056000
0.609741 0.230804 0.058533
0.636566 0.234711 0.061157
0.662903 0.238678 0.063538
0.688782 0.242584 0.065918
0.714264 0.246490 0.068298
0.739410 0.250305 0.070679
0.764191 0.254059 0.072693
0.788696 0.257690 0.074951
0.812836 0.261261 0.076904
0.836853 0.264648 0.078857
0.860840 0.268066 0.080811
0.884521 0.271332 0.082428
0.068420 0.156799 0.087952
0.075470 0.158386 0.086334
0.083557 0.160004 0.084564
0.093475 0.162201 0.082520
0.105927 0.165314 0.079956
0.122284 0.169647 0.077087
0.143311 0.175964 0.073273
0.169159 0.184021 0.068542
0.199615 0.193939 0.062714
0.233704 0.205322 0.056244
0.269562 0.215118 0.050842
0.304932 0.222626 0.047272
0.339813 0.228607 0.045105
0.374115 0.233521 0.043915
0.407776 0.237885 0.043335
0.440369 0.241364 0.043823
0.471710 0.244141 0.045319
0.502136 0.246674 0.047424
0.531738 0.249237 0.049896
0.560455 0.252075 0.052429
0.588470 0.255035 0.054962
0.615875 0.258179 0.057617
0.642731 0.261444 0.060120
0.669098 0.264801 0.062683
0.694916 0.268188 0.065155
0.720398 0.271667 0.067566
0.745514 0.275085 0.069855
0.770325 0.278503 0.072083
0.794800 0.281891 0.074219
0.819000 0.285126 0.076294
0.843018 0.288361 0.078278
0.867004 0.291565 0.080170
0.890747 0.294678 0.082001
0.080475 0.182617 0.100220
0.086731 0.184021 0.098663
0.094452 0.185577 0.096558
0.103577 0.187622 0.094421
0.115143 0.190521 0.091827
0.130280 0.194366 0.088837
0.149750 0.199951 0.085266
0.173737 0.207214 0.080658
0.202240 0.216370 0.074951
0.234833 0.227203 0.068329
0.270538 0.239044 0.060883
0.306854 0.249329 0.054657
0.342468 0.257141 0.050507
0.377258 0.263275 0.047791
0.411224 0.268341 0.046112
0.444336 0.272614 0.045288
0.476440 0.276245 0.045197
0.507416 0.278961 0.046265
0.537354 0.281281 0.048065
0.566376 0.283417 0.050385
0.594574 0.285706 0.052887
0.622101 0.288177 0.055603
0.649078 0.290771 0.058197
0.675537 0.293488 0.060913
0.701508 0.296295 0.063507
0.727051 0.299255 0.065948
0.752258 0.302246 0.068359
0.777100 0.305237 0.070770
0.801636 0.308197 0.072998
0.825897 0.311157 0.075165
0.849945 0.314087 0.077240
0.873993 0.317078 0.079193
0.897766 0.320007 0.081116
0.093048 0.209290 0.112885
0.098999 0.210602 0.110992
0.105774 0.212219 0.108978
0.114410 0.214142 0.106567
0.125275 0.216827 0.104156
0.139313 0.220398 0.101379
0.157440 0.225403 0.097931
0.179749 0.232025 0.093414
0.206573 0.240326 0.088196
0.237305 0.250366 0.081818
0.271637 0.261871 0.074005
0.307892 0.274078 0.065613
0.344269 0.284515 0.058624
0.379669 0.292480 0.053864
0.414001 0.298737 0.050476
0.447327 0.303711 0.048218
0.479828 0.307861 0.046906
0.511444 0.311371 0.046204
0.542053 0.314148 0.046600
0.571625 0.316284 0.047913
0.600281 0.318146 0.050079
0.628204 0.320007 0.052582
0.655457 0.321991 0.055206
0.682159 0.324097 0.058014
0.708344 0.326294 0.060638
0.734070 0.328613 0.063385
0.759430 0.331085 0.065979
0.784393 0.333649 0.068512
0.809052 0.336182 0.070923
0.833435 0.338745 0.073242
0.857605 0.341370 0.075439
0.881714 0.344055 0.077545
0.905518 0.346741 0.079559
0.105988 0.236725 0.125549
0.111389 0.237976 0.123474
0.117828 0.239563 0.121338
0.125854 0.241394 0.119080
0.136017 0.243835 0.116608
0.149078 0.247314 0.113922
0.166138 0.252014 0.110687
0.187073 0.258057 0.106659
0.212250 0.265656 0.101685
0.241425 0.274963 0.095642
0.274170 0.285797 0.088135
0.309174 0.297668 0.079498
0.345428 0.309906 0.070221
0.381409 0.320282 0.062347
0.416199 0.328278 0.056641
0.449829 0.334381 0.052551
0.482513 0.339233 0.049774
0.514374 0.343201 0.047913
0.545471 0.346527 0.046844
0.575775 0.349274 0.046448
0.605164 0.351288 0.047211
0.633698 0.352936 0.049011
0.661469 0.354431 0.051422
0.688568 0.356049 0.054077
0.715149 0.357666 0.056885
0.741211 0.359406 0.059662
0.766846 0.361298 0.062439
0.792084 0.363373 0.065094
0.816925 0.365479 0.067780
0.841492 0.367645 0.070251
0.865814 0.369873 0.072723
0.890045 0.372223 0.074982
0.913971 0.374603 0.077179
0.118835 0.264587 0.137756
0.124054 0.265808 0.135681
0.130219 0.267181 0.133545
0.137695 0.269043 0.131409
0.147125 0.271393 0.128876
0.159607 0.274750 0.126434
0.175720 0.279205 0.123230
0.195557 0.284943 0.119659
0.219299 0.292023 0.114990
0.246948 0.300659 0.109344
0.278198 0.310822 0.102509
0.311829 0.322144 0.094086
0.346985 0.334137 0.084656
0.382751 0.346191 0.074280
0.417938 0.356384 0.065399
0.451874 0.364044 0.058929
0.484772 0.369995 0.054199
0.516785 0.374634 0.050842
0.548096 0.378357 0.048523
0.578705 0.381470 0.046906
0.608795 0.384064 0.045898
0.638184 0.386047 0.045990
0.666748 0.387482 0.047333
0.694489 0.388763 0.049530
0.721619 0.389954 0.052063
0.748230 0.391235 0.054840
0.774292 0.392609 0.057739
0.799896 0.394135 0.060638
0.825073 0.395813 0.063477
0.849884 0.397552 0.066223
0.874451 0.399353 0.068848
0.898895 0.401306 0.071411
0.922974 0.403320 0.073822
0.131744 0.292603 0.149933
0.136780 0.293732 0.147766
0.142578 0.295135 0.145630
0.149628 0.296844 0.143341
0.158569 0.299164 0.141174
0.170410 0.302338 0.138733
0.185791 0.306732 0.135773
0.204834 0.312225 0.132385
0.227448 0.318939 0.128204
0.253845 0.327087 0.123077
0.283569 0.336700 0.116608
0.315918 0.347443 0.108887
0.349854 0.358948 0.099579
0.384613 0.370819 0.089233
0.419464 0.382477 0.077850
0.453552 0.392242 0.068054
0.486603 0.399628 0.060730
0.518768 0.405334 0.055328
0.550232 0.409729 0.051331
0.580994 0.413177 0.048462
0.611328 0.415985 0.046478
0.641266 0.418396 0.045013
0.670746 0.420319 0.044434
0.699493 0.421661 0.045074
0.727448 0.422699 0.046967
0.754700 0.423645 0.049347
0.781403 0.424622 0.052155
0.807587 0.425690 0.055023
0.833282 0.426849 0.058014
0.858490 0.428162 0.061035
0.883392 0.429596 0.063904
0.908112 0.431152 0.066742
0.932465 0.432800 0.069427
0.144592 0.320526 0.161621
0.149323 0.321564 0.159515
0.154785 0.322845 0.157379
0.161621 0.324554 0.155090
0.170227 0.326904 0.152832
0.181732 0.330017 0.150543
0.196289 0.334229 0.147888
0.214539 0.339539 0.144806
0.236359 0.346100 0.141144
0.261566 0.353943 0.136475
0.290161 0.363129 0.130615
0.321198 0.373291 0.123322
0.353973 0.384308 0.114594
0.387695 0.395844 0.104523
0.421661 0.407349 0.093079
0.455292 0.418457 0.080872
0.488312 0.427734 0.070221
0.520508 0.434753 0.062103
0.551971 0.440125 0.055969
0.582916 0.444244 0.051361
0.613373 0.447449 0.048004
0.643494 0.450043 0.045593
0.673370 0.452209 0.043793
0.702972 0.454010 0.042511
0.732086 0.455353 0.042419
0.760315 0.456238 0.043823
0.787872 0.457001 0.045990
0.814758 0.457733 0.048615
0.841156 0.458527 0.051544
0.867035 0.459412 0.054596
0.892426 0.460419 0.057678
0.917542 0.461609 0.060730
0.942261 0.462830 0.063660
0.157043 0.348175 0.172852
0.161621 0.349182 0.170776
0.166931 0.350464 0.168518
0.173553 0.352112 0.166412
0.181976 0.354401 0.164337
0.193024 0.357544 0.162079
0.207245 0.361694 0.159668
0.224640 0.366882 0.156891
0.245758 0.373260 0.153503
0.270172 0.380920 0.149323
0.297729 0.389709 0.143982
0.327698 0.399506 0.137421
0.359314 0.410065 0.129395
0.391937 0.421143 0.119659
0.424927 0.432373 0.108704
0.457672 0.443451 0.096405
0.490112 0.453949 0.083252
0.522156 0.462677 0.071869
0.553558 0.469330 0.062958
0.584442 0.474365 0.056091
0.615021 0.478241 0.050873
0.645325 0.481232 0.047028
0.675385 0.483612 0.044189
0.705292 0.485596 0.042023
0.735077 0.487274 0.040314
0.764557 0.488556 0.039459
0.793182 0.489410 0.040253
0.821075 0.490021 0.042084
0.848358 0.490570 0.044525
0.875031 0.491119 0.047394
0.901184 0.491730 0.050476
0.926849 0.492523 0.053680
0.952057 0.493439 0.056824
0.169250 0.375458 0.183685
0.173706 0.376434 0.181488
0.178955 0.377655 0.179382
0.185303 0.379303 0.177185
0.193542 0.381561 0.175262
0.204224 0.384705 0.173157
0.218170 0.388855 0.170990
0.235229 0.394043 0.168488
0.255554 0.400330 0.165436
0.279266 0.407745 0.161743
0.306061 0.416321 0.156921
0.335114 0.425812 0.150818
0.365723 0.435944 0.143402
0.397308 0.446625 0.134491
0.429291 0.457520 0.124054
0.461121 0.468353 0.112091
0.492706 0.478882 0.098999
0.524048 0.488770 0.085144
0.555145 0.497009 0.072968
0.585876 0.503235 0.063293
0.616394 0.508026 0.055756
0.646759 0.511688 0.049988
0.677002 0.514557 0.045624
0.707092 0.516785 0.042389
0.737152 0.518585 0.039795
0.767090 0.520111 0.037811
0.796936 0.521393 0.036346
0.826080 0.522217 0.036407
0.854492 0.522736 0.037750
0.882202 0.523132 0.039948
0.909241 0.523499 0.042664
0.935760 0.523926 0.045746
0.961639 0.524475 0.049042
0.181152 0.402313 0.193817
0.185394 0.403290 0.191711
0.190582 0.404510 0.189728
0.196869 0.406158 0.187653
0.204987 0.408447 0.185608
0.215485 0.411560 0.183685
0.229126 0.415649 0.181702
0.245850 0.420837 0.179535
0.265839 0.427063 0.176880
0.288849 0.434387 0.173584
0.314972 0.442749 0.169250
0.343262 0.451996 0.163727
0.372986 0.461884 0.156921
0.403656 0.472168 0.148743
0.434662 0.482697 0.138824
0.465607 0.493225 0.127502
0.496246 0.503540 0.114777
0.526703 0.513489 0.100983
0.557037 0.522858 0.086517
0.587372 0.530640 0.073517
0.617645 0.536591 0.063202
0.647919 0.541168 0.055054
0.678223 0.544708 0.048767
0.708496 0.547424 0.043884
0.738739 0.549530 0.040192
0.768982 0.551239 0.037292
0.799133 0.552673 0.035004
0.829285 0.553864 0.033203
0.859070 0.554718 0.032379
0.888031 0.555206 0.033142
0.916229 0.555511 0.034973
0.943787 0.555756 0.037537
0.970581 0.556000 0.040558
0.192566 0.428619 0.203552
0.196808 0.429657 0.201477
0.201965 0.430878 0.199371
0.208160 0.432587 0.197418
0.216248 0.434845 0.195587
0.226654 0.438019 0.193817
0.240051 0.442108 0.192017
0.256592 0.447266 0.190033
0.276215 0.453461 0.187653
0.298798 0.460693 0.184692
0.324341 0.468872 0.181000
0.351929 0.477905 0.175995
0.380981 0.487488 0.169708
0.410858 0.497498 0.162109
0.441010 0.507690 0.153015
0.471039 0.517914 0.142426
0.500793 0.528015 0.130249
0.530304 0.537872 0.116913
0.559692 0.547333 0.102448
0.589172 0.556244 0.087280
0.618958 0.563660 0.073608
0.648956 0.569427 0.062744
0.679138 0.573853 0.054077
0.709473 0.577332 0.047180
0.739899 0.579956 0.041840
0.770325 0.582031 0.037750
0.800812 0.583679 0.034485
0.831238 0.585022 0.031921
0.861694 0.586151 0.029877
0.891998 0.587006 0.028473
0.921600 0.587555 0.028473
0.950409 0.587799 0.029846
0.978424 0.587921 0.032104
0.203644 0.454590 0.212677
0.208008 0.455566 0.210602
0.213043 0.456848 0.208679
0.219208 0.458588 0.206757
0.227234 0.460907 0.205017
0.237549 0.464050 0.203522
0.250916 0.468201 0.201904
0.267273 0.473358 0.200165
0.286682 0.479523 0.198059
0.308899 0.486633 0.195404
0.334076 0.494751 0.191895
0.361115 0.503510 0.187378
0.389496 0.512878 0.181732
0.418701 0.522614 0.174744
0.448120 0.532471 0.166351
0.477325 0.542389 0.156555
0.506195 0.552216 0.145172
0.534821 0.561920 0.132446
0.563293 0.571350 0.118439
0.591766 0.580414 0.103363
0.620605 0.588959 0.087646
0.650085 0.596191 0.073486
0.679993 0.601807 0.062012
0.710175 0.606201 0.052826
0.740631 0.609650 0.045410
0.771240 0.612274 0.039612
0.801941 0.614319 0.035126
0.832672 0.615967 0.031525
0.863464 0.617279 0.028656
0.894257 0.618347 0.026306
0.924927 0.619202 0.024628
0.955231 0.619781 0.023926
0.984650 0.620026 0.024689
0.214386 0.480011 0.221191
0.218658 0.481079 0.219330
0.223785 0.482422 0.217407
0.229980 0.484131 0.215729
0.238007 0.486542 0.214111
0.248352 0.489746 0.212616
0.261688 0.493927 0.211212
0.277924 0.499115 0.209717
0.297119 0.505188 0.207886
0.319214 0.512299 0.205536
0.343994 0.520233 0.202362
0.370605 0.528839 0.198334
0.398499 0.537903 0.193085
0.427094 0.547363 0.186615
0.455841 0.557007 0.178925
0.484314 0.566620 0.169769
0.512421 0.576202 0.159241
0.540192 0.585693 0.147308
0.567719 0.595001 0.133942
0.595245 0.604065 0.119415
0.623108 0.612823 0.103851
0.651550 0.621185 0.087646
0.680908 0.628296 0.073029
0.710785 0.633911 0.061096
0.741119 0.638306 0.051331
0.771790 0.641754 0.043457
0.802643 0.644440 0.037231
0.833618 0.646515 0.032349
0.864685 0.648132 0.028412
0.895813 0.649445 0.025238
0.926910 0.650482 0.022675
0.958008 0.651337 0.020721
0.988800 0.651917 0.019531
0.224701 0.504974 0.229340
0.229065 0.506195 0.227539
0.234192 0.507538 0.225769
0.240540 0.509369 0.224182
0.248596 0.511780 0.222748
0.259003 0.515106 0.221436
0.272369 0.519318 0.220184
0.288544 0.524445 0.218903
0.307648 0.530609 0.217285
0.329620 0.537567 0.215118
0.354095 0.545380 0.212280
0.380402 0.553833 0.208527
0.407806 0.562714 0.203766
0.435883 0.571869 0.197815
0.464111 0.581177 0.190613
0.491974 0.590576 0.182098
0.519348 0.599884 0.172302
0.546295 0.609100 0.161224
0.573029 0.618286 0.148773
0.599579 0.627289 0.134949
0.626434 0.636139 0.119965
0.653870 0.644775 0.104034
0.682190 0.653046 0.087463
0.711517 0.660095 0.072388
0.741516 0.665771 0.059937
0.772064 0.670227 0.049744
0.802948 0.673767 0.041412
0.834076 0.676483 0.034790
0.865387 0.678619 0.029510
0.896790 0.680267 0.025208
0.928253 0.681580 0.021790
0.959717 0.682648 0.018982
0.991119 0.683441 0.016846
0.234772 0.529572 0.236908
0.239136 0.530823 0.235352
0.244354 0.532288 0.233734
0.250702 0.534180 0.232300
0.258942 0.536682 0.230957
0.269470 0.540009 0.229889
0.282776 0.544312 0.228790
0.299072 0.549469 0.227600
0.318115 0.555542 0.226074
0.339905 0.562439 0.224304
0.364197 0.570190 0.221680
0.390289 0.578461 0.218140
0.417419 0.587097 0.213654
0.445099 0.596039 0.208313
0.472778 0.605042 0.201599
0.500061 0.614166 0.193787
0.526855 0.623230 0.184692
0.553131 0.632263 0.174377
0.578979 0.641205 0.162720
0.604706 0.650116 0.149841
0.630615 0.658997 0.135620
0.657074 0.667755 0.120300
0.684296 0.676361 0.103943
0.712555 0.684631 0.087036
0.742004 0.691742 0.071594
0.772217 0.697449 0.058716
0.802979 0.702026 0.048096
0.834137 0.705658 0.039368
0.865631 0.708496 0.032318
0.897247 0.710663 0.026672
0.928986 0.712372 0.022064
0.960785 0.713715 0.018341
0.992584 0.714783 0.015350
0.244293 0.553619 0.244110
0.248779 0.554932 0.242676
0.254150 0.556519 0.241272
0.260651 0.558502 0.240021
0.269012 0.561127 0.238953
0.279694 0.564545 0.237854
0.293121 0.568878 0.236938
0.309448 0.574066 0.235962
0.328552 0.580109 0.234619
0.350281 0.587006 0.232849
0.374512 0.594543 0.230469
0.400360 0.602631 0.227173
0.427155 0.611084 0.223083
0.454437 0.619720 0.218018
0.481750 0.628510 0.211853
0.508545 0.637360 0.204590
0.534790 0.646149 0.196136
0.560455 0.654968 0.186615
0.585693 0.663788 0.175964
0.610565 0.672546 0.163940
0.635559 0.681396 0.150696
0.661041 0.690216 0.136078
0.687256 0.698975 0.120392
0.714417 0.707611 0.103882
0.742798 0.715973 0.086639
0.772430 0.723206 0.070770
0.802887 0.729065 0.057526
0.833923 0.733765 0.046509
0.865387 0.737518 0.037354
0.897186 0.740448 0.029877
0.929138 0.742676 0.023926
0.961243 0.744476 0.019012
0.993347 0.745850 0.015015
0.253448 0.577271 0.250946
0.258148 0.578674 0.249725
0.263641 0.580353 0.248444
0.270294 0.582458 0.247406
0.278778 0.585144 0.246460
0.289642 0.588623 0.245544
0.303314 0.593018 0.244812
0.319763 0.598236 0.243896
0.338898 0.604248 0.242798
0.360626 0.611084 0.241150
0.384735 0.618500 0.238861
0.410400 0.626404 0.235870
0.437012 0.634644 0.231964
0.464050 0.643097 0.227234
0.490967 0.651642 0.221405
0.517303 0.660217 0.214691
0.543091 0.668762 0.207031
0.568268 0.677368 0.198212
0.592865 0.686005 0.188293
0.617126 0.694641 0.177155
0.641266 0.703400 0.164917
0.665833 0.712250 0.151306
0.691071 0.721130 0.136444
0.717194 0.729980 0.120544
0.744446 0.738708 0.103607
0.773010 0.747223 0.086151
0.802887 0.754578 0.070007
0.833557 0.760590 0.056396
0.864899 0.765442 0.044983
0.896698 0.769318 0.035400
0.928802 0.772339 0.027588
0.961090 0.774689 0.021301
0.993469 0.776520 0.016083
0.262207 0.600464 0.257446
0.267120 0.601990 0.256439
0.272797 0.603760 0.255371
0.279724 0.605927 0.254486
0.288422 0.608765 0.253723
0.299438 0.612335 0.252960
0.313293 0.616730 0.252319
0.329865 0.622009 0.251617
0.349182 0.628021 0.250458
0.370911 0.634766 0.248962
0.394989 0.642059 0.246857
0.420532 0.649841 0.244019
0.446960 0.657806 0.240417
0.473724 0.666046 0.235931
0.500336 0.674377 0.230560
0.526337 0.682709 0.224274
0.551758 0.691040 0.217102
0.576385 0.699432 0.209076
0.600494 0.707886 0.199890
0.624176 0.716431 0.189697
0.647705 0.725098 0.178284
