lut/retro-80s/Star Wars Empire Strikes Back Original (1980) - Standard.cube
# Created by Benjamin (IWLTBAP): https://luts.iwltbap.com
# Copyright: (C) Copyright 2018 Triune Films and IWLTBAP SAS
# Cannot be resold, shared or otherwise redistributed
TITLE "Triune Films 80s Retro LUTs (Rec.709, sRGB, DCI-P3)"
LUT_3D_SIZE 9
0.000000 0.000000 0.000000
0.061401 0.009613 0.011322
0.135925 0.025238 0.019196
0.211884 0.040924 0.019836
0.293640 0.054230 0.016876
0.389130 0.065216 0.014893
0.491638 0.072845 0.014557
0.594055 0.076385 0.018036
0.686981 0.078003 0.026062
0.012787 0.056946 0.019165
0.090576 0.077484 0.024689
0.193909 0.098846 0.020416
0.285706 0.109924 0.016754
0.379913 0.120667 0.014923
0.478729 0.129608 0.014648
0.577118 0.134430 0.017151
0.669128 0.137604 0.023224
0.752716 0.141907 0.035309
0.036224 0.136688 0.052765
0.110260 0.156830 0.056763
0.232483 0.203705 0.036499
0.362854 0.231262 0.017578
0.473450 0.236603 0.014038
0.572510 0.238434 0.015778
0.665283 0.240021 0.020691
0.751068 0.244324 0.030334
0.830750 0.252258 0.044769
0.075531 0.234070 0.102386
0.143066 0.252014 0.108704
0.257324 0.295776 0.100586
0.397644 0.358337 0.054352
0.512482 0.376160 0.029297
0.626801 0.381317 0.024658
0.732666 0.383820 0.031616
0.827332 0.388702 0.044952
0.913086 0.396606 0.061462
0.132294 0.346405 0.160370
0.195374 0.361938 0.167023
0.291779 0.395355 0.169128
0.426971 0.457855 0.148407
0.552063 0.512268 0.112671
0.646881 0.517731 0.059723
0.758392 0.518555 0.039124
0.869873 0.521698 0.043976
0.971527 0.527344 0.059113
0.196350 0.464233 0.225067
0.254974 0.478699 0.234589
0.340363 0.505768 0.242828
0.467712 0.558868 0.243866
0.601837 0.619293 0.223663
0.691498 0.653656 0.181152
0.770844 0.651184 0.087280
0.884827 0.646637 0.039337
1.000000 0.646393 0.031433
0.261688 0.581329 0.303162
0.321136 0.595795 0.313263
0.403961 0.618805 0.322632
0.523865 0.660706 0.329468
0.652039 0.712311 0.321350
0.740967 0.754456 0.292847
0.806854 0.776855 0.239166
0.888641 0.776703 0.111450
1.000000 0.772430 0.037964
0.336182 0.689819 0.383514
0.398987 0.703064 0.393585
0.482056 0.722076 0.402863
0.592163 0.754303 0.412872
0.702393 0.796326 0.416016
0.780457 0.835693 0.400574
0.841705 0.865875 0.363098
0.905579 0.885529 0.294556
1.000000 0.896179 0.137207
0.430908 0.785522 0.467957
0.494537 0.797058 0.478607
0.573151 0.812531 0.489868
0.664978 0.838196 0.504211
0.750122 0.872620 0.516785
0.812897 0.907349 0.513245
0.866516 0.936737 0.483887
0.924988 0.961273 0.434631
0.992859 0.983307 0.350708
0.002167 0.008545 0.034912
0.062164 0.017914 0.049377
0.138275 0.032867 0.055084
0.217194 0.047150 0.054321
0.299835 0.058289 0.053070
0.396149 0.066681 0.054474
0.498962 0.070831 0.060181
0.600983 0.071838 0.071136
0.693390 0.073273 0.086029
0.009369 0.065979 0.059906
0.080536 0.081116 0.072205
0.184052 0.097412 0.070984
0.285217 0.108246 0.063385
0.382477 0.118225 0.062286
0.481964 0.126282 0.066895
0.578400 0.130859 0.076111
0.668823 0.134766 0.088989
0.750824 0.141174 0.105103
0.022644 0.144653 0.091461
0.089844 0.161041 0.100952
0.219391 0.200958 0.093719
0.364319 0.226990 0.093475
0.475861 0.229370 0.089172
0.572968 0.232483 0.093201
0.662964 0.237244 0.102936
0.747040 0.244354 0.115936
0.825714 0.254852 0.132385
0.050629 0.243866 0.139252
0.115417 0.259644 0.147797
0.230164 0.292999 0.147766
0.391846 0.357239 0.119507
0.515533 0.375336 0.120911
0.630127 0.380310 0.124298
0.733856 0.384094 0.132751
0.826019 0.390472 0.145630
0.909821 0.400146 0.161163
0.097321 0.357056 0.197418
0.164185 0.371643 0.206665
0.263489 0.396942 0.211731
0.410797 0.455200 0.203308
0.552002 0.514893 0.181885
0.650024 0.519318 0.151794
0.761932 0.520172 0.140350
0.872406 0.523712 0.145660
0.972626 0.529724 0.157867
0.161774 0.473816 0.264496
0.227264 0.487854 0.275330
0.317169 0.509583 0.283417
0.448975 0.557007 0.289490
0.595520 0.620636 0.280457
0.693115 0.657898 0.247650
0.774414 0.653778 0.173828
0.888580 0.649078 0.136749
1.000000 0.649170 0.130188
0.230042 0.588776 0.340088
0.296875 0.602997 0.351685
0.384674 0.622681 0.360962
0.506744 0.660004 0.369720
0.642822 0.712524 0.369476
0.740021 0.758118 0.349213
0.809448 0.781464 0.301636
0.892639 0.780396 0.191040
1.000000 0.776062 0.127991
0.310547 0.695068 0.416992
0.380066 0.708221 0.429321
0.468048 0.725433 0.439056
0.580048 0.755005 0.449585
0.695251 0.796722 0.457458
0.778992 0.838379 0.449493
0.843201 0.870270 0.416534
0.908997 0.890289 0.351440
1.000000 0.900543 0.213959
0.415070 0.789062 0.499084
0.482910 0.800079 0.511475
0.565460 0.814972 0.522797
0.658905 0.839050 0.537476
0.746521 0.872864 0.552185
0.812256 0.908752 0.554321
0.868011 0.939484 0.531830
0.927246 0.964203 0.490906
0.993683 0.985321 0.424927
0.003906 0.022125 0.075958
0.054382 0.032257 0.098022
0.134521 0.043304 0.107300
0.218781 0.055328 0.104034
0.301178 0.064209 0.099915
0.396057 0.069122 0.103790
0.497101 0.069489 0.116058
0.597473 0.067169 0.135895
0.687653 0.069092 0.158752
0.004181 0.078217 0.107697
0.055908 0.091492 0.123749
0.164124 0.101379 0.138916
0.280182 0.110657 0.130157
0.381592 0.116821 0.126221
0.480621 0.121735 0.135284
0.574188 0.125610 0.152191
0.660980 0.130676 0.172699
0.739777 0.139740 0.194092
0.007874 0.152161 0.144012
0.059113 0.167938 0.158569
0.179108 0.189026 0.175812
0.351013 0.209259 0.176605
0.470886 0.212738 0.171478
0.566406 0.218872 0.180573
0.652344 0.228668 0.197144
0.732605 0.240967 0.216583
0.808319 0.255798 0.237549
0.016571 0.251495 0.189117
0.065643 0.269745 0.199463
0.172913 0.291260 0.211090
0.372406 0.348907 0.210663
0.515076 0.368805 0.228119
0.630768 0.371948 0.233490
0.729309 0.377258 0.243774
0.815643 0.387207 0.258820
0.894318 0.400024 0.275787
0.044281 0.366058 0.246582
0.104187 0.382904 0.254791
0.203522 0.400940 0.263550
0.368164 0.445435 0.268707
0.542908 0.511322 0.263641
0.650024 0.516388 0.259949
0.763153 0.518494 0.259979
0.869720 0.522980 0.268127
0.964355 0.529694 0.280121
0.095551 0.480255 0.312073
0.160278 0.496552 0.321503
0.256256 0.513550 0.331635
0.397095 0.548096 0.343323
0.568695 0.613251 0.346863
0.688599 0.657379 0.329224
0.774506 0.651733 0.281982
0.889160 0.647400 0.261658
1.000000 0.648529 0.261658
0.152679 0.591095 0.383606
0.221985 0.606628 0.393463
0.318939 0.623566 0.405304
0.450653 0.651459 0.418884
0.604919 0.701996 0.426941
0.726685 0.754700 0.421997
0.807037 0.781494 0.387512
0.892670 0.778564 0.301941
1.000000 0.773804 0.258789
0.226196 0.692657 0.455383
0.300507 0.706787 0.466248
0.399231 0.722412 0.480133
0.522339 0.745331 0.495209
0.654755 0.784302 0.508209
0.761139 0.830994 0.515472
0.837006 0.868408 0.496918
0.907196 0.889893 0.441925
1.000000 0.899139 0.323029
0.328156 0.782440 0.529938
0.403931 0.795044 0.543121
0.498535 0.809326 0.560333
0.605988 0.828796 0.578552
0.711395 0.859894 0.595886
0.796234 0.899109 0.610657
0.861664 0.935638 0.603180
0.924896 0.963959 0.568848
0.994171 0.986328 0.506226
0.005127 0.036011 0.116638
0.040955 0.050110 0.136780
0.114716 0.057159 0.166595
0.209412 0.065948 0.172394
0.305176 0.073151 0.173798
0.401703 0.074829 0.179016
0.494598 0.071320 0.191010
0.587921 0.065674 0.213013
0.672791 0.066772 0.239746
0.002930 0.092072 0.153961
0.039490 0.106201 0.171967
0.122955 0.119629 0.194885
0.267120 0.123230 0.225555
0.386292 0.125031 0.226074
0.484497 0.123352 0.229889
0.568573 0.123108 0.241638
0.647400 0.128082 0.261902
0.718994 0.139832 0.285889
0.001129 0.166199 0.196106
0.031982 0.185181 0.218231
0.113922 0.203156 0.241547
0.312988 0.207123 0.281342
0.460297 0.204346 0.275208
0.555878 0.207092 0.275177
0.635925 0.218353 0.289703
0.709839 0.235443 0.311676
0.779877 0.256226 0.337128
0.003448 0.265320 0.253174
0.035187 0.286743 0.273773
0.105652 0.304932 0.291290
0.306061 0.327789 0.319733
0.505554 0.345123 0.330109
0.624207 0.349854 0.331879
0.714386 0.362122 0.345306
0.793610 0.379822 0.364746
0.866425 0.399628 0.385773
0.012817 0.376709 0.311432
0.049133 0.396332 0.325653
0.119720 0.412933 0.332397
0.282959 0.437927 0.348083
0.520050 0.501495 0.368164
0.649109 0.511475 0.373810
0.763153 0.515747 0.378418
0.861237 0.522034 0.388153
0.946014 0.531219 0.401093
0.033417 0.486725 0.373535
0.082367 0.504669 0.385193
0.165039 0.521210 0.389771
0.307556 0.544495 0.400452
0.517029 0.601379 0.421814
0.679199 0.654236 0.417053
0.775177 0.649078 0.391785
0.889954 0.646637 0.383270
1.000000 0.649353 0.388214
0.074097 0.592468 0.439728
0.131195 0.608948 0.450012
0.222626 0.625702 0.455658
0.360168 0.647156 0.465576
0.540894 0.688690 0.484955
0.702637 0.748016 0.492859
0.803467 0.781006 0.470245
0.894043 0.776703 0.407471
1.000000 0.772491 0.380127
0.137543 0.688965 0.504883
0.203949 0.703400 0.514618
0.302551 0.719482 0.523010
0.436249 0.739380 0.536774
0.592438 0.770966 0.557434
0.731354 0.820038 0.574280
0.828003 0.865234 0.569275
0.906006 0.889832 0.524078
1.000000 0.898560 0.425812
0.235016 0.773193 0.567841
0.308411 0.786407 0.579773
0.409729 0.802277 0.593689
0.532013 0.821289 0.613495
0.660828 0.847260 0.638000
0.770386 0.886414 0.657623
0.851715 0.929230 0.663849
0.921967 0.963165 0.638855
0.995026 0.987762 0.583862
0.006500 0.046936 0.151855
0.035858 0.062531 0.174194
0.086945 0.074158 0.192017
0.190979 0.079376 0.234497
0.299042 0.087463 0.252075
0.405518 0.086761 0.267242
0.502350 0.078491 0.282257
0.588745 0.069458 0.299622
0.661133 0.068726 0.319336
0.003418 0.105927 0.195557
0.033752 0.121948 0.215546
0.092682 0.137939 0.237122
0.233917 0.144104 0.301239
0.371887 0.144989 0.322601
0.482697 0.137238 0.331329
0.569611 0.130188 0.338928
0.641571 0.130341 0.351257
0.702301 0.139801 0.369507
0.001648 0.183533 0.246063
0.026093 0.206482 0.273193
0.083130 0.224243 0.298462
0.244904 0.234833 0.348358
0.430389 0.221161 0.387909
0.544800 0.214386 0.385101
0.626190 0.218201 0.388489
0.692474 0.231781 0.401764
0.753143 0.253693 0.424377
0.001709 0.284119 0.311798
0.026001 0.308411 0.338654
0.057434 0.326447 0.361603
0.207214 0.340515 0.385132
0.456482 0.336060 0.440125
0.601318 0.335693 0.437256
0.690674 0.347015 0.442078
0.762848 0.369934 0.460724
0.829163 0.397736 0.485931
0.002777 0.389069 0.376465
0.027802 0.410828 0.398224
0.061981 0.428070 0.415009
0.187225 0.446655 0.433197
0.442352 0.483459 0.478607
0.638733 0.503601 0.495300
0.753693 0.509644 0.496704
0.837341 0.519989 0.505829
0.908752 0.534882 0.520691
0.019806 0.492828 0.439880
0.051208 0.512634 0.458038
0.103149 0.529236 0.468170
0.204163 0.549438 0.475189
0.421478 0.591583 0.508972
0.651917 0.648041 0.533752
0.772552 0.648010 0.513733
0.884338 0.649200 0.511322
0.982574 0.653381 0.517792
0.039734 0.594116 0.503906
0.078094 0.611542 0.518646
0.138275 0.627563 0.523987
0.248108 0.646851 0.525452
0.439453 0.680176 0.548492
0.656128 0.738586 0.584625
0.794067 0.778717 0.573425
0.894073 0.775452 0.523621
1.000000 0.772736 0.506256
0.080627 0.685364 0.563263
0.131134 0.700073 0.574860
0.210358 0.715485 0.579895
0.332520 0.734589 0.584351
0.500336 0.761749 0.604340
0.682770 0.807495 0.642181
0.812836 0.859650 0.651276
0.903564 0.888916 0.614502
1.000000 0.897614 0.535919
0.159912 0.764252 0.614746
0.225098 0.777527 0.625580
0.322357 0.793854 0.635590
0.446320 0.814026 0.648834
0.588257 0.837952 0.671570
0.730469 0.873047 0.706421
0.837769 0.920197 0.725708
0.918396 0.961029 0.711853
0.995544 0.988678 0.667572
0.007385 0.056732 0.184906
0.033203 0.074524 0.210205
0.073090 0.088806 0.229034
0.160675 0.102020 0.267395
0.285370 0.106171 0.320282
0.398865 0.106934 0.347046
0.502289 0.097351 0.368530
0.591187 0.084442 0.386932
0.662109 0.079620 0.404205
0.003601 0.121368 0.237061
0.030792 0.139343 0.259094
0.078705 0.156006 0.281403
0.189514 0.173187 0.322510
0.345337 0.168488 0.397980
0.464935 0.161865 0.416687
0.560638 0.150543 0.427246
0.637207 0.144806 0.438599
0.698761 0.149261 0.453979
0.002411 0.203003 0.295380
0.026459 0.226166 0.323120
0.072205 0.242126 0.346344
0.194092 0.257233 0.375702
0.386902 0.244171 0.466858
0.516754 0.236511 0.475922
0.610992 0.233276 0.480591
0.683563 0.240417 0.491180
0.744324 0.257751 0.509186
0.002808 0.302124 0.364532
0.027313 0.324707 0.390320
0.055634 0.339050 0.410736
0.167419 0.349854 0.431122
0.378296 0.354706 0.502563
0.563019 0.347565 0.537201
0.670593 0.353638 0.543365
0.746826 0.371552 0.556030
0.808563 0.397888 0.576050
0.004089 0.400299 0.427246
0.029327 0.421600 0.449951
0.056885 0.437439 0.468597
0.120667 0.453339 0.488800
0.337585 0.484741 0.528931
0.589691 0.501099 0.602844
0.724213 0.510376 0.610229
0.805542 0.521240 0.616241
0.866760 0.540863 0.629761
0.008057 0.498749 0.489899
0.033386 0.519562 0.511444
0.059814 0.536621 0.528198
0.109131 0.555786 0.545441
0.322571 0.593323 0.581207
0.580719 0.643188 0.638275
0.752075 0.658234 0.652161
0.854706 0.663788 0.651917
0.933289 0.668823 0.654022
0.013153 0.596191 0.555023
0.037842 0.614838 0.573669
0.063965 0.630737 0.586182
0.159637 0.648315 0.596558
0.353790 0.679993 0.620728
0.591644 0.732300 0.672760
0.772552 0.777100 0.693024
0.888519 0.777679 0.653137
1.000000 0.777802 0.642731
0.017578 0.683929 0.612701
0.046417 0.699219 0.626709
0.133820 0.713440 0.635651
0.252106 0.730438 0.643402
0.418701 0.759003 0.662231
0.627289 0.802582 0.710175
0.792816 0.854187 0.747253
0.898041 0.887512 0.726196
1.000000 0.897766 0.662018
0.083405 0.758392 0.657349
0.152710 0.771973 0.668854
0.254395 0.787476 0.679443
0.375275 0.806946 0.691040
0.521393 0.833679 0.712982
0.689728 0.868805 0.756256
0.823975 0.913483 0.796356
0.916534 0.958160 0.799225
0.994995 0.988678 0.774689
0.007904 0.066406 0.217804
0.031189 0.088257 0.247650
0.066467 0.104645 0.269531
0.139587 0.122192 0.298096
0.261475 0.129089 0.375946
0.386597 0.129974 0.416565
0.494934 0.123352 0.445770
0.586029 0.110870 0.465790
0.658905 0.102875 0.482391
0.003357 0.138702 0.280243
0.028961 0.158020 0.303955
0.071594 0.174438 0.326355
0.163513 0.192627 0.357483
0.304138 0.195190 0.452118
0.441925 0.187042 0.485382
0.544250 0.177673 0.501740
0.626770 0.169312 0.514709
0.693146 0.169952 0.529968
0.003357 0.221283 0.342499
0.027252 0.242889 0.368591
0.067505 0.256134 0.388458
0.169434 0.269714 0.411407
0.323883 0.272552 0.498474
0.483032 0.259521 0.541748
0.587769 0.256195 0.554260
0.669739 0.259277 0.567444
0.736877 0.272614 0.585602
0.003998 0.315491 0.409912
0.028595 0.334656 0.431854
0.056488 0.345367 0.448151
0.152435 0.354218 0.465271
0.319214 0.368561 0.505829
0.517181 0.362030 0.602936
0.640869 0.370453 0.622467
0.729736 0.386017 0.638763
0.798615 0.409943 0.658051
0.005554 0.407349 0.468811
0.030884 0.426727 0.489594
0.058380 0.440033 0.506592
0.106689 0.451935 0.524689
0.284760 0.476959 0.558777
0.513519 0.505798 0.644043
0.689087 0.516907 0.695496
0.784668 0.532990 0.707550
0.850037 0.553101 0.719025
0.009613 0.501678 0.529358
0.034882 0.522125 0.551086
0.061279 0.538177 0.568848
0.088593 0.554718 0.587494
0.252045 0.587860 0.621826
0.499878 0.642517 0.681946
0.705292 0.670776 0.744507
0.816498 0.684814 0.757904
0.884644 0.696045 0.763184
0.014709 0.596497 0.593506
0.039124 0.615143 0.612793
0.064606 0.630890 0.627808
0.090637 0.648651 0.643005
0.274780 0.681244 0.671173
0.532318 0.736664 0.727814
0.733551 0.782562 0.779114
0.862457 0.795441 0.787933
0.946930 0.803680 0.788422
0.019012 0.681702 0.649078
0.042999 0.697205 0.663696
0.068054 0.712219 0.675385
0.179718 0.729919 0.687439
0.359436 0.759949 0.712311
0.594757 0.807831 0.763702
0.778198 0.854736 0.817169
0.891296 0.889893 0.827515
0.997467 0.902100 0.791168
0.023621 0.754303 0.690674
0.084015 0.768829 0.702606
0.197998 0.784912 0.714233
0.321014 0.804626 0.728668
0.482880 0.833344 0.755463
0.674683 0.874084 0.802582
0.820312 0.915253 0.852142
0.917847 0.958008 0.877472
0.994629 0.990479 0.879822
0.007507 0.077271 0.251587
0.030121 0.103180 0.286285
0.063171 0.121704 0.311218
0.126617 0.139984 0.337097
0.234344 0.155304 0.401917
0.372040 0.153046 0.478424
0.482239 0.150299 0.512421
0.575043 0.141113 0.534058
0.651062 0.133789 0.551056
0.003418 0.156982 0.324371
0.027863 0.176453 0.348877
0.068024 0.191254 0.369446
0.148865 0.207825 0.395081
0.270874 0.219879 0.462006
0.417816 0.209076 0.540771
0.524384 0.203461 0.563507
0.611725 0.197327 0.579529
0.683838 0.197235 0.596100
0.004181 0.237274 0.386932
0.028076 0.256042 0.409851
0.065887 0.266571 0.425995
0.156097 0.278015 0.445160
0.292389 0.289215 0.494781
0.445251 0.279816 0.587158
0.561523 0.277618 0.611938
0.651306 0.281982 0.630188
0.725983 0.294220 0.650299
0.005005 0.323547 0.448395
0.029724 0.339264 0.466248
0.057587 0.347748 0.479248
0.145050 0.355408 0.493774
0.284302 0.371643 0.526489
0.455261 0.377777 0.639709
0.606781 0.385590 0.677124
0.707092 0.404358 0.700775
0.785370 0.428802 0.722321
0.006866 0.409515 0.502808
0.032288 0.426727 0.521057
0.059784 0.437866 0.535675
0.108398 0.447174 0.551331
0.260040 0.467255 0.580200
0.456055 0.502350 0.645111
0.648987 0.519562 0.745239
0.760468 0.545776 0.768433
0.836456 0.573273 0.783356
0.011200 0.500824 0.561371
0.036377 0.520172 0.581970
0.062744 0.534637 0.598846
0.089722 0.548523 0.616333
0.226929 0.575317 0.646698
0.452576 0.629547 0.705292
0.657166 0.674530 0.765930
0.798065 0.695221 0.818573
0.873230 0.718323 0.830139
0.016205 0.593781 0.624054
0.040405 0.612183 0.643097
0.065887 0.627563 0.658600
0.091705 0.644623 0.675201
0.240204 0.675842 0.704193
0.489899 0.733459 0.760712
0.694397 0.787567 0.818665
0.831390 0.815704 0.853546
0.911163 0.832764 0.871552
0.020416 0.678070 0.678345
0.044189 0.693909 0.693237
0.069122 0.709503 0.706329
0.147644 0.728455 0.721619
0.329651 0.759583 0.748444
0.569061 0.811920 0.801544
0.755737 0.864349 0.859497
0.882385 0.898285 0.895782
0.970978 0.917999 0.907318
0.024139 0.750061 0.718567
0.053284 0.765808 0.731354
0.174713 0.783112 0.744568
0.301178 0.804291 0.761353
0.462982 0.835114 0.790039
0.660339 0.881409 0.841003
0.819794 0.925140 0.892914
0.923401 0.962616 0.932495
0.995758 0.995331 0.957153
0.007812 0.089508 0.286743
0.029114 0.118835 0.325958
0.061249 0.138367 0.352753
0.120514 0.156372 0.378632
0.220459 0.175720 0.426544
0.341492 0.179993 0.527527
0.467072 0.173767 0.569397
0.560516 0.169403 0.592468
0.639374 0.165039 0.610779
0.004150 0.175049 0.368652
0.027557 0.193298 0.392578
0.066040 0.206055 0.411163
0.139526 0.220306 0.433044
0.251465 0.235077 0.479675
0.376251 0.233276 0.581299
0.502838 0.224365 0.615082
0.593445 0.223236 0.634644
0.670959 0.225616 0.653198
0.005035 0.250092 0.428101
0.028717 0.265472 0.447357
0.065552 0.273529 0.459961
0.146973 0.283478 0.475983
0.266052 0.296753 0.515106
0.394684 0.297607 0.622498
0.533905 0.294189 0.657471
0.629730 0.303253 0.681335
0.711548 0.318359 0.704163
0.006012 0.326599 0.480560
0.030640 0.339539 0.495087
0.058289 0.346954 0.506012
0.140015 0.354187 0.518738
0.261108 0.370575 0.546844
0.411072 0.388336 0.629608
0.569031 0.398010 0.712799
0.682220 0.420654 0.746704
0.768951 0.449951 0.771698
0.008240 0.406433 0.529694
0.033600 0.421844 0.545776
0.061005 0.431580 0.558655
0.114685 0.440308 0.572906
0.248444 0.458710 0.599152
0.417358 0.494629 0.656342
0.596588 0.524200 0.773010
0.735413 0.556030 0.809784
0.821899 0.594025 0.829987
0.012787 0.495605 0.586761
0.037872 0.513550 0.605774
0.064087 0.526794 0.621368
0.090912 0.539642 0.638153
0.224030 0.562256 0.665588
0.424011 0.613403 0.721191
0.621338 0.668701 0.785522
0.774750 0.702148 0.857056
0.866241 0.736572 0.876953
0.017700 0.587708 0.648621
0.041809 0.605774 0.667114
0.067108 0.621307 0.682922
0.092896 0.638367 0.700470
0.235474 0.667694 0.729309
0.466614 0.724609 0.784576
0.669586 0.784332 0.845856
0.810120 0.824432 0.887512
0.910126 0.849426 0.919922
0.021790 0.672546 0.702820
0.045349 0.689148 0.718140
0.070221 0.705688 0.732513
0.151306 0.726105 0.750183
0.323334 0.757629 0.778595
0.553925 0.811188 0.831451
0.736328 0.868286 0.892090
0.873749 0.906464 0.932648
0.957489 0.933990 0.960724
0.025421 0.746002 0.743561
0.053955 0.763062 0.757477
0.173676 0.782135 0.772491
0.303711 0.804749 0.791565
0.460846 0.836426 0.821503
0.653351 0.885468 0.873749
0.819336 0.932434 0.927338
0.925476 0.971466 0.969147
0.997803 1.000000 1.000000
