lut/retro-80s/Star Wars Empire Strikes Back Original (1980) - Standard.cube
# Created by Benjamin (IWLTBAP): https://luts.iwltbap.com
# Copyright: (C) Copyright 2018 Triune Films and IWLTBAP SAS
# Cannot be resold, shared or otherwise redistributed
TITLE "Triune Films 80s Retro LUTs (Rec.709, sRGB, DCI-P3)"
LUT_3D_SIZE 33
0.000000 0.000000 0.000000
0.013214 0.001190 0.002319
0.027649 0.003235 0.004913
0.044006 0.005981 0.007751
0.061401 0.009613 0.011322
0.079010 0.013000 0.013702
0.097778 0.016815 0.016022
0.116577 0.020844 0.017883
0.135925 0.025238 0.019196
0.155273 0.029572 0.019897
0.174377 0.033844 0.020081
0.193207 0.037781 0.019928
0.211884 0.040924 0.019836
0.231201 0.044525 0.019257
0.251221 0.047882 0.018677
0.271912 0.051147 0.017792
0.293640 0.054230 0.016876
0.316315 0.057129 0.016235
0.339752 0.059875 0.015625
0.364227 0.062836 0.015076
0.389130 0.065216 0.014893
0.414551 0.067352 0.014526
0.440216 0.069397 0.014343
0.465881 0.071228 0.014587
0.491638 0.072845 0.014557
0.517792 0.074158 0.015015
0.544189 0.074860 0.015961
0.569275 0.075806 0.016846
0.594055 0.076385 0.018036
0.618835 0.076691 0.019653
0.642242 0.077118 0.021271
0.665314 0.077393 0.023529
0.686981 0.078003 0.026062
0.002838 0.011475 0.003632
0.017609 0.014618 0.006348
0.034271 0.017700 0.009125
0.051819 0.021149 0.011749
0.069885 0.024872 0.014343
0.088928 0.028381 0.016571
0.109039 0.032562 0.018250
0.128662 0.036163 0.019440
0.149017 0.040527 0.020355
0.168762 0.044250 0.020416
0.188599 0.048279 0.020264
0.207855 0.051727 0.019714
0.227478 0.055084 0.019257
0.247772 0.058624 0.018707
0.268494 0.061890 0.017975
0.290009 0.065155 0.016968
0.312653 0.068176 0.016388
0.335907 0.070953 0.015778
0.360199 0.073761 0.015228
0.384949 0.076599 0.014862
0.410034 0.079010 0.014526
0.435852 0.081024 0.014221
0.461151 0.083191 0.014557
0.487610 0.084778 0.014465
0.513031 0.086243 0.014862
0.538605 0.087463 0.015625
0.563782 0.088318 0.016602
0.588776 0.088928 0.017517
0.612823 0.089630 0.019073
0.636841 0.089996 0.020691
0.659454 0.090576 0.022583
0.681641 0.091187 0.025055
0.702972 0.091919 0.027924
0.005585 0.025818 0.008453
0.021088 0.029175 0.010681
0.038605 0.033051 0.013062
0.058289 0.037354 0.015411
0.078491 0.041687 0.017334
0.099579 0.045654 0.018829
0.121094 0.049591 0.020050
0.141968 0.053070 0.020355
0.163055 0.057343 0.020660
0.183563 0.060730 0.020203
0.204102 0.064270 0.019806
0.224365 0.067505 0.019226
0.244843 0.070709 0.018555
0.265747 0.073975 0.017944
0.287292 0.077301 0.017090
0.309906 0.080383 0.016479
0.333130 0.083435 0.015930
0.357178 0.086243 0.015381
0.381866 0.088898 0.014923
0.406769 0.091644 0.014740
0.432190 0.093903 0.014313
0.457825 0.095795 0.014557
0.483398 0.097778 0.014709
0.509064 0.099182 0.015015
0.534576 0.100403 0.015472
0.559937 0.101440 0.016357
0.584808 0.102203 0.017548
0.609070 0.102814 0.018555
0.632935 0.103363 0.020447
0.655975 0.103729 0.022034
0.678162 0.104523 0.024384
0.699799 0.105255 0.027283
0.720734 0.106049 0.030426
0.009155 0.040863 0.013336
0.025696 0.044525 0.015778
0.043427 0.048798 0.017731
0.063354 0.054016 0.019409
0.086090 0.059692 0.020630
0.109528 0.064758 0.021088
0.133301 0.069183 0.021515
0.155762 0.072723 0.020966
0.178284 0.076294 0.020721
0.199951 0.079651 0.019897
0.221191 0.082886 0.019196
0.242676 0.085815 0.018524
0.264160 0.088776 0.017517
0.285919 0.091736 0.016998
0.308411 0.094727 0.016479
0.331696 0.097717 0.015900
0.355560 0.100647 0.015472
0.379944 0.103424 0.015015
0.404724 0.105988 0.014496
0.429779 0.108459 0.014435
0.454987 0.110596 0.014374
0.480316 0.112457 0.014709
0.505554 0.114014 0.015137
0.530731 0.115265 0.015594
0.555756 0.116333 0.016235
0.580292 0.117279 0.017120
0.604370 0.118164 0.018524
0.627991 0.118683 0.019989
0.650940 0.119232 0.021942
0.673309 0.119965 0.023773
0.695007 0.120819 0.026581
0.716125 0.121613 0.029633
0.736755 0.122589 0.033051
0.012787 0.056946 0.019165
0.029572 0.060791 0.021057
0.048126 0.065918 0.023254
0.068390 0.071289 0.024536
0.090576 0.077484 0.024689
0.116974 0.085083 0.023804
0.143555 0.090912 0.022827
0.169342 0.095215 0.021393
0.193909 0.098846 0.020416
0.217621 0.101685 0.019409
0.240479 0.104523 0.018585
0.263031 0.107269 0.017670
0.285706 0.109924 0.016754
0.308502 0.112610 0.016266
0.331787 0.115326 0.015656
0.355713 0.118103 0.014984
0.379913 0.120667 0.014923
0.404449 0.123322 0.014465
0.429077 0.125549 0.014404
0.453796 0.127594 0.014374
0.478729 0.129608 0.014648
0.503601 0.131195 0.015106
0.528290 0.132599 0.015594
0.552826 0.133514 0.016235
0.577118 0.134430 0.017151
0.600952 0.135315 0.018036
0.624176 0.136108 0.019409
0.646912 0.136902 0.021179
0.669128 0.137604 0.023224
0.690857 0.138519 0.025757
0.711975 0.139465 0.028687
0.732544 0.140625 0.031830
0.752716 0.141907 0.035309
0.017273 0.075012 0.025879
0.034119 0.079407 0.027893
0.052826 0.084045 0.029663
0.072815 0.089539 0.030365
0.095245 0.096283 0.030396
0.121521 0.104370 0.028290
0.150818 0.113251 0.025391
0.180115 0.119904 0.022949
0.208160 0.124603 0.020966
0.235168 0.128113 0.019165
0.260406 0.130615 0.017761
0.284607 0.133057 0.016846
0.308685 0.135284 0.016052
0.332520 0.137512 0.015381
0.356720 0.139771 0.014557
0.381012 0.142059 0.014343
0.405487 0.144196 0.014343
0.429840 0.146393 0.014191
0.454376 0.148285 0.014252
0.478851 0.150146 0.014374
0.503235 0.151794 0.014740
0.527496 0.153015 0.015015
0.551544 0.154114 0.015778
0.575409 0.154938 0.016846
0.598877 0.155762 0.017853
0.621918 0.156494 0.019165
0.644470 0.157227 0.020630
0.666504 0.158081 0.022583
0.688141 0.159027 0.024902
0.709259 0.160156 0.027435
0.729828 0.161438 0.030457
0.750122 0.162872 0.033844
0.769867 0.164307 0.037567
0.022827 0.094177 0.033417
0.038788 0.098450 0.035461
0.057159 0.103363 0.037201
0.077606 0.108948 0.037933
0.100067 0.115692 0.037567
0.125854 0.124115 0.035645
0.155518 0.134491 0.030945
0.187714 0.144470 0.026672
0.219299 0.151733 0.023041
0.249359 0.156921 0.020294
0.278015 0.160645 0.018066
0.304901 0.163147 0.016479
0.330811 0.164978 0.015472
0.356262 0.166687 0.014771
0.381287 0.168365 0.014221
0.406189 0.169983 0.013885
0.430817 0.171570 0.013855
0.455231 0.173248 0.014038
0.479706 0.174835 0.014191
0.503723 0.176178 0.014282
0.527710 0.177277 0.014893
0.551331 0.178131 0.015381
0.574768 0.178986 0.016205
0.598053 0.179688 0.017242
0.620941 0.180420 0.018585
0.643433 0.181122 0.020050
0.665466 0.181946 0.021698
0.687073 0.182922 0.023956
0.708191 0.184052 0.026398
0.728851 0.185394 0.029205
0.749146 0.186890 0.032318
0.769073 0.188538 0.035950
0.788666 0.190399 0.039703
0.028503 0.114990 0.042664
0.044495 0.118927 0.044464
0.062317 0.123657 0.045837
0.082184 0.129089 0.046570
0.104858 0.135895 0.046509
0.130371 0.144287 0.044769
0.159637 0.155212 0.040375
0.192230 0.167603 0.033722
0.226685 0.178528 0.027710
0.259552 0.186249 0.023407
0.290985 0.191528 0.019897
0.321075 0.195282 0.017242
0.349609 0.197754 0.015594
0.376678 0.199310 0.014801
0.402954 0.200531 0.014008
0.428741 0.201752 0.013489
0.453918 0.202789 0.013489
0.478699 0.203705 0.013672
0.502991 0.204712 0.014038
0.527130 0.205536 0.014648
0.550964 0.206207 0.015228
0.574554 0.206848 0.015869
0.597839 0.207306 0.016663
0.620728 0.207764 0.018036
0.643250 0.208435 0.019257
0.665436 0.209076 0.021332
0.687103 0.209961 0.023315
0.708435 0.211151 0.025269
0.729279 0.212494 0.028137
0.749664 0.213989 0.031219
0.769684 0.215790 0.034546
0.789459 0.217712 0.038147
0.808929 0.219696 0.041901
0.036224 0.136688 0.052765
0.051361 0.140656 0.054535
0.068146 0.145081 0.056000
0.088074 0.150299 0.056702
0.110260 0.156830 0.056763
0.135712 0.165375 0.055573
0.165070 0.176514 0.051727
0.197571 0.189758 0.045135
0.232483 0.203705 0.036499
0.267700 0.214966 0.029480
0.300659 0.222534 0.024292
0.332336 0.227722 0.020508
0.362854 0.231262 0.017578
0.392181 0.233551 0.015656
0.420197 0.235016 0.014465
0.447144 0.235901 0.014038
0.473450 0.236603 0.014038
0.498993 0.237122 0.014038
0.523895 0.237671 0.014282
0.548370 0.238098 0.015045
0.572510 0.238434 0.015778
0.596283 0.238739 0.016479
0.619781 0.239075 0.017670
0.642700 0.239532 0.019012
0.665283 0.240021 0.020691
0.687347 0.240753 0.022736
0.709015 0.241699 0.024933
0.730225 0.242950 0.027557
0.751068 0.244324 0.030334
0.771454 0.246033 0.033783
0.791473 0.247925 0.037140
0.811279 0.250000 0.041077
0.830750 0.252258 0.044769
0.044312 0.159180 0.063690
0.058716 0.163086 0.065613
0.075287 0.167358 0.066925
0.094330 0.172577 0.067993
0.116272 0.179016 0.068573
0.141937 0.187531 0.068207
0.171112 0.198425 0.065277
0.202881 0.211670 0.058990
0.238220 0.226959 0.049988
0.274139 0.241669 0.039642
0.308899 0.252563 0.031494
0.341431 0.259552 0.025574
0.372681 0.264252 0.021393
0.402893 0.267609 0.018433
0.432312 0.270020 0.016510
0.460724 0.271423 0.015320
0.488251 0.272278 0.015076
0.514923 0.272675 0.015167
0.540955 0.272949 0.015472
0.566315 0.273193 0.016144
0.591248 0.273254 0.016876
0.615692 0.273376 0.017914
0.639709 0.273560 0.019379
0.663116 0.273834 0.020996
0.686035 0.274353 0.022827
0.708374 0.275024 0.024841
0.730316 0.276062 0.027618
0.751770 0.277344 0.030212
0.772766 0.278748 0.033447
0.793243 0.280518 0.036652
0.813354 0.282562 0.040344
0.833252 0.284912 0.044159
0.852875 0.287170 0.048096
0.053467 0.183167 0.075653
0.068176 0.186676 0.077393
0.083984 0.190857 0.079163
0.102203 0.195892 0.080475
0.124054 0.202362 0.081482
0.149017 0.210541 0.081696
0.177673 0.221130 0.079742
0.209259 0.234253 0.074585
0.244019 0.249664 0.065918
0.280243 0.265869 0.054688
0.316223 0.280518 0.043030
0.349609 0.290527 0.034027
0.380920 0.296722 0.027740
0.411224 0.300995 0.023560
0.441010 0.303925 0.020355
0.469940 0.306152 0.018616
0.498718 0.307678 0.017517
0.526764 0.308472 0.017242
0.553925 0.309052 0.017334
0.580566 0.309265 0.017975
0.606628 0.309448 0.018921
0.631927 0.309601 0.020081
0.656738 0.309784 0.021637
0.680939 0.310150 0.023193
0.704559 0.310638 0.025452
0.727509 0.311401 0.027863
0.749908 0.312408 0.030579
0.771790 0.313660 0.033722
0.793152 0.315247 0.037109
0.814056 0.317108 0.040741
0.834534 0.319183 0.044525
0.854675 0.321411 0.048340
0.874512 0.323700 0.052429
0.063995 0.208130 0.088776
0.078003 0.211609 0.090515
0.093597 0.215576 0.092163
0.111786 0.220428 0.093597
0.132935 0.226532 0.094910
0.157043 0.234558 0.095642
0.185303 0.244690 0.094574
0.216492 0.257477 0.090546
0.250549 0.272522 0.082855
0.286377 0.288940 0.072052
0.322845 0.305481 0.059662
0.357483 0.319427 0.047607
0.389099 0.328491 0.038269
0.418976 0.333954 0.031891
0.448212 0.337524 0.027283
0.477203 0.340149 0.024170
0.506165 0.342194 0.022095
0.534882 0.343719 0.020813
0.563171 0.344757 0.020416
0.591064 0.345367 0.020630
0.618286 0.345795 0.021515
0.644836 0.346069 0.022675
0.670593 0.346344 0.024261
0.695709 0.346802 0.026215
0.720215 0.347504 0.028595
0.744019 0.348267 0.031281
0.767090 0.349304 0.034332
0.789581 0.350647 0.037567
0.811462 0.352264 0.041077
0.832886 0.354065 0.044983
0.853821 0.356049 0.048981
0.874451 0.358246 0.053070
0.894684 0.360535 0.057129
0.075531 0.234070 0.102386
0.089355 0.237732 0.104309
0.105225 0.241425 0.105713
0.122742 0.246124 0.107269
0.143066 0.252014 0.108704
0.166779 0.259583 0.109802
0.193604 0.269135 0.109589
0.224121 0.281342 0.106659
0.257324 0.295776 0.100586
0.292389 0.311829 0.090698
0.328979 0.328979 0.078613
0.364471 0.345184 0.065948
0.397644 0.358337 0.054352
0.427460 0.366364 0.044983
0.455933 0.371002 0.038177
0.484070 0.373932 0.033081
0.512482 0.376160 0.029297
0.541199 0.377960 0.026703
0.570007 0.379456 0.025177
0.598541 0.380493 0.024475
0.626801 0.381317 0.024658
0.654297 0.381927 0.025635
0.681213 0.382446 0.027283
0.707306 0.383148 0.029205
0.732666 0.383820 0.031616
0.757385 0.384796 0.034546
0.781372 0.385895 0.037750
0.804657 0.387177 0.041168
0.827332 0.388702 0.044952
0.849396 0.390472 0.049042
0.871033 0.392395 0.053131
0.892212 0.394470 0.057251
0.913086 0.396606 0.061462
0.088226 0.260986 0.116638
0.102264 0.264465 0.118286
0.117584 0.268433 0.119995
0.134827 0.272949 0.121552
0.154724 0.278442 0.122986
0.177307 0.285553 0.124268
0.203705 0.294708 0.124603
0.232574 0.305939 0.122681
0.264984 0.319611 0.117828
0.299194 0.335175 0.109497
0.334930 0.351959 0.098907
0.370331 0.369019 0.086914
0.405090 0.384888 0.075470
0.436768 0.397156 0.064484
0.464966 0.404205 0.054871
0.491974 0.407959 0.046936
0.519318 0.410370 0.040588
0.547150 0.412140 0.035706
0.575378 0.413574 0.032288
0.604095 0.414795 0.030060
0.632721 0.415802 0.028992
0.661041 0.416687 0.028870
0.688904 0.417572 0.029816
0.716003 0.418335 0.031738
0.742401 0.419189 0.034149
0.768097 0.420197 0.037201
0.793030 0.421326 0.040344
0.817261 0.422699 0.043976
0.840759 0.424194 0.047821
0.863770 0.425842 0.051849
0.886169 0.427673 0.055969
0.908203 0.429535 0.060181
0.929688 0.431519 0.064392
0.102112 0.288971 0.131226
0.115936 0.292542 0.132935
0.131256 0.296112 0.134338
0.148376 0.300415 0.135803
0.167664 0.305664 0.137329
0.189301 0.312378 0.138824
0.214478 0.320831 0.139404
0.242218 0.331390 0.138428
0.273041 0.344055 0.135040
0.306183 0.358826 0.128479
0.341034 0.375153 0.119995
0.376770 0.392456 0.109344
0.412018 0.409363 0.098602
0.445557 0.424713 0.088470
0.475555 0.435852 0.078094
0.502045 0.441681 0.067505
0.527771 0.444824 0.057953
0.553986 0.446533 0.049744
0.581055 0.447845 0.043427
0.608978 0.448730 0.038422
0.637299 0.449677 0.035309
0.665771 0.450623 0.033722
0.694183 0.451447 0.033234
0.722168 0.452240 0.033997
0.749573 0.453125 0.035828
0.776276 0.454193 0.038330
0.802307 0.455353 0.041565
0.827576 0.456604 0.044983
0.852234 0.458038 0.048737
0.876160 0.459564 0.052704
0.899506 0.461273 0.056793
0.922363 0.463043 0.060974
0.944824 0.464874 0.065216
0.116852 0.317444 0.145874
0.130676 0.321106 0.147522
0.145905 0.324615 0.148956
0.162659 0.328705 0.150391
0.181030 0.333649 0.152039
0.202209 0.339752 0.153351
0.225952 0.347565 0.154388
0.252472 0.357452 0.154083
0.282318 0.369354 0.151855
0.314056 0.383392 0.147461
0.348206 0.399109 0.140991
0.383545 0.416138 0.132751
0.419189 0.433563 0.123444
0.453674 0.450043 0.113953
0.486053 0.464508 0.105164
0.514099 0.474335 0.094788
0.538696 0.479126 0.082367
0.562958 0.481323 0.070557
0.588165 0.482300 0.060150
0.614319 0.482941 0.051483
0.641632 0.483490 0.045044
0.669708 0.484039 0.040680
0.698029 0.484711 0.037964
0.726501 0.485229 0.036743
0.754791 0.486023 0.036835
0.782562 0.486908 0.038330
0.809631 0.487915 0.040680
0.836090 0.489075 0.043732
0.861877 0.490356 0.047241
0.886993 0.491821 0.051086
0.911469 0.493256 0.055023
0.935364 0.494934 0.059174
0.958801 0.496613 0.063354
0.132294 0.346405 0.160370
0.146027 0.350220 0.162354
0.161224 0.353516 0.163757
0.177490 0.357300 0.165253
0.195374 0.361938 0.167023
0.215637 0.367737 0.168610
0.238312 0.375000 0.169708
0.263641 0.384186 0.170013
0.291779 0.395355 0.169128
0.322693 0.408600 0.166382
0.355988 0.423767 0.161896
0.391083 0.440430 0.155853
0.426971 0.457855 0.148407
0.462158 0.474854 0.140198
0.495575 0.490570 0.131927
0.526184 0.503784 0.123688
0.552063 0.512268 0.112671
0.574860 0.515900 0.098022
0.597626 0.517242 0.083740
0.621490 0.517700 0.070770
0.646881 0.517731 0.059723
0.673584 0.517761 0.051208
0.701355 0.517944 0.045380
0.729767 0.518127 0.041382
0.758392 0.518555 0.039124
0.787018 0.519012 0.038300
0.815186 0.519775 0.039093
0.842804 0.520660 0.041138
0.869873 0.521698 0.043976
0.896301 0.522919 0.047302
0.922028 0.524323 0.050964
0.947052 0.525757 0.054993
0.971527 0.527344 0.059113
0.148224 0.375671 0.175293
0.161987 0.379303 0.177338
0.176788 0.382751 0.179108
0.192810 0.386322 0.180725
0.210175 0.390747 0.182495
0.229706 0.396149 0.184265
0.251343 0.402985 0.185638
0.275635 0.411560 0.186523
0.302460 0.421997 0.186584
0.332581 0.434631 0.185516
0.364838 0.449249 0.182709
0.399689 0.465424 0.178589
0.435547 0.482513 0.173004
0.471344 0.499664 0.166443
0.505554 0.515900 0.159027
0.537140 0.530334 0.151306
0.565521 0.542236 0.143066
0.589203 0.549347 0.130981
0.610046 0.552032 0.114075
0.631287 0.552612 0.096741
0.654114 0.552338 0.080933
0.678650 0.551941 0.067474
0.705048 0.551422 0.056885
0.732635 0.551239 0.049225
0.761139 0.551117 0.043762
0.790039 0.551147 0.040161
0.819214 0.551300 0.038422
0.847900 0.551788 0.038422
0.876190 0.552521 0.039886
0.903900 0.553558 0.042328
0.930939 0.554657 0.045502
0.957275 0.555939 0.049072
0.983002 0.557312 0.053040
0.164246 0.405029 0.190765
0.177856 0.408539 0.193024
0.192261 0.412201 0.195221
0.207947 0.415619 0.196960
0.224915 0.419830 0.198853
0.243744 0.424896 0.200745
0.264984 0.431427 0.202484
0.288269 0.439545 0.203888
0.314301 0.449493 0.204803
0.343414 0.461517 0.204773
0.375214 0.475433 0.203613
0.409546 0.491028 0.201263
0.445312 0.507660 0.197418
0.481262 0.524567 0.192413
0.516052 0.540955 0.185913
0.548309 0.555878 0.178467
0.577545 0.569000 0.170868
0.603455 0.579437 0.162292
0.624908 0.585327 0.148712
0.644043 0.587097 0.129303
0.664032 0.587128 0.109100
0.685883 0.586487 0.090576
0.709991 0.585541 0.074554
0.735992 0.584717 0.061829
0.763641 0.584015 0.052155
0.792328 0.583496 0.045044
0.821655 0.583191 0.040375
0.851288 0.583160 0.037598
0.880737 0.583405 0.036682
0.909698 0.583893 0.037415
0.938110 0.584717 0.039429
0.965851 0.585724 0.042236
0.992889 0.586914 0.045746
0.180450 0.434692 0.207397
0.193420 0.438232 0.210052
0.207764 0.441650 0.212158
0.223083 0.445129 0.214233
0.239929 0.449097 0.216187
0.258362 0.454132 0.218323
0.278748 0.460266 0.220337
0.301544 0.468018 0.222015
0.326935 0.477448 0.223450
0.355133 0.488892 0.224335
0.386627 0.502167 0.224365
0.420288 0.517059 0.223389
0.456055 0.533112 0.220978
0.492218 0.549561 0.217010
0.527161 0.565826 0.211823
0.559784 0.580902 0.205170
0.589569 0.594482 0.197510
0.616211 0.606201 0.189758
0.639526 0.615234 0.180634
0.658997 0.620056 0.165405
0.676849 0.621185 0.143707
0.695862 0.620819 0.120941
0.717010 0.619934 0.099731
0.740601 0.618683 0.081299
0.766632 0.617432 0.066010
0.794373 0.616425 0.054474
0.823395 0.615631 0.045929
0.853302 0.614990 0.040009
0.883453 0.614716 0.036133
0.913574 0.614685 0.034271
0.943237 0.614990 0.034210
0.972351 0.615631 0.035614
1.000000 0.616455 0.038055
0.196350 0.464233 0.225067
0.209045 0.468170 0.228180
0.223206 0.471222 0.230255
0.238373 0.474762 0.232422
0.254974 0.478699 0.234589
0.273163 0.483551 0.236755
0.293365 0.489380 0.238800
0.315704 0.496765 0.240784
0.340363 0.505768 0.242828
0.368286 0.516632 0.244293
0.398956 0.529297 0.245270
0.432129 0.543427 0.245239
0.467712 0.558868 0.243866
0.503754 0.574768 0.240967
0.538879 0.590546 0.236511
0.571838 0.605560 0.230652
0.601837 0.619293 0.223663
0.628723 0.631409 0.215881
0.652649 0.641785 0.207794
0.673645 0.649658 0.197998
0.691498 0.653656 0.181152
0.708313 0.654297 0.157410
0.726624 0.653748 0.132263
0.747375 0.652588 0.108398
0.770844 0.651184 0.087280
0.796906 0.649719 0.070007
0.825073 0.648438 0.056732
0.854523 0.647430 0.046631
0.884827 0.646637 0.039337
0.915649 0.646118 0.034424
0.946320 0.645905 0.031616
0.976868 0.645996 0.030762
1.000000 0.646393 0.031433
0.212280 0.493805 0.243713
0.224915 0.497589 0.246826
0.239105 0.500793 0.249115
0.254242 0.504272 0.251373
0.270660 0.508270 0.253662
0.288788 0.513031 0.255920
0.308594 0.518677 0.258118
0.330414 0.525635 0.260284
0.355103 0.534332 0.262451
0.382263 0.544556 0.264435
0.412415 0.556580 0.265778
0.445496 0.570099 0.266388
0.480347 0.584686 0.265930
0.516144 0.599915 0.264008
0.551270 0.615204 0.260559
0.584198 0.629730 0.255585
0.614288 0.643433 0.249176
0.641144 0.655731 0.241455
0.665070 0.666534 0.233276
0.686615 0.675751 0.224976
0.705780 0.682648 0.214508
0.722382 0.685974 0.196075
0.738586 0.686493 0.170349
0.756561 0.685791 0.142975
0.777191 0.684631 0.116608
0.800781 0.683167 0.093079
0.827179 0.681671 0.073792
0.855560 0.680328 0.058868
0.885559 0.679138 0.047302
0.916473 0.678131 0.038696
0.947876 0.677429 0.032684
0.979309 0.677063 0.029053
1.000000 0.677002 0.027313
0.228394 0.523285 0.263153
0.241089 0.527283 0.266479
0.255127 0.530670 0.268982
0.270416 0.533905 0.271057
0.287048 0.537720 0.273224
0.304993 0.542419 0.275543
0.324799 0.547913 0.277740
0.346436 0.554626 0.280151
0.370605 0.562836 0.282440
0.397400 0.572510 0.284607
0.427094 0.583893 0.286499
0.459473 0.596619 0.287567
0.494049 0.610382 0.287628
0.529388 0.624847 0.286530
0.564026 0.639496 0.283813
0.596924 0.653595 0.279388
0.626709 0.666931 0.273590
0.653503 0.679230 0.266571
0.677399 0.690399 0.258820
0.698761 0.700012 0.250488
0.718231 0.708221 0.241974
0.735962 0.714294 0.230499
0.751862 0.717346 0.210632
0.767761 0.717743 0.183075
0.785706 0.717163 0.153259
0.806458 0.716156 0.124695
0.830322 0.714813 0.098938
0.857086 0.713348 0.077820
0.886078 0.711914 0.061096
0.916687 0.710724 0.048004
0.948181 0.709564 0.038177
0.980164 0.708771 0.031097
1.000000 0.708252 0.026550
0.244781 0.552490 0.283051
0.257690 0.556458 0.286407
0.271729 0.559998 0.289032
0.287140 0.563324 0.291168
0.303772 0.567047 0.293243
0.321655 0.571564 0.295471
0.341309 0.576843 0.297760
0.362793 0.583282 0.300201
0.386871 0.591064 0.302582
0.413452 0.600159 0.304810
0.442749 0.610809 0.306824
0.474457 0.622772 0.308197
0.508484 0.635773 0.308899
0.543121 0.649353 0.308258
0.577332 0.663330 0.306274
0.609558 0.676849 0.302795
0.639252 0.689880 0.297791
0.665863 0.702118 0.291504
0.689514 0.713318 0.284119
0.710571 0.723236 0.275604
0.729767 0.731873 0.267059
0.747833 0.739319 0.258545
0.764526 0.744751 0.246307
0.779938 0.747589 0.224945
0.795929 0.748199 0.195343
0.814148 0.747864 0.163391
0.835297 0.747070 0.132721
0.859650 0.745972 0.105011
0.886932 0.744720 0.081970
0.916595 0.743378 0.063446
0.947662 0.742096 0.048981
0.979767 0.740997 0.037903
1.000000 0.740082 0.029755
0.261688 0.581329 0.303162
0.274445 0.585327 0.306610
0.288910 0.588562 0.308868
0.304413 0.592010 0.311066
0.321136 0.595795 0.313263
0.339172 0.600098 0.315399
0.358734 0.605347 0.317810
0.380219 0.611481 0.320160
0.403961 0.618805 0.322632
0.430237 0.627319 0.324921
0.459229 0.637299 0.326965
0.490570 0.648529 0.328583
0.523865 0.660706 0.329468
0.557800 0.673553 0.329468
0.591309 0.686707 0.328003
0.622864 0.699738 0.325378
0.652039 0.712311 0.321350
0.678162 0.724304 0.316132
0.701416 0.735382 0.309235
0.722107 0.745422 0.301300
0.740967 0.754456 0.292847
0.758606 0.762268 0.284149
0.775543 0.769073 0.275024
0.791595 0.774048 0.261841
0.806854 0.776855 0.239166
0.823151 0.777710 0.207794
0.841858 0.777771 0.173889
0.863647 0.777435 0.141174
0.888641 0.776703 0.111450
0.916565 0.775757 0.086365
0.946716 0.774628 0.066254
0.978485 0.773499 0.050354
1.000000 0.772430 0.037964
0.279022 0.609589 0.323212
0.291809 0.613770 0.326965
0.306580 0.616821 0.328979
0.322235 0.620148 0.331177
0.338989 0.623871 0.333313
0.357117 0.628143 0.335602
0.376770 0.633026 0.337769
0.398163 0.638916 0.340118
0.421936 0.645752 0.342590
0.448120 0.653839 0.344940
0.476776 0.663239 0.347107
0.507477 0.673676 0.348816
0.539948 0.685089 0.350128
0.573120 0.697174 0.350525
0.605499 0.709564 0.349854
0.636353 0.722107 0.348083
0.664795 0.734161 0.345062
0.690308 0.745819 0.340485
0.712982 0.756775 0.334412
0.733185 0.766785 0.327209
0.751648 0.775940 0.318970
0.768860 0.784149 0.310150
0.785370 0.791412 0.301086
0.801666 0.797668 0.291840
0.817383 0.802307 0.277588
0.832733 0.805176 0.253296
0.849548 0.806458 0.220276
0.868958 0.807068 0.184448
0.891602 0.807281 0.149628
0.917328 0.807098 0.117859
0.945984 0.806549 0.090851
0.976898 0.805756 0.069153
1.000000 0.804810 0.051727
0.297058 0.637085 0.343323
0.310364 0.641113 0.346832
0.324982 0.644379 0.349243
0.340973 0.647583 0.351227
0.358032 0.651306 0.353424
0.376312 0.655334 0.355530
0.396149 0.660095 0.357758
0.417542 0.665619 0.360077
0.441132 0.672119 0.362549
0.467010 0.679626 0.364960
0.495117 0.688354 0.367310
0.525238 0.698120 0.369202
0.556671 0.708801 0.370667
0.588745 0.720093 0.371643
0.620239 0.731903 0.371796
0.650085 0.743744 0.370636
0.677429 0.755432 0.368500
0.701996 0.766693 0.364929
0.724030 0.777435 0.359894
0.743744 0.787415 0.353485
0.761810 0.796600 0.345886
