lut/retro-80s/Star Wars Empire Strikes Back Original (1980) - Standard.cube
# Created by Benjamin (IWLTBAP): https://luts.iwltbap.com
# Copyright: (C) Copyright 2018 Triune Films and IWLTBAP SAS
# Cannot be resold, shared or otherwise redistributed
TITLE "Triune Films 80s Retro LUTs (Rec.709, sRGB, DCI-P3)"
LUT_3D_SIZE 5
0.000000 0.000000 0.000000
0.135925 0.025238 0.019196
0.293640 0.054230 0.016876
0.491638 0.072845 0.014557
0.686981 0.078003 0.026062
0.036224 0.136688 0.052765
0.232483 0.203705 0.036499
0.473450 0.236603 0.014038
0.665283 0.240021 0.020691
0.830750 0.252258 0.044769
0.132294 0.346405 0.160370
0.291779 0.395355 0.169128
0.552063 0.512268 0.112671
0.758392 0.518555 0.039124
0.971527 0.527344 0.059113
0.261688 0.581329 0.303162
0.403961 0.618805 0.322632
0.652039 0.712311 0.321350
0.806854 0.776855 0.239166
1.000000 0.772430 0.037964
0.430908 0.785522 0.467957
0.573151 0.812531 0.489868
0.750122 0.872620 0.516785
0.866516 0.936737 0.483887
0.992859 0.983307 0.350708
0.003906 0.022125 0.075958
0.134521 0.043304 0.107300
0.301178 0.064209 0.099915
0.497101 0.069489 0.116058
0.687653 0.069092 0.158752
0.007874 0.152161 0.144012
0.179108 0.189026 0.175812
0.470886 0.212738 0.171478
0.652344 0.228668 0.197144
0.808319 0.255798 0.237549
0.044281 0.366058 0.246582
0.203522 0.400940 0.263550
0.542908 0.511322 0.263641
0.763153 0.518494 0.259979
0.964355 0.529694 0.280121
0.152679 0.591095 0.383606
0.318939 0.623566 0.405304
0.604919 0.701996 0.426941
0.807037 0.781494 0.387512
1.000000 0.773804 0.258789
0.328156 0.782440 0.529938
0.498535 0.809326 0.560333
0.711395 0.859894 0.595886
0.861664 0.935638 0.603180
0.994171 0.986328 0.506226
0.006500 0.046936 0.151855
0.086945 0.074158 0.192017
0.299042 0.087463 0.252075
0.502350 0.078491 0.282257
0.661133 0.068726 0.319336
0.001648 0.183533 0.246063
0.083130 0.224243 0.298462
0.430389 0.221161 0.387909
0.626190 0.218201 0.388489
0.753143 0.253693 0.424377
0.002777 0.389069 0.376465
0.061981 0.428070 0.415009
0.442352 0.483459 0.478607
0.753693 0.509644 0.496704
0.908752 0.534882 0.520691
0.039734 0.594116 0.503906
0.138275 0.627563 0.523987
0.439453 0.680176 0.548492
0.794067 0.778717 0.573425
1.000000 0.772736 0.506256
0.159912 0.764252 0.614746
0.322357 0.793854 0.635590
0.588257 0.837952 0.671570
0.837769 0.920197 0.725708
0.995544 0.988678 0.667572
0.007904 0.066406 0.217804
0.066467 0.104645 0.269531
0.261475 0.129089 0.375946
0.494934 0.123352 0.445770
0.658905 0.102875 0.482391
0.003357 0.221283 0.342499
0.067505 0.256134 0.388458
0.323883 0.272552 0.498474
0.587769 0.256195 0.554260
0.736877 0.272614 0.585602
0.005554 0.407349 0.468811
0.058380 0.440033 0.506592
0.284760 0.476959 0.558777
0.689087 0.516907 0.695496
0.850037 0.553101 0.719025
0.014709 0.596497 0.593506
0.064606 0.630890 0.627808
0.274780 0.681244 0.671173
0.733551 0.782562 0.779114
0.946930 0.803680 0.788422
0.023621 0.754303 0.690674
0.197998 0.784912 0.714233
0.482880 0.833344 0.755463
0.820312 0.915253 0.852142
0.994629 0.990479 0.879822
0.007812 0.089508 0.286743
0.061249 0.138367 0.352753
0.220459 0.175720 0.426544
0.467072 0.173767 0.569397
0.639374 0.165039 0.610779
0.005035 0.250092 0.428101
0.065552 0.273529 0.459961
0.266052 0.296753 0.515106
0.533905 0.294189 0.657471
0.711548 0.318359 0.704163
0.008240 0.406433 0.529694
0.061005 0.431580 0.558655
0.248444 0.458710 0.599152
0.596588 0.524200 0.773010
0.821899 0.594025 0.829987
0.017700 0.587708 0.648621
0.067108 0.621307 0.682922
0.235474 0.667694 0.729309
0.669586 0.784332 0.845856
0.910126 0.849426 0.919922
0.025421 0.746002 0.743561
0.173676 0.782135 0.772491
0.460846 0.836426 0.821503
0.819336 0.932434 0.927338
0.997803 1.000000 1.000000
