lut/retro-80s/The Thing (1982) - Standard.cube
# Created by Benjamin (IWLTBAP): https://luts.iwltbap.com
# Copyright: (C) Copyright 2018 Triune Films and IWLTBAP SAS
# Cannot be resold, shared or otherwise redistributed
TITLE "Triune Films 80s Retro LUTs (Rec.709, sRGB, DCI-P3)"
LUT_3D_SIZE 33
0.000000 0.000000 0.001221
0.014160 0.000000 0.002380
0.030212 0.000824 0.003021
0.047028 0.001495 0.004211
0.064575 0.002777 0.004883
0.082397 0.004120 0.005646
0.100922 0.005463 0.006775
0.120087 0.007019 0.007721
0.139771 0.008728 0.009064
0.159760 0.010468 0.010376
0.179779 0.012421 0.011719
0.200073 0.014343 0.013000
0.220886 0.016327 0.014252
0.242249 0.018799 0.015533
0.264404 0.020721 0.017426
0.287689 0.023285 0.019348
0.311676 0.025818 0.021271
0.336609 0.027832 0.023071
0.362610 0.030273 0.024536
0.389465 0.032440 0.026489
0.416565 0.034149 0.028137
0.444275 0.035797 0.029449
0.472656 0.037415 0.030762
0.501343 0.039032 0.032440
0.529999 0.040955 0.034302
0.558624 0.042999 0.036133
0.586578 0.045013 0.037872
0.613739 0.047394 0.039673
0.640106 0.049835 0.042053
0.665710 0.052551 0.044525
0.690857 0.055786 0.046600
0.715851 0.059204 0.048889
0.740845 0.062897 0.051605
0.003021 0.016266 0.004456
0.018585 0.017212 0.005707
0.035217 0.018738 0.006927
0.052399 0.020081 0.007568
0.070312 0.021362 0.008209
0.088806 0.022552 0.008942
0.108002 0.023712 0.009827
0.127838 0.024841 0.011169
0.147888 0.026337 0.012421
0.168060 0.028137 0.013733
0.188446 0.029938 0.014404
0.208832 0.031708 0.015717
0.229950 0.033600 0.017548
0.251495 0.035889 0.018829
0.273926 0.037872 0.020233
0.297272 0.040527 0.022156
0.321472 0.042847 0.024078
0.346527 0.045227 0.026001
0.372711 0.047241 0.027954
0.399384 0.049286 0.029144
0.426636 0.051208 0.030670
0.454590 0.053040 0.032074
0.483154 0.054840 0.033813
0.511871 0.057007 0.035095
0.540588 0.058838 0.036926
0.569153 0.060974 0.039185
0.596985 0.063477 0.041412
0.624054 0.066040 0.043549
0.650330 0.068817 0.045654
0.675995 0.071930 0.047974
0.701294 0.075439 0.050415
0.726227 0.078979 0.052765
0.751221 0.082886 0.055420
0.005005 0.035431 0.008972
0.022095 0.036499 0.009644
0.038696 0.038605 0.010254
0.057159 0.040375 0.011017
0.076447 0.041748 0.011688
0.095764 0.042542 0.012512
0.115875 0.043610 0.013458
0.136078 0.044800 0.014557
0.156342 0.046112 0.015320
0.176971 0.047424 0.016571
0.197601 0.048737 0.017822
0.218506 0.050323 0.019104
0.239624 0.052521 0.020355
0.261383 0.054565 0.021881
0.283966 0.056854 0.023773
0.307220 0.059082 0.025330
0.331421 0.061371 0.027008
0.356628 0.063782 0.028931
0.382599 0.065948 0.030396
0.409271 0.067688 0.031677
0.436707 0.069672 0.033447
0.464996 0.071594 0.034729
0.493622 0.073517 0.036499
0.522614 0.075775 0.038361
0.551453 0.078033 0.040375
0.579926 0.080414 0.042236
0.607697 0.083038 0.044647
0.634644 0.085876 0.046844
0.660950 0.088989 0.049164
0.686798 0.092499 0.051544
0.712006 0.095947 0.054260
0.737122 0.099762 0.056580
0.762054 0.103363 0.059448
0.006866 0.055206 0.012970
0.023529 0.057007 0.013672
0.042114 0.058472 0.013763
0.060455 0.060272 0.014404
0.080902 0.062714 0.015228
0.102112 0.064484 0.015930
0.123413 0.065735 0.016357
0.144318 0.066772 0.017609
0.165283 0.067596 0.018280
0.186371 0.068420 0.019562
0.207336 0.069824 0.020813
0.228333 0.071411 0.022064
0.249756 0.073181 0.023651
0.271637 0.075104 0.025116
0.294189 0.076965 0.026794
0.317352 0.079376 0.028259
0.341766 0.081573 0.029999
0.366821 0.083649 0.031372
0.392639 0.085388 0.032654
0.419586 0.087463 0.034485
0.447235 0.089478 0.036133
0.475494 0.091370 0.037567
0.504303 0.093445 0.039612
0.533386 0.095703 0.041504
0.562195 0.098206 0.043610
0.590637 0.100616 0.045654
0.618286 0.103699 0.048065
0.645264 0.106628 0.050476
0.671722 0.109985 0.052826
0.697510 0.113678 0.055420
0.722870 0.117340 0.057739
0.748016 0.120911 0.060394
0.772858 0.124695 0.063232
0.007751 0.075989 0.017303
0.024323 0.078247 0.018097
0.043365 0.079620 0.018433
0.063263 0.081146 0.018188
0.083527 0.083588 0.018738
0.106384 0.087036 0.019196
0.129669 0.089233 0.019714
0.152496 0.090881 0.020752
0.174652 0.091919 0.021515
0.196411 0.092682 0.022736
0.217804 0.093475 0.024200
0.239044 0.094849 0.025391
0.260773 0.096191 0.026947
0.282898 0.097748 0.028259
0.305298 0.099640 0.029510
0.328735 0.101532 0.031311
0.352966 0.103485 0.032532
0.377960 0.105194 0.034302
0.403809 0.107147 0.035492
0.430695 0.108887 0.037323
0.458405 0.110931 0.039001
0.486725 0.112946 0.040710
0.515472 0.115143 0.042542
0.544342 0.117401 0.044647
0.573273 0.119751 0.046661
0.601471 0.122528 0.049072
0.629089 0.125610 0.051483
0.656189 0.128937 0.053894
0.682678 0.132385 0.056519
0.708527 0.136047 0.059235
0.733917 0.139771 0.061920
0.759033 0.143524 0.064514
0.783936 0.147247 0.067444
0.007416 0.097931 0.022552
0.024261 0.100586 0.023773
0.043640 0.102417 0.024109
0.064209 0.104065 0.023651
0.085815 0.105408 0.023132
0.108368 0.108459 0.023621
0.133698 0.112946 0.023895
0.159149 0.116150 0.024658
0.183533 0.118042 0.025421
0.206787 0.119202 0.026459
0.229126 0.119934 0.027771
0.250977 0.120972 0.029114
0.273041 0.121948 0.030304
0.295380 0.123230 0.031494
0.317963 0.124573 0.032837
0.341400 0.126129 0.034424
0.365387 0.127533 0.035553
0.390289 0.129303 0.036957
0.416107 0.131012 0.038513
0.442932 0.132812 0.040070
0.470520 0.134552 0.041962
0.498749 0.136475 0.043732
0.527405 0.138611 0.045593
0.556091 0.140961 0.047913
0.584686 0.143463 0.049957
0.612915 0.146210 0.052368
0.640411 0.149384 0.054871
0.667542 0.152771 0.057678
0.694031 0.156372 0.060364
0.719940 0.160065 0.063263
0.745270 0.163818 0.066101
0.770477 0.167603 0.068787
0.795319 0.171448 0.071655
0.007172 0.120819 0.028229
0.023224 0.123596 0.029266
0.043365 0.125885 0.029999
0.065155 0.127716 0.029907
0.087616 0.129456 0.028748
0.110535 0.131439 0.028748
0.135132 0.135284 0.029022
0.162811 0.140717 0.029266
0.189941 0.144775 0.029663
0.215607 0.147064 0.030518
0.239960 0.148529 0.031769
0.263092 0.149567 0.032898
0.285706 0.150299 0.033630
0.308441 0.151184 0.034973
0.331421 0.151978 0.036316
0.354980 0.153046 0.037476
0.379059 0.154388 0.039001
0.403900 0.155731 0.040131
0.429626 0.157257 0.041992
0.456238 0.158813 0.043518
0.483673 0.160553 0.045471
0.511688 0.162292 0.047211
0.540100 0.164246 0.049347
0.568573 0.166473 0.051453
0.596924 0.169098 0.053711
0.624969 0.171997 0.056274
0.652618 0.175140 0.059021
0.679626 0.178650 0.061768
0.706085 0.182343 0.064423
0.731934 0.186035 0.067413
0.757324 0.189880 0.070496
0.782410 0.193665 0.073456
0.807068 0.197418 0.076416
0.006561 0.144318 0.034882
0.023499 0.147430 0.035736
0.043945 0.149963 0.036011
0.066193 0.152130 0.035706
0.089264 0.154236 0.035248
0.113373 0.156403 0.034424
0.137421 0.158783 0.034851
0.164154 0.163574 0.035126
0.193329 0.169739 0.035004
0.221619 0.174438 0.035095
0.248291 0.177094 0.035522
0.273743 0.178802 0.036255
0.297913 0.179932 0.037262
0.321716 0.180664 0.038544
0.345367 0.181366 0.039581
0.369293 0.182220 0.041077
0.393646 0.183167 0.042236
0.418579 0.184326 0.043762
0.444336 0.185425 0.045624
0.470795 0.186859 0.047180
0.498016 0.188263 0.048981
0.525726 0.189880 0.050964
0.553772 0.191742 0.052917
0.581970 0.193970 0.055176
0.610168 0.196716 0.057678
0.638092 0.199554 0.060425
0.665497 0.202850 0.063202
0.692474 0.206390 0.066162
0.718781 0.210083 0.069092
0.744537 0.213898 0.072083
0.769836 0.217712 0.075317
0.794739 0.221527 0.078522
0.819397 0.225311 0.081909
0.007263 0.168274 0.040588
0.023987 0.171661 0.041840
0.044586 0.174561 0.042267
0.066711 0.176849 0.041992
0.090515 0.179413 0.041290
0.115326 0.182007 0.040955
0.141205 0.184296 0.040405
0.166565 0.187531 0.041229
0.194855 0.192932 0.041199
0.225006 0.199554 0.040344
0.253998 0.204407 0.039948
0.281769 0.207703 0.040314
0.308258 0.209869 0.041046
0.333832 0.211121 0.041962
0.358704 0.212097 0.043427
0.383545 0.212860 0.044739
0.408569 0.213654 0.046326
0.434021 0.214508 0.047882
0.459839 0.215454 0.049347
0.486298 0.216614 0.050903
0.513397 0.217834 0.052887
0.540955 0.219360 0.054901
0.568726 0.221252 0.057159
0.596710 0.223541 0.059357
0.624695 0.226166 0.062134
0.652191 0.229126 0.064941
0.679352 0.232422 0.067993
0.705994 0.235809 0.071259
0.732117 0.239532 0.074249
0.757629 0.243225 0.077637
0.782745 0.247101 0.080902
0.807587 0.251038 0.084259
0.832184 0.255035 0.087982
0.008209 0.192780 0.046234
0.024414 0.196503 0.047546
0.044922 0.199493 0.048309
0.067719 0.202057 0.048126
0.091492 0.204803 0.047638
0.116974 0.207672 0.047150
0.144073 0.210571 0.046509
0.170563 0.213409 0.046967
0.197327 0.216797 0.047607
0.226624 0.222839 0.047302
0.257629 0.229889 0.046295
0.287537 0.235107 0.045563
0.316223 0.238770 0.045868
0.343903 0.241150 0.046417
0.370605 0.242920 0.047516
0.396912 0.243988 0.048645
0.423035 0.244965 0.050232
0.449188 0.245728 0.051849
0.475494 0.246674 0.053650
0.502136 0.247681 0.055054
0.529327 0.248932 0.057312
0.556946 0.250488 0.059387
0.584717 0.252472 0.061890
0.612366 0.254761 0.064423
0.639862 0.257355 0.067230
0.667114 0.260315 0.070343
0.693878 0.263489 0.073486
0.720093 0.266876 0.076691
0.745819 0.270447 0.080017
0.771149 0.274170 0.083496
0.796051 0.278107 0.087219
0.820709 0.282227 0.090851
0.845123 0.286316 0.094849
0.008972 0.217529 0.051910
0.025055 0.221375 0.053619
0.045532 0.224426 0.054352
0.068359 0.227142 0.054016
0.092529 0.230164 0.053925
0.118530 0.233398 0.053497
0.146057 0.236725 0.053192
0.174347 0.239807 0.052765
0.201782 0.242950 0.053436
0.229767 0.246887 0.054047
0.260162 0.253326 0.053833
0.291504 0.260498 0.052521
0.322052 0.266113 0.051941
0.351471 0.270050 0.051819
0.380341 0.272858 0.052551
0.408325 0.274902 0.053589
0.435791 0.276398 0.054779
0.463104 0.277557 0.056244
0.490356 0.278595 0.058136
0.517853 0.279816 0.060272
0.545410 0.281189 0.062439
0.572937 0.282837 0.064484
0.600555 0.284790 0.066986
0.627960 0.287048 0.069946
0.655212 0.289642 0.072845
0.682007 0.292480 0.075989
0.708282 0.295502 0.079163
0.734192 0.298767 0.082581
0.759613 0.302338 0.086304
0.784637 0.306183 0.090149
0.809418 0.310181 0.094055
0.833893 0.314331 0.098358
0.858124 0.318604 0.102692
0.008026 0.242432 0.058502
0.023743 0.246552 0.060547
0.044708 0.249847 0.061279
0.068695 0.252625 0.060913
0.093536 0.255676 0.060577
0.119934 0.259277 0.060394
0.148193 0.262939 0.059998
0.177734 0.266571 0.059570
0.207214 0.269928 0.059479
0.235229 0.273285 0.060760
0.264404 0.277802 0.061584
0.295502 0.284546 0.061218
0.327026 0.291687 0.060059
0.357849 0.297485 0.059174
0.388153 0.301727 0.058929
0.417664 0.305054 0.059235
0.446747 0.307526 0.060242
0.475433 0.309448 0.061676
0.503906 0.311096 0.063446
0.532166 0.312714 0.065460
0.560272 0.314362 0.067688
0.588043 0.316010 0.070160
0.615601 0.317932 0.072845
0.642853 0.320190 0.075775
0.669739 0.322662 0.078796
0.696259 0.325378 0.082031
0.722321 0.328430 0.085419
0.747955 0.331696 0.089142
0.773132 0.335297 0.092987
0.797913 0.339050 0.097107
0.822449 0.343079 0.101562
0.846680 0.347137 0.106079
0.870667 0.351410 0.110870
0.007202 0.267639 0.065674
0.022919 0.272186 0.068329
0.045502 0.275604 0.068634
0.070465 0.278412 0.067963
0.096130 0.281616 0.067413
0.122772 0.285492 0.067291
0.151245 0.289520 0.067017
0.181305 0.293579 0.066833
0.212219 0.297302 0.066467
0.241547 0.300995 0.067566
0.270599 0.304382 0.069336
0.300964 0.309387 0.070496
0.332520 0.316406 0.069946
0.364075 0.323547 0.068573
0.395264 0.329590 0.067657
0.425903 0.334259 0.067291
0.456146 0.337952 0.067535
0.486023 0.340912 0.068237
0.515533 0.343292 0.069489
0.544556 0.345398 0.071106
0.573273 0.347321 0.073334
0.601471 0.349304 0.075775
0.629120 0.351288 0.078339
0.656311 0.353455 0.081299
0.683167 0.356018 0.084381
0.709595 0.358795 0.087952
0.735504 0.361786 0.091675
0.760925 0.365021 0.095490
0.786011 0.368500 0.099640
0.810669 0.372192 0.104126
0.835022 0.376099 0.108795
0.859009 0.380066 0.113800
0.882843 0.384155 0.118958
0.007965 0.293427 0.073517
0.024323 0.298401 0.076080
0.047485 0.302032 0.076508
0.073090 0.304932 0.075897
0.099213 0.308228 0.074982
0.126068 0.312317 0.074860
0.155090 0.316589 0.074554
0.185364 0.320923 0.074524
0.216827 0.325195 0.074402
0.248230 0.329193 0.074707
0.278229 0.332947 0.076965
0.308350 0.336609 0.079346
0.339417 0.342010 0.080780
0.371429 0.349457 0.080841
0.403168 0.356781 0.079315
0.434021 0.362793 0.077820
0.464752 0.367645 0.076782
0.495148 0.371613 0.076447
0.525177 0.374969 0.076996
0.554840 0.377563 0.077667
0.583954 0.379913 0.079193
0.612640 0.382202 0.081268
0.640747 0.384460 0.083832
0.668243 0.386780 0.086761
0.695282 0.389435 0.089935
0.721710 0.392181 0.093628
0.747620 0.395172 0.097565
0.773071 0.398346 0.101654
0.798065 0.401703 0.105896
0.822632 0.405212 0.110779
0.846863 0.408875 0.115692
0.870728 0.412567 0.120728
0.894501 0.416412 0.126251
0.008636 0.319855 0.081940
0.024567 0.325287 0.084961
0.048737 0.329254 0.085541
0.075317 0.332245 0.084534
0.102295 0.335571 0.083496
0.130035 0.339722 0.082886
0.159393 0.344299 0.082825
0.190155 0.348938 0.082794
0.222168 0.353516 0.083008
0.254730 0.358002 0.083252
0.286469 0.362396 0.085266
0.317383 0.366302 0.088531
0.348480 0.370392 0.091644
0.380493 0.376404 0.093689
0.412415 0.383942 0.093536
0.443237 0.390991 0.091553
0.473480 0.396973 0.089294
0.503601 0.401764 0.087433
0.533447 0.405762 0.086121
0.563049 0.409149 0.085754
0.592499 0.412140 0.086365
0.621582 0.414825 0.087433
0.650116 0.417419 0.089355
0.678040 0.420074 0.092010
0.705353 0.422699 0.095276
0.732025 0.425385 0.098724
0.758148 0.428253 0.102783
0.783783 0.431244 0.107147
0.808899 0.434387 0.111694
0.833588 0.437622 0.116364
0.857880 0.441010 0.121460
0.881805 0.444458 0.126801
0.905762 0.448029 0.132294
0.008698 0.347046 0.091095
0.026123 0.352997 0.094482
0.051483 0.357178 0.095123
0.079376 0.360260 0.093750
0.107208 0.363708 0.092529
0.135742 0.368042 0.091980
0.165344 0.372681 0.091583
0.196625 0.377594 0.091736
0.228790 0.382660 0.092255
0.261780 0.387726 0.093262
0.295410 0.392395 0.094818
0.327179 0.397034 0.098419
0.358917 0.401215 0.102295
0.390869 0.405701 0.105927
0.423096 0.412262 0.108185
0.454071 0.419495 0.107666
0.483551 0.425995 0.104797
0.512665 0.431671 0.101440
0.541687 0.436401 0.098663
0.570618 0.440430 0.096436
0.599792 0.444000 0.095367
0.628784 0.447113 0.095276
0.657501 0.450073 0.096222
0.685791 0.452759 0.097778
0.713593 0.455383 0.100128
0.740723 0.458038 0.103271
0.767273 0.460724 0.107086
0.793182 0.463470 0.111267
0.818604 0.466309 0.115753
0.843628 0.469360 0.120636
0.868256 0.472473 0.125793
0.892670 0.475677 0.131165
0.917328 0.478973 0.136292
0.011292 0.374939 0.100525
0.029175 0.381561 0.104797
0.056274 0.385834 0.105225
0.085083 0.388916 0.103699
0.113647 0.392609 0.102661
0.142517 0.397217 0.102081
0.172577 0.402283 0.101837
0.203827 0.407501 0.102234
0.236328 0.412811 0.102997
0.269684 0.418091 0.104218
0.304199 0.423126 0.105774
0.337219 0.428131 0.109161
0.369812 0.432922 0.113525
0.402100 0.437256 0.117889
0.434204 0.442139 0.121582
0.465820 0.448822 0.123657
0.495514 0.455780 0.122406
0.523468 0.461792 0.118561
0.551056 0.467133 0.114288
0.578827 0.471558 0.110291
0.606934 0.475494 0.107117
0.635284 0.479004 0.105164
0.663818 0.482178 0.104340
0.692169 0.484985 0.104645
0.720215 0.487671 0.105774
0.747803 0.490143 0.107849
0.774811 0.492645 0.110931
0.801331 0.495209 0.114594
0.827362 0.497894 0.118988
0.852875 0.500610 0.123901
0.878357 0.503479 0.128479
0.903656 0.506348 0.132996
0.928955 0.509216 0.137268
0.015259 0.403931 0.111511
0.033051 0.411377 0.116486
0.061432 0.415741 0.116974
0.091522 0.419006 0.115448
0.120911 0.422821 0.114380
0.150543 0.427368 0.113556
0.180969 0.432526 0.113495
0.212311 0.437866 0.113708
0.245026 0.443329 0.114532
0.278656 0.448822 0.115936
0.312988 0.454193 0.117950
0.347290 0.459259 0.120789
0.380219 0.464447 0.125153
0.413208 0.469299 0.129791
0.445709 0.473785 0.134369
0.477570 0.479187 0.137939
0.508209 0.486053 0.139526
0.536224 0.492615 0.137573
0.562347 0.498108 0.132660
0.588348 0.502869 0.127075
0.614838 0.506897 0.121918
0.641907 0.510559 0.117767
0.669556 0.513916 0.114868
0.697571 0.516846 0.113220
0.725555 0.519409 0.112885
0.753418 0.521851 0.113464
0.781067 0.524292 0.115326
0.808289 0.526672 0.118042
0.835205 0.529083 0.121338
0.861786 0.531586 0.124969
0.888062 0.534119 0.128723
0.914154 0.536621 0.132507
0.939972 0.539093 0.136383
0.021393 0.434296 0.123962
0.041382 0.442078 0.129059
0.070221 0.446472 0.129578
0.100952 0.449554 0.128021
0.130798 0.453278 0.126740
0.160461 0.457947 0.125946
0.190674 0.463104 0.125793
0.221832 0.468567 0.126160
0.254150 0.473999 0.126984
0.287567 0.479553 0.128510
0.321838 0.484985 0.130646
0.356842 0.490326 0.133179
0.390717 0.495728 0.137146
0.424194 0.501007 0.141907
0.457214 0.505981 0.146698
0.489410 0.510803 0.151184
0.520416 0.516510 0.154602
0.549408 0.523285 0.155609
0.575500 0.529297 0.152802
0.599701 0.534149 0.146698
0.624207 0.538361 0.139862
0.649506 0.542053 0.133667
0.675629 0.545288 0.128632
0.702606 0.548248 0.124542
0.730286 0.550995 0.122253
0.758240 0.553467 0.121002
0.786224 0.555725 0.120941
0.814331 0.557953 0.121429
0.842194 0.560181 0.122681
0.869629 0.562286 0.124878
0.896759 0.564423 0.127686
0.923645 0.566620 0.130676
0.950104 0.568726 0.133698
0.032196 0.465515 0.137329
0.052277 0.473297 0.142639
0.081207 0.477295 0.142822
0.111755 0.480164 0.141052
0.141113 0.483978 0.139832
0.170197 0.488647 0.139252
0.200256 0.493652 0.139038
0.231018 0.498993 0.139404
0.262878 0.504456 0.140228
0.296265 0.510040 0.141754
0.330719 0.515625 0.143890
0.366180 0.521057 0.146271
0.401398 0.526581 0.149506
0.435089 0.532166 0.154205
0.468506 0.537537 0.158936
0.501068 0.542511 0.163696
0.532379 0.547516 0.168030
0.561798 0.553284 0.171173
0.588837 0.559753 0.171722
0.612854 0.565216 0.167969
0.635498 0.569458 0.160889
0.658630 0.573242 0.152832
0.682892 0.576569 0.145691
0.708313 0.579559 0.139404
0.734955 0.582336 0.134033
0.762543 0.584778 0.129944
0.790619 0.587036 0.127045
0.819122 0.589111 0.125366
0.847595 0.591034 0.124725
0.875916 0.592834 0.124817
0.903992 0.594696 0.125977
0.931763 0.596466 0.127625
0.958954 0.598175 0.129913
0.043701 0.497040 0.151611
0.064880 0.504303 0.156433
0.093109 0.507996 0.156525
0.123108 0.510559 0.154510
0.151825 0.514282 0.153412
0.180573 0.518768 0.152863
0.210266 0.523682 0.152496
0.240967 0.528870 0.152740
0.272858 0.534332 0.153717
0.306183 0.539917 0.155121
0.340668 0.545563 0.157074
0.376007 0.551178 0.159515
0.411774 0.556793 0.162415
0.446014 0.562500 0.166626
0.479614 0.568115 0.171265
0.512329 0.573395 0.175873
0.543701 0.578308 0.180634
0.573334 0.583160 0.185120
0.600891 0.588928 0.188049
0.626007 0.595123 0.188141
0.648315 0.600281 0.183258
0.669647 0.604279 0.174377
0.691620 0.607727 0.164886
0.715057 0.610718 0.155792
0.740173 0.613434 0.147552
0.766724 0.615875 0.140625
0.794464 0.618103 0.135040
0.822815 0.619995 0.131012
0.851562 0.621765 0.128052
0.880554 0.623352 0.125885
0.909485 0.624847 0.124847
0.938354 0.626373 0.124847
0.966675 0.627930 0.125519
0.056732 0.528259 0.166107
0.078430 0.534912 0.170258
0.106506 0.538025 0.169830
0.135712 0.540527 0.168060
0.163971 0.544067 0.166901
0.192322 0.548370 0.166351
0.221527 0.553070 0.166046
0.251892 0.558197 0.166290
0.283417 0.563599 0.167236
0.316345 0.569214 0.168823
0.350525 0.574890 0.170868
0.385803 0.580627 0.173370
0.421722 0.586304 0.175934
0.456757 0.591980 0.179352
0.490448 0.597656 0.183746
0.523132 0.603088 0.188385
0.554535 0.608185 0.193207
0.584259 0.613190 0.197784
0.611938 0.618256 0.201355
0.637390 0.624176 0.203033
0.660400 0.630035 0.201538
0.681091 0.634705 0.195496
0.701385 0.638153 0.185486
0.722931 0.641266 0.174347
0.746155 0.643951 0.163757
0.771149 0.646423 0.154053
0.797791 0.648590 0.145569
0.825745 0.650513 0.138611
0.854492 0.652283 0.132965
0.883881 0.653748 0.128571
0.913574 0.655243 0.125153
0.943451 0.656647 0.122986
0.972961 0.658020 0.121765
0.072083 0.558929 0.180206
0.094208 0.564728 0.183502
0.121185 0.567444 0.182953
0.149353 0.569763 0.181274
0.176910 0.573120 0.180267
0.204102 0.577271 0.179993
0.232483 0.581940 0.180023
0.262177 0.586975 0.180511
0.293457 0.592285 0.181580
0.326294 0.597839 0.183167
0.360443 0.603516 0.185211
0.395782 0.609283 0.187469
0.431641 0.614960 0.189819
0.467346 0.620483 0.192596
0.500977 0.626587 0.196320
0.533447 0.632568 0.199921
0.564392 0.638184 0.203583
0.593750 0.643372 0.207367
0.621460 0.648010 0.211426
0.646973 0.652679 0.214600
0.670227 0.658020 0.215637
0.691498 0.663391 0.213287
0.711273 0.667511 0.206299
0.731079 0.670715 0.194885
0.752502 0.673615 0.182159
0.775848 0.676117 0.170013
0.801208 0.678467 0.158844
0.828247 0.680664 0.148865
0.856812 0.682556 0.140350
0.886383 0.684265 0.133179
0.916565 0.685791 0.127380
0.947235 0.687164 0.122772
0.977722 0.688538 0.119415
0.087402 0.588684 0.193878
0.108521 0.593903 0.196930
0.134888 0.596130 0.196136
0.162018 0.598236 0.194763
0.188599 0.601501 0.194092
0.215454 0.605408 0.194000
0.243500 0.609955 0.194489
0.273102 0.614929 0.195129
0.304352 0.620178 0.196320
0.336975 0.625671 0.197723
0.371124 0.631561 0.199280
0.406097 0.637634 0.200989
0.441589 0.643799 0.202637
0.476898 0.649811 0.204468
0.510620 0.655975 0.206970
0.542603 0.661865 0.209869
0.573181 0.667419 0.213074
0.602203 0.672516 0.216370
0.629456 0.677185 0.219910
0.654816 0.681213 0.223663
0.678223 0.685364 0.226410
0.699890 0.690247 0.226929
0.720001 0.695129 0.223663
0.739410 0.698975 0.215179
0.759277 0.702118 0.202515
0.781097 0.705109 0.188477
0.805023 0.707855 0.174744
0.831055 0.710266 0.161987
0.858856 0.712494 0.150574
0.888306 0.714508 0.140289
0.918640 0.716309 0.131744
0.949829 0.717896 0.124542
0.981079 0.719238 0.118652
0.102631 0.617767 0.207611
0.123840 0.622284 0.210175
0.150024 0.623810 0.208862
0.176270 0.625916 0.207764
0.201935 0.629211 0.207489
0.228241 0.633179 0.207642
0.255768 0.637695 0.208130
0.284973 0.642731 0.208862
0.315643 0.648193 0.210022
0.347931 0.654083 0.211121
0.381592 0.660309 0.212128
0.416046 0.666565 0.213348
0.450897 0.672852 0.214569
0.485901 0.678864 0.215546
0.519531 0.684753 0.216919
0.550903 0.690582 0.219269
0.580902 0.695923 0.221771
0.609436 0.700958 0.224548
0.636169 0.705414 0.227661
0.661102 0.709320 0.231049
0.684509 0.712860 0.234497
0.706421 0.716675 0.236725
0.727142 0.721344 0.236481
0.746887 0.725952 0.232300
0.766418 0.729797 0.222565
0.786957 0.733154 0.208588
0.809448 0.736359 0.193115
0.834167 0.739319 0.177795
0.861115 0.742065 0.163513
0.889893 0.744476 0.150360
0.920197 0.746674 0.138702
0.951569 0.748535 0.128693
0.983307 0.750183 0.120239
0.117096 0.647278 0.220093
0.138672 0.651123 0.221924
0.164642 0.652161 0.220215
0.190033 0.654449 0.219299
0.215027 0.657867 0.219299
0.240814 0.661926 0.219543
0.267792 0.666626 0.220184
0.296417 0.671844 0.221069
0.326630 0.677521 0.222198
0.358459 0.683502 0.223358
0.391571 0.689636 0.224335
0.425537 0.695770 0.225159
0.459900 0.701813 0.225769
0.494080 0.707733 0.226166
0.527191 0.713348 0.226593
0.558258 0.718781 0.227966
0.587646 0.723938 0.229767
0.615479 0.728699 0.231964
0.641693 0.733002 0.234619
0.666351 0.736908 0.237549
0.689667 0.740356 0.240662
0.711823 0.743622 0.243652
0.732849 0.747284 0.245270
0.753174 0.751892 0.244141
0.773041 0.756409 0.238861
0.793091 0.760437 0.228027
0.814484 0.764069 0.212585
0.837921 0.767609 0.195801
0.863739 0.770935 0.179016
0.891693 0.773926 0.163116
0.921448 0.776611 0.148499
0.952698 0.778961 0.135498
0.984680 0.780914 0.124298
0.130920 0.677673 0.229553
0.152954 0.680878 0.230988
0.178314 0.681976 0.229736
0.203094 0.684357 0.229401
0.227814 0.687714 0.229828
0.253235 0.691803 0.230591
0.279907 0.696503 0.231628
0.308136 0.701691 0.232910
0.338165 0.707245 0.234039
0.369537 0.713043 0.234955
0.402069 0.718964 0.235687
0.435333 0.724854 0.235992
0.468903 0.730682 0.235870
0.501892 0.736267 0.235657
0.534058 0.741608 0.235474
0.564636 0.746674 0.235840
0.593353 0.751587 0.237091
0.620605 0.756165 0.238708
0.646362 0.760406 0.240784
0.670746 0.764252 0.243103
0.693970 0.767761 0.245758
