lut/retro-80s/The Thing (1982) - Standard.cube
# Created by Benjamin (IWLTBAP): https://luts.iwltbap.com
# Copyright: (C) Copyright 2018 Triune Films and IWLTBAP SAS
# Cannot be resold, shared or otherwise redistributed
TITLE "Triune Films 80s Retro LUTs (Rec.709, sRGB, DCI-P3)"
LUT_3D_SIZE 9
0.000000 0.000000 0.001221
0.064575 0.002777 0.004883
0.139771 0.008728 0.009064
0.220886 0.016327 0.014252
0.311676 0.025818 0.021271
0.416565 0.034149 0.028137
0.529999 0.040955 0.034302
0.640106 0.049835 0.042053
0.740845 0.062897 0.051605
0.007751 0.075989 0.017303
0.083527 0.083588 0.018738
0.174652 0.091919 0.021515
0.260773 0.096191 0.026947
0.352966 0.103485 0.032532
0.458405 0.110931 0.039001
0.573273 0.119751 0.046661
0.682678 0.132385 0.056519
0.783936 0.147247 0.067444
0.007263 0.168274 0.040588
0.090515 0.179413 0.041290
0.194855 0.192932 0.041199
0.308258 0.209869 0.041046
0.408569 0.213654 0.046326
0.513397 0.217834 0.052887
0.624695 0.226166 0.062134
0.732117 0.239532 0.074249
0.832184 0.255035 0.087982
0.007202 0.267639 0.065674
0.096130 0.281616 0.067413
0.212219 0.297302 0.066467
0.332520 0.316406 0.069946
0.456146 0.337952 0.067535
0.573273 0.347321 0.073334
0.683167 0.356018 0.084381
0.786011 0.368500 0.099640
0.882843 0.384155 0.118958
0.011292 0.374939 0.100525
0.113647 0.392609 0.102661
0.236328 0.412811 0.102997
0.369812 0.432922 0.113525
0.495514 0.455780 0.122406
0.606934 0.475494 0.107117
0.720215 0.487671 0.105774
0.827362 0.497894 0.118988
0.928955 0.509216 0.137268
0.043701 0.497040 0.151611
0.151825 0.514282 0.153412
0.272858 0.534332 0.153717
0.411774 0.556793 0.162415
0.543701 0.578308 0.180634
0.648315 0.600281 0.183258
0.740173 0.613434 0.147552
0.851562 0.621765 0.128052
0.966675 0.627930 0.125519
0.102631 0.617767 0.207611
0.201935 0.629211 0.207489
0.315643 0.648193 0.210022
0.450897 0.672852 0.214569
0.580902 0.695923 0.221771
0.684509 0.712860 0.234497
0.766418 0.729797 0.222565
0.861115 0.742065 0.163513
0.983307 0.750183 0.120239
0.158691 0.739441 0.247040
0.254242 0.749237 0.249451
0.362000 0.767334 0.254456
0.484192 0.788116 0.252869
0.602448 0.806976 0.249268
0.700806 0.822693 0.252747
0.787811 0.835144 0.258362
0.875122 0.853424 0.230194
0.986542 0.870728 0.152222
0.208374 0.869751 0.273987
0.300415 0.876770 0.274506
0.399811 0.890167 0.274872
0.507202 0.906494 0.267975
0.612640 0.922516 0.258423
0.709290 0.937103 0.251556
0.801117 0.950348 0.247528
0.893341 0.962769 0.242981
0.993195 0.981323 0.206421
0.000000 0.004272 0.072968
0.063904 0.006470 0.072174
0.140045 0.010590 0.070892
0.222198 0.017120 0.071686
0.313873 0.025970 0.077454
0.421356 0.034241 0.084534
0.535370 0.041107 0.091797
0.643463 0.050690 0.100800
0.743073 0.064331 0.111206
0.003235 0.086456 0.091675
0.078857 0.091248 0.094940
0.168945 0.091766 0.091431
0.260132 0.093628 0.089294
0.355896 0.099915 0.092438
0.463837 0.107697 0.098755
0.578033 0.118195 0.107544
0.685791 0.132629 0.118622
0.785889 0.148621 0.130798
0.002106 0.181152 0.110870
0.080292 0.192200 0.115845
0.190430 0.198364 0.111725
0.310394 0.209503 0.116791
0.414062 0.209900 0.117706
0.521179 0.214783 0.123260
0.631073 0.225983 0.133209
0.735992 0.241455 0.146271
0.833923 0.258240 0.161499
0.000000 0.280792 0.137970
0.081696 0.295441 0.139313
0.197998 0.309570 0.136169
0.333679 0.324371 0.138245
0.465820 0.343536 0.149170
0.583740 0.352203 0.158264
0.691132 0.361694 0.169678
0.790527 0.374542 0.184753
0.884369 0.389954 0.203644
0.000000 0.389618 0.174744
0.101288 0.408997 0.177002
0.221344 0.428986 0.174866
0.366058 0.449768 0.180817
0.504517 0.471436 0.193268
0.617126 0.486603 0.191193
0.727631 0.495972 0.196198
0.831726 0.504852 0.210510
0.931000 0.515045 0.226990
0.043213 0.513092 0.225220
0.146027 0.530243 0.226349
0.260315 0.549255 0.225952
0.400818 0.573120 0.234406
0.546478 0.596466 0.249939
0.656860 0.615143 0.259125
0.746674 0.622101 0.233459
0.855774 0.627472 0.220032
0.969391 0.632874 0.219971
0.110321 0.632568 0.277588
0.201660 0.643188 0.277863
0.307892 0.660828 0.284332
0.440277 0.684845 0.291412
0.577942 0.707855 0.296936
0.687347 0.724487 0.311401
0.771027 0.738434 0.305298
0.865112 0.747406 0.253174
0.986664 0.754272 0.216156
0.171448 0.753082 0.320404
0.260132 0.762665 0.324158
0.361694 0.778351 0.333282
0.477783 0.796448 0.334808
0.597504 0.814240 0.330475
0.700775 0.830170 0.333405
0.790558 0.842651 0.339447
0.878265 0.858765 0.316589
0.989258 0.874054 0.248169
0.217865 0.881439 0.354004
0.306061 0.887817 0.353912
0.401825 0.899139 0.355896
0.504395 0.912445 0.350952
0.608643 0.926788 0.342163
0.707703 0.941437 0.335663
0.801758 0.955017 0.332611
0.895050 0.966675 0.329926
0.994659 0.983459 0.299255
0.000000 0.017670 0.155487
0.048035 0.020081 0.161530
0.138367 0.017487 0.151642
0.220459 0.020477 0.144073
0.308441 0.025970 0.141113
0.414886 0.033661 0.144806
0.530884 0.040894 0.152863
0.640808 0.051514 0.163452
0.741699 0.066711 0.177032
0.000000 0.100494 0.185364
0.061981 0.104889 0.194489
0.160156 0.099335 0.183502
0.255859 0.095154 0.168579
0.353180 0.097809 0.161804
0.463654 0.104828 0.164948
0.578613 0.116791 0.175049
0.686401 0.134277 0.189270
0.785950 0.152771 0.205750
0.000000 0.196259 0.204193
0.063843 0.208557 0.218414
0.172913 0.208771 0.215820
0.298645 0.203552 0.200165
0.411865 0.203156 0.193542
0.523224 0.210327 0.198151
0.632568 0.225647 0.211365
0.735107 0.245575 0.228607
0.830841 0.265594 0.247559
0.000000 0.296387 0.227966
0.059174 0.314178 0.237183
0.175293 0.326080 0.237640
0.325928 0.333313 0.232269
0.469513 0.348297 0.245087
0.588379 0.355560 0.251495
0.692169 0.366241 0.263641
0.787842 0.380951 0.280151
0.879272 0.397156 0.298035
0.000000 0.407440 0.265289
0.086151 0.430267 0.273376
0.200623 0.447906 0.272034
0.345337 0.466522 0.275269
0.504089 0.484650 0.282379
0.622070 0.495850 0.290283
0.730621 0.503662 0.301056
0.831116 0.511902 0.315552
0.927948 0.521606 0.329559
0.053558 0.531250 0.312500
0.144012 0.551483 0.317963
0.249268 0.568359 0.320618
0.381805 0.589264 0.328705
0.538635 0.610840 0.338196
0.660004 0.627075 0.349518
0.750488 0.629578 0.333679
0.857727 0.632904 0.327515
0.968750 0.638184 0.330566
0.128052 0.649750 0.362488
0.211304 0.663177 0.366211
0.310883 0.679779 0.377014
0.431641 0.699768 0.387024
0.568115 0.719116 0.388611
0.686462 0.735504 0.398773
0.774933 0.747711 0.396362
0.868408 0.753113 0.354187
0.988434 0.757568 0.326111
0.189728 0.770111 0.409149
0.274597 0.780304 0.413361
0.369873 0.793945 0.423523
0.475952 0.808167 0.427124
0.590515 0.822815 0.421173
0.698486 0.838165 0.420532
0.792419 0.851135 0.425995
0.881317 0.864777 0.408905
0.991760 0.877075 0.351715
0.229218 0.893616 0.441986
0.314911 0.900574 0.442200
0.406586 0.910492 0.443970
0.503418 0.920868 0.439636
0.603973 0.932281 0.430511
0.703857 0.945984 0.423859
0.801117 0.959961 0.421173
0.896545 0.971161 0.419708
0.996368 0.985840 0.395294
0.000000 0.035004 0.232117
0.027283 0.039825 0.250122
0.125183 0.035156 0.240479
0.215546 0.032745 0.228821
0.305298 0.033295 0.225616
0.401733 0.037811 0.220428
0.514313 0.045715 0.223053
0.629211 0.058990 0.234528
0.735321 0.076752 0.253845
0.000000 0.117767 0.271454
0.030762 0.123047 0.289062
0.137146 0.112610 0.282257
0.245148 0.106506 0.265778
0.348297 0.107269 0.256775
0.454987 0.112213 0.248810
0.569427 0.124542 0.253998
0.680054 0.144348 0.270905
0.781433 0.165924 0.293701
0.000000 0.213013 0.298279
0.049927 0.225525 0.320618
0.151733 0.218323 0.329498
0.278381 0.211395 0.312927
0.403168 0.209839 0.295593
0.517273 0.216125 0.288513
0.627594 0.233093 0.299805
0.730286 0.256866 0.321350
0.825256 0.280640 0.344696
0.003113 0.313995 0.324799
0.071106 0.337067 0.346802
0.167572 0.344879 0.359253
0.301208 0.349945 0.365906
0.459869 0.350281 0.350708
0.584351 0.357330 0.348602
0.686646 0.371155 0.360626
0.779816 0.389313 0.379578
0.869415 0.408569 0.398773
0.015381 0.429688 0.358643
0.097412 0.458710 0.379913
0.195190 0.473480 0.388153
0.326263 0.490387 0.403076
0.497375 0.499878 0.402405
0.624207 0.504791 0.402496
0.731476 0.511688 0.410645
0.826324 0.520477 0.424194
0.919342 0.531433 0.437927
0.078461 0.553955 0.409332
0.161682 0.577820 0.423767
0.256592 0.593445 0.430481
0.373993 0.611481 0.444061
0.526825 0.626892 0.451904
0.661133 0.638153 0.452850
0.753784 0.637054 0.440582
0.858459 0.640015 0.440979
0.964874 0.645447 0.447174
0.155151 0.671234 0.462189
0.235687 0.688385 0.471771
0.328705 0.703552 0.481201
0.434021 0.719666 0.491699
0.558563 0.732727 0.491211
0.683502 0.746399 0.492584
0.778107 0.757050 0.490448
0.871429 0.758789 0.459045
0.989441 0.761108 0.441132
0.213776 0.787933 0.508148
0.295227 0.799652 0.513275
0.384460 0.811707 0.519714
0.480225 0.823608 0.522461
0.584900 0.833893 0.514679
0.693024 0.846344 0.509735
0.792114 0.859375 0.513031
0.883881 0.870758 0.501923
0.994476 0.879974 0.457092
0.241852 0.905518 0.535156
0.324982 0.913452 0.535797
0.413025 0.922760 0.535797
0.504547 0.931824 0.531097
0.598633 0.939819 0.520142
0.696808 0.950623 0.511505
0.797455 0.964294 0.508606
0.896667 0.975739 0.508179
0.997955 0.988617 0.490173
0.000000 0.048706 0.304504
0.016846 0.058685 0.329071
0.108490 0.051025 0.319824
0.205688 0.048615 0.310608
0.295319 0.048920 0.307281
0.400024 0.050476 0.316406
0.508179 0.061676 0.315521
0.623413 0.079193 0.324188
0.729065 0.100525 0.346252
0.000000 0.133789 0.347992
0.018097 0.144165 0.376404
0.115845 0.125214 0.368134
0.224915 0.120239 0.358582
0.332214 0.122040 0.350128
0.451630 0.129791 0.357452
0.565002 0.145264 0.357788
0.675354 0.166595 0.371552
0.774628 0.188904 0.395325
0.000000 0.230255 0.386139
0.040314 0.249176 0.416840
0.131683 0.231293 0.425201
0.251343 0.223877 0.423004
0.386902 0.226654 0.409698
0.516113 0.237976 0.411346
0.626343 0.255310 0.413116
0.725647 0.277344 0.428223
0.817535 0.301178 0.450104
0.006592 0.337646 0.420319
0.074036 0.370422 0.456421
0.171692 0.367157 0.471619
0.291168 0.367859 0.492096
0.447083 0.369812 0.483124
0.581696 0.375061 0.472870
0.683472 0.386627 0.472107
0.772491 0.403931 0.485474
0.859131 0.425110 0.503845
0.057098 0.456940 0.460449
0.127441 0.492920 0.494385
0.221344 0.501648 0.507935
0.336853 0.517456 0.533813
0.492859 0.525238 0.541840
0.631958 0.524078 0.526062
0.732330 0.525299 0.522278
0.818268 0.532532 0.531677
0.905609 0.544739 0.546112
0.117279 0.579193 0.507904
0.191010 0.607910 0.534912
0.284241 0.620056 0.543213
0.390350 0.639069 0.563416
0.530304 0.651886 0.578552
0.665558 0.655334 0.572418
0.758270 0.648071 0.555908
0.856934 0.650848 0.558258
0.955353 0.655182 0.564240
0.184387 0.693420 0.563507
0.262238 0.713959 0.580811
0.353088 0.726013 0.586456
0.447418 0.741119 0.596527
0.562469 0.752258 0.601654
0.683075 0.760742 0.600250
0.780914 0.767395 0.594818
0.873627 0.764832 0.569366
0.987885 0.765686 0.560120
0.235443 0.803802 0.605255
0.313293 0.817719 0.613953
0.399872 0.827515 0.615784
0.487701 0.839386 0.617706
0.585358 0.848389 0.613220
0.690033 0.856720 0.608704
0.790985 0.867126 0.608368
0.885590 0.876312 0.599976
0.996399 0.882751 0.566040
0.253265 0.915710 0.627167
0.333527 0.925415 0.630157
0.419647 0.933655 0.628510
0.505554 0.942871 0.623962
0.594604 0.949860 0.613586
0.691528 0.957001 0.605255
0.793121 0.968201 0.601990
0.895630 0.979736 0.600922
0.998871 0.991150 0.587830
0.000000 0.060852 0.374512
0.016602 0.078949 0.411011
0.080688 0.064667 0.402557
0.192535 0.062256 0.395203
0.291626 0.062622 0.393555
0.393494 0.069427 0.401794
0.519043 0.079193 0.425934
0.633362 0.102264 0.437775
0.735626 0.129181 0.460602
0.000000 0.147919 0.428314
0.017853 0.165710 0.463531
0.079285 0.141571 0.461090
0.208130 0.134979 0.455078
0.325989 0.138611 0.449097
0.445831 0.151123 0.455353
0.575012 0.166321 0.479340
0.683105 0.191284 0.493622
0.776825 0.216339 0.514465
0.000000 0.248505 0.475250
0.042114 0.274719 0.513428
0.118286 0.252777 0.521606
0.237762 0.244598 0.526825
0.378418 0.249481 0.520203
0.512665 0.263824 0.522797
0.633545 0.279663 0.539856
0.729065 0.302246 0.549530
0.815247 0.325714 0.563995
0.019318 0.364777 0.517761
0.088562 0.403717 0.561005
0.184570 0.395233 0.574738
0.294403 0.391479 0.595856
0.437988 0.392487 0.598053
0.580048 0.399994 0.591492
0.687958 0.409027 0.595245
0.773560 0.426147 0.598846
0.854340 0.446838 0.609650
0.075073 0.485748 0.561127
0.143677 0.526276 0.602875
0.241608 0.530060 0.615540
0.354309 0.540192 0.640594
0.496979 0.544586 0.655609
0.634979 0.545868 0.645294
0.734833 0.545776 0.639130
0.815460 0.553101 0.639954
0.895630 0.563110 0.648682
0.139069 0.602753 0.607819
0.211700 0.636108 0.642883
0.311218 0.643951 0.650269
0.417053 0.660645 0.670471
0.543213 0.673828 0.688965
0.671143 0.677002 0.687317
0.767303 0.673920 0.677551
0.851532 0.670990 0.673584
0.939301 0.670166 0.675385
0.213928 0.712891 0.657806
0.286530 0.737488 0.681824
0.378601 0.744354 0.683380
0.469818 0.758453 0.693665
0.573547 0.771545 0.705078
0.685883 0.777985 0.708282
0.783417 0.780121 0.703766
0.874420 0.773163 0.684479
0.980774 0.772949 0.680481
0.256622 0.817993 0.694244
0.328247 0.835083 0.707764
0.413635 0.841187 0.707520
0.497437 0.852661 0.711273
0.590881 0.862762 0.713470
0.692230 0.869415 0.713379
0.790558 0.875946 0.712341
0.886230 0.881653 0.706238
0.997009 0.885468 0.679749
0.263275 0.924957 0.715454
0.339966 0.936981 0.722382
0.425262 0.942993 0.720032
0.507843 0.952118 0.717773
0.595062 0.959930 0.712677
0.692139 0.965881 0.708679
0.792206 0.973206 0.705872
0.894653 0.982910 0.704376
0.998627 0.992859 0.695557
0.000000 0.074066 0.449982
0.016510 0.096741 0.495667
0.043549 0.082123 0.499298
0.176025 0.077057 0.490448
0.290619 0.078705 0.488525
0.408661 0.087463 0.497803
0.527985 0.108490 0.522522
0.651550 0.123688 0.558105
0.749695 0.150391 0.580536
0.000000 0.163300 0.515289
0.017761 0.186432 0.555176
0.047211 0.164978 0.561493
0.194824 0.156464 0.558411
0.333099 0.161407 0.552948
0.464844 0.175598 0.560028
0.584930 0.198547 0.582306
0.697968 0.212646 0.612732
0.787567 0.236633 0.630280
0.000000 0.270111 0.568237
0.023712 0.302216 0.609222
0.112091 0.283051 0.620178
0.236389 0.273407 0.629669
0.387665 0.278076 0.625488
0.527039 0.291382 0.628296
0.638580 0.309784 0.640167
0.738190 0.321564 0.660431
0.821564 0.344208 0.671936
0.039368 0.393066 0.616791
0.108704 0.432831 0.658112
0.203888 0.427002 0.671906
0.310028 0.419373 0.689087
0.444763 0.416290 0.693573
0.582672 0.421204 0.690002
0.688263 0.433899 0.691681
0.778107 0.442780 0.702972
0.858032 0.464874 0.711090
0.095947 0.512299 0.658081
0.168732 0.552185 0.698029
0.268463 0.557281 0.710693
0.379425 0.562042 0.731293
0.502930 0.561310 0.746338
0.631622 0.561310 0.742706
0.734283 0.566101 0.738739
0.818451 0.568054 0.742859
0.897858 0.579926 0.747162
0.161377 0.625305 0.700043
0.238159 0.662292 0.737793
0.337189 0.666840 0.743591
0.440094 0.679321 0.762115
0.553619 0.689087 0.779755
0.670013 0.691559 0.783447
0.767517 0.690033 0.777924
0.850800 0.685425 0.775330
0.931976 0.687134 0.775238
0.236420 0.732178 0.744873
0.306732 0.760376 0.773376
0.396881 0.761993 0.773285
0.485229 0.773621 0.785278
0.583496 0.785187 0.798431
0.687531 0.791718 0.805084
0.783630 0.792725 0.803802
0.871979 0.790039 0.798157
0.963135 0.786682 0.793671
0.274536 0.831909 0.779388
0.342926 0.851685 0.797821
0.427399 0.853577 0.795715
0.508728 0.863312 0.801208
0.597382 0.873260 0.807190
0.694611 0.880676 0.811432
0.791016 0.885010 0.812042
0.886475 0.887634 0.808685
0.994690 0.888763 0.794220
0.275238 0.934326 0.800995
0.347656 0.949036 0.812683
0.432220 0.951263 0.809052
0.512146 0.959320 0.809509
0.597015 0.967346 0.809418
0.693848 0.973907 0.809692
0.793457 0.979340 0.808380
0.894501 0.986145 0.806885
0.998535 0.994598 0.803101
0.000000 0.090149 0.527771
0.016479 0.116455 0.587769
0.043365 0.109131 0.601715
0.154175 0.099609 0.592926
0.298431 0.102631 0.590668
0.434570 0.115173 0.600983
0.557861 0.137451 0.626495
0.663422 0.162445 0.653687
0.763489 0.167786 0.686218
0.000000 0.182892 0.608643
0.017700 0.209045 0.648804
0.046997 0.197540 0.662140
0.190094 0.187256 0.664032
0.352509 0.192688 0.660034
0.495087 0.207062 0.665375
0.611786 0.226410 0.683441
0.706146 0.247040 0.702393
0.799866 0.252228 0.729492
0.000000 0.295410 0.664429
0.028534 0.330444 0.704224
0.125671 0.321930 0.719421
0.254364 0.306915 0.728088
0.407684 0.308838 0.725494
0.545929 0.317444 0.723419
0.654449 0.331024 0.730713
0.741608 0.350250 0.743134
0.830994 0.359253 0.766266
0.064270 0.421539 0.712555
0.138519 0.460907 0.749786
0.231964 0.461639 0.765045
0.333374 0.448669 0.777893
0.458832 0.440857 0.782349
0.589050 0.440826 0.776611
0.693756 0.450836 0.775970
0.778351 0.469513 0.783783
0.864929 0.479706 0.802826
0.126678 0.538971 0.749298
0.206451 0.578217 0.785919
0.303589 0.585419 0.798920
0.409424 0.585205 0.814728
0.517548 0.581207 0.827759
0.632782 0.577423 0.825775
0.733643 0.581360 0.822296
0.818115 0.590942 0.825317
0.904022 0.590576 0.838348
0.196930 0.649231 0.786407
0.276001 0.684875 0.821045
0.367737 0.689758 0.828430
0.465118 0.697815 0.843475
0.566528 0.703888 0.859406
0.669708 0.703400 0.865295
0.765533 0.700623 0.863098
0.852173 0.699158 0.862732
0.937805 0.693298 0.868011
0.265198 0.751221 0.825409
0.333069 0.779846 0.854431
0.417145 0.779846 0.856049
0.502197 0.787964 0.867615
0.592255 0.796356 0.880920
0.689056 0.800720 0.888947
0.783173 0.800293 0.890564
0.872559 0.797974 0.888824
0.961487 0.793488 0.888458
0.293091 0.845917 0.859467
0.357361 0.867767 0.881348
0.439331 0.866089 0.879089
0.519073 0.872955 0.885590
0.603027 0.880920 0.893616
0.696991 0.887268 0.900055
0.792297 0.890808 0.902954
0.887177 0.892456 0.902679
0.982849 0.892670 0.900726
0.285583 0.943665 0.883850
0.355621 0.958893 0.897552
0.438507 0.958984 0.894989
0.518311 0.964935 0.897400
0.601044 0.971710 0.900085
0.696106 0.978302 0.902893
0.795441 0.983978 0.904358
0.895508 0.989563 0.904907
0.998230 0.996429 0.905487
0.000000 0.108856 0.608002
0.016479 0.140167 0.682068
0.043365 0.146271 0.706390
0.142975 0.131958 0.696930
0.317352 0.137390 0.697571
0.466339 0.149567 0.704590
0.589264 0.166565 0.722382
0.683624 0.186096 0.743713
0.766815 0.204895 0.761841
0.000000 0.208130 0.706177
0.017578 0.237061 0.742889
0.046814 0.243042 0.766907
0.208710 0.223175 0.766632
0.378967 0.227753 0.763824
0.524384 0.237671 0.762115
0.635132 0.249725 0.770660
0.722870 0.266571 0.785797
0.803467 0.287231 0.801880
0.000000 0.325073 0.760620
0.053040 0.360931 0.797699
0.157379 0.368225 0.819153
0.283264 0.341217 0.821686
0.430420 0.337524 0.818237
0.565002 0.340790 0.810028
0.669464 0.350189 0.811737
0.755188 0.367737 0.821960
0.834381 0.393799 0.837524
0.099579 0.451202 0.803894
0.178528 0.489105 0.837189
0.265228 0.500061 0.856018
0.361816 0.478760 0.862610
0.479187 0.467285 0.865723
0.600372 0.463104 0.857147
0.701538 0.470337 0.854034
0.788086 0.488037 0.860382
0.866638 0.513580 0.873352
0.168396 0.566284 0.835297
0.250214 0.603760 0.868652
0.340240 0.615173 0.884064
0.439636 0.609772 0.894104
0.538574 0.604950 0.903748
0.641449 0.598969 0.902191
0.736908 0.599762 0.898102
0.823273 0.606903 0.901611
0.905182 0.617126 0.911743
0.237762 0.673035 0.867096
0.313507 0.706451 0.898621
0.398071 0.713593 0.909271
0.491028 0.717285 0.919891
0.584290 0.719879 0.932922
0.675201 0.716522 0.939697
0.767242 0.711151 0.939362
0.855042 0.708130 0.941193
0.939575 0.708252 0.946869
0.293701 0.769653 0.901764
0.359589 0.795563 0.928284
0.437958 0.798065 0.935089
0.520752 0.801483 0.944733
0.604065 0.806000 0.956940
0.693176 0.807404 0.964691
0.784332 0.805023 0.967834
0.874420 0.801788 0.969788
0.963196 0.799774 0.972900
0.310089 0.859467 0.936859
0.374817 0.876526 0.954346
0.453003 0.876953 0.957092
0.531616 0.881165 0.964691
0.611176 0.886322 0.973297
0.700684 0.890350 0.979706
0.794861 0.892548 0.983612
0.888672 0.894348 0.986298
0.980865 0.896088 0.988525
0.296478 0.951172 0.962860
0.368286 0.959595 0.970520
0.447845 0.962585 0.973846
0.527161 0.967590 0.978729
0.608002 0.972961 0.983429
0.700989 0.978516 0.987793
0.800507 0.984283 0.991852
0.900269 0.990479 0.995728
0.999115 0.997009 0.999603
