lut/retro-80s/The Goonies (1985) - Standard.cube
# Created by Benjamin (IWLTBAP): https://luts.iwltbap.com
# Copyright: (C) Copyright 2018 Triune Films and IWLTBAP SAS
# Cannot be resold, shared or otherwise redistributed
TITLE "Triune Films 80s Retro LUTs (Rec.709, sRGB, DCI-P3)"
LUT_3D_SIZE 9
0.000000 0.010712 0.002228
0.020630 0.019867 0.002197
0.073212 0.030182 0.002167
0.124603 0.037537 0.002106
0.176331 0.043121 0.002045
0.231201 0.045563 0.002014
0.292023 0.048248 0.001953
0.356720 0.052338 0.001862
0.431702 0.053589 0.001831
0.000000 0.069702 0.004974
0.045258 0.076569 0.002045
0.133392 0.078430 0.001831
0.194153 0.076843 0.001862
0.251648 0.075134 0.001862
0.307678 0.078003 0.001831
0.369171 0.082642 0.001801
0.438263 0.085938 0.001770
0.512299 0.088837 0.001740
0.000000 0.114227 0.002228
0.050385 0.133759 0.002197
0.169281 0.147614 0.001740
0.299561 0.166595 0.001373
0.377838 0.162384 0.001434
0.437256 0.155487 0.001526
0.496948 0.151978 0.001556
0.562317 0.152527 0.001556
0.630280 0.155334 0.001556
0.004822 0.160156 0.002228
0.061554 0.191589 0.002228
0.185944 0.213745 0.002075
0.332306 0.248535 0.001465
0.471619 0.290466 0.001007
0.578949 0.300171 0.000946
0.656097 0.290527 0.001038
0.723389 0.284332 0.001526
0.789917 0.284943 0.001221
0.023651 0.212646 0.002228
0.081085 0.254303 0.002228
0.219910 0.284332 0.002228
0.364716 0.320221 0.002197
0.494659 0.379395 0.001953
0.619293 0.434692 0.000946
0.740631 0.459290 0.000580
0.845428 0.462860 0.000580
0.919525 0.456207 0.000671
0.041199 0.272827 0.002228
0.105164 0.319672 0.002228
0.261414 0.357147 0.002441
0.412689 0.418243 0.003296
0.523285 0.446259 0.004700
0.625732 0.515259 0.003784
0.751495 0.579956 0.001068
0.886566 0.614532 0.000458
0.970062 0.626709 0.000336
0.049225 0.334930 0.002228
0.134399 0.385559 0.002228
0.301697 0.425934 0.005127
0.448944 0.491882 0.015045
0.551422 0.540588 0.006409
0.644073 0.577484 0.008026
0.742950 0.645844 0.005768
0.875732 0.721405 0.001740
0.978455 0.763489 0.000458
0.053040 0.391510 0.002228
0.159058 0.447906 0.027588
0.332977 0.490570 0.062927
0.486145 0.565613 0.058289
0.581573 0.635193 0.010559
0.667816 0.659485 0.010010
0.749756 0.697662 0.011627
0.843414 0.768036 0.009186
0.956726 0.853607 0.003815
0.058868 0.440674 0.012482
0.182373 0.502441 0.064819
0.362000 0.546967 0.090240
0.510071 0.626648 0.067719
0.600647 0.687622 0.006805
0.682678 0.739502 0.010773
0.765778 0.756134 0.014099
0.829163 0.803040 0.016022
0.921082 0.880219 0.014191
0.003845 0.035004 0.051117
0.033539 0.035309 0.055603
0.086792 0.010498 0.043976
0.133606 0.010193 0.035797
0.183807 0.011780 0.028381
0.238647 0.027985 0.007935
0.294952 0.031799 0.012238
0.359528 0.030396 0.016846
0.434082 0.019867 0.022186
0.009705 0.075470 0.067596
0.053406 0.083710 0.072418
0.137756 0.085449 0.059357
0.207733 0.075714 0.010742
0.264160 0.075928 0.011841
0.320801 0.077148 0.013397
0.380585 0.078217 0.015320
0.448792 0.076569 0.017334
0.520752 0.075623 0.019501
0.005341 0.127899 0.073242
0.044495 0.147705 0.070221
0.190216 0.165863 0.048248
0.320343 0.176971 0.043518
0.392548 0.164551 0.033691
0.451233 0.156128 0.028534
0.511414 0.152252 0.026978
0.575104 0.152222 0.026886
0.643219 0.155029 0.027710
0.002472 0.181000 0.061737
0.040405 0.205292 0.042480
0.197571 0.237762 0.041412
0.358276 0.269745 0.037323
0.491547 0.304077 0.064453
0.591125 0.306213 0.066193
0.665161 0.294006 0.057343
0.731323 0.288452 0.051117
0.796906 0.290741 0.047516
0.003784 0.238586 0.052368
0.052979 0.264984 0.034729
0.217651 0.311981 0.066101
0.382233 0.354858 0.023193
0.514709 0.402740 0.050690
0.631042 0.447540 0.081482
0.747803 0.466553 0.092712
0.848694 0.466553 0.089996
0.920380 0.459991 0.082092
0.016022 0.300232 0.061340
0.068481 0.325256 0.059540
0.252319 0.382812 0.094238
0.420959 0.442230 0.077728
0.538116 0.478943 0.055328
0.640045 0.537384 0.067200
0.759369 0.590302 0.096130
0.890625 0.619629 0.110199
0.970612 0.628906 0.114502
0.032349 0.360321 0.083984
0.081879 0.379211 0.082062
0.285736 0.448975 0.121094
0.457184 0.518188 0.105591
0.562164 0.582184 0.107788
0.655365 0.606018 0.053772
0.752899 0.663971 0.082489
0.880798 0.729523 0.107574
0.980164 0.767090 0.121979
0.047363 0.413757 0.108337
0.096619 0.430908 0.106171
0.312531 0.509033 0.143921
0.481079 0.583221 0.135986
0.583405 0.646423 0.116669
0.667908 0.692139 0.076080
0.757385 0.718781 0.067047
0.848572 0.781250 0.095215
0.958984 0.860992 0.116669
0.068787 0.469086 0.147034
0.110626 0.474823 0.143433
0.332458 0.560242 0.166473
0.497345 0.640350 0.173981
0.605377 0.704529 0.120605
0.681824 0.755768 0.039001
0.767914 0.777344 0.054932
0.833740 0.816833 0.081329
0.922363 0.888611 0.106262
0.020538 0.054382 0.088013
0.038727 0.057556 0.092621
0.090149 0.053589 0.095459
0.149353 0.010498 0.076294
0.196014 0.010468 0.069702
0.247772 0.010132 0.066742
0.306488 0.009827 0.069214
0.373444 0.009521 0.074341
0.441376 0.009186 0.080200
0.030731 0.088287 0.111969
0.057098 0.097260 0.126068
0.132874 0.102905 0.136780
0.219421 0.074829 0.094940
0.278076 0.018738 0.054810
0.337982 0.015106 0.048737
0.402100 0.018280 0.048645
0.463257 0.025696 0.051270
0.530273 0.050690 0.070862
0.039032 0.131348 0.133392
0.073242 0.156494 0.160339
0.171997 0.187622 0.189789
0.302948 0.185120 0.170471
0.393982 0.155273 0.125519
0.460907 0.138763 0.103912
0.519104 0.132874 0.092896
0.577515 0.134674 0.094543
0.641266 0.139679 0.100128
0.042755 0.192322 0.149994
0.080902 0.235748 0.182281
0.147339 0.287079 0.184662
0.365265 0.309692 0.191315
0.499664 0.326752 0.202820
0.593445 0.314667 0.186676
0.660950 0.298798 0.166046
0.724152 0.291779 0.149414
0.788361 0.292084 0.130646
0.056152 0.274902 0.176453
0.097473 0.325836 0.204681
0.144012 0.355621 0.167450
0.389465 0.401001 0.175720
0.528320 0.435883 0.186493
0.640930 0.467010 0.215607
0.753448 0.478119 0.220337
0.845306 0.469879 0.195923
0.914642 0.462769 0.158203
0.072205 0.358856 0.207977
0.111481 0.395203 0.219391
0.167389 0.418121 0.173737
0.412720 0.471802 0.198578
0.542175 0.526489 0.188416
0.649536 0.564972 0.196564
0.766571 0.605774 0.218170
0.894745 0.627441 0.224548
0.969818 0.631470 0.227600
0.086212 0.428375 0.230164
0.123657 0.449402 0.230530
0.200287 0.475220 0.192749
0.434906 0.530975 0.226013
0.565277 0.602509 0.210297
0.657623 0.631866 0.184662
0.756531 0.680695 0.193848
0.886902 0.739471 0.220062
0.983002 0.772369 0.246826
0.099945 0.489258 0.253937
0.139618 0.503906 0.255615
0.217712 0.525848 0.216370
0.456970 0.583923 0.249756
0.585846 0.659485 0.239197
0.667297 0.711304 0.216339
0.755981 0.730896 0.155457
0.851440 0.788544 0.185974
0.961731 0.867737 0.234863
0.120209 0.552490 0.292938
0.162628 0.566284 0.299438
0.219543 0.563416 0.255798
0.474030 0.645538 0.272217
0.596344 0.711243 0.275299
0.680145 0.759003 0.251556
0.758514 0.786560 0.157776
0.835815 0.821045 0.164764
0.922333 0.890411 0.218750
0.035889 0.070953 0.123444
0.051941 0.073761 0.128998
0.083832 0.072418 0.130493
0.147369 0.062653 0.128967
0.210510 0.019226 0.110535
0.254150 0.010498 0.100861
0.303619 0.010406 0.097961
0.365265 0.010101 0.101898
0.440063 0.009766 0.110687
0.046631 0.100098 0.151031
0.068115 0.107117 0.166077
0.112823 0.116394 0.183563
0.214996 0.108337 0.173737
0.289764 0.082581 0.133392
0.343964 0.067261 0.113159
0.401611 0.060791 0.108978
0.467102 0.066162 0.114929
0.535553 0.076294 0.125641
0.061890 0.148682 0.193146
0.093567 0.169891 0.223053
0.147461 0.196533 0.262024
0.291138 0.196899 0.253998
0.394714 0.167755 0.199707
0.454926 0.145844 0.169403
0.511627 0.139801 0.162567
0.572235 0.141754 0.165375
0.635712 0.145630 0.170898
0.067230 0.196838 0.212280
0.101074 0.233429 0.250732
0.163666 0.301575 0.320770
0.339569 0.343689 0.348694
0.476593 0.334686 0.328796
0.567505 0.305756 0.289948
0.632111 0.288300 0.267975
0.695648 0.282898 0.257538
0.760773 0.283600 0.253448
0.072876 0.268372 0.237366
0.108215 0.318817 0.281555
0.173676 0.406281 0.349091
0.341187 0.443390 0.343079
0.531281 0.472290 0.359100
0.643341 0.487488 0.364166
0.744995 0.484070 0.352844
0.826843 0.475189 0.336578
0.898376 0.469818 0.322784
0.087097 0.358032 0.282166
0.131622 0.414337 0.323822
0.196106 0.492828 0.371399
0.349487 0.503632 0.321991
0.549591 0.556427 0.333923
0.658600 0.585693 0.354492
0.769867 0.616089 0.369629
0.895020 0.632965 0.378021
0.964081 0.631104 0.373108
0.106934 0.443542 0.321960
0.160583 0.506805 0.367584
0.207123 0.542603 0.376465
0.375458 0.552979 0.327850
0.568268 0.612061 0.350098
0.662994 0.656464 0.342743
0.761017 0.691315 0.363831
0.891571 0.746796 0.376221
0.986633 0.778320 0.390839
0.130493 0.527374 0.363464
0.187866 0.585693 0.411346
0.218750 0.584991 0.387939
0.402039 0.601288 0.342438
0.578613 0.661072 0.369049
0.677246 0.720917 0.370544
0.757660 0.742615 0.347900
0.854309 0.791260 0.368835
0.965698 0.876038 0.392731
0.152771 0.598999 0.406616
0.211792 0.650970 0.456329
0.235260 0.632446 0.417847
0.405548 0.670563 0.353546
0.592529 0.716309 0.387512
0.688904 0.766876 0.393463
0.761871 0.806030 0.373535
0.840881 0.827789 0.356018
0.922272 0.893066 0.403839
0.050629 0.085175 0.161896
0.065643 0.086945 0.166168
0.091675 0.086334 0.167114
0.135040 0.085388 0.172729
0.208618 0.072052 0.161774
0.272186 0.044373 0.144806
0.316650 0.010498 0.133240
0.368591 0.010498 0.130219
0.426636 0.011139 0.132202
0.060760 0.112488 0.189087
0.080109 0.117950 0.203186
0.110992 0.128540 0.224487
0.168701 0.129761 0.232880
0.282593 0.116974 0.200256
0.356659 0.099365 0.169830
0.409637 0.093567 0.156677
0.463959 0.093231 0.154053
0.521484 0.096252 0.160004
0.074524 0.157349 0.234436
0.102081 0.173981 0.262451
0.137085 0.194244 0.297668
0.217896 0.207123 0.325226
0.385406 0.189484 0.265900
0.461578 0.168396 0.229065
0.511841 0.159576 0.211914
0.558685 0.156891 0.207367
0.611053 0.158966 0.213013
0.087860 0.226776 0.289368
0.123230 0.257019 0.325592
0.176483 0.308167 0.388245
0.296326 0.341278 0.431732
0.471161 0.339478 0.389954
0.556976 0.307251 0.344910
0.606354 0.281281 0.313324
0.655365 0.271057 0.302765
0.712891 0.270813 0.303528
0.090973 0.276672 0.302155
0.127899 0.319061 0.346619
0.187714 0.390808 0.419739
0.326141 0.466766 0.500488
0.520233 0.497894 0.503174
0.623077 0.496674 0.492065
0.710724 0.479462 0.460632
0.778595 0.467407 0.439728
0.842529 0.462433 0.429352
0.097504 0.342041 0.324005
0.135956 0.394958 0.373016
0.194580 0.474396 0.440796
0.311188 0.577240 0.532379
0.549622 0.577606 0.507599
0.666168 0.612671 0.522064
0.767334 0.626556 0.510254
0.871887 0.629578 0.502899
0.936157 0.625397 0.494690
0.113464 0.431702 0.373444
0.157104 0.485748 0.420319
0.224640 0.566864 0.482544
0.315125 0.621490 0.522430
0.568085 0.626129 0.494843
0.683014 0.679779 0.499359
0.769928 0.705719 0.511810
0.888794 0.748352 0.512115
0.978638 0.772614 0.523071
0.133423 0.513550 0.416809
0.184723 0.568207 0.463989
0.255096 0.647095 0.528839
0.325653 0.650360 0.510529
0.581573 0.681732 0.483215
0.697144 0.733429 0.505524
0.773163 0.764313 0.486420
0.860962 0.799713 0.515686
0.964478 0.876953 0.531525
0.154419 0.585144 0.455841
0.211151 0.640869 0.507599
0.281128 0.709442 0.572601
0.337128 0.707794 0.511261
0.594696 0.747009 0.485229
0.704834 0.779694 0.510223
0.783325 0.823273 0.524170
0.852814 0.844116 0.510986
0.923950 0.900146 0.552856
0.065002 0.098022 0.203278
0.079498 0.099731 0.207458
0.102844 0.100586 0.208954
0.137970 0.098999 0.209473
0.200897 0.094696 0.209869
0.270050 0.082550 0.190582
0.336761 0.069183 0.176758
0.382111 0.057404 0.166473
0.433319 0.057617 0.164154
0.073364 0.125153 0.229248
0.091797 0.130463 0.242310
0.117920 0.140259 0.263153
0.157745 0.142273 0.267639
0.241272 0.137604 0.265900
0.345856 0.127869 0.224792
0.419800 0.115845 0.201813
0.468597 0.111633 0.192810
0.521027 0.112366 0.192017
0.084717 0.167358 0.272980
0.109039 0.179718 0.296753
0.139252 0.195984 0.327362
0.192108 0.214050 0.363434
0.311981 0.201721 0.344940
0.452728 0.187927 0.279846
0.513977 0.174896 0.255890
0.560608 0.171417 0.247406
0.605011 0.173492 0.247223
0.098480 0.237091 0.337189
0.131805 0.262451 0.370941
0.177094 0.301605 0.423706
0.248535 0.326355 0.466736
0.399078 0.321594 0.457001
0.553650 0.309143 0.389648
0.607452 0.296936 0.368683
0.654572 0.292175 0.360413
0.694824 0.288239 0.353668
0.111084 0.315369 0.390503
0.153503 0.351257 0.430817
0.211884 0.407471 0.496307
0.315002 0.461426 0.567200
0.490723 0.492950 0.582825
0.622681 0.504761 0.557678
0.691101 0.487701 0.534149
0.741882 0.462524 0.500488
0.785889 0.448059 0.482544
0.114746 0.358582 0.394684
0.156067 0.402252 0.440063
0.215393 0.469879 0.509521
0.310577 0.554352 0.604004
0.529694 0.606049 0.634796
0.663239 0.633972 0.637329
0.739319 0.635834 0.628174
0.816254 0.626617 0.603699
0.879883 0.621735 0.593781
0.122955 0.415405 0.411133
0.163757 0.464508 0.459045
0.220856 0.532745 0.520996
0.314819 0.640778 0.628601
0.525208 0.688232 0.649933
0.696381 0.700836 0.640442
0.777222 0.729462 0.651276
0.880646 0.750763 0.637970
0.954315 0.761169 0.642700
0.142029 0.497955 0.458252
0.185822 0.546539 0.505280
0.248077 0.617950 0.570007
0.337799 0.719818 0.663177
0.515686 0.732697 0.611816
0.712006 0.754822 0.620178
0.793213 0.789581 0.636078
0.869812 0.812683 0.638977
0.960052 0.874023 0.654205
0.159485 0.569122 0.499695
0.208832 0.618469 0.549469
0.276581 0.688690 0.613464
0.357971 0.770782 0.682953
0.509125 0.793396 0.600342
0.717438 0.806763 0.608704
0.801331 0.836761 0.647552
0.866394 0.860962 0.637573
0.924774 0.903351 0.669952
0.077393 0.110687 0.247345
0.092529 0.112274 0.251160
0.113403 0.113586 0.253021
0.146118 0.112152 0.250702
0.193817 0.110779 0.254211
0.266510 0.104034 0.237610
0.334961 0.094940 0.217346
0.401855 0.086792 0.204437
0.446228 0.081573 0.197418
0.084076 0.137848 0.271393
0.102631 0.143097 0.283173
0.127747 0.152771 0.303741
0.160248 0.156982 0.310150
0.212311 0.154358 0.314117
0.316620 0.149597 0.282684
0.411041 0.137024 0.245789
0.480774 0.129761 0.229736
0.525177 0.126129 0.224976
0.092896 0.177948 0.311249
0.116760 0.189575 0.334137
0.145294 0.204285 0.362061
0.182587 0.220825 0.396973
0.256622 0.218445 0.398010
0.401184 0.211426 0.344452
0.510010 0.191650 0.295532
0.563568 0.185364 0.283417
0.606567 0.185669 0.282013
0.106537 0.244934 0.377319
0.138367 0.266846 0.409363
0.178375 0.297760 0.454071
0.224762 0.319366 0.493866
0.339508 0.328583 0.520325
0.502289 0.316406 0.447113
0.606781 0.303619 0.415649
0.652679 0.300873 0.406281
0.698273 0.305481 0.411438
0.124023 0.331543 0.449097
0.165405 0.361847 0.486267
0.217712 0.406708 0.542480
0.289703 0.456543 0.614838
0.440369 0.481903 0.648804
0.600067 0.481415 0.609985
0.695953 0.486481 0.588257
0.744598 0.480652 0.572815
0.789978 0.477112 0.565552
0.140839 0.408875 0.498535
0.188538 0.444489 0.540039
0.249359 0.501953 0.605499
0.326874 0.560638 0.681183
0.496826 0.593445 0.705231
0.657654 0.634369 0.688721
0.739258 0.649139 0.691528
0.794586 0.635651 0.674316
0.837921 0.619781 0.655029
0.144684 0.444977 0.494659
0.190674 0.488892 0.541992
0.249451 0.550995 0.605988
0.328400 0.627686 0.690613
0.511841 0.687164 0.736542
0.682404 0.724884 0.730042
0.772430 0.747528 0.743958
0.839813 0.751312 0.732147
0.900879 0.750458 0.720795
0.152679 0.489288 0.502106
0.194977 0.534058 0.548096
0.251556 0.592316 0.604218
0.343658 0.688812 0.703705
0.511261 0.770782 0.758057
0.685242 0.791199 0.720398
0.799683 0.806030 0.740723
0.869202 0.828064 0.745392
0.948059 0.866272 0.758484
0.172241 0.559265 0.542847
0.217285 0.602783 0.588989
0.281708 0.663879 0.650208
0.371155 0.758850 0.738037
0.506470 0.826508 0.772095
0.671112 0.845612 0.710846
0.807648 0.850403 0.723267
0.871979 0.873108 0.739471
0.922791 0.905457 0.766418
0.087952 0.122284 0.292114
0.104279 0.124756 0.297150
0.124451 0.126892 0.300201
0.155823 0.125946 0.296265
0.195129 0.124786 0.297211
0.262482 0.118713 0.283142
0.329224 0.116119 0.260040
0.400757 0.106506 0.240814
0.465454 0.100677 0.228577
0.093750 0.150818 0.316101
0.112915 0.156311 0.327454
0.137329 0.165039 0.345490
0.166412 0.172058 0.356049
0.209656 0.168701 0.351776
0.293121 0.162079 0.338257
0.386414 0.160736 0.297913
0.476746 0.145782 0.265594
0.538910 0.142395 0.257080
0.100739 0.190430 0.352844
0.124786 0.201660 0.374756
0.153107 0.216187 0.401520
0.185577 0.231812 0.435089
0.245941 0.236145 0.440643
0.365479 0.221741 0.410309
0.476776 0.217285 0.354492
0.563354 0.200287 0.317352
0.613770 0.201080 0.316803
0.114136 0.255096 0.418030
0.145752 0.275787 0.450012
0.183044 0.301666 0.489563
0.221985 0.321991 0.527557
0.314331 0.338501 0.568573
0.463135 0.314972 0.508026
0.578613 0.315308 0.466949
0.658478 0.311981 0.458984
0.700928 0.316833 0.460114
0.133850 0.340759 0.495941
0.174591 0.368927 0.533478
0.222443 0.407227 0.584198
0.280212 0.453308 0.652740
0.402496 0.474884 0.690521
0.550720 0.470123 0.663300
0.684235 0.474091 0.640289
0.753906 0.478058 0.627136
0.793976 0.484161 0.619904
0.162231 0.437012 0.577820
0.211426 0.469910 0.619965
0.267914 0.515533 0.675598
0.331390 0.563995 0.739014
0.460632 0.591522 0.768677
0.627045 0.625031 0.759338
0.737976 0.636841 0.735626
0.801422 0.642639 0.729095
0.843262 0.640198 0.724060
0.181152 0.502869 0.614716
0.234436 0.542786 0.663300
0.294922 0.593140 0.719910
0.360840 0.643311 0.778900
0.478119 0.674744 0.807861
0.644867 0.709686 0.804810
0.770142 0.752533 0.787476
0.832794 0.762238 0.792847
0.875366 0.754028 0.781677
0.181213 0.528473 0.597168
0.231232 0.573242 0.648346
0.291016 0.628204 0.706238
0.366577 0.693237 0.773895
0.489349 0.747742 0.817566
0.665497 0.794189 0.825195
0.785614 0.822998 0.815857
0.852875 0.838226 0.826935
0.907715 0.844910 0.819031
0.185608 0.559326 0.592377
0.230743 0.603027 0.640656
0.288818 0.653748 0.691559
0.378204 0.734589 0.774384
0.507019 0.807281 0.827759
0.677032 0.853271 0.839081
0.789093 0.879181 0.819977
0.869873 0.881226 0.820618
0.916412 0.904968 0.845367
0.097015 0.134155 0.338715
0.114594 0.137238 0.345001
0.135651 0.140656 0.349518
0.165192 0.139435 0.343811
0.203125 0.138184 0.341461
0.256744 0.131897 0.328674
0.329224 0.132294 0.302582
0.394135 0.126617 0.282257
0.466064 0.115601 0.260437
0.102386 0.164459 0.363403
0.122742 0.170898 0.375366
0.147614 0.179901 0.392822
0.175537 0.188202 0.405365
0.216888 0.185394 0.398499
0.275635 0.177673 0.389313
0.375946 0.178375 0.347382
0.460632 0.167725 0.313904
0.539642 0.155548 0.287140
0.109161 0.205109 0.398804
0.133545 0.216644 0.419983
0.162506 0.231262 0.446259
0.193146 0.244843 0.475952
0.245636 0.254150 0.489624
0.328918 0.238068 0.468353
0.458038 0.238464 0.408661
0.547607 0.223389 0.369507
0.619751 0.218842 0.358856
0.122009 0.267273 0.460938
0.153748 0.286713 0.492249
0.190643 0.311249 0.531006
0.228760 0.333069 0.570465
0.300171 0.348572 0.613831
0.421783 0.327484 0.576324
0.563629 0.328033 0.526581
0.648468 0.325562 0.511230
0.714752 0.331970 0.522095
0.144897 0.352386 0.544159
0.185974 0.380219 0.584076
0.231476 0.414124 0.631927
0.286957 0.457886 0.695465
0.379303 0.480286 0.736420
0.523071 0.490723 0.759186
0.662842 0.476990 0.710083
0.753754 0.479736 0.691803
0.811066 0.486633 0.686798
0.179657 0.452209 0.638916
0.228394 0.484070 0.682465
0.281219 0.523132 0.731628
0.342041 0.568268 0.787323
0.429565 0.594513 0.819366
0.592682 0.623352 0.828003
0.720978 0.631866 0.786224
0.806976 0.637543 0.784668
0.858032 0.640045 0.779785
0.210205 0.533936 0.702942
0.263672 0.569397 0.748199
0.319855 0.607300 0.792328
0.380432 0.649689 0.838226
0.448395 0.675629 0.865082
0.608521 0.704895 0.869110
0.756622 0.746338 0.841431
0.834229 0.760193 0.833466
0.880249 0.762665 0.834686
0.223389 0.582794 0.718109
0.277618 0.620331 0.764343
0.334442 0.659302 0.808258
0.399109 0.707367 0.855988
0.454346 0.741516 0.886353
0.594086 0.770050 0.891663
0.755341 0.807159 0.879700
0.854523 0.845062 0.865051
0.898224 0.850952 0.868622
0.220947 0.601471 0.693787
0.269806 0.639679 0.739960
0.330078 0.685181 0.790680
0.403992 0.742371 0.846375
0.473389 0.789886 0.885162
0.626892 0.826935 0.892273
0.775085 0.863617 0.886749
0.861694 0.891479 0.880341
0.903931 0.899414 0.885376
