lut/retro-80s/The Goonies (1985) - Standard.cube
# Created by Benjamin (IWLTBAP): https://luts.iwltbap.com
# Copyright: (C) Copyright 2018 Triune Films and IWLTBAP SAS
# Cannot be resold, shared or otherwise redistributed
TITLE "Triune Films 80s Retro LUTs (Rec.709, sRGB, DCI-P3)"
LUT_3D_SIZE 33
0.000000 0.010712 0.002228
0.000000 0.010468 0.003632
0.001678 0.013245 0.002747
0.009186 0.016785 0.002228
0.020630 0.019867 0.002197
0.033081 0.022552 0.002197
0.045715 0.025177 0.002197
0.059570 0.027710 0.002197
0.073212 0.030182 0.002167
0.086182 0.032471 0.002167
0.098938 0.034485 0.002136
0.111725 0.036011 0.002106
0.124603 0.037537 0.002106
0.137177 0.039001 0.002106
0.149811 0.040436 0.002075
0.162842 0.041840 0.002075
0.176331 0.043121 0.002045
0.189850 0.043915 0.002045
0.203308 0.044708 0.002045
0.217133 0.045166 0.002014
0.231201 0.045563 0.002014
0.245605 0.046295 0.001984
0.260468 0.046509 0.001984
0.276123 0.047180 0.001984
0.292023 0.048248 0.001953
0.307953 0.049438 0.001953
0.323944 0.050476 0.001923
0.340088 0.051208 0.001923
0.356720 0.052338 0.001862
0.374542 0.053406 0.001862
0.393372 0.053467 0.001862
0.412628 0.053528 0.001831
0.431702 0.053589 0.001831
0.000000 0.024933 0.002228
0.000000 0.024933 0.002197
0.004456 0.026672 0.002197
0.014984 0.029175 0.002136
0.027924 0.031403 0.002136
0.041565 0.033936 0.002136
0.056183 0.036743 0.002136
0.070862 0.038605 0.002136
0.085052 0.039886 0.002106
0.098663 0.041565 0.002106
0.111755 0.042511 0.002075
0.125061 0.044037 0.002075
0.138306 0.045227 0.002075
0.151428 0.046295 0.002045
0.164551 0.047424 0.002045
0.178314 0.048889 0.002014
0.192230 0.049835 0.002014
0.206207 0.050690 0.002014
0.220123 0.051422 0.002014
0.234344 0.051697 0.001984
0.248291 0.052521 0.001984
0.263184 0.053284 0.001953
0.278351 0.053955 0.001953
0.293854 0.054840 0.001953
0.309601 0.056091 0.001923
0.325348 0.057281 0.001923
0.341278 0.058807 0.001923
0.357910 0.059875 0.001862
0.375305 0.060669 0.001862
0.393555 0.061188 0.001831
0.412415 0.061310 0.001831
0.431396 0.061462 0.001801
0.450104 0.061646 0.001801
0.000000 0.041382 0.006165
0.000000 0.042480 0.002502
0.006104 0.043365 0.002136
0.020508 0.044342 0.002106
0.036774 0.046112 0.002075
0.053711 0.047699 0.002045
0.069763 0.049103 0.002045
0.084747 0.050568 0.002045
0.098877 0.051270 0.002045
0.112793 0.051941 0.002045
0.126343 0.052277 0.002045
0.140076 0.053192 0.002045
0.153748 0.053558 0.002014
0.167328 0.054047 0.002014
0.181152 0.054871 0.002014
0.195251 0.056091 0.001984
0.209534 0.056854 0.001984
0.223877 0.057770 0.001984
0.237946 0.058472 0.001984
0.252167 0.059113 0.001953
0.266479 0.059937 0.001953
0.281586 0.060822 0.001923
0.296814 0.061859 0.001923
0.312012 0.063324 0.001923
0.327576 0.064545 0.001862
0.343445 0.065735 0.001862
0.359711 0.067108 0.001862
0.376740 0.068115 0.001831
0.394470 0.068726 0.001831
0.412903 0.069031 0.001831
0.431854 0.069519 0.001801
0.450806 0.069763 0.001801
0.469482 0.070038 0.001801
0.000000 0.056854 0.008026
0.000000 0.058167 0.002716
0.006592 0.059296 0.002167
0.022491 0.060516 0.002106
0.043060 0.061493 0.002014
0.066162 0.061127 0.001984
0.084198 0.062164 0.001953
0.100372 0.063049 0.001953
0.115021 0.063721 0.001953
0.129486 0.063965 0.001953
0.143799 0.063904 0.001953
0.157928 0.063904 0.001984
0.172028 0.063538 0.001984
0.185944 0.063477 0.001984
0.200226 0.063965 0.001953
0.214630 0.064392 0.001953
0.229095 0.064880 0.001953
0.243378 0.065643 0.001923
0.257446 0.066437 0.001923
0.271545 0.067291 0.001923
0.286163 0.068237 0.001923
0.300964 0.069305 0.001862
0.316101 0.070770 0.001862
0.331421 0.072205 0.001862
0.347076 0.073364 0.001862
0.363098 0.074463 0.001831
0.379913 0.075470 0.001831
0.397308 0.076233 0.001831
0.415253 0.076843 0.001801
0.433685 0.077454 0.001801
0.452576 0.078125 0.001801
0.471313 0.078674 0.001770
0.490143 0.079010 0.001770
0.000000 0.069702 0.004974
0.000000 0.071045 0.002441
0.007904 0.073364 0.002197
0.023651 0.075470 0.002136
0.045258 0.076569 0.002045
0.072998 0.076385 0.001953
0.095917 0.076813 0.001862
0.115662 0.078064 0.001831
0.133392 0.078430 0.001831
0.149933 0.078400 0.001831
0.165009 0.078125 0.001831
0.179626 0.077545 0.001862
0.194153 0.076843 0.001862
0.208679 0.075989 0.001862
0.223053 0.075470 0.001862
0.237274 0.075134 0.001862
0.251648 0.075134 0.001862
0.265808 0.075623 0.001862
0.279510 0.076141 0.001862
0.293457 0.077087 0.001862
0.307678 0.078003 0.001831
0.322357 0.079041 0.001831
0.337494 0.080505 0.001831
0.353058 0.081604 0.001831
0.369171 0.082642 0.001801
0.385681 0.083527 0.001801
0.402771 0.084290 0.001801
0.420258 0.085083 0.001801
0.438263 0.085938 0.001770
0.456543 0.086700 0.001770
0.475067 0.087494 0.001770
0.493439 0.088287 0.001740
0.512299 0.088837 0.001740
0.000000 0.081909 0.002228
0.000031 0.083740 0.002228
0.009338 0.086700 0.002197
0.025085 0.089874 0.002167
0.045563 0.091827 0.002106
0.073059 0.092896 0.001984
0.102661 0.093414 0.001831
0.128479 0.094513 0.001770
0.151733 0.095490 0.001740
0.172943 0.095825 0.001709
0.190399 0.095612 0.001740
0.205688 0.094879 0.001740
0.220734 0.094086 0.001770
0.235382 0.092865 0.001770
0.249512 0.091553 0.001801
0.263763 0.090485 0.001801
0.278015 0.089996 0.001801
0.291534 0.089539 0.001801
0.304932 0.089508 0.001801
0.318481 0.089905 0.001801
0.332489 0.090179 0.001801
0.347321 0.090973 0.001801
0.362762 0.091736 0.001770
0.378540 0.092407 0.001770
0.394836 0.093231 0.001770
0.411530 0.094177 0.001770
0.428680 0.094849 0.001770
0.446167 0.095581 0.001740
0.463989 0.096680 0.001740
0.481720 0.097504 0.001740
0.499451 0.098297 0.001709
0.517670 0.099304 0.001709
0.536285 0.100250 0.001709
0.000000 0.092316 0.002228
0.000824 0.094940 0.002228
0.010620 0.098938 0.002228
0.025543 0.102997 0.002167
0.046173 0.105927 0.002136
0.074158 0.107422 0.002045
0.102325 0.109039 0.001923
0.134338 0.111725 0.001740
0.163849 0.113922 0.001678
0.191223 0.115753 0.001587
0.214752 0.116547 0.001587
0.234131 0.116028 0.001587
0.250946 0.115082 0.001648
0.266174 0.114044 0.001678
0.280487 0.112732 0.001678
0.294373 0.111481 0.001709
0.308319 0.110474 0.001709
0.321594 0.109467 0.001709
0.335175 0.108856 0.001709
0.348999 0.108215 0.001709
0.363129 0.107574 0.001740
0.377808 0.107208 0.001740
0.393005 0.107117 0.001740
0.408722 0.107391 0.001740
0.424805 0.107666 0.001709
0.441284 0.108307 0.001709
0.458252 0.108856 0.001709
0.475464 0.109680 0.001709
0.492645 0.110413 0.001709
0.509766 0.111084 0.001709
0.527161 0.111938 0.001678
0.545105 0.112976 0.001678
0.563507 0.114014 0.001678
0.000000 0.103271 0.002228
0.002625 0.106262 0.002228
0.011902 0.111359 0.002228
0.026459 0.116333 0.002197
0.047607 0.119629 0.002167
0.076996 0.121643 0.002106
0.102112 0.124268 0.001984
0.133728 0.127472 0.001831
0.169739 0.131744 0.001678
0.203003 0.135529 0.001556
0.232300 0.138580 0.001495
0.257446 0.140320 0.001465
0.278656 0.140350 0.001465
0.296967 0.139282 0.001495
0.312958 0.137543 0.001526
0.327576 0.135986 0.001526
0.341736 0.134583 0.001556
0.355804 0.133484 0.001587
0.369720 0.132538 0.001587
0.384033 0.131622 0.001648
0.398590 0.130676 0.001648
0.413361 0.129700 0.001648
0.428619 0.129120 0.001648
0.444061 0.128693 0.001648
0.459869 0.128265 0.001648
0.476257 0.128296 0.001648
0.492981 0.128418 0.001648
0.509949 0.128845 0.001648
0.526703 0.129272 0.001648
0.543396 0.130005 0.001648
0.560303 0.130646 0.001648
0.577667 0.131531 0.001648
0.595642 0.132477 0.001587
0.000000 0.114227 0.002228
0.004822 0.117615 0.002228
0.013733 0.123260 0.002228
0.028564 0.129272 0.002228
0.050385 0.133759 0.002197
0.078918 0.136322 0.002136
0.104980 0.139374 0.002075
0.133545 0.143341 0.001953
0.169281 0.147614 0.001740
0.208282 0.154022 0.001587
0.243073 0.159698 0.001465
0.272888 0.164093 0.001404
0.299561 0.166595 0.001373
0.323639 0.167511 0.001373
0.343933 0.166504 0.001373
0.361633 0.164642 0.001404
0.377838 0.162384 0.001434
0.393311 0.160278 0.001465
0.408081 0.158508 0.001465
0.422638 0.156982 0.001495
0.437256 0.155487 0.001526
0.451813 0.154205 0.001526
0.466461 0.153320 0.001526
0.481445 0.152527 0.001556
0.496948 0.151978 0.001556
0.513062 0.151825 0.001556
0.529419 0.151794 0.001556
0.545807 0.152008 0.001556
0.562317 0.152527 0.001556
0.578461 0.152771 0.001556
0.595245 0.153412 0.001556
0.612610 0.154205 0.001556
0.630280 0.155334 0.001556
0.000000 0.125519 0.002228
0.006866 0.129272 0.002228
0.016357 0.135284 0.002228
0.030884 0.142059 0.002228
0.052002 0.148010 0.002197
0.080475 0.151428 0.002167
0.107971 0.154846 0.002106
0.136688 0.159668 0.002014
0.169678 0.163788 0.001862
0.208649 0.169800 0.001678
0.248383 0.178741 0.001495
0.282532 0.186157 0.001404
0.313995 0.191498 0.001343
0.343018 0.194855 0.001282
0.369110 0.196350 0.001251
0.392059 0.196014 0.001251
0.412079 0.194183 0.001282
0.430542 0.191803 0.001312
0.447632 0.189178 0.001343
0.463440 0.186646 0.001373
0.478699 0.184418 0.001404
0.493378 0.182495 0.001404
0.507812 0.181122 0.001434
0.522461 0.180054 0.001434
0.537811 0.179504 0.001465
0.553558 0.179260 0.001465
0.569305 0.179260 0.001465
0.584961 0.179504 0.001465
0.600952 0.179840 0.001465
0.617310 0.180420 0.001495
0.634094 0.181274 0.001495
0.651306 0.182190 0.001495
0.668518 0.183350 0.001495
0.000336 0.136932 0.002228
0.008667 0.140686 0.002228
0.019073 0.147278 0.002228
0.032867 0.155151 0.002228
0.053619 0.162231 0.002197
0.082367 0.166962 0.002197
0.111023 0.170288 0.002136
0.140869 0.175598 0.002075
0.173737 0.181458 0.001984
0.209229 0.185211 0.001801
0.249756 0.193756 0.001587
0.287903 0.205200 0.001434
0.323364 0.214050 0.001312
0.356628 0.220581 0.001251
0.387085 0.224792 0.001221
0.414917 0.227203 0.001190
0.440491 0.228149 0.001160
0.463013 0.227020 0.001160
0.483124 0.224854 0.001190
0.501312 0.222198 0.001221
0.517914 0.219360 0.001251
0.533630 0.216766 0.001282
0.548676 0.214569 0.001282
0.563934 0.212738 0.001312
0.579559 0.211548 0.001343
0.595276 0.210693 0.001343
0.610840 0.210205 0.001373
0.626312 0.210114 0.001373
0.642151 0.210388 0.001404
0.658386 0.210968 0.001404
0.675079 0.211823 0.001404
0.691895 0.212830 0.001404
0.708740 0.213928 0.001404
0.002563 0.148407 0.002228
0.011444 0.152771 0.002228
0.021881 0.159943 0.002228
0.036194 0.168488 0.002228
0.056793 0.176697 0.002228
0.083893 0.182495 0.002197
0.113800 0.185974 0.002167
0.145081 0.190247 0.002106
0.179230 0.197876 0.002045
0.213654 0.202087 0.001923
0.250732 0.207794 0.001740
0.290314 0.220001 0.001526
0.328857 0.233276 0.001343
0.365448 0.243622 0.001251
0.399292 0.251343 0.001190
0.430267 0.256805 0.001129
0.459045 0.260345 0.001068
0.485962 0.262390 0.001038
0.510559 0.262787 0.001038
0.532745 0.261505 0.001038
0.552521 0.259094 0.001068
0.570435 0.256134 0.001129
0.587158 0.253296 0.001160
0.603516 0.250854 0.001190
0.619843 0.248840 0.001190
0.635956 0.247284 0.001221
0.652008 0.246185 0.001251
0.667725 0.245331 0.001251
0.683655 0.245026 0.001282
0.700073 0.245117 0.001282
0.716797 0.245728 0.001312
0.733337 0.246521 0.001312
0.749969 0.247620 0.001312
0.004822 0.160156 0.002228
0.013947 0.164886 0.002228
0.025696 0.172729 0.002228
0.041199 0.182251 0.002228
0.061554 0.191589 0.002228
0.087341 0.198883 0.002197
0.117371 0.202332 0.002167
0.150452 0.205200 0.002136
0.185944 0.213745 0.002075
0.220825 0.221161 0.001984
0.255951 0.224152 0.001831
0.293091 0.233856 0.001678
0.332306 0.248535 0.001465
0.371063 0.263580 0.001282
0.407196 0.275238 0.001190
0.440491 0.283936 0.001068
0.471619 0.290466 0.001007
0.500977 0.295013 0.000977
0.528748 0.298279 0.000946
0.554932 0.300171 0.000946
0.578949 0.300171 0.000946
0.600433 0.298523 0.000946
0.619904 0.295898 0.000977
0.638306 0.293060 0.001007
0.656097 0.290527 0.001038
0.673309 0.288269 0.001068
0.690033 0.286377 0.001068
0.706635 0.285126 0.001160
0.723389 0.284332 0.001526
0.740173 0.283966 0.001160
0.756622 0.283905 0.001190
0.773499 0.284363 0.001221
0.789917 0.284943 0.001221
0.008209 0.172852 0.002228
0.018646 0.178345 0.002228
0.030548 0.186157 0.002228
0.045868 0.196014 0.002228
0.066254 0.206970 0.002228
0.091858 0.216095 0.002228
0.122192 0.219574 0.002197
0.156525 0.222137 0.002167
0.193481 0.230042 0.002106
0.228943 0.240479 0.002045
0.263763 0.244934 0.001923
0.299683 0.250916 0.001770
0.337372 0.263245 0.001587
0.375824 0.279755 0.001404
0.412933 0.295868 0.001251
0.447693 0.308411 0.001129
0.480072 0.318054 0.001007
0.511047 0.325531 0.000946
0.540833 0.331329 0.000916
0.569397 0.335602 0.000885
0.596832 0.338684 0.000854
0.622498 0.339966 0.000854
0.645935 0.339417 0.000854
0.667267 0.337433 0.000854
0.687317 0.335083 0.000885
0.706177 0.332550 0.000916
0.724365 0.330292 0.000946
0.742371 0.328522 0.000977
0.760162 0.327271 0.001190
0.777618 0.326324 0.001007
0.794830 0.325806 0.001038
0.811737 0.325470 0.001068
0.828308 0.325470 0.001068
0.013214 0.186005 0.002228
0.024139 0.192108 0.002228
0.036407 0.199982 0.002228
0.051392 0.210114 0.002228
0.071289 0.222595 0.002228
0.096619 0.233948 0.002228
0.128387 0.237091 0.002197
0.163605 0.239899 0.002197
0.201599 0.247864 0.002136
0.238129 0.259552 0.002106
0.272797 0.268066 0.002045
0.307983 0.271515 0.001953
0.345306 0.280670 0.001831
0.382233 0.294739 0.001678
0.418121 0.312134 0.001495
0.453094 0.329254 0.001343
0.486115 0.342651 0.001190
0.517792 0.353302 0.001129
0.548767 0.361786 0.000916
0.578827 0.368439 0.000854
0.607971 0.373474 0.000824
0.636139 0.377319 0.000793
0.663330 0.379852 0.000854
0.688873 0.380737 0.000946
0.712189 0.379852 0.000763
0.733795 0.377899 0.000793
0.754303 0.375702 0.000824
0.774109 0.373718 0.000824
0.793335 0.372070 0.000854
0.811951 0.370758 0.000885
0.830048 0.369720 0.000916
0.847351 0.368713 0.000946
0.864319 0.368042 0.000946
0.018097 0.199249 0.002228
0.029572 0.205719 0.002228
0.041412 0.213654 0.002228
0.056427 0.224396 0.002228
0.076019 0.238068 0.002228
0.101929 0.250092 0.002228
0.135010 0.254547 0.002228
0.171570 0.257690 0.002197
0.210297 0.265686 0.002167
0.248596 0.278168 0.002167
0.283752 0.290222 0.002106
0.317169 0.293854 0.002045
0.354095 0.298981 0.002014
0.390961 0.311737 0.001923
0.424896 0.327026 0.001801
0.457977 0.345520 0.001648
0.490540 0.363037 0.001373
0.522339 0.377289 0.001221
0.553925 0.388916 0.001068
0.584839 0.398224 0.000977
0.615204 0.405670 0.000854
0.644806 0.411407 0.000763
0.674072 0.416016 0.000793
0.702698 0.419739 0.000671
0.729980 0.421906 0.000641
0.755096 0.422089 0.000641
0.778564 0.421082 0.000641
0.800659 0.419464 0.000671
0.821747 0.417725 0.000732
0.842072 0.416260 0.000763
0.861328 0.414642 0.000793
0.879730 0.413116 0.000793
0.897552 0.411804 0.000824
0.023651 0.212646 0.002228
0.035004 0.220001 0.002228
0.046356 0.228058 0.002228
0.061096 0.239502 0.002228
0.081085 0.254303 0.002228
0.108582 0.266754 0.002228
0.143768 0.272522 0.002228
0.180817 0.275757 0.002197
0.219910 0.284332 0.002228
0.259644 0.297028 0.002228
0.296478 0.310822 0.002197
0.329163 0.317474 0.002197
0.364716 0.320221 0.002197
0.400635 0.329346 0.002167
0.433228 0.343597 0.002106
0.464081 0.360321 0.001984
0.494659 0.379395 0.001953
0.525818 0.397339 0.001678
0.557190 0.412292 0.001343
0.588318 0.424652 0.001190
0.619293 0.434692 0.000946
0.650085 0.442932 0.000824
0.680786 0.449554 0.000732
0.711029 0.455048 0.000671
0.740631 0.459290 0.000580
0.769318 0.462433 0.000580
0.796387 0.463898 0.000549
0.821655 0.463837 0.000580
0.845428 0.462860 0.000580
0.868011 0.461548 0.000610
0.889130 0.459778 0.000641
0.907806 0.458038 0.000641
0.919525 0.456207 0.000671
0.029144 0.227264 0.002228
0.040344 0.235016 0.002228
0.051300 0.242981 0.002228
0.065338 0.255127 0.002228
0.086456 0.270844 0.002228
0.115814 0.283142 0.002228
0.153076 0.290070 0.002228
0.190674 0.293671 0.002228
0.229614 0.302948 0.002289
0.270660 0.316162 0.002289
0.309235 0.331146 0.002319
0.342468 0.341339 0.002472
0.375763 0.344025 0.002502
0.410980 0.349152 0.002563
0.442688 0.361237 0.002533
0.471832 0.376648 0.002533
0.500122 0.394104 0.002594
0.529175 0.413422 0.002350
0.559509 0.431763 0.001953
0.590332 0.447235 0.001556
0.621429 0.460236 0.001404
0.652832 0.471130 0.000977
0.684479 0.480316 0.000854
0.715942 0.487640 0.000671
0.747040 0.493683 0.000641
0.777496 0.498444 0.000549
0.807556 0.502380 0.000519
0.836487 0.504974 0.000488
0.863739 0.505951 0.000488
0.889130 0.505615 0.000519
0.909943 0.504425 0.000519
0.923462 0.502686 0.000549
0.936096 0.500671 0.000580
0.034027 0.242249 0.002228
0.044281 0.249939 0.002228
0.055176 0.257874 0.002228
0.069702 0.271057 0.002228
0.091827 0.286896 0.002228
0.123688 0.299408 0.002228
0.163391 0.307251 0.002228
0.201385 0.311462 0.002258
0.239838 0.321350 0.002319
0.282013 0.335388 0.002350
0.320648 0.349457 0.002441
0.356567 0.364929 0.002594
0.386871 0.369812 0.002716
0.420319 0.371674 0.002869
0.452393 0.380157 0.002991
0.480469 0.394073 0.003296
0.507324 0.410217 0.003387
0.534119 0.427917 0.003143
0.562286 0.447327 0.002777
0.592010 0.466003 0.002319
0.622711 0.481995 0.001740
0.654144 0.495850 0.001373
0.686127 0.507599 0.001038
0.718445 0.517456 0.000793
0.750671 0.525421 0.000641
0.782501 0.531952 0.000580
0.814240 0.537445 0.000488
0.845490 0.541870 0.000458
0.875793 0.545197 0.000427
0.904724 0.547150 0.000519
0.921234 0.547333 0.000519
0.936127 0.546295 0.000427
0.950073 0.544495 0.000549
0.038025 0.257416 0.002228
0.048218 0.265015 0.002228
0.058838 0.273468 0.002228
0.074097 0.287292 0.002228
0.097870 0.303162 0.002228
0.132355 0.315887 0.002228
0.173645 0.323792 0.002258
0.211975 0.328369 0.002258
0.250092 0.339172 0.002350
0.293152 0.353973 0.002441
0.332306 0.367676 0.002563
0.367889 0.384247 0.002869
0.399963 0.394562 0.003021
0.429016 0.396484 0.003143
0.460999 0.401306 0.003448
0.489197 0.412720 0.003876
0.515259 0.427429 0.004089
0.540833 0.443909 0.004120
0.566833 0.461914 0.003937
0.594635 0.481476 0.003479
0.623810 0.500031 0.002594
0.654602 0.516663 0.002075
0.686432 0.531372 0.001404
0.718964 0.543854 0.001038
0.751984 0.554382 0.000793
0.785004 0.563049 0.000641
0.818085 0.570282 0.000519
0.850769 0.576202 0.000519
0.882843 0.580933 0.000427
0.910675 0.584625 0.000397
0.928894 0.587128 0.000488
0.945831 0.587677 0.000458
0.961517 0.586639 0.000366
0.041199 0.272827 0.002228
0.051025 0.280090 0.002228
0.062256 0.289215 0.002228
0.078705 0.303802 0.002228
0.105164 0.319672 0.002228
0.142609 0.332855 0.002228
0.184540 0.340515 0.002258
0.222839 0.345764 0.002319
0.261414 0.357147 0.002441
0.304352 0.372437 0.002533
0.343872 0.385986 0.002716
0.379181 0.402557 0.003021
0.412689 0.418243 0.003296
0.440399 0.423279 0.003510
0.468353 0.425537 0.003967
0.497040 0.433472 0.004425
0.523285 0.446259 0.004700
0.547943 0.461304 0.004822
0.572662 0.477783 0.004822
0.598419 0.495819 0.004547
0.625732 0.515259 0.003784
0.655090 0.534210 0.003021
0.686005 0.551331 0.002258
0.718231 0.566650 0.001556
0.751495 0.579956 0.001068
0.785217 0.591187 0.000824
0.819366 0.600647 0.000580
0.853149 0.608368 0.000519
0.886566 0.614532 0.000458
0.913757 0.619507 0.000427
0.933167 0.623291 0.000366
0.952087 0.625732 0.000336
0.970062 0.626709 0.000336
0.043976 0.288605 0.002228
0.053619 0.295624 0.002228
0.065094 0.305237 0.002228
0.083801 0.320618 0.002228
0.112854 0.336609 0.002228
0.153015 0.349976 0.002228
0.195953 0.357300 0.002258
0.233826 0.363281 0.002319
0.272949 0.375305 0.002472
0.316101 0.391052 0.002594
0.355469 0.404633 0.002838
0.389893 0.420410 0.003174
0.423981 0.439209 0.003510
0.452209 0.450073 0.003906
0.476349 0.451935 0.004700
0.504578 0.456573 0.004974
0.531311 0.466522 0.005280
0.555511 0.479858 0.005493
0.579163 0.494873 0.005554
0.603394 0.511230 0.005676
0.628784 0.529266 0.005035
0.656097 0.548706 0.004364
0.685608 0.568024 0.003387
0.716858 0.585785 0.002380
0.749756 0.601837 0.001709
0.783569 0.615784 0.001129
0.818268 0.627869 0.000854
0.852966 0.637939 0.000610
0.887268 0.645966 0.000519
0.914978 0.652496 0.000488
0.935394 0.657501 0.000366
0.955566 0.661163 0.000305
0.975311 0.663788 0.000275
0.046326 0.304169 0.002228
0.056091 0.311249 0.002228
0.068024 0.321381 0.002228
0.089233 0.337341 0.002228
0.120453 0.353302 0.002228
0.162628 0.366821 0.002228
0.206207 0.373871 0.002258
0.244354 0.380554 0.002350
0.283783 0.392944 0.002472
0.327118 0.409454 0.002625
0.367035 0.423553 0.002930
0.400208 0.438324 0.003296
0.432831 0.457306 0.003632
0.462921 0.473877 0.004150
0.486450 0.480133 0.005096
0.511749 0.482513 0.005463
0.539124 0.488800 0.005829
0.563080 0.499725 0.006073
0.586029 0.512939 0.006195
0.609314 0.527985 0.006256
0.633240 0.544342 0.006195
0.658356 0.562195 0.005676
0.685608 0.581696 0.004730
0.715393 0.601471 0.003601
0.747375 0.619934 0.002594
0.780701 0.636627 0.001862
0.815277 0.651367 0.001343
0.850586 0.664246 0.000916
0.885498 0.674713 0.000641
0.914581 0.683197 0.000488
0.935944 0.689728 0.000397
0.957214 0.694885 0.000336
0.978271 0.698944 0.000275
0.048401 0.319641 0.002228
0.057922 0.326721 0.002228
0.071411 0.337769 0.002228
0.093933 0.353821 0.002228
0.127075 0.369354 0.002228
0.170837 0.383270 0.002228
0.214142 0.390015 0.002258
0.252838 0.397003 0.002930
0.293213 0.409515 0.002472
0.336700 0.426788 0.002655
0.377350 0.442474 0.002960
0.410522 0.456909 0.003448
0.440308 0.474335 0.003845
0.472046 0.495270 0.006042
0.497284 0.507141 0.004974
0.520111 0.510834 0.005585
0.545502 0.514160 0.006165
0.570923 0.521362 0.006622
0.593201 0.532013 0.006927
0.615753 0.545685 0.007141
0.638672 0.560822 0.007172
0.662170 0.576965 0.006927
0.687012 0.594543 0.006378
0.714508 0.614044 0.005219
0.744934 0.634552 0.004059
0.777222 0.653656 0.002930
0.811096 0.671021 0.002136
0.846252 0.686676 0.001526
0.881622 0.700043 0.000977
0.912689 0.710938 0.000671
0.934814 0.719543 0.000549
0.957153 0.726654 0.000397
0.979370 0.732391 0.000336
0.049225 0.334930 0.002228
0.059448 0.342224 0.002228
0.074890 0.354462 0.002228
0.099457 0.370667 0.002228
0.134399 0.385559 0.002228
0.178345 0.399109 0.002228
0.221893 0.405212 0.008087
0.261047 0.412720 0.016083
0.301697 0.425934 0.005127
0.345398 0.444366 0.006409
0.386139 0.461182 0.008820
0.420502 0.476166 0.010620
0.448944 0.491882 0.015045
0.478546 0.512146 0.017151
0.506622 0.530365 0.015961
0.528931 0.538269 0.008484
0.551422 0.540588 0.006409
0.576996 0.545227 0.007019
0.600281 0.553009 0.007538
0.622192 0.563843 0.007843
0.644073 0.577484 0.008026
0.666687 0.592468 0.007965
0.690094 0.608521 0.007690
0.715118 0.626099 0.007019
0.742950 0.645844 0.005768
0.773682 0.666962 0.004578
0.806244 0.686737 0.003387
0.840454 0.705078 0.002533
0.875732 0.721405 0.001740
0.909302 0.735077 0.001221
0.932068 0.746429 0.000885
0.955231 0.755737 0.000610
0.978455 0.763489 0.000458
0.050323 0.349731 0.002228
0.060944 0.357178 0.002228
0.077850 0.370300 0.002228
0.103943 0.386536 0.002228
0.140320 0.401031 0.002228
0.185516 0.414124 0.004761
0.229370 0.420197 0.019745
0.269348 0.428284 0.033508
0.310272 0.442657 0.018982
0.353241 0.461639 0.013092
0.394440 0.479645 0.018738
0.430084 0.495361 0.023987
0.458679 0.510345 0.032318
0.484802 0.528137 0.034943
0.514069 0.549286 0.031708
0.538025 0.562775 0.015900
0.558960 0.568756 0.007050
0.581665 0.571655 0.007294
0.606598 0.576355 0.007874
0.628784 0.584229 0.008423
0.649872 0.595184 0.008759
0.671478 0.608368 0.008881
0.693970 0.623077 0.008850
0.717316 0.639038 0.008545
0.742523 0.656738 0.007874
0.770660 0.677094 0.006500
0.801392 0.698700 0.005310
0.833923 0.719360 0.003998
0.868317 0.738342 0.002991
0.904144 0.755066 0.002228
0.927734 0.769226 0.001465
0.951538 0.781586 0.001068
0.975677 0.791748 0.000763
0.050903 0.363831 0.002228
0.062988 0.372070 0.002228
0.081757 0.386414 0.002228
0.108887 0.402679 0.002228
0.146576 0.417145 0.002228
0.192902 0.429291 0.010925
0.237061 0.435364 0.036774
0.277679 0.444244 0.045807
0.318695 0.459412 0.042145
0.360901 0.478638 0.025024
0.402283 0.497650 0.031891
0.438843 0.514282 0.042480
0.468414 0.529327 0.044952
0.492401 0.544861 0.043823
0.519806 0.565491 0.040070
0.545685 0.583710 0.021698
0.567230 0.594757 0.008575
0.587524 0.599274 0.007477
0.611633 0.602417 0.008148
0.635101 0.607391 0.008789
0.656464 0.615143 0.009277
