lut/retro-80s/The Shining (1980) - Standard.cube
# Created by Benjamin (IWLTBAP): https://luts.iwltbap.com
# Copyright: (C) Copyright 2018 Triune Films and IWLTBAP SAS
# Cannot be resold, shared or otherwise redistributed
TITLE "Triune Films 80s Retro LUTs (Rec.709, sRGB, DCI-P3)"
LUT_3D_SIZE 5
0.002136 0.001465 0.000214
0.178284 0.005920 0.002472
0.455231 0.014282 0.007690
0.683868 0.025818 0.020325
0.913879 0.049713 0.047363
0.030304 0.149292 0.030396
0.234283 0.186005 0.023163
0.506165 0.209381 0.019226
0.739288 0.228912 0.038666
0.966736 0.265076 0.074188
0.114716 0.407684 0.092224
0.310608 0.449341 0.099365
0.567200 0.483368 0.067810
0.788116 0.505005 0.067139
1.000000 0.516327 0.091339
0.236755 0.646545 0.180695
0.408875 0.686523 0.209991
0.596405 0.727814 0.185089
0.824524 0.751831 0.149780
1.000000 0.766235 0.132294
0.338867 0.863342 0.277222
0.489410 0.901489 0.318451
0.642944 0.936646 0.321899
0.829102 0.973419 0.278442
1.000000 0.989471 0.221313
0.002014 0.004456 0.165253
0.168121 0.007172 0.153656
0.453735 0.017090 0.151764
0.680420 0.031830 0.175385
0.910400 0.056458 0.217560
0.019226 0.171326 0.199951
0.200256 0.185120 0.197144
0.502655 0.212372 0.191345
0.733002 0.241821 0.217377
0.958038 0.280304 0.264069
0.082672 0.440918 0.258972
0.289825 0.467682 0.284973
0.559845 0.505493 0.275177
0.787994 0.517456 0.273163
1.000000 0.528442 0.289703
0.207764 0.672607 0.348541
0.402405 0.699585 0.387177
0.599396 0.733337 0.380463
0.825378 0.767548 0.344208
1.000000 0.781708 0.329010
0.337708 0.878540 0.425812
0.497955 0.911255 0.468048
0.655518 0.941040 0.482361
0.833893 0.980042 0.450897
1.000000 1.000000 0.443329
0.002686 0.012970 0.446075
0.153320 0.013245 0.435577
0.470184 0.015808 0.406219
0.710785 0.031342 0.423737
0.930939 0.063324 0.460968
0.014191 0.195740 0.461670
0.182098 0.215912 0.476593
0.494537 0.219330 0.447052
0.733704 0.255463 0.462891
0.948120 0.300049 0.502716
0.067047 0.466125 0.482086
0.276489 0.495117 0.514526
0.530182 0.509888 0.524261
0.763977 0.526184 0.518555
0.979187 0.542023 0.531860
0.150635 0.701965 0.546417
0.349762 0.726624 0.575592
0.577850 0.738586 0.587921
0.808777 0.774445 0.576782
1.000000 0.788757 0.563782
0.279907 0.904907 0.588867
0.463074 0.928223 0.623535
0.651367 0.943512 0.649048
0.833282 0.975922 0.648163
1.000000 1.000000 0.660858
0.002136 0.021637 0.698761
0.137939 0.025177 0.706512
0.443695 0.024536 0.674805
0.714600 0.044952 0.685516
0.950226 0.080078 0.722168
0.012695 0.224213 0.712769
0.177429 0.250458 0.736481
0.462585 0.245972 0.718445
0.736603 0.280579 0.721619
0.966248 0.317688 0.753418
0.071075 0.486725 0.707489
0.290924 0.517273 0.746979
0.519897 0.528778 0.770172
0.756714 0.535126 0.765625
0.970886 0.549072 0.768341
0.154144 0.722443 0.749695
0.369598 0.742401 0.773132
0.564545 0.755249 0.791931
0.780823 0.764832 0.799744
0.989197 0.774597 0.793671
0.243683 0.928650 0.782104
0.430298 0.950775 0.806946
0.616180 0.961395 0.822021
0.819000 0.974670 0.838104
1.000000 1.000000 0.863800
0.001587 0.028870 0.936127
0.126221 0.039429 0.950195
0.404785 0.035339 0.937805
0.702515 0.058411 0.934906
0.948395 0.099762 0.964478
0.014038 0.249817 0.955292
0.178162 0.285614 0.969086
0.437744 0.276428 0.968628
0.716370 0.301331 0.955658
0.952148 0.339935 0.970673
0.078979 0.511963 0.943451
0.298126 0.540070 0.969910
0.516907 0.542480 0.988831
0.734863 0.546478 0.988586
0.960175 0.562622 0.983185
0.174469 0.730743 0.941284
0.382416 0.750702 0.962372
0.570801 0.760590 0.981567
0.772430 0.773682 0.996124
0.973511 0.788300 0.995239
0.248871 0.935822 0.963257
0.455292 0.947052 0.973999
0.636536 0.957001 0.984161
0.834961 0.974396 0.996796
1.000000 1.000000 1.000000
