lut/retro-80s/The Breakfast Club (1985) - Standard.cube
# Created by Benjamin (IWLTBAP): https://luts.iwltbap.com
# Copyright: (C) Copyright 2018 Triune Films and IWLTBAP SAS
# Cannot be resold, shared or otherwise redistributed
TITLE "Triune Films 80s Retro LUTs (Rec.709, sRGB, DCI-P3)"
LUT_3D_SIZE 33
0.000000 0.000000 0.000000
0.017120 0.001190 0.000793
0.037933 0.002502 0.001740
0.058441 0.004578 0.003052
0.081604 0.008453 0.005859
0.112518 0.015320 0.009766
0.148529 0.026062 0.015411
0.186340 0.038300 0.022369
0.221771 0.048798 0.028992
0.254150 0.058136 0.034149
0.285950 0.067047 0.040009
0.317261 0.074799 0.046509
0.348358 0.082031 0.051300
0.377167 0.089203 0.054840
0.405487 0.096619 0.058197
0.433746 0.103943 0.061890
0.459747 0.110870 0.065460
0.482880 0.118042 0.068604
0.504150 0.125610 0.071014
0.525970 0.133514 0.073853
0.545807 0.140808 0.076447
0.564819 0.148376 0.079559
0.583984 0.156128 0.083679
0.603333 0.164429 0.088684
0.622101 0.172699 0.093628
0.641022 0.181061 0.099274
0.660217 0.189728 0.104492
0.680908 0.199768 0.110046
0.702026 0.209991 0.115753
0.722198 0.219879 0.122375
0.742767 0.230591 0.129669
0.762756 0.240845 0.136200
0.782227 0.250824 0.142548
0.005127 0.021332 0.012756
0.021790 0.023315 0.014221
0.042542 0.024475 0.014923
0.068665 0.030731 0.013092
0.097656 0.036774 0.015137
0.132324 0.043182 0.018555
0.168335 0.052063 0.023407
0.204285 0.060669 0.028290
0.237518 0.068176 0.033325
0.269348 0.075867 0.038452
0.300110 0.083649 0.044037
0.330292 0.090546 0.049316
0.359741 0.097229 0.053619
0.388123 0.103943 0.056854
0.415039 0.110504 0.059509
0.441345 0.117157 0.062683
0.467316 0.123962 0.065857
0.490112 0.131134 0.068817
0.510468 0.138062 0.071594
0.530121 0.145386 0.074432
0.549774 0.152588 0.077545
0.569000 0.160339 0.081573
0.587708 0.167999 0.086090
0.606293 0.176178 0.091431
0.625549 0.184570 0.097046
0.644653 0.193604 0.103210
0.663666 0.201843 0.108337
0.684448 0.211700 0.114136
0.705780 0.222290 0.120117
0.725769 0.232330 0.126831
0.746124 0.242981 0.133362
0.766174 0.253296 0.139771
0.786041 0.263947 0.146393
0.015533 0.048218 0.027924
0.030212 0.048737 0.029022
0.045959 0.048523 0.028839
0.068115 0.052277 0.026154
0.098267 0.058563 0.024323
0.138367 0.065277 0.027802
0.180450 0.072327 0.030579
0.216522 0.079224 0.033691
0.248596 0.085419 0.037598
0.279968 0.092224 0.042450
0.311371 0.099243 0.047913
0.340729 0.105316 0.051849
0.369385 0.111389 0.055359
0.397064 0.117645 0.058075
0.424194 0.123779 0.060852
0.449249 0.129791 0.063660
0.473694 0.135895 0.066406
0.495544 0.142914 0.069366
0.515686 0.149750 0.072449
0.534485 0.156586 0.075928
0.553528 0.163635 0.079803
0.572693 0.171326 0.084473
0.591583 0.179047 0.089386
0.610107 0.187103 0.094513
0.629089 0.195343 0.099884
0.648041 0.204010 0.105469
0.667236 0.212860 0.110809
0.688385 0.223206 0.116760
0.709320 0.233429 0.122314
0.729370 0.243835 0.128723
0.749451 0.254364 0.135406
0.769684 0.264832 0.141815
0.790161 0.276001 0.148651
0.026978 0.074066 0.043732
0.040741 0.074738 0.044250
0.053162 0.074005 0.044281
0.067688 0.072876 0.041473
0.092041 0.076813 0.038696
0.131165 0.084564 0.036987
0.178955 0.090790 0.038727
0.219513 0.097107 0.039673
0.254028 0.102814 0.042419
0.286926 0.108154 0.045929
0.318420 0.114349 0.050354
0.348236 0.119293 0.053802
0.376801 0.124817 0.056946
0.404572 0.130463 0.059662
0.431305 0.136230 0.062408
0.456543 0.141785 0.064880
0.479767 0.147675 0.067627
0.500397 0.154480 0.070831
0.520416 0.161438 0.074371
0.539124 0.168213 0.078400
0.557831 0.174988 0.082703
0.576752 0.182495 0.087433
0.595612 0.189941 0.091888
0.613617 0.197876 0.096558
0.632019 0.205780 0.101624
0.651550 0.214539 0.107025
0.671478 0.223938 0.112213
0.691467 0.233673 0.117767
0.712677 0.243744 0.122986
0.732880 0.254425 0.129944
0.752991 0.265137 0.136536
0.773499 0.276215 0.142944
0.794006 0.287384 0.150177
0.041016 0.100281 0.056488
0.052795 0.100739 0.056824
0.062927 0.100250 0.057373
0.073242 0.098083 0.055817
0.088654 0.096680 0.052612
0.119568 0.101440 0.048645
0.167969 0.108276 0.047516
0.215057 0.113892 0.047516
0.253815 0.119446 0.047668
0.290070 0.124115 0.049774
0.323334 0.129028 0.052643
0.354004 0.133240 0.055878
0.383209 0.138184 0.058868
0.410675 0.143341 0.061981
0.437317 0.148590 0.064301
0.462646 0.154053 0.066681
0.485809 0.159790 0.069336
0.506104 0.166504 0.072845
0.525787 0.173309 0.077087
0.544312 0.180054 0.081116
0.562866 0.186646 0.085236
0.581604 0.193970 0.089691
0.600006 0.201202 0.093781
0.618073 0.209290 0.098114
0.636627 0.217682 0.102966
0.656067 0.226501 0.108276
0.675964 0.235657 0.113678
0.695923 0.245239 0.119141
0.716339 0.255157 0.124359
0.737274 0.266327 0.131439
0.757477 0.277100 0.138245
0.778168 0.288177 0.144806
0.798157 0.299225 0.151733
0.056458 0.128448 0.068329
0.066681 0.128967 0.067596
0.075592 0.128143 0.067566
0.083435 0.125641 0.066864
0.092804 0.121765 0.065369
0.114227 0.119598 0.061951
0.158264 0.124878 0.059814
0.206268 0.130554 0.057068
0.250336 0.135712 0.056183
0.288544 0.140747 0.055786
0.325500 0.144714 0.056824
0.359222 0.148529 0.058838
0.389221 0.152954 0.061768
0.417297 0.157379 0.064728
0.443237 0.162048 0.067200
0.468811 0.166992 0.069733
0.491821 0.172852 0.072601
0.511932 0.179291 0.076141
0.531372 0.185883 0.079468
0.550385 0.193176 0.083527
0.568787 0.199707 0.087677
0.586731 0.206573 0.092133
0.605072 0.213776 0.096344
0.623749 0.221558 0.100586
0.642212 0.229797 0.105316
0.660675 0.238861 0.110687
0.680511 0.248291 0.116058
0.700439 0.257751 0.121490
0.720917 0.267609 0.126831
0.742096 0.278992 0.133698
0.762848 0.290039 0.140289
0.782776 0.300415 0.146515
0.802368 0.311432 0.153229
0.070923 0.154602 0.078247
0.080994 0.155060 0.077484
0.090424 0.155060 0.076538
0.098969 0.153992 0.075623
0.106049 0.150909 0.075317
0.118164 0.144257 0.074188
0.151703 0.142212 0.072754
0.197632 0.146912 0.069855
0.242584 0.153198 0.065948
0.285187 0.158295 0.064240
0.324707 0.162445 0.063354
0.361969 0.165710 0.064209
0.394562 0.169373 0.065857
0.423157 0.173096 0.068420
0.450073 0.176941 0.071289
0.475128 0.181274 0.074188
0.497650 0.186676 0.076721
0.517395 0.192932 0.079926
0.536926 0.199188 0.082764
0.555969 0.206421 0.086334
0.574982 0.213654 0.090881
0.592773 0.220337 0.095367
0.610596 0.227264 0.099731
0.629242 0.235260 0.104004
0.648102 0.243713 0.109039
0.666779 0.253021 0.114380
0.686005 0.262085 0.119446
0.705750 0.271362 0.124817
0.726013 0.281128 0.130310
0.746643 0.292267 0.136688
0.767731 0.303497 0.143036
0.787872 0.313965 0.149170
0.806366 0.324188 0.155212
0.087341 0.183350 0.089264
0.097321 0.183624 0.088013
0.106995 0.183563 0.087006
0.116272 0.183350 0.084930
0.123322 0.182434 0.082092
0.130981 0.177826 0.081024
0.155701 0.168549 0.083618
0.196503 0.164764 0.083160
0.240326 0.171478 0.079895
0.285278 0.176880 0.074738
0.327942 0.181366 0.072784
0.364929 0.185852 0.072327
0.399109 0.187897 0.072845
0.427521 0.191650 0.074615
0.455414 0.194794 0.076965
0.481262 0.197906 0.079498
0.502869 0.202911 0.081787
0.523651 0.208801 0.084686
0.543030 0.214783 0.087463
0.561462 0.221100 0.090759
0.580109 0.228088 0.094574
0.598083 0.235077 0.099060
0.616028 0.242035 0.103302
0.634491 0.249878 0.107788
0.653259 0.258545 0.113098
0.672180 0.267548 0.118134
0.691559 0.276642 0.123383
0.711823 0.286316 0.128906
0.731873 0.296265 0.134338
0.751312 0.306183 0.139984
0.772156 0.317291 0.146118
0.792084 0.327301 0.151550
0.810486 0.337585 0.157227
0.105103 0.212891 0.099335
0.114502 0.212677 0.097534
0.124176 0.212555 0.096130
0.134766 0.212799 0.094421
0.143280 0.213165 0.092041
0.149200 0.210297 0.089600
0.167938 0.200348 0.090668
0.200653 0.189087 0.095367
0.241058 0.189911 0.095367
0.286346 0.196564 0.089386
0.330811 0.201202 0.084290
0.369324 0.205597 0.082642
0.403839 0.209564 0.082062
0.433533 0.212036 0.082733
0.460602 0.214813 0.083954
0.487091 0.216400 0.085663
0.508911 0.220306 0.087494
0.529358 0.225891 0.090179
0.549072 0.231506 0.092773
0.567291 0.237427 0.095886
0.585510 0.243622 0.099243
0.603333 0.250610 0.103333
0.621368 0.257690 0.107574
0.639587 0.265137 0.112152
0.658234 0.273407 0.117126
0.677307 0.282471 0.122314
0.697021 0.291748 0.127686
0.717346 0.301727 0.132996
0.737640 0.311890 0.138306
0.757294 0.321960 0.143951
0.777344 0.332092 0.149475
0.796844 0.342041 0.154846
0.814575 0.351440 0.160004
0.125549 0.245056 0.109711
0.134583 0.244873 0.108856
0.144196 0.244873 0.107941
0.153839 0.245270 0.108215
0.162720 0.245880 0.108002
0.164795 0.244171 0.105316
0.185974 0.238678 0.102448
0.216187 0.223114 0.106201
0.246887 0.213501 0.112122
0.290863 0.216644 0.106506
0.336060 0.222992 0.100281
0.378265 0.226135 0.094543
0.414185 0.230469 0.092957
0.444061 0.233521 0.091980
0.471344 0.235291 0.092377
0.494873 0.237823 0.093384
0.516479 0.240692 0.094391
0.535400 0.245056 0.096222
0.554291 0.249969 0.098389
0.572937 0.255157 0.101196
0.590973 0.261047 0.104462
0.609283 0.267456 0.108490
0.627167 0.274384 0.112427
0.644989 0.282166 0.116882
0.663635 0.290222 0.121674
0.682800 0.298798 0.126678
0.702393 0.308258 0.132050
0.722198 0.317688 0.137085
0.742462 0.327881 0.142151
0.762054 0.337250 0.147247
0.782227 0.347290 0.152771
0.801514 0.356873 0.157684
0.818573 0.366028 0.162598
0.147827 0.278168 0.117920
0.156708 0.278015 0.117523
0.165863 0.278168 0.117950
0.175415 0.277985 0.118805
0.184021 0.278351 0.120361
0.187225 0.278076 0.122681
0.196838 0.275574 0.122131
0.235229 0.264069 0.119293
0.264099 0.243896 0.125031
0.297058 0.237915 0.124420
0.342957 0.243042 0.117279
0.386658 0.249207 0.110077
0.426056 0.253082 0.104523
0.456573 0.256042 0.102417
0.483521 0.258514 0.101624
0.506226 0.261230 0.101990
0.525604 0.265442 0.102631
0.544006 0.268402 0.103607
0.561707 0.271881 0.105133
0.579315 0.275940 0.107330
0.597046 0.280396 0.110107
0.614838 0.286072 0.113770
0.632965 0.292480 0.117676
0.650543 0.300293 0.122009
0.668945 0.308350 0.126678
0.687958 0.316742 0.131592
0.707336 0.325653 0.136322
0.727234 0.334869 0.141296
0.747528 0.344574 0.146240
0.766785 0.353668 0.151001
0.787048 0.363098 0.156097
0.806122 0.372681 0.160950
0.822388 0.381409 0.165619
0.171448 0.312805 0.132385
0.179962 0.312256 0.131775
0.188751 0.312134 0.131378
0.199219 0.312347 0.133179
0.207825 0.312561 0.135193
0.209045 0.312744 0.138000
0.210938 0.311829 0.139221
0.239441 0.305084 0.134216
0.292511 0.288757 0.135864
0.313782 0.267822 0.140289
0.349060 0.264648 0.135956
0.395813 0.271027 0.128021
0.436523 0.277374 0.121216
0.470734 0.279602 0.115784
0.498535 0.282745 0.113678
0.519073 0.288025 0.112366
0.538116 0.292084 0.112274
0.554626 0.295593 0.112671
0.572083 0.297913 0.113953
0.587585 0.302063 0.115570
0.604248 0.305481 0.117615
0.621399 0.309662 0.120331
0.638916 0.314697 0.123444
0.656036 0.320496 0.127045
0.674225 0.328156 0.131592
0.693329 0.335785 0.136047
0.712463 0.344238 0.140656
0.732239 0.352692 0.145294
0.752502 0.362244 0.150085
0.771637 0.370941 0.154602
0.791443 0.380402 0.159485
0.810516 0.389587 0.164093
0.826080 0.398193 0.168701
0.194885 0.346039 0.141602
0.203735 0.345642 0.141571
0.212921 0.345795 0.142426
0.223297 0.345917 0.146118
0.231812 0.346466 0.149750
0.233704 0.346954 0.153656
0.230164 0.346924 0.155853
0.247070 0.342438 0.150208
0.307526 0.331116 0.140839
0.342438 0.309082 0.152100
0.363861 0.292664 0.153137
0.401550 0.292053 0.147125
0.446075 0.298981 0.139221
0.482422 0.303986 0.132935
0.512085 0.306824 0.126648
0.532257 0.313324 0.124573
0.550629 0.319397 0.123047
0.567474 0.323578 0.122894
0.583252 0.327393 0.123688
0.598419 0.331024 0.124756
0.613281 0.334991 0.126068
0.629547 0.338409 0.128265
0.646545 0.341522 0.130646
0.662964 0.345764 0.133392
0.680634 0.351227 0.137115
0.699188 0.357758 0.141052
0.718658 0.364868 0.145355
0.738190 0.373260 0.149902
0.757690 0.381439 0.154114
0.776855 0.390045 0.158569
0.796265 0.399353 0.163177
0.814575 0.408295 0.167389
0.829529 0.415802 0.171448
0.219482 0.379974 0.152893
0.228851 0.380859 0.154053
0.238739 0.380981 0.155243
0.247986 0.381104 0.158478
0.256104 0.381622 0.163727
0.258514 0.382141 0.169464
0.254913 0.382812 0.174286
0.255127 0.381378 0.173981
0.311920 0.371277 0.156708
0.369385 0.356537 0.162354
0.392853 0.334198 0.170715
0.414093 0.319458 0.166718
0.452545 0.321075 0.160126
0.492584 0.327301 0.151947
0.523254 0.334198 0.144714
0.546143 0.339691 0.138794
0.564728 0.346649 0.136444
0.579712 0.351654 0.135254
0.595337 0.356262 0.135010
0.609772 0.360718 0.135223
0.624512 0.364532 0.136017
0.638824 0.368256 0.137024
0.655121 0.371094 0.139435
0.670654 0.374817 0.140930
0.687378 0.378662 0.143707
0.705353 0.383087 0.146912
0.724121 0.389313 0.150574
0.743073 0.396118 0.154388
0.762268 0.403442 0.158295
0.781830 0.410278 0.162140
0.801392 0.419556 0.166656
0.818970 0.427368 0.170288
0.832825 0.434662 0.174072
0.244415 0.413574 0.161255
0.253632 0.413422 0.163239
0.264130 0.414276 0.167572
0.272430 0.414490 0.172394
0.279236 0.414917 0.177490
0.281708 0.415283 0.183716
0.277069 0.416351 0.189728
0.268219 0.416901 0.192993
0.308807 0.408508 0.182526
0.384308 0.396423 0.173737
0.426117 0.380493 0.182770
0.440125 0.357452 0.186310
0.462219 0.345703 0.179596
0.499725 0.348755 0.172607
0.532959 0.357758 0.163605
0.556976 0.366486 0.157410
0.577393 0.372192 0.151245
0.592712 0.378845 0.149384
0.606598 0.384003 0.147522
0.621033 0.389130 0.146759
0.635254 0.394012 0.146637
0.649750 0.398132 0.147064
0.664398 0.402161 0.148468
0.679474 0.405426 0.149719
0.695190 0.409546 0.151367
0.712433 0.413025 0.153961
0.730408 0.416840 0.156555
0.748566 0.422180 0.159485
0.767395 0.427582 0.162628
0.786804 0.433380 0.166199
0.806458 0.440552 0.170044
0.823547 0.447754 0.173492
0.836426 0.453583 0.176605
0.267212 0.446350 0.175690
0.276855 0.446198 0.177002
0.286865 0.446655 0.180359
0.294922 0.447021 0.183319
0.300415 0.447357 0.187347
0.301849 0.447845 0.193848
0.297913 0.449371 0.202362
0.288757 0.450043 0.207886
0.309692 0.445099 0.203156
0.383179 0.432709 0.183563
0.450134 0.420624 0.185120
0.475464 0.403717 0.203278
0.483490 0.380493 0.200531
0.507751 0.372131 0.192535
0.536835 0.378448 0.185089
0.563568 0.387817 0.177399
0.585938 0.397156 0.171204
0.604279 0.403625 0.165436
0.618683 0.410614 0.162537
0.631561 0.416504 0.160492
0.646149 0.422546 0.159332
0.659790 0.427521 0.158539
0.674255 0.431946 0.158783
0.688965 0.435913 0.159454
0.704498 0.439545 0.160767
0.719666 0.442383 0.161469
0.737030 0.445648 0.163605
0.754608 0.449463 0.165466
0.772949 0.453827 0.168152
0.792114 0.457886 0.170532
0.811096 0.463959 0.173859
0.827423 0.469421 0.177063
0.839783 0.474762 0.180054
0.287109 0.478424 0.183899
0.296600 0.478546 0.185608
0.305603 0.479095 0.188995
0.312592 0.479614 0.192993
0.316986 0.480194 0.197906
0.318024 0.480560 0.205109
0.314392 0.482025 0.213867
0.301422 0.483337 0.220764
0.310364 0.481232 0.220459
0.373749 0.470642 0.204468
0.451477 0.457764 0.196442
0.500519 0.446442 0.213623
0.517639 0.425537 0.221039
0.524628 0.406189 0.213348
0.543091 0.401642 0.204559
0.567596 0.407715 0.198029
0.592255 0.417938 0.191132
0.612274 0.427368 0.185394
0.630127 0.434448 0.179016
0.643616 0.442139 0.176208
0.656403 0.448761 0.173981
0.670044 0.454803 0.172333
0.683716 0.460571 0.171509
0.698486 0.464905 0.170959
0.712982 0.468079 0.170685
0.728302 0.471436 0.171234
0.744019 0.475037 0.172119
0.760986 0.478088 0.173737
0.778503 0.480865 0.175171
0.797058 0.483887 0.177185
0.815399 0.487915 0.179688
0.831116 0.492065 0.182678
0.843170 0.495972 0.185852
0.302917 0.506378 0.198212
0.312561 0.506531 0.200745
0.320618 0.507294 0.202820
0.326477 0.507751 0.204773
0.329865 0.508209 0.208282
0.329651 0.508484 0.214600
0.324036 0.509552 0.224396
0.313049 0.511292 0.233002
0.315887 0.510651 0.234955
0.362793 0.503845 0.226654
0.443298 0.492065 0.210083
0.504089 0.483398 0.217255
0.538879 0.472076 0.235657
0.548737 0.451172 0.234222
0.556061 0.434265 0.225494
0.572693 0.430511 0.217316
0.595764 0.437469 0.211639
0.616364 0.447021 0.206146
0.635803 0.456848 0.200806
0.652954 0.464874 0.195007
0.666382 0.473053 0.191986
0.679016 0.478912 0.188690
0.692841 0.485016 0.186890
0.706299 0.489410 0.184570
0.721130 0.493530 0.183411
0.735535 0.497284 0.182831
0.751190 0.500763 0.183289
0.766846 0.504639 0.183990
0.783722 0.507416 0.185242
0.801331 0.509583 0.185425
0.819153 0.512878 0.187439
0.834106 0.515717 0.189728
0.846191 0.519348 0.192749
0.317902 0.532867 0.209198
0.326782 0.532623 0.207275
0.334106 0.533386 0.207031
0.339203 0.534058 0.208801
0.341675 0.534943 0.213959
0.340729 0.535522 0.222473
0.333984 0.536743 0.232483
0.323730 0.538269 0.242401
0.326447 0.537537 0.246094
0.363800 0.532501 0.241852
0.435211 0.522644 0.227051
0.501007 0.513031 0.218475
0.546509 0.508331 0.243652
0.571808 0.496246 0.253418
0.577179 0.476501 0.246704
0.583618 0.461334 0.237762
0.600433 0.459564 0.230865
0.619690 0.466492 0.226776
0.639130 0.475281 0.221130
0.657623 0.484924 0.216705
0.674927 0.492828 0.212097
0.688080 0.499481 0.208801
0.700989 0.505066 0.204834
0.714752 0.510651 0.201538
0.728424 0.515747 0.198578
0.742798 0.520477 0.196320
0.757660 0.525391 0.195709
0.773102 0.529205 0.195557
0.788879 0.532654 0.195587
0.806091 0.535095 0.195587
0.823303 0.538177 0.196198
0.837708 0.541290 0.198456
0.848663 0.544373 0.201141
0.331085 0.559235 0.223206
0.338959 0.559174 0.223999
0.345428 0.559906 0.226318
0.349579 0.560486 0.227295
0.351166 0.561432 0.229248
0.348724 0.561829 0.232300
0.341461 0.562775 0.238586
0.332001 0.563660 0.246765
0.330902 0.563507 0.254028
0.360382 0.560730 0.254486
0.426666 0.552887 0.243256
0.490601 0.542847 0.229614
0.543030 0.536804 0.244659
0.579590 0.532410 0.266846
0.599823 0.521240 0.271637
0.603119 0.502045 0.262360
0.609436 0.489136 0.253082
0.623322 0.487213 0.246826
0.641144 0.492432 0.242523
0.659546 0.499725 0.237457
0.678131 0.508881 0.234131
0.694061 0.516907 0.229675
0.707001 0.524017 0.225494
0.719849 0.530487 0.220734
0.733337 0.537537 0.217010
0.746948 0.543304 0.212769
0.761383 0.549408 0.210052
0.775787 0.553955 0.208679
0.791107 0.557861 0.208069
0.807892 0.560455 0.207306
0.824951 0.563232 0.207489
0.838440 0.566162 0.207794
0.849152 0.568878 0.210266
0.342804 0.584076 0.240295
0.350067 0.584137 0.238922
0.355682 0.584412 0.237488
0.359253 0.584686 0.236084
0.360382 0.585388 0.235016
0.357208 0.585724 0.237122
0.346710 0.587006 0.243225
0.334320 0.588318 0.251801
0.335083 0.588074 0.258484
0.367523 0.585297 0.261261
0.422699 0.579193 0.254761
0.486633 0.569916 0.236115
0.537598 0.564178 0.240692
0.579071 0.559906 0.269287
0.606934 0.559113 0.289490
0.619629 0.547852 0.288391
0.625671 0.528778 0.278687
0.633240 0.515869 0.270844
0.645721 0.512939 0.264282
0.662140 0.517151 0.260254
0.679138 0.524689 0.255585
0.695038 0.533386 0.251984
0.710266 0.542053 0.247101
0.723175 0.550018 0.242188
0.736359 0.557312 0.236877
0.750214 0.564575 0.231781
0.763916 0.570984 0.227112
0.778198 0.576202 0.223633
0.793091 0.580902 0.221497
0.809906 0.584534 0.220032
0.826202 0.587585 0.219269
0.839569 0.590240 0.219238
0.849701 0.592682 0.219543
0.352325 0.606842 0.256348
0.359070 0.606628 0.252350
0.364166 0.606781 0.248810
0.366943 0.606842 0.246094
0.366821 0.607544 0.245850
0.361877 0.608307 0.247864
0.351349 0.609528 0.252472
0.339478 0.610565 0.258240
0.341339 0.610138 0.263397
0.371643 0.608124 0.266113
0.421570 0.603058 0.263794
0.475739 0.595734 0.249207
0.529602 0.589355 0.242737
0.572968 0.585297 0.264221
0.605988 0.586517 0.296204
0.626251 0.585846 0.307648
0.637024 0.573029 0.304199
0.642456 0.555267 0.295654
0.650726 0.542694 0.287537
0.663269 0.539154 0.281158
0.678925 0.543335 0.277435
0.694244 0.549683 0.272614
0.709625 0.558167 0.268921
0.724701 0.566559 0.263580
0.738190 0.574677 0.258453
0.751984 0.581879 0.252136
0.766174 0.589569 0.246674
0.780334 0.595520 0.240234
0.795135 0.601166 0.236298
0.810944 0.605774 0.233215
0.827423 0.609924 0.231598
0.839935 0.612823 0.230865
0.850098 0.615326 0.230896
0.361115 0.629272 0.269135
0.367218 0.629120 0.264008
0.371765 0.629242 0.259766
0.374146 0.629364 0.256439
0.373260 0.629700 0.256409
0.367279 0.630707 0.255798
0.356140 0.631775 0.257721
0.347290 0.632416 0.262146
0.351013 0.631897 0.267029
0.377502 0.630188 0.271240
0.421692 0.626404 0.270325
0.471252 0.620483 0.262115
0.519562 0.614716 0.253784
0.566193 0.610260 0.263763
0.601501 0.611053 0.294250
0.626526 0.613373 0.316711
0.644745 0.610962 0.324554
0.653900 0.598145 0.321198
0.659210 0.581085 0.312500
0.666901 0.569122 0.304413
0.679413 0.565430 0.298126
0.693665 0.568237 0.294098
0.708984 0.574188 0.289398
0.724701 0.582550 0.285553
0.740204 0.591003 0.280151
0.753876 0.598694 0.273926
0.767792 0.606018 0.267059
0.782440 0.613251 0.260040
0.797150 0.619415 0.253174
0.813171 0.625183 0.248566
0.828644 0.630127 0.245605
0.841125 0.633667 0.244110
0.850555 0.636322 0.243622
0.369781 0.651001 0.284454
0.375031 0.650635 0.280334
0.378967 0.650909 0.276184
0.380463 0.650940 0.270721
0.378784 0.651428 0.266998
0.372925 0.652161 0.265594
0.361633 0.653259 0.267426
0.350708 0.654144 0.271118
0.352051 0.653900 0.275024
0.381042 0.651398 0.276672
0.424805 0.647858 0.275818
0.468384 0.643433 0.269897
0.513977 0.638214 0.262787
0.556732 0.634064 0.265564
0.595490 0.633667 0.289215
0.622131 0.636749 0.316925
0.645844 0.638794 0.335297
0.662262 0.635712 0.341705
0.671143 0.622894 0.338013
0.675751 0.606506 0.329010
0.682617 0.594055 0.320892
0.694489 0.590149 0.314789
0.708618 0.592377 0.310699
0.724091 0.597931 0.305420
0.740021 0.606049 0.301453
0.755463 0.613586 0.295013
0.769379 0.621307 0.288971
0.783875 0.628510 0.281311
0.799255 0.635773 0.273712
0.814606 0.642273 0.267120
0.829834 0.648193 0.262756
0.841614 0.652222 0.259949
0.850830 0.655182 0.259186
0.377869 0.672699 0.300995
0.383240 0.672577 0.295441
0.386749 0.672302 0.290009
0.388153 0.671997 0.280762
0.385956 0.672577 0.275909
0.378662 0.673309 0.274994
0.366882 0.674255 0.276703
0.353790 0.675446 0.279877
0.350403 0.675903 0.281891
0.389740 0.672241 0.282562
0.428253 0.669128 0.282593
0.468353 0.665558 0.280334
0.508911 0.661469 0.274628
0.551117 0.657013 0.271118
0.587921 0.656738 0.285553
0.617859 0.659027 0.313904
0.642303 0.661987 0.337860
0.664246 0.663574 0.354309
0.680267 0.660309 0.360016
0.688293 0.647858 0.355133
0.692474 0.631958 0.345978
0.698792 0.619965 0.337952
0.709656 0.614563 0.331421
0.723602 0.615631 0.326630
0.739502 0.620819 0.321289
0.755280 0.627808 0.316284
0.770935 0.635468 0.310242
0.785675 0.643311 0.303802
0.800903 0.650574 0.296387
0.816345 0.658142 0.289154
0.830719 0.664429 0.282806
0.842102 0.669006 0.279144
0.850708 0.672119 0.277405
0.385956 0.693085 0.313416
0.390961 0.692871 0.306488
0.394257 0.692810 0.299713
0.395264 0.692200 0.292236
0.393280 0.693085 0.288391
0.385254 0.693848 0.286194
0.372437 0.694733 0.285370
0.360870 0.695770 0.286865
0.362762 0.695648 0.287689
0.394836 0.692780 0.289246
0.431213 0.690063 0.290436
0.467102 0.687195 0.289246
0.504608 0.683563 0.285370
0.542114 0.679962 0.280548
0.580475 0.678619 0.284119
0.610992 0.681335 0.307251
0.638153 0.683746 0.334991
0.660980 0.686096 0.357330
0.681885 0.687073 0.371826
0.696716 0.683777 0.376678
0.704498 0.671356 0.371948
0.708374 0.655914 0.363281
0.714783 0.643616 0.354828
0.725159 0.637146 0.347107
0.739380 0.638062 0.342163
0.755188 0.642456 0.336578
0.770874 0.649261 0.331726
0.786316 0.656677 0.325623
0.801697 0.664581 0.319519
0.816528 0.671631 0.312164
0.830872 0.678955 0.305878
0.841522 0.683289 0.300262
0.850067 0.686340 0.297668
0.394012 0.713989 0.325836
0.398773 0.713776 0.319336
0.401581 0.713684 0.313324
0.402130 0.713501 0.306641
0.399475 0.714050 0.301239
0.391876 0.714844 0.296539
0.379059 0.715973 0.294128
0.367615 0.717133 0.296997
0.372894 0.716339 0.296143
0.398529 0.714142 0.295959
0.432953 0.711578 0.297058
0.468353 0.708862 0.297333
0.501770 0.705963 0.294403
0.536682 0.702759 0.290039
0.572235 0.701019 0.288757
0.604340 0.703796 0.301361
0.631744 0.706451 0.328033
0.656921 0.708221 0.354675
0.679535 0.710419 0.375977
0.698883 0.711212 0.388611
0.713928 0.708130 0.393158
