lut/retro-80s/The Princess Bride Official (1987) - Standard.cube
# Created by Benjamin (IWLTBAP): https://luts.iwltbap.com
# Copyright: (C) Copyright 2018 Triune Films and IWLTBAP SAS
# Cannot be resold, shared or otherwise redistributed
TITLE "Triune Films 80s Retro LUTs (Rec.709, sRGB, DCI-P3)"
LUT_3D_SIZE 33
0.001587 0.000000 0.000000
0.014069 0.001923 0.000183
0.027252 0.004547 0.001129
0.042419 0.007843 0.001587
0.059784 0.011444 0.002258
0.079895 0.015350 0.002380
0.102966 0.019897 0.002380
0.128204 0.024170 0.002380
0.155090 0.027802 0.002380
0.183228 0.032196 0.001587
0.212067 0.036072 0.001587
0.241150 0.039917 0.001251
0.270233 0.043152 0.000793
0.299042 0.047028 0.000793
0.327209 0.049835 0.000854
0.354889 0.053253 0.001801
0.382172 0.057098 0.002747
0.408875 0.060791 0.003723
0.435150 0.064331 0.005463
0.461029 0.067810 0.007507
0.486511 0.071503 0.010071
0.511871 0.075226 0.012512
0.537079 0.079437 0.016022
0.562073 0.083923 0.019928
0.587067 0.088379 0.024719
0.611938 0.092896 0.029572
0.636780 0.097443 0.035492
0.661438 0.102264 0.041473
0.686035 0.107330 0.048523
0.710693 0.112579 0.055786
0.735443 0.117828 0.063110
0.760651 0.123566 0.070953
0.785065 0.129364 0.078918
0.017120 0.014771 0.011108
0.029816 0.017822 0.011383
0.043121 0.020691 0.010773
0.058777 0.024078 0.010406
0.076477 0.027954 0.010071
0.097107 0.031891 0.009216
0.120087 0.035858 0.008698
0.145721 0.040314 0.007385
0.172668 0.044525 0.006256
0.200928 0.048370 0.004700
0.229706 0.051880 0.003387
0.258728 0.055328 0.003174
0.287598 0.058746 0.002533
0.316071 0.062286 0.002380
0.344025 0.065308 0.002411
0.371582 0.068726 0.002716
0.398529 0.072083 0.003143
0.425018 0.075317 0.004700
0.451050 0.078827 0.006409
0.476624 0.082489 0.008453
0.501953 0.086578 0.010712
0.527008 0.090424 0.013947
0.551941 0.094727 0.017792
0.576691 0.098969 0.021851
0.601349 0.103485 0.026642
0.625916 0.108551 0.031830
0.650482 0.113495 0.037567
0.674988 0.118683 0.044159
0.699371 0.123810 0.051117
0.723785 0.129395 0.058502
0.748260 0.135040 0.065979
0.773224 0.141052 0.073975
0.797394 0.147064 0.081940
0.033112 0.031097 0.024292
0.046051 0.034454 0.022980
0.059998 0.038422 0.021667
0.075623 0.041626 0.020630
0.093872 0.045532 0.018677
0.114655 0.049805 0.016876
0.138245 0.053772 0.015137
0.163727 0.057678 0.012360
0.190948 0.061890 0.009674
0.219147 0.065674 0.008179
0.248047 0.069092 0.006287
0.276917 0.072388 0.004364
0.305603 0.075623 0.004181
0.333862 0.078705 0.003174
0.361694 0.081909 0.003052
0.388916 0.084961 0.003723
0.415649 0.088409 0.004303
0.441864 0.091797 0.005463
0.467651 0.095062 0.007385
0.493042 0.098938 0.009399
0.518097 0.102600 0.012634
0.542877 0.106842 0.015564
0.567505 0.111023 0.019073
0.591980 0.115570 0.023438
0.616364 0.120300 0.028809
0.640686 0.125336 0.034149
0.664978 0.130585 0.040344
0.689240 0.135925 0.046783
0.713440 0.141602 0.053528
0.737579 0.147369 0.061249
0.761810 0.153381 0.069092
0.786499 0.159546 0.076843
0.810394 0.165863 0.085144
0.048615 0.048492 0.036835
0.061951 0.052307 0.034882
0.076263 0.055939 0.032898
0.092072 0.060059 0.030273
0.110504 0.064178 0.028351
0.131561 0.068054 0.024963
0.155334 0.072357 0.021637
0.181183 0.076447 0.018463
0.208466 0.080261 0.014282
0.236908 0.084198 0.011658
0.265747 0.087372 0.009186
0.294556 0.090759 0.007233
0.323090 0.093658 0.005341
0.351318 0.096649 0.005127
0.378967 0.099548 0.004028
0.406006 0.102722 0.004486
0.432495 0.105804 0.005554
0.458527 0.109161 0.006409
0.484192 0.112732 0.008331
0.509308 0.116180 0.010895
0.534149 0.120026 0.013824
0.558685 0.124054 0.016968
0.583099 0.128418 0.021027
0.607330 0.133087 0.025421
0.631500 0.137848 0.030731
0.655487 0.143036 0.036530
0.679535 0.148590 0.042664
0.703552 0.154236 0.049286
0.727509 0.160156 0.055969
0.751434 0.166168 0.063782
0.775360 0.172302 0.071442
0.799774 0.178772 0.079559
0.823303 0.184967 0.087585
0.064056 0.067963 0.050415
0.077301 0.071411 0.048309
0.092072 0.075623 0.044891
0.108246 0.079651 0.041687
0.126678 0.083588 0.037994
0.147919 0.087921 0.033569
0.171875 0.092712 0.029083
0.197998 0.096680 0.024811
0.225464 0.100494 0.020203
0.254028 0.104218 0.016205
0.283051 0.107666 0.012634
0.311920 0.110748 0.010132
0.340546 0.113708 0.007721
0.368530 0.116608 0.006256
0.396118 0.119446 0.005341
0.422974 0.122528 0.005676
0.449432 0.125427 0.006531
0.475281 0.128662 0.007599
0.500793 0.131989 0.009979
0.525757 0.135529 0.012024
0.550415 0.139282 0.014954
0.574768 0.143341 0.018616
0.598938 0.147522 0.022797
0.622986 0.152252 0.027679
0.646881 0.157379 0.033142
0.670715 0.162537 0.038422
0.694489 0.168152 0.045044
0.718231 0.173950 0.051788
0.741943 0.180084 0.058716
0.765564 0.186127 0.066071
0.789246 0.192383 0.073822
0.813354 0.198792 0.081940
0.836578 0.205292 0.089722
0.079803 0.089142 0.065948
0.092957 0.092987 0.062408
0.107758 0.097046 0.058563
0.123932 0.101257 0.054260
0.142395 0.105530 0.049866
0.163727 0.110077 0.044525
0.188049 0.114777 0.038757
0.214294 0.118988 0.032959
0.242004 0.123077 0.027100
0.270782 0.126770 0.021271
0.299866 0.130188 0.017181
0.328857 0.133453 0.013580
0.357483 0.136383 0.010681
0.385529 0.139008 0.008972
0.413025 0.141754 0.008026
0.439850 0.144562 0.007416
0.466156 0.147614 0.008057
0.491974 0.150757 0.009125
0.517273 0.153748 0.011108
0.542145 0.157196 0.013184
0.566742 0.161011 0.016388
0.591003 0.165039 0.020264
0.615082 0.169312 0.024658
0.638916 0.173859 0.028870
0.662598 0.178711 0.034576
0.686218 0.184082 0.040680
0.709808 0.189697 0.047089
0.733215 0.195496 0.054047
0.756653 0.201721 0.060974
0.780090 0.207886 0.068268
0.803436 0.214142 0.075989
0.827209 0.220551 0.083740
0.850128 0.226929 0.091370
0.095306 0.112457 0.081604
0.108490 0.116425 0.077301
0.123383 0.120697 0.073456
0.139465 0.124908 0.068146
0.158173 0.129333 0.062805
0.179565 0.134064 0.056030
0.203674 0.138824 0.048828
0.230042 0.143280 0.041809
0.257935 0.147491 0.035278
0.286804 0.151581 0.028534
0.316040 0.155029 0.022919
0.345154 0.158264 0.018158
0.373901 0.161255 0.014557
0.401947 0.164062 0.011658
0.429443 0.166626 0.010193
0.456177 0.169342 0.009430
0.482422 0.172272 0.009583
0.508179 0.175232 0.010803
0.533417 0.178253 0.012787
0.558258 0.181549 0.014587
0.582733 0.185181 0.018280
0.606964 0.189178 0.022186
0.630920 0.193207 0.026245
0.654694 0.197876 0.031494
0.678253 0.202606 0.037262
0.701721 0.207764 0.042511
0.725067 0.213287 0.049194
0.748352 0.219208 0.055878
0.771576 0.225006 0.063019
0.794647 0.231293 0.070068
0.817780 0.237427 0.077698
0.841248 0.243835 0.085358
0.863892 0.250031 0.092804
0.111542 0.137970 0.098328
0.124664 0.141937 0.093964
0.139069 0.146088 0.089203
0.155182 0.150513 0.083679
0.173767 0.155121 0.077057
0.195038 0.160004 0.069550
0.219147 0.164795 0.061218
0.245361 0.169525 0.052612
0.273315 0.174011 0.044342
0.302216 0.178162 0.036804
0.331543 0.181976 0.029388
0.360748 0.185211 0.023651
0.389496 0.188416 0.019104
0.417603 0.191071 0.015930
0.445038 0.193817 0.013458
0.471771 0.196533 0.012360
0.497925 0.199219 0.012360
0.523590 0.202057 0.013062
0.548798 0.205048 0.014679
0.573639 0.208221 0.017029
0.598114 0.211639 0.019958
0.622314 0.215454 0.024078
0.646271 0.219391 0.028198
0.670013 0.223785 0.033020
0.693512 0.228424 0.038422
0.716888 0.233398 0.044739
0.740173 0.238800 0.050873
0.763306 0.244446 0.057434
0.786285 0.250305 0.064362
0.809235 0.256134 0.071625
0.832062 0.262238 0.078766
0.855286 0.268311 0.086121
0.877655 0.274323 0.093597
0.128571 0.165436 0.115906
0.141479 0.169342 0.111298
0.155640 0.173553 0.106140
0.171478 0.177826 0.100006
0.189667 0.182556 0.092896
0.210724 0.187531 0.084564
0.234528 0.192566 0.074951
0.260620 0.197571 0.065247
0.288269 0.202240 0.055298
0.317169 0.206665 0.046478
0.346466 0.210602 0.037994
0.375610 0.214050 0.031006
0.404297 0.217194 0.024719
0.432373 0.220154 0.020752
0.459717 0.222839 0.017853
0.486328 0.225464 0.015625
0.512390 0.228119 0.015259
0.537994 0.230835 0.015808
0.563171 0.233643 0.017517
0.587952 0.236725 0.019592
0.612457 0.240082 0.022461
0.636719 0.243530 0.025818
0.660706 0.247375 0.029877
0.684479 0.251526 0.035126
0.707977 0.256042 0.040344
0.731384 0.260803 0.046143
0.754608 0.265900 0.052063
0.777649 0.271271 0.059174
0.800568 0.276825 0.065735
0.823395 0.282410 0.072479
0.846069 0.288147 0.079346
0.869110 0.294067 0.086761
0.891266 0.299713 0.093475
0.146240 0.194794 0.134521
0.158752 0.198578 0.129669
0.172913 0.202728 0.124146
0.188293 0.207184 0.117645
0.206024 0.211914 0.109802
0.226685 0.216766 0.101044
0.250000 0.222015 0.090515
0.275635 0.227264 0.079346
0.303009 0.232147 0.067963
0.331635 0.236786 0.057587
0.360779 0.240967 0.047699
0.389740 0.244598 0.039886
0.418304 0.247894 0.032715
0.446167 0.250854 0.026642
0.473267 0.253479 0.023438
0.499786 0.256012 0.020782
0.525696 0.258514 0.019257
0.551117 0.261230 0.018890
0.576202 0.264038 0.020416
0.600983 0.266815 0.022339
0.625519 0.269958 0.024567
0.649841 0.273315 0.027954
0.673920 0.277039 0.032440
0.697784 0.280945 0.036530
0.721466 0.285187 0.042206
0.744934 0.289642 0.047882
0.768188 0.294403 0.053680
0.791290 0.299377 0.060150
0.814178 0.304474 0.066589
0.836914 0.309875 0.073059
0.859528 0.315216 0.079468
0.882507 0.320740 0.086456
0.904572 0.326019 0.092957
0.164886 0.226227 0.153564
0.177185 0.229706 0.148773
0.190643 0.233856 0.143127
0.205688 0.238098 0.136414
0.222992 0.242889 0.128296
0.242859 0.247803 0.118500
0.265564 0.253143 0.107239
0.290741 0.258514 0.095215
0.317627 0.263702 0.082916
0.345734 0.268524 0.070618
0.374359 0.272858 0.059235
0.402985 0.276672 0.049500
0.431183 0.279968 0.041382
0.458832 0.282898 0.034668
0.485718 0.285583 0.030273
0.511780 0.287964 0.026703
0.537445 0.290344 0.024780
0.562714 0.292847 0.023865
0.587616 0.295410 0.024445
0.612305 0.298248 0.025360
0.636810 0.301117 0.027618
0.661224 0.304352 0.031006
0.685425 0.307709 0.034515
0.709412 0.311432 0.038574
0.733276 0.315308 0.043884
0.756927 0.319550 0.048737
0.780334 0.323944 0.054779
0.803589 0.328583 0.060852
0.826630 0.333313 0.066986
0.849426 0.338196 0.072540
0.872101 0.343048 0.079102
0.895050 0.348114 0.085480
0.917114 0.352997 0.091858
0.184143 0.259155 0.173462
0.196014 0.262604 0.168640
0.209290 0.266541 0.162933
0.223694 0.270630 0.156097
0.240295 0.275238 0.147858
0.259613 0.280182 0.137634
0.281555 0.285461 0.125610
0.305725 0.290985 0.112488
0.332001 0.296295 0.098938
0.359375 0.301331 0.085358
0.387451 0.305939 0.072571
0.415527 0.309845 0.061432
0.443237 0.313232 0.051849
0.470459 0.316040 0.044495
0.496948 0.318695 0.038239
0.522675 0.320862 0.034363
0.547913 0.323181 0.031555
0.572845 0.325378 0.029877
0.597534 0.327820 0.029327
0.622101 0.330322 0.029572
0.646545 0.332977 0.031189
0.670929 0.335968 0.033569
0.695312 0.339172 0.036804
0.719452 0.342529 0.041107
0.743500 0.346130 0.045380
0.767456 0.349915 0.049957
0.791107 0.354034 0.055267
0.814514 0.358185 0.060608
0.837738 0.362518 0.066315
0.860779 0.366882 0.072021
0.883606 0.371338 0.077911
0.906708 0.375854 0.084290
0.928864 0.380249 0.089935
0.203918 0.293365 0.193970
0.215332 0.296722 0.189209
0.228119 0.300446 0.183411
0.242249 0.304352 0.176666
0.258118 0.308685 0.168152
0.276642 0.313690 0.157593
0.297760 0.318909 0.145020
0.321136 0.324402 0.131134
0.346283 0.329803 0.116577
0.372833 0.335022 0.101837
0.400055 0.339752 0.087585
0.427399 0.343811 0.074890
0.454498 0.347290 0.064240
0.481140 0.350189 0.055145
0.507141 0.352570 0.048126
0.532379 0.354675 0.042938
0.557220 0.356598 0.039642
0.581726 0.358582 0.036377
0.606079 0.360657 0.035187
0.630402 0.362854 0.035126
0.654694 0.365326 0.036041
0.679108 0.367920 0.036987
0.703491 0.370850 0.039825
0.727783 0.373962 0.042938
0.752167 0.377197 0.046692
0.776337 0.380676 0.050598
0.800385 0.384277 0.055634
0.824097 0.388123 0.060364
0.847595 0.391907 0.065460
0.870941 0.395813 0.070709
0.894073 0.399719 0.076050
0.917419 0.403809 0.082031
0.939758 0.407745 0.087250
0.223969 0.328522 0.214935
0.235138 0.331787 0.210144
0.247528 0.335358 0.204468
0.261047 0.339111 0.197693
0.276367 0.343292 0.189178
0.294128 0.347992 0.178406
0.314209 0.353180 0.165619
0.336487 0.358612 0.151031
0.360565 0.364014 0.135651
0.386017 0.369324 0.119629
0.412262 0.374115 0.104523
0.438782 0.378387 0.090485
0.465057 0.381927 0.078064
0.490967 0.384766 0.067688
0.516327 0.387115 0.059998
0.541046 0.389008 0.053680
0.565369 0.390656 0.048859
0.589447 0.392303 0.045288
0.613403 0.393951 0.042480
0.637421 0.395905 0.041687
0.661438 0.397980 0.041168
0.685760 0.400238 0.041321
0.710144 0.402802 0.042633
0.734650 0.405457 0.045349
0.759247 0.408386 0.047821
0.783661 0.411438 0.051697
0.808044 0.414703 0.055298
0.832214 0.418030 0.059845
0.856140 0.421387 0.064301
0.879822 0.424835 0.069031
0.903290 0.428253 0.073883
0.927032 0.431702 0.079224
0.949738 0.435181 0.084503
0.243805 0.364685 0.236084
0.255005 0.367676 0.231537
0.267090 0.370972 0.226013
0.280151 0.374512 0.219177
0.294891 0.378540 0.210632
0.311615 0.383057 0.199860
0.330750 0.388000 0.186798
0.351898 0.393311 0.171906
0.374817 0.398621 0.155762
0.398987 0.403900 0.139160
0.424072 0.408844 0.122742
0.449524 0.413055 0.107727
0.474854 0.416748 0.094025
0.499908 0.419708 0.082550
0.524475 0.421997 0.073181
0.548615 0.423798 0.065643
0.572388 0.425232 0.059753
0.595978 0.426514 0.055298
0.619476 0.427795 0.051270
0.643097 0.429169 0.048676
0.666931 0.430817 0.047424
0.691071 0.432648 0.046936
0.715454 0.434662 0.047150
0.740051 0.437012 0.047974
0.764740 0.439484 0.049713
0.789551 0.442139 0.052460
0.814270 0.444946 0.055573
0.838837 0.447754 0.058594
0.863251 0.450653 0.062744
0.887421 0.453674 0.066925
0.911346 0.456635 0.071106
0.935516 0.459656 0.075897
0.958710 0.462677 0.080597
0.263824 0.401123 0.257477
0.274658 0.403961 0.252930
0.286438 0.407074 0.247559
0.299103 0.410431 0.240936
0.313232 0.414154 0.232544
0.329224 0.418457 0.221710
0.347137 0.423096 0.208649
0.367126 0.428162 0.193542
0.388763 0.433411 0.177032
0.411713 0.438599 0.159729
0.435486 0.443451 0.142334
0.459625 0.447906 0.125946
0.483887 0.451569 0.111237
0.508026 0.454651 0.098663
0.531769 0.456970 0.087708
0.555084 0.458618 0.078918
0.578308 0.459900 0.072113
0.601410 0.460907 0.066376
0.624481 0.461853 0.061707
0.647705 0.462769 0.058197
0.671234 0.463898 0.055145
0.695099 0.465210 0.053223
0.719391 0.466736 0.051971
0.743988 0.468597 0.051636
0.768921 0.470520 0.051971
0.793976 0.472717 0.053192
0.819061 0.474976 0.055176
0.844086 0.477386 0.057861
0.869049 0.479858 0.061096
0.893738 0.482330 0.063995
0.918152 0.484894 0.067963
0.942932 0.487488 0.072113
0.966583 0.490021 0.075989
0.283417 0.437714 0.278839
0.294128 0.440399 0.274384
0.305664 0.443268 0.269135
0.317871 0.446381 0.262634
0.331390 0.449860 0.254364
0.346619 0.453857 0.243683
0.363525 0.458252 0.230743
0.382233 0.463013 0.215576
0.402557 0.468048 0.198853
0.424164 0.473083 0.180939
0.446655 0.477875 0.162964
0.469452 0.482208 0.145569
0.492462 0.486023 0.129608
0.515533 0.489166 0.115540
0.538422 0.491577 0.103638
0.560944 0.493286 0.093842
0.583405 0.494476 0.085449
0.605988 0.495361 0.078857
0.628662 0.496002 0.073029
0.651459 0.496552 0.068542
0.674652 0.497192 0.064056
0.698303 0.497955 0.060730
0.722382 0.499023 0.058136
0.746918 0.500244 0.056335
0.771973 0.501617 0.055298
0.797272 0.503296 0.054840
0.822693 0.505096 0.055908
0.848145 0.507019 0.057159
0.873566 0.509064 0.058838
0.898865 0.511047 0.061310
0.923920 0.513153 0.064087
0.949219 0.515320 0.067657
0.973419 0.517456 0.071045
0.302582 0.474060 0.299896
0.313019 0.476593 0.295654
0.324432 0.479279 0.290527
0.336273 0.482117 0.284119
0.349182 0.485321 0.275940
0.363678 0.489044 0.265503
0.379608 0.493134 0.252533
0.397125 0.497620 0.237549
0.416077 0.502350 0.220764
0.436371 0.507172 0.202698
0.457458 0.511780 0.184235
0.478973 0.516113 0.165955
0.500702 0.519989 0.148895
0.522583 0.523163 0.133514
0.544464 0.525696 0.120483
0.566223 0.527496 0.109436
0.587982 0.528748 0.100128
0.609894 0.529541 0.091919
0.632141 0.530060 0.085510
0.654572 0.530334 0.079712
0.677399 0.530609 0.074310
0.700775 0.530914 0.069183
0.724640 0.531403 0.065277
0.749146 0.532074 0.062042
0.774109 0.532898 0.059235
0.799561 0.534027 0.057617
0.825287 0.535309 0.056274
0.851105 0.536682 0.056519
0.877014 0.538300 0.057281
0.902832 0.539886 0.058594
0.928528 0.541504 0.060577
0.954468 0.543243 0.062561
0.979340 0.544952 0.065033
0.321014 0.509918 0.320587
0.331451 0.512268 0.316376
0.342560 0.514740 0.311310
0.354126 0.517426 0.305023
0.366516 0.520386 0.296997
0.380157 0.523743 0.286743
0.395233 0.527527 0.274078
0.411652 0.531708 0.259308
0.429413 0.536163 0.242645
0.448212 0.540649 0.224548
0.467957 0.545105 0.205688
0.488251 0.549316 0.186859
0.508789 0.553070 0.168915
0.529449 0.556366 0.152618
0.550201 0.558990 0.137909
0.571106 0.560974 0.125763
0.592163 0.562439 0.115295
0.613403 0.563354 0.106262
0.635040 0.563782 0.098755
0.657135 0.563965 0.091919
0.679657 0.563965 0.085541
0.702728 0.563934 0.079346
0.726349 0.563904 0.073730
0.750641 0.564148 0.068756
0.775543 0.564453 0.064697
0.801025 0.564972 0.060852
0.826904 0.565735 0.058533
0.853149 0.566589 0.057037
0.879456 0.567657 0.055878
0.905823 0.568848 0.056122
0.932068 0.570099 0.056915
0.958710 0.571442 0.058228
0.984253 0.572693 0.059784
0.338684 0.544922 0.340546
0.348907 0.547058 0.336395
0.359863 0.549316 0.331360
0.371063 0.551788 0.325165
0.383026 0.554535 0.317322
0.395905 0.557617 0.307312
0.409943 0.561066 0.294983
0.425385 0.564911 0.280396
0.441895 0.569061 0.263977
0.459564 0.573334 0.245911
0.477966 0.577545 0.226959
0.497070 0.581604 0.207733
0.516418 0.585327 0.189178
0.535980 0.588593 0.171631
0.555725 0.591370 0.156036
0.575623 0.593536 0.142365
0.595947 0.595184 0.130798
0.616638 0.596313 0.120605
0.637726 0.596924 0.111908
0.659332 0.597107 0.104126
0.681519 0.597046 0.096924
0.704315 0.596832 0.090149
0.727631 0.596588 0.083252
0.751709 0.596344 0.076996
0.776489 0.596130 0.071167
0.801910 0.596222 0.065857
0.827942 0.596466 0.061584
0.854309 0.596924 0.058167
0.881012 0.597473 0.055664
0.907898 0.598114 0.054199
0.934692 0.599030 0.054108
0.961945 0.599945 0.053894
0.988068 0.600891 0.053894
0.355469 0.578888 0.359528
0.365540 0.580780 0.355286
0.376251 0.582916 0.350342
0.387146 0.585144 0.344238
0.398590 0.587646 0.336517
0.410828 0.590485 0.326721
0.424011 0.593658 0.314667
0.438354 0.597260 0.300537
0.453857 0.601074 0.284363
0.470337 0.605072 0.266663
0.487579 0.609131 0.247742
0.505432 0.613007 0.228210
0.523834 0.616669 0.209106
0.542358 0.619934 0.190796
0.561157 0.622772 0.174103
0.580200 0.625122 0.159241
0.599701 0.626984 0.146149
0.619659 0.628387 0.135162
0.640259 0.629211 0.125549
0.661407 0.629669 0.116943
0.683228 0.629700 0.109161
0.705719 0.629456 0.101318
0.728790 0.628998 0.093933
0.752563 0.628540 0.086456
0.777130 0.628113 0.079071
0.802368 0.627747 0.072388
0.828369 0.627594 0.066345
0.854858 0.627594 0.061005
0.881805 0.627716 0.057098
0.909058 0.627991 0.053864
0.936340 0.628448 0.051422
0.964203 0.628998 0.049774
0.990997 0.629517 0.048950
0.371277 0.611572 0.377350
0.381256 0.613373 0.373169
0.391632 0.615326 0.368103
0.402161 0.617371 0.362061
0.413177 0.619690 0.354462
0.424805 0.622253 0.344910
0.437256 0.625244 0.333160
0.450653 0.628540 0.319427
0.465118 0.632080 0.303772
0.480591 0.635895 0.286377
0.496826 0.639771 0.267578
0.513672 0.643524 0.248108
0.530975 0.647064 0.228760
0.548676 0.650360 0.209778
0.566650 0.653259 0.192108
0.584869 0.655762 0.176147
0.603607 0.657806 0.161987
0.622955 0.659485 0.149628
0.642883 0.660645 0.138947
0.663544 0.661346 0.129608
0.684937 0.661591 0.121124
0.707031 0.661560 0.112885
0.729828 0.661194 0.104736
0.753357 0.660645 0.096344
0.777679 0.660034 0.088135
0.802704 0.659485 0.080017
0.828491 0.658936 0.072083
0.855011 0.658630 0.065308
0.882050 0.658386 0.059479
0.909576 0.658356 0.054352
0.937286 0.658386 0.050629
0.965637 0.658569 0.046967
0.992981 0.658783 0.044617
0.385986 0.643036 0.393951
0.395782 0.644653 0.389618
0.405975 0.646454 0.384552
0.416199 0.648407 0.378479
0.426697 0.650513 0.371063
0.437836 0.652924 0.361725
0.449585 0.655640 0.350342
0.462250 0.658752 0.337006
0.475769 0.662140 0.321808
0.490295 0.665710 0.304840
0.505646 0.669373 0.286438
0.521606 0.673035 0.267120
0.538055 0.676514 0.247528
0.554901 0.679840 0.228271
0.572174 0.682831 0.209839
0.589691 0.685425 0.192902
0.607727 0.687744 0.177643
0.626373 0.689606 0.164032
0.645752 0.691071 0.152222
0.665894 0.692108 0.142212
0.686829 0.692749 0.132996
0.708557 0.692963 0.124298
0.731049 0.692841 0.115753
0.754242 0.692444 0.107117
0.778290 0.691803 0.098389
0.803009 0.691162 0.088989
0.828613 0.690552 0.080292
0.854919 0.689941 0.071411
0.881927 0.689484 0.064240
0.909546 0.689117 0.056976
0.937561 0.688873 0.050873
0.966339 0.688690 0.045624
0.994202 0.688629 0.040924
0.399628 0.673157 0.409180
0.409180 0.674683 0.404785
0.419128 0.676361 0.399628
0.429077 0.678101 0.393524
0.439301 0.680084 0.386108
0.449829 0.682312 0.376984
0.461060 0.684937 0.366028
0.473053 0.687836 0.353058
0.485840 0.691071 0.338348
0.499481 0.694458 0.321991
0.513947 0.698029 0.303986
0.529236 0.701599 0.285065
0.544922 0.705048 0.265533
0.561096 0.708374 0.246002
0.577667 0.711456 0.227112
0.594666 0.714203 0.209381
0.612122 0.716675 0.193024
0.630157 0.718781 0.178497
0.648895 0.720581 0.165497
0.668488 0.722015 0.154297
0.688995 0.723022 0.144623
0.710297 0.723602 0.135284
0.732361 0.723816 0.126678
0.755280 0.723694 0.117889
0.778961 0.723267 0.108551
0.803436 0.722687 0.099152
0.828735 0.722015 0.089508
0.854797 0.721375 0.079468
0.881653 0.720764 0.070038
0.909271 0.720276 0.061310
0.937378 0.719818 0.053040
0.966461 0.719421 0.044891
0.994781 0.719086 0.037628
0.411896 0.701904 0.422791
0.421265 0.703247 0.418304
0.431061 0.704865 0.413086
0.440765 0.706512 0.407013
0.450562 0.708435 0.399689
0.460815 0.710510 0.390808
0.471466 0.713013 0.380096
0.482880 0.715759 0.367615
0.495056 0.718842 0.353363
0.508087 0.722168 0.337494
0.521851 0.725677 0.320160
0.536438 0.729187 0.301666
0.551544 0.732635 0.282410
0.567169 0.736023 0.262939
0.583191 0.739197 0.243835
0.599670 0.742035 0.225403
0.616638 0.744720 0.208344
0.634186 0.747101 0.192749
0.652405 0.749176 0.178589
0.671448 0.750946 0.166534
0.691467 0.752350 0.155762
0.712341 0.753326 0.146240
0.734039 0.753937 0.137207
0.756500 0.754181 0.128326
0.779877 0.754120 0.119385
0.804047 0.753815 0.109406
0.828949 0.753265 0.098999
0.854706 0.752686 0.088501
0.881287 0.752014 0.076691
0.908783 0.751526 0.065552
0.936920 0.750977 0.055237
0.966187 0.750549 0.045837
0.994781 0.750092 0.037109
0.423096 0.729401 0.435181
0.432312 0.730743 0.430481
0.441956 0.732239 0.425201
0.451385 0.733856 0.419128
0.460968 0.735626 0.411865
0.470856 0.737640 0.403076
0.481201 0.740021 0.392761
0.492126 0.742706 0.380768
0.503784 0.745697 0.367065
0.516205 0.748962 0.351898
0.529480 0.752380 0.335083
0.543365 0.755951 0.317078
0.558014 0.759430 0.298248
0.573181 0.762878 0.279022
0.588745 0.766083 0.259796
0.604797 0.769165 0.241150
0.621338 0.772003 0.223358
0.638458 0.774597 0.206848
0.656250 0.776947 0.191956
0.674866 0.778992 0.178680
0.694336 0.780762 0.166962
0.714752 0.782227 0.156708
0.736053 0.783234 0.147430
0.758057 0.783905 0.138092
0.780914 0.784210 0.128265
0.804626 0.784241 0.118011
0.829102 0.783997 0.106903
0.854523 0.783600 0.095032
0.880951 0.783081 0.082886
0.908325 0.782623 0.070801
0.936493 0.782196 0.059204
0.965759 0.781738 0.048187
0.994415 0.781342 0.037994
0.433105 0.755859 0.446289
0.442261 0.757202 0.441559
0.451752 0.758667 0.436127
0.461090 0.760193 0.430054
0.470520 0.761932 0.422852
0.480164 0.763916 0.414337
0.490234 0.766205 0.404205
0.500763 0.768799 0.392670
0.511963 0.771698 0.379608
0.523956 0.774933 0.364929
0.536713 0.778381 0.348816
0.550232 0.781921 0.331390
0.564301 0.785522 0.313202
0.579041 0.789001 0.294281
0.594299 0.792358 0.275177
0.610016 0.795593 0.256348
0.626190 0.798615 0.238190
0.642944 0.801392 0.221008
0.660370 0.804016 0.205200
0.678558 0.806335 0.190887
0.697388 0.808472 0.177551
