lut/retro-80s/The Shining (1980) - Standard.cube
# Created by Benjamin (IWLTBAP): https://luts.iwltbap.com
# Copyright: (C) Copyright 2018 Triune Films and IWLTBAP SAS
# Cannot be resold, shared or otherwise redistributed
TITLE "Triune Films 80s Retro LUTs (Rec.709, sRGB, DCI-P3)"
LUT_3D_SIZE 33
0.002136 0.001465 0.000214
0.016083 0.001740 0.000519
0.031525 0.001862 0.000702
0.048706 0.002747 0.000763
0.067657 0.002960 0.001404
0.089996 0.003906 0.001526
0.115570 0.004272 0.001587
0.145294 0.005249 0.002136
0.178284 0.005920 0.002472
0.213715 0.006989 0.003052
0.250366 0.007843 0.003784
0.287170 0.008698 0.004272
0.323639 0.009888 0.004578
0.358582 0.010651 0.005463
0.391937 0.011719 0.006042
0.423981 0.012878 0.006989
0.455231 0.014282 0.007690
0.485260 0.015259 0.008881
0.514099 0.016541 0.009918
0.542542 0.017944 0.011292
0.571014 0.019165 0.012634
0.599243 0.020721 0.014282
0.627197 0.022095 0.015900
0.655243 0.023773 0.017883
0.683868 0.025818 0.020325
0.712738 0.028046 0.022644
0.741547 0.030640 0.025330
0.770477 0.033142 0.028229
0.799896 0.036041 0.031952
0.829346 0.039337 0.035217
0.857941 0.042938 0.038940
0.886200 0.046234 0.043182
0.913879 0.049713 0.047363
0.004730 0.014374 0.003326
0.018921 0.015076 0.003326
0.033997 0.015442 0.003296
0.052551 0.016724 0.002686
0.072205 0.017273 0.002869
0.095551 0.017975 0.003113
0.121735 0.018829 0.003723
0.153198 0.019409 0.004242
0.188110 0.020416 0.004608
0.225342 0.021545 0.005280
0.262604 0.022369 0.006165
0.300079 0.023499 0.006866
0.337524 0.024536 0.007782
0.373016 0.025391 0.008972
0.406921 0.026184 0.010345
0.438873 0.027283 0.011414
0.471069 0.028351 0.013245
0.500732 0.029663 0.014709
0.529358 0.030640 0.015717
0.557434 0.032196 0.017487
0.585785 0.033936 0.019012
0.613800 0.035767 0.021088
0.641815 0.037506 0.022919
0.670074 0.039459 0.025360
0.698944 0.041687 0.027740
0.727570 0.044312 0.030457
0.756439 0.047119 0.033325
0.785553 0.050171 0.037140
0.815063 0.053772 0.040802
0.843933 0.057281 0.044464
0.872284 0.060608 0.048401
0.900269 0.064545 0.052856
0.927826 0.068634 0.057251
0.006836 0.028564 0.005859
0.021057 0.029510 0.006195
0.036499 0.030273 0.006042
0.055634 0.031891 0.005157
0.077026 0.033569 0.004333
0.100952 0.034119 0.004547
0.127808 0.035004 0.004822
0.159332 0.036041 0.005066
0.194031 0.037109 0.005341
0.231323 0.038055 0.005859
0.269531 0.039246 0.006592
0.307159 0.040405 0.007538
0.343536 0.041626 0.008362
0.378815 0.042786 0.009674
0.412842 0.043884 0.010895
0.444977 0.044830 0.012177
0.476105 0.046021 0.013641
0.506836 0.047241 0.015869
0.536682 0.048340 0.017700
0.565735 0.049774 0.020081
0.595520 0.050995 0.022705
0.624908 0.052338 0.025757
0.654419 0.054016 0.028961
0.684631 0.056030 0.032623
0.713806 0.058655 0.035675
0.742493 0.061859 0.038940
0.771576 0.064880 0.042297
0.800873 0.068420 0.046143
0.830078 0.072357 0.050232
0.858307 0.076111 0.054535
0.886505 0.079926 0.058716
0.914276 0.084259 0.063354
0.940765 0.088715 0.068359
0.009338 0.043671 0.009186
0.023865 0.044861 0.009003
0.039459 0.046417 0.008820
0.057648 0.048584 0.007965
0.080261 0.050812 0.006989
0.106201 0.053345 0.006195
0.134064 0.054321 0.006256
0.165802 0.055603 0.006195
0.200287 0.056610 0.006500
0.237396 0.057434 0.006714
0.274841 0.058716 0.007568
0.312347 0.059723 0.007996
0.348267 0.061096 0.008972
0.383423 0.062317 0.009766
0.416901 0.063660 0.010895
0.449402 0.064819 0.011963
0.479950 0.066467 0.013428
0.509888 0.067780 0.015350
0.539673 0.069183 0.017090
0.568604 0.070740 0.019348
0.597626 0.072357 0.021667
0.626709 0.074677 0.024323
0.656525 0.076508 0.027466
0.686096 0.078766 0.031097
0.716400 0.081238 0.034973
0.747223 0.083984 0.039612
0.777863 0.086945 0.045013
0.809265 0.089966 0.050690
0.840149 0.093567 0.056610
0.870605 0.096985 0.063080
0.900635 0.100464 0.069916
0.928070 0.105103 0.074860
0.943512 0.111969 0.081299
0.012604 0.060242 0.012421
0.026733 0.061432 0.012787
0.042145 0.063202 0.012756
0.060852 0.066132 0.011719
0.083069 0.069275 0.010559
0.109741 0.072968 0.009338
0.139679 0.076294 0.008240
0.172150 0.078003 0.007660
0.207123 0.079681 0.007416
0.243835 0.080505 0.007538
0.281128 0.080994 0.008087
0.318024 0.082001 0.008698
0.353790 0.083038 0.009186
0.388489 0.084503 0.010193
0.422241 0.085571 0.011047
0.454102 0.087158 0.012360
0.484955 0.088623 0.013733
0.514618 0.090240 0.015259
0.543701 0.091949 0.016907
0.572601 0.093842 0.019165
0.601135 0.096039 0.021545
0.630157 0.098785 0.024078
0.659607 0.101196 0.026733
0.688629 0.104248 0.030090
0.717926 0.107208 0.033539
0.748169 0.110321 0.037567
0.778290 0.113770 0.041840
0.808105 0.117737 0.047028
0.838562 0.121613 0.052521
0.868286 0.126068 0.058289
0.897736 0.129944 0.064514
0.927063 0.133362 0.071259
0.948669 0.139282 0.079987
0.015625 0.079041 0.016296
0.030182 0.080200 0.016815
0.045776 0.082367 0.016541
0.064117 0.085358 0.016022
0.086212 0.089447 0.014862
0.113770 0.093872 0.013428
0.144470 0.098419 0.011749
0.178070 0.102112 0.010162
0.213440 0.104462 0.009399
0.250336 0.107086 0.009064
0.287262 0.107483 0.009674
0.324249 0.108124 0.009735
0.359772 0.109009 0.010590
0.394287 0.109894 0.011078
0.427399 0.111115 0.012299
0.459351 0.112457 0.013184
0.490295 0.113953 0.014771
0.519806 0.116028 0.016205
0.548920 0.117981 0.018005
0.577942 0.120209 0.019897
0.606445 0.122589 0.022095
0.634888 0.125244 0.024597
0.663971 0.128143 0.027222
0.693268 0.131195 0.030548
0.722412 0.134674 0.033844
0.751617 0.138336 0.037659
0.781677 0.142273 0.041656
0.811310 0.146851 0.046387
0.840668 0.151276 0.051331
0.870148 0.155640 0.056641
0.898956 0.160522 0.062134
0.927185 0.164886 0.067810
0.954895 0.169464 0.074249
0.019928 0.099670 0.020508
0.034607 0.101532 0.020538
0.050201 0.103760 0.020630
0.068817 0.106567 0.020325
0.090424 0.110870 0.019653
0.118317 0.116333 0.018219
0.149750 0.121368 0.016510
0.183807 0.126312 0.014374
0.219086 0.130341 0.012329
0.256470 0.134003 0.011719
0.293274 0.136932 0.011169
0.329987 0.137512 0.011261
0.365753 0.138275 0.011688
0.399780 0.139008 0.012482
0.432617 0.139771 0.013123
0.464569 0.140930 0.014435
0.495667 0.142273 0.015594
0.525177 0.144409 0.017548
0.554321 0.146484 0.019104
0.583313 0.148926 0.020966
0.612335 0.151611 0.023193
0.640747 0.154510 0.025726
0.669342 0.157410 0.028412
0.698517 0.160675 0.031555
0.727905 0.164185 0.034851
0.756958 0.168213 0.038452
0.786194 0.172424 0.042542
0.815613 0.177521 0.046967
0.844757 0.182526 0.051819
0.873840 0.187103 0.056946
0.902740 0.191772 0.062012
0.930542 0.196320 0.067444
0.958008 0.200867 0.072998
0.024719 0.123260 0.025208
0.039490 0.125275 0.025635
0.055603 0.127960 0.025787
0.074280 0.131073 0.025452
0.096069 0.135345 0.024994
0.123230 0.140808 0.023804
0.155029 0.147064 0.022247
0.190369 0.152344 0.019653
0.226471 0.157684 0.017120
0.263641 0.162323 0.014984
0.300720 0.166504 0.013977
0.336334 0.169891 0.013153
0.371796 0.170715 0.013794
0.404877 0.172241 0.014069
0.437653 0.172699 0.015137
0.469940 0.173340 0.015991
0.500671 0.174652 0.017609
0.531006 0.176147 0.019104
0.560150 0.177979 0.020752
0.589081 0.180145 0.022766
0.617950 0.183014 0.024902
0.646515 0.185730 0.027466
0.675018 0.188843 0.030151
0.704041 0.192169 0.033356
0.733368 0.195923 0.036224
0.762604 0.200378 0.040100
0.791779 0.204773 0.044189
0.821045 0.209229 0.048462
0.850067 0.214508 0.053223
0.878601 0.219055 0.057983
0.907196 0.223999 0.062897
0.934814 0.228210 0.067963
0.962067 0.232819 0.073151
0.030304 0.149292 0.030396
0.045563 0.151489 0.031006
0.061707 0.154755 0.031464
0.080658 0.157990 0.031464
0.102783 0.162170 0.030914
0.129517 0.167419 0.029755
0.160950 0.173950 0.028137
0.197327 0.180634 0.025696
0.234283 0.186005 0.023163
0.271545 0.191315 0.020599
0.307922 0.195679 0.018097
0.343781 0.200012 0.017090
0.378052 0.204285 0.016174
0.410858 0.206177 0.016510
0.442383 0.208588 0.016846
0.474640 0.208984 0.017975
0.506165 0.209381 0.019226
0.536133 0.210785 0.020905
0.566162 0.212067 0.022736
0.595062 0.214172 0.024628
0.623840 0.216217 0.026978
0.652344 0.219086 0.029541
0.681000 0.221954 0.032288
0.709930 0.225372 0.035309
0.739288 0.228912 0.038666
0.768463 0.233643 0.042297
0.797424 0.238403 0.046173
0.826752 0.242950 0.050537
0.855835 0.247345 0.055206
0.884155 0.252106 0.059662
0.912140 0.256500 0.064453
0.939697 0.260895 0.069214
0.966736 0.265076 0.074188
0.037018 0.178375 0.036469
0.052704 0.180939 0.037018
0.069397 0.184448 0.037659
0.088684 0.188171 0.038055
0.110870 0.192322 0.037781
0.137360 0.197266 0.036865
0.167969 0.203522 0.035522
0.203491 0.210846 0.033203
0.241974 0.217377 0.030029
0.280182 0.222290 0.026733
0.316467 0.227142 0.023987
0.352600 0.231049 0.021454
0.386444 0.236298 0.020142
0.418457 0.240143 0.019409
0.449799 0.242828 0.019745
0.479736 0.245300 0.020599
0.511230 0.245697 0.021912
0.541412 0.246796 0.023499
0.571381 0.248077 0.025269
0.600616 0.249603 0.027191
0.629517 0.251556 0.029449
0.658661 0.254517 0.032013
0.687286 0.257324 0.034912
0.716095 0.260315 0.037842
0.745361 0.263977 0.041199
0.774323 0.267639 0.044586
0.803284 0.272461 0.048615
0.832397 0.276550 0.052948
0.861511 0.281036 0.057343
0.889679 0.284973 0.061890
0.917603 0.289398 0.066406
0.944794 0.293579 0.070892
0.971893 0.297791 0.075867
0.044952 0.209442 0.042816
0.061340 0.212311 0.043549
0.078491 0.216553 0.044891
0.097931 0.220306 0.045502
0.120544 0.224518 0.045410
0.146362 0.229370 0.044556
0.176331 0.235138 0.043182
0.210999 0.241974 0.040924
0.248505 0.249298 0.037842
0.287781 0.255219 0.034210
0.325195 0.259674 0.030792
0.361023 0.263641 0.027802
0.395264 0.267639 0.024963
0.426880 0.272125 0.024078
0.457703 0.276306 0.023132
0.487213 0.279297 0.023895
0.516602 0.281921 0.024445
0.546844 0.283234 0.026031
0.576477 0.284729 0.027740
0.605927 0.286072 0.029724
0.635284 0.287598 0.032013
0.664490 0.290405 0.034698
0.694000 0.293152 0.037750
0.722778 0.296234 0.040863
0.751678 0.299255 0.044250
0.780579 0.303009 0.047791
0.809418 0.306549 0.051605
0.838409 0.310577 0.055695
0.867371 0.314392 0.060120
0.895447 0.318359 0.064453
0.923157 0.322083 0.068817
0.950287 0.326202 0.073059
0.977264 0.330109 0.077545
0.053925 0.242218 0.050110
0.070740 0.245422 0.051239
0.088501 0.250183 0.052673
0.108826 0.253998 0.053314
0.131378 0.258575 0.053589
0.157196 0.263397 0.053131
0.186279 0.268677 0.051819
0.219757 0.275146 0.049561
0.256134 0.282013 0.046631
0.294891 0.288788 0.042969
0.333038 0.293915 0.039124
0.369659 0.297791 0.035217
0.403809 0.301392 0.031860
0.436493 0.304474 0.029541
0.466980 0.309143 0.028351
0.495819 0.313477 0.027740
0.524994 0.316742 0.028229
0.552979 0.319550 0.029205
0.582947 0.321167 0.030823
0.611023 0.323425 0.032471
0.640442 0.324860 0.034973
0.670135 0.326416 0.037750
0.699707 0.329224 0.040588
0.728821 0.331512 0.043823
0.757721 0.334595 0.047211
0.786987 0.337463 0.050964
0.815735 0.340973 0.054840
0.844299 0.344238 0.058502
0.873108 0.347931 0.063171
0.901276 0.351440 0.067261
0.928772 0.355133 0.071442
0.956146 0.358093 0.075256
0.983093 0.361847 0.079559
0.063873 0.275330 0.057861
0.081390 0.279175 0.059235
0.100189 0.284210 0.060730
0.120544 0.288666 0.061859
0.143890 0.292999 0.062225
0.169342 0.297699 0.061951
0.198120 0.302917 0.060516
0.229858 0.308868 0.058655
0.264709 0.315338 0.056061
0.302246 0.321960 0.052429
0.340057 0.328033 0.048187
0.377319 0.332123 0.043671
0.412476 0.335358 0.039764
0.445282 0.338104 0.036835
0.476715 0.341400 0.034332
0.505127 0.345978 0.033508
0.533478 0.350372 0.032745
0.561523 0.353729 0.033447
0.589600 0.356720 0.034607
0.617645 0.359283 0.036102
0.645782 0.361481 0.038116
0.675598 0.363098 0.040894
0.705566 0.364746 0.043701
0.734650 0.367126 0.047119
0.763824 0.369354 0.050476
0.792999 0.372070 0.054260
0.822388 0.374786 0.058014
0.850891 0.377960 0.061554
0.879181 0.380859 0.066162
0.907196 0.384216 0.070190
0.934723 0.387634 0.074036
0.962006 0.390625 0.077576
0.989166 0.393219 0.081696
0.075104 0.308411 0.065796
0.093109 0.312836 0.067535
0.112152 0.318359 0.069550
0.133514 0.322815 0.070557
0.157013 0.327332 0.071014
0.182648 0.332245 0.071045
0.210632 0.337341 0.070496
0.241791 0.343170 0.068542
0.274689 0.349243 0.066071
0.310699 0.355652 0.062714
0.346985 0.361908 0.058594
0.383942 0.367188 0.053772
0.419708 0.370575 0.049377
0.453186 0.373077 0.045624
0.485229 0.375641 0.042664
0.515015 0.378448 0.040619
0.543060 0.383118 0.039673
0.569641 0.386810 0.039185
0.597656 0.390259 0.039886
0.625214 0.393341 0.040802
0.653290 0.395874 0.042786
0.681335 0.398224 0.044708
0.711487 0.399872 0.047607
0.740326 0.402161 0.050293
0.769531 0.404388 0.053802
0.799103 0.406342 0.057312
0.828400 0.408936 0.061096
0.857025 0.411255 0.064697
0.885345 0.414032 0.069214
0.913147 0.416229 0.072815
0.940552 0.419495 0.076813
0.967834 0.421875 0.080200
0.994995 0.424408 0.083984
0.087280 0.342377 0.074188
0.106262 0.346985 0.076233
0.126007 0.352417 0.078552
0.147522 0.357025 0.079926
0.170959 0.361755 0.080719
0.196167 0.366516 0.080963
0.224152 0.371552 0.080200
0.254242 0.377228 0.078888
0.286072 0.383148 0.076721
0.319946 0.389313 0.073639
0.354736 0.395569 0.069733
0.390717 0.401184 0.064880
0.426025 0.405487 0.060333
0.460083 0.408356 0.055817
0.492981 0.410614 0.051788
0.523529 0.412506 0.049225
0.552979 0.415405 0.047241
0.579010 0.419128 0.046326
0.605621 0.422638 0.045959
0.633179 0.425934 0.047119
0.661102 0.429016 0.048187
0.689026 0.431732 0.049744
0.717346 0.434143 0.051727
0.746338 0.436462 0.054321
0.775269 0.438843 0.056885
0.804779 0.440765 0.060547
0.834503 0.442688 0.063904
0.863098 0.444763 0.068054
0.891449 0.446808 0.072174
0.919220 0.448944 0.075775
0.946747 0.450836 0.079315
0.973999 0.453156 0.082855
1.000000 0.454956 0.086365
0.100800 0.375153 0.082916
0.120148 0.380219 0.085236
0.140137 0.385803 0.087921
0.161804 0.390839 0.089813
0.185669 0.395569 0.090698
0.210846 0.400391 0.091187
0.237823 0.405334 0.090912
0.267303 0.410767 0.089874
0.297852 0.416565 0.087952
0.330292 0.422760 0.085052
0.363129 0.428589 0.081268
0.397522 0.434357 0.077057
0.431946 0.439392 0.072235
0.465820 0.443024 0.067230
0.499207 0.445435 0.062683
0.530426 0.447235 0.059357
0.560852 0.449036 0.056976
0.588867 0.451355 0.055878
0.614929 0.454956 0.054993
0.640961 0.458252 0.054474
0.668732 0.461639 0.055603
0.696014 0.464630 0.056274
0.724243 0.467346 0.057800
0.752625 0.469696 0.059387
0.781647 0.472260 0.061707
0.810394 0.474091 0.063324
0.840149 0.475800 0.067444
0.868988 0.477264 0.070740
0.897400 0.479248 0.074982
0.925598 0.480682 0.078369
0.953217 0.482544 0.082031
0.980194 0.484009 0.085358
1.000000 0.485779 0.088837
0.114716 0.407684 0.092224
0.134491 0.413025 0.095184
0.155304 0.418732 0.098114
0.177307 0.423798 0.100220
0.200928 0.428589 0.101624
0.225922 0.433350 0.102417
0.252655 0.438293 0.102234
0.280579 0.443604 0.101501
0.310608 0.449341 0.099365
0.341095 0.455261 0.097015
0.372894 0.461151 0.093323
0.404877 0.466705 0.089661
0.438171 0.472046 0.084961
0.471252 0.476410 0.079620
0.504486 0.479736 0.074768
0.536102 0.481659 0.070923
0.567200 0.483368 0.067810
0.596771 0.484924 0.066345
0.624695 0.487305 0.065155
0.649994 0.490570 0.063904
0.676239 0.493866 0.063599
0.703247 0.496948 0.063904
0.730713 0.499969 0.064575
0.759369 0.502502 0.065735
0.788116 0.505005 0.067139
0.816864 0.506775 0.068878
0.845459 0.508514 0.070648
0.874634 0.509979 0.073730
0.903168 0.511200 0.077484
0.931519 0.512634 0.081024
0.959686 0.513855 0.084625
0.986755 0.515198 0.087982
1.000000 0.516327 0.091339
0.129333 0.439484 0.102234
0.149780 0.444946 0.105194
0.170380 0.450806 0.108551
0.192688 0.455688 0.111053
0.216705 0.460480 0.112671
0.241425 0.465302 0.113892
0.267548 0.470184 0.113983
0.294708 0.475464 0.113434
0.322723 0.480927 0.111816
0.352478 0.486816 0.109344
0.382416 0.492645 0.106323
0.413391 0.498322 0.102509
0.444427 0.503540 0.098206
0.476593 0.508423 0.093201
0.509003 0.512451 0.088043
0.540802 0.515137 0.083588
0.572266 0.516998 0.079559
0.601929 0.518524 0.077454
0.631592 0.520081 0.076019
0.658875 0.522400 0.074799
0.684204 0.525696 0.073639
0.710327 0.528503 0.072723
0.737518 0.531647 0.072906
0.765228 0.534363 0.073151
0.794159 0.537048 0.074188
0.822632 0.539276 0.075104
0.851440 0.541138 0.076416
0.879852 0.542572 0.077545
0.908783 0.543823 0.081085
0.937317 0.544769 0.083405
0.965790 0.545898 0.087006
0.992157 0.546722 0.090424
1.000000 0.547852 0.093811
0.144043 0.470123 0.112305
0.164551 0.475647 0.115906
0.185577 0.481537 0.119720
0.208160 0.486572 0.122314
0.232056 0.491516 0.124390
0.256897 0.496277 0.125732
0.282562 0.501190 0.126129
0.308685 0.506256 0.126129
0.335846 0.511749 0.124725
0.363373 0.517365 0.122894
0.392517 0.523254 0.119659
0.421692 0.529022 0.116272
0.451874 0.534393 0.112061
0.481781 0.539276 0.107422
0.513580 0.543854 0.102081
0.544678 0.547272 0.097229
0.576111 0.549988 0.092957
0.605865 0.551575 0.089294
0.635681 0.553253 0.087128
0.665161 0.554718 0.086029
0.692505 0.557159 0.084961
0.718109 0.559814 0.083405
0.744507 0.562805 0.082642
0.771637 0.565491 0.082458
0.799438 0.568207 0.082611
0.827942 0.570740 0.082947
0.856598 0.573303 0.083557
0.885376 0.574890 0.084290
0.914001 0.576355 0.085754
0.942932 0.577301 0.087585
0.971527 0.578186 0.089294
0.992157 0.578949 0.092651
1.000000 0.579529 0.096313
0.158997 0.500244 0.122894
0.179932 0.505981 0.126831
0.201294 0.511780 0.130890
0.223663 0.517212 0.134125
0.247742 0.521973 0.136444
0.272247 0.526825 0.138306
0.297485 0.531677 0.138947
0.322876 0.536560 0.139130
0.349060 0.541931 0.138123
0.375549 0.547424 0.136292
0.402435 0.553131 0.133698
0.430695 0.558960 0.130035
0.458954 0.564423 0.126495
0.488220 0.569427 0.121277
0.517792 0.574127 0.116364
0.548309 0.578278 0.111481
0.579346 0.581726 0.106323
0.609192 0.584137 0.102509
0.639191 0.585815 0.098938
0.668793 0.587494 0.097229
0.698395 0.589050 0.096466
0.725403 0.591187 0.095215
0.751068 0.594055 0.093567
0.777802 0.596436 0.092499
0.804962 0.599274 0.092163
0.832672 0.601624 0.091766
0.861084 0.604401 0.092133
0.889801 0.606323 0.091888
0.918701 0.608093 0.092499
0.947632 0.609283 0.093109
0.976715 0.610229 0.094147
0.992157 0.610901 0.095428
1.000000 0.611542 0.098877
0.174377 0.530090 0.133881
0.195282 0.535858 0.138000
0.216919 0.541718 0.142212
0.239166 0.546967 0.145630
0.262482 0.551971 0.148468
0.286926 0.556854 0.150604
0.311310 0.561554 0.151978
0.336182 0.566406 0.152222
0.361511 0.571686 0.151917
0.387054 0.577148 0.150482
0.412964 0.582703 0.148315
0.439148 0.588409 0.145233
0.466522 0.593994 0.141449
0.494263 0.599213 0.136536
0.523010 0.604095 0.131378
0.551849 0.608459 0.126373
0.582184 0.612549 0.121399
0.611755 0.615662 0.116638
0.641815 0.618195 0.112610
0.671570 0.619934 0.109802
0.701416 0.621735 0.108124
0.730225 0.623138 0.107208
0.757233 0.625427 0.105835
0.783508 0.627563 0.103821
0.810303 0.630157 0.102386
0.837585 0.632446 0.101410
0.865387 0.635040 0.100891
0.893799 0.636993 0.100342
0.922394 0.639008 0.099915
0.951843 0.640533 0.100220
0.981018 0.641815 0.100403
0.992157 0.642670 0.101105
1.000000 0.643402 0.102051
0.190308 0.559418 0.144714
0.211212 0.565460 0.149353
0.232391 0.571594 0.154327
0.254730 0.577057 0.158386
0.277924 0.581970 0.161591
0.301727 0.586731 0.163818
0.325592 0.591461 0.165344
0.349487 0.596069 0.166168
0.374237 0.601196 0.166107
0.398865 0.606567 0.165283
0.423676 0.611938 0.163544
0.448761 0.617584 0.160431
0.474304 0.623108 0.156799
0.501160 0.628448 0.151642
0.528412 0.633606 0.146851
0.556335 0.638031 0.141724
0.584991 0.642181 0.136353
0.614166 0.645935 0.131653
0.643921 0.649048 0.126617
0.673798 0.651611 0.123535
0.703705 0.653412 0.120514
0.732697 0.655121 0.119080
0.761688 0.656616 0.118134
0.788910 0.658386 0.116272
0.815247 0.660767 0.113647
0.842407 0.662842 0.112061
0.869751 0.665283 0.110626
0.897797 0.667358 0.109344
0.926147 0.669373 0.108643
0.954895 0.671051 0.108093
0.984314 0.672638 0.108185
0.992157 0.673859 0.108093
1.000000 0.674774 0.108521
0.206024 0.588867 0.156311
0.226715 0.594788 0.161377
0.247742 0.600861 0.166565
0.269714 0.606079 0.170441
0.292480 0.610962 0.173920
0.315704 0.615723 0.176819
0.338898 0.620300 0.178833
0.362244 0.625000 0.179993
0.385864 0.629883 0.180573
0.409607 0.635071 0.180206
0.433350 0.640472 0.178650
0.457428 0.645966 0.176117
0.482208 0.651550 0.172180
0.507660 0.657043 0.167786
0.533966 0.662170 0.162292
0.560608 0.666931 0.157349
0.588287 0.671204 0.152069
0.616577 0.674896 0.146515
0.645844 0.678619 0.141754
0.675507 0.681610 0.137360
0.705383 0.684174 0.134399
0.734558 0.685852 0.131378
0.763763 0.687592 0.129822
0.792480 0.688812 0.128052
0.819794 0.690887 0.125702
0.846680 0.692749 0.123169
0.873932 0.695068 0.121246
0.901733 0.697266 0.119232
0.929840 0.699310 0.118073
0.958221 0.701294 0.116974
0.984314 0.702911 0.116638
0.992157 0.704407 0.116028
1.000000 0.705597 0.116180
0.221100 0.617706 0.168091
0.241852 0.623810 0.173584
0.262909 0.629883 0.179474
0.284546 0.635376 0.184113
0.307068 0.640167 0.187805
0.329712 0.644989 0.190887
0.352661 0.649536 0.193115
0.375275 0.654144 0.195038
0.398315 0.658966 0.195709
0.420715 0.663818 0.195557
0.443665 0.669006 0.194550
0.466705 0.674438 0.192413
0.490356 0.679901 0.189117
0.514923 0.685425 0.184540
0.539825 0.690674 0.179474
0.565552 0.695496 0.173950
0.592133 0.700104 0.168610
0.619537 0.703918 0.162811
0.648071 0.707581 0.157318
0.677338 0.711151 0.153076
0.706696 0.714050 0.148438
0.736023 0.716583 0.145081
0.765320 0.718262 0.141815
0.794312 0.719879 0.139648
0.823120 0.721161 0.138214
0.850861 0.722870 0.135681
0.877838 0.724792 0.133057
0.905365 0.726837 0.130524
0.933319 0.729126 0.128479
0.961304 0.731110 0.126556
0.984314 0.732941 0.125519
0.992157 0.734589 0.124420
1.000000 0.736023 0.124084
0.236755 0.646545 0.180695
0.257019 0.652466 0.186401
0.277313 0.658386 0.192078
0.298309 0.663635 0.196869
0.320282 0.668304 0.200775
0.342346 0.672913 0.204102
0.364563 0.677429 0.206696
0.386719 0.681915 0.208588
0.408875 0.686523 0.209991
0.431000 0.691406 0.210266
0.453369 0.696594 0.209442
0.475922 0.701904 0.207520
0.498535 0.707336 0.204895
0.521881 0.712799 0.200775
0.546021 0.718079 0.195892
0.570587 0.723083 0.191040
0.596405 0.727814 0.185089
0.623016 0.732330 0.179291
0.650665 0.736053 0.173553
0.678589 0.739655 0.168518
0.707642 0.743195 0.163635
0.736847 0.746124 0.158722
0.766327 0.748596 0.155182
0.795380 0.750214 0.151794
0.824524 0.751831 0.149780
0.853638 0.752960 0.147919
0.881317 0.754791 0.145447
0.908539 0.756531 0.142029
0.936249 0.758606 0.139526
0.963776 0.760803 0.136658
0.984314 0.762787 0.134796
0.992157 0.764557 0.133240
1.000000 0.766235 0.132294
0.250183 0.674377 0.192657
0.270538 0.680359 0.198639
0.290771 0.686279 0.204865
0.311462 0.691650 0.210052
0.332794 0.696381 0.214569
0.354767 0.701080 0.218018
0.376556 0.705505 0.221039
0.398193 0.709991 0.223328
0.419922 0.714630 0.224823
0.441406 0.719360 0.225311
0.463470 0.724548 0.224609
0.485229 0.729706 0.223724
0.507294 0.735016 0.221191
0.529602 0.740356 0.218262
0.552582 0.745667 0.213989
0.576355 0.750793 0.209076
0.601044 0.755676 0.203308
0.626923 0.760254 0.197052
0.653564 0.764526 0.191223
0.680725 0.768280 0.185486
0.708801 0.771820 0.179901
0.737579 0.775208 0.174744
0.766876 0.778015 0.169342
0.796082 0.780334 0.165710
0.825317 0.781891 0.161987
0.854675 0.783386 0.159698
0.883942 0.784546 0.157562
0.911499 0.786133 0.154266
0.938721 0.787842 0.150970
0.966217 0.789886 0.147827
0.984314 0.792053 0.145142
0.992157 0.793976 0.142487
1.000000 0.795776 0.141113
0.264404 0.702515 0.205231
0.284241 0.708435 0.211639
0.303955 0.714172 0.217804
0.324432 0.719360 0.222961
0.345459 0.724121 0.227386
0.366669 0.728760 0.231201
0.388153 0.733154 0.234375
0.409363 0.737579 0.236877
0.430542 0.742157 0.238678
0.451691 0.746796 0.239380
0.472565 0.751648 0.240021
0.493988 0.756714 0.238892
0.515228 0.761993 0.237732
0.537048 0.767395 0.234741
0.559326 0.772766 0.231293
0.582275 0.778076 0.226837
0.606171 0.782898 0.221069
0.631042 0.787567 0.215088
0.656830 0.791931 0.208588
0.683014 0.795868 0.202972
0.710388 0.799530 0.196869
