lut/retro-80s/The Princess Bride Official (1987) - Standard.cube
# Created by Benjamin (IWLTBAP): https://luts.iwltbap.com
# Copyright: (C) Copyright 2018 Triune Films and IWLTBAP SAS
# Cannot be resold, shared or otherwise redistributed
TITLE "Triune Films 80s Retro LUTs (Rec.709, sRGB, DCI-P3)"
LUT_3D_SIZE 5
0.001587 0.000000 0.000000
0.155090 0.027802 0.002380
0.382172 0.057098 0.002747
0.587067 0.088379 0.024719
0.785065 0.129364 0.078918
0.128571 0.165436 0.115906
0.288269 0.202240 0.055298
0.512390 0.228119 0.015259
0.707977 0.256042 0.040344
0.891266 0.299713 0.093475
0.283417 0.437714 0.278839
0.402557 0.468048 0.198853
0.583405 0.494476 0.085449
0.771973 0.501617 0.055298
0.973419 0.517456 0.071045
0.411896 0.701904 0.422791
0.495056 0.718842 0.353363
0.616638 0.744720 0.208344
0.779877 0.754120 0.119385
0.994781 0.750092 0.037109
0.388977 0.919525 0.403778
0.489868 0.934021 0.344635
0.611176 0.962646 0.228851
0.780304 0.985199 0.114960
0.995605 0.995331 0.055878
0.022278 0.035492 0.100342
0.135040 0.054871 0.079926
0.352386 0.078308 0.084106
0.553741 0.104187 0.131775
0.759491 0.148102 0.205872
0.105530 0.195343 0.258301
0.244080 0.226379 0.216400
0.501434 0.237213 0.162384
0.691650 0.268066 0.198029
0.868744 0.317139 0.262726
0.273224 0.479797 0.451996
0.383331 0.504669 0.399597
0.578552 0.509644 0.278931
0.772217 0.509521 0.261383
0.967926 0.525787 0.283081
0.416412 0.731964 0.596008
0.501526 0.743561 0.541351
0.616669 0.753082 0.401642
0.778870 0.757446 0.317291
0.995758 0.751282 0.269531
0.409515 0.926025 0.573273
0.508911 0.941223 0.529816
0.615387 0.962433 0.429565
0.778656 0.984772 0.330078
0.995728 0.995483 0.286102
0.044373 0.107452 0.246368
0.112793 0.121399 0.220459
0.315735 0.156403 0.186676
0.524994 0.197693 0.251892
0.717529 0.239868 0.354156
0.118164 0.257629 0.398193
0.196777 0.290771 0.396423
0.443298 0.315063 0.329254
0.651855 0.351837 0.372925
0.818970 0.395203 0.454010
0.304749 0.518677 0.606201
0.381287 0.577606 0.642242
0.587555 0.590973 0.570496
0.770447 0.561340 0.506104
0.936798 0.563843 0.515564
0.448273 0.768524 0.787567
0.508392 0.787140 0.775848
0.647858 0.788910 0.676331
0.797546 0.769043 0.555542
0.993958 0.756805 0.513611
0.429047 0.932800 0.753296
0.525879 0.946106 0.726990
0.632538 0.964233 0.651367
0.781921 0.982788 0.558319
0.996155 0.995056 0.520508
0.056366 0.184753 0.386902
0.096252 0.196075 0.372314
0.277618 0.235748 0.317474
0.496979 0.321320 0.355194
0.687073 0.390503 0.493561
0.136658 0.333923 0.527954
0.189880 0.364716 0.538177
0.380554 0.396881 0.482758
0.608429 0.477112 0.504791
0.772583 0.530701 0.612000
0.376556 0.573822 0.690887
0.443298 0.628906 0.731842
0.571442 0.668976 0.738983
0.745911 0.690094 0.713165
0.877319 0.674316 0.722931
0.556976 0.787567 0.861206
0.593048 0.819000 0.886292
0.678741 0.845123 0.889343
0.834290 0.842102 0.828918
0.971283 0.799286 0.766144
0.481659 0.938385 0.896240
0.559296 0.950256 0.890289
0.655792 0.967621 0.863373
0.808502 0.983337 0.812836
0.997406 0.993500 0.770844
0.059265 0.250519 0.496613
0.079681 0.260864 0.495850
0.230988 0.298035 0.451202
0.476196 0.410736 0.465027
0.651947 0.554718 0.585785
0.157654 0.404480 0.635193
0.195892 0.432159 0.650238
0.332520 0.459595 0.617096
0.575439 0.556244 0.617706
0.731628 0.670776 0.700500
0.443665 0.640198 0.771973
0.494690 0.678375 0.797943
0.565430 0.707275 0.815979
0.709351 0.745178 0.809235
0.827850 0.793793 0.818970
0.635773 0.810913 0.884155
0.661804 0.832489 0.901398
0.708282 0.855621 0.918732
0.816864 0.876312 0.928436
0.937286 0.867310 0.928864
0.504700 0.938904 0.978455
0.584137 0.950043 0.984833
0.666748 0.965485 0.992065
0.806427 0.986755 0.999542
0.998718 0.998505 1.000000
