lut/retro-80s/The Thing (1982) - Standard.cube
# Created by Benjamin (IWLTBAP): https://luts.iwltbap.com
# Copyright: (C) Copyright 2018 Triune Films and IWLTBAP SAS
# Cannot be resold, shared or otherwise redistributed
TITLE "Triune Films 80s Retro LUTs (Rec.709, sRGB, DCI-P3)"
LUT_3D_SIZE 5
0.000000 0.000000 0.001221
0.139771 0.008728 0.009064
0.311676 0.025818 0.021271
0.529999 0.040955 0.034302
0.740845 0.062897 0.051605
0.007263 0.168274 0.040588
0.194855 0.192932 0.041199
0.408569 0.213654 0.046326
0.624695 0.226166 0.062134
0.832184 0.255035 0.087982
0.011292 0.374939 0.100525
0.236328 0.412811 0.102997
0.495514 0.455780 0.122406
0.720215 0.487671 0.105774
0.928955 0.509216 0.137268
0.102631 0.617767 0.207611
0.315643 0.648193 0.210022
0.580902 0.695923 0.221771
0.766418 0.729797 0.222565
0.983307 0.750183 0.120239
0.208374 0.869751 0.273987
0.399811 0.890167 0.274872
0.612640 0.922516 0.258423
0.801117 0.950348 0.247528
0.993195 0.981323 0.206421
0.000000 0.017670 0.155487
0.138367 0.017487 0.151642
0.308441 0.025970 0.141113
0.530884 0.040894 0.152863
0.741699 0.066711 0.177032
0.000000 0.196259 0.204193
0.172913 0.208771 0.215820
0.411865 0.203156 0.193542
0.632568 0.225647 0.211365
0.830841 0.265594 0.247559
0.000000 0.407440 0.265289
0.200623 0.447906 0.272034
0.504089 0.484650 0.282379
0.730621 0.503662 0.301056
0.927948 0.521606 0.329559
0.128052 0.649750 0.362488
0.310883 0.679779 0.377014
0.568115 0.719116 0.388611
0.774933 0.747711 0.396362
0.988434 0.757568 0.326111
0.229218 0.893616 0.441986
0.406586 0.910492 0.443970
0.603973 0.932281 0.430511
0.801117 0.959961 0.421173
0.996368 0.985840 0.395294
0.000000 0.048706 0.304504
0.108490 0.051025 0.319824
0.295319 0.048920 0.307281
0.508179 0.061676 0.315521
0.729065 0.100525 0.346252
0.000000 0.230255 0.386139
0.131683 0.231293 0.425201
0.386902 0.226654 0.409698
0.626343 0.255310 0.413116
0.817535 0.301178 0.450104
0.057098 0.456940 0.460449
0.221344 0.501648 0.507935
0.492859 0.525238 0.541840
0.732330 0.525299 0.522278
0.905609 0.544739 0.546112
0.184387 0.693420 0.563507
0.353088 0.726013 0.586456
0.562469 0.752258 0.601654
0.780914 0.767395 0.594818
0.987885 0.765686 0.560120
0.253265 0.915710 0.627167
0.419647 0.933655 0.628510
0.594604 0.949860 0.613586
0.793121 0.968201 0.601990
0.998871 0.991150 0.587830
0.000000 0.074066 0.449982
0.043549 0.082123 0.499298
0.290619 0.078705 0.488525
0.527985 0.108490 0.522522
0.749695 0.150391 0.580536
0.000000 0.270111 0.568237
0.112091 0.283051 0.620178
0.387665 0.278076 0.625488
0.638580 0.309784 0.640167
0.821564 0.344208 0.671936
0.095947 0.512299 0.658081
0.268463 0.557281 0.710693
0.502930 0.561310 0.746338
0.734283 0.566101 0.738739
0.897858 0.579926 0.747162
0.236420 0.732178 0.744873
0.396881 0.761993 0.773285
0.583496 0.785187 0.798431
0.783630 0.792725 0.803802
0.963135 0.786682 0.793671
0.275238 0.934326 0.800995
0.432220 0.951263 0.809052
0.597015 0.967346 0.809418
0.793457 0.979340 0.808380
0.998535 0.994598 0.803101
0.000000 0.108856 0.608002
0.043365 0.146271 0.706390
0.317352 0.137390 0.697571
0.589264 0.166565 0.722382
0.766815 0.204895 0.761841
0.000000 0.325073 0.760620
0.157379 0.368225 0.819153
0.430420 0.337524 0.818237
0.669464 0.350189 0.811737
0.834381 0.393799 0.837524
0.168396 0.566284 0.835297
0.340240 0.615173 0.884064
0.538574 0.604950 0.903748
0.736908 0.599762 0.898102
0.905182 0.617126 0.911743
0.293701 0.769653 0.901764
0.437958 0.798065 0.935089
0.604065 0.806000 0.956940
0.784332 0.805023 0.967834
0.963196 0.799774 0.972900
0.296478 0.951172 0.962860
0.447845 0.962585 0.973846
0.608002 0.972961 0.983429
0.800507 0.984283 0.991852
0.999115 0.997009 0.999603
