lut/retro-80s/The Princess Bride Official (1987) - Standard.cube
# Created by Benjamin (IWLTBAP): https://luts.iwltbap.com
# Copyright: (C) Copyright 2018 Triune Films and IWLTBAP SAS
# Cannot be resold, shared or otherwise redistributed
TITLE "Triune Films 80s Retro LUTs (Rec.709, sRGB, DCI-P3)"
LUT_3D_SIZE 9
0.001587 0.000000 0.000000
0.059784 0.011444 0.002258
0.155090 0.027802 0.002380
0.270233 0.043152 0.000793
0.382172 0.057098 0.002747
0.486511 0.071503 0.010071
0.587067 0.088379 0.024719
0.686035 0.107330 0.048523
0.785065 0.129364 0.078918
0.064056 0.067963 0.050415
0.126678 0.083588 0.037994
0.225464 0.100494 0.020203
0.340546 0.113708 0.007721
0.449432 0.125427 0.006531
0.550415 0.139282 0.014954
0.646881 0.157379 0.033142
0.741943 0.180084 0.058716
0.836578 0.205292 0.089722
0.128571 0.165436 0.115906
0.189667 0.182556 0.092896
0.288269 0.202240 0.055298
0.404297 0.217194 0.024719
0.512390 0.228119 0.015259
0.612457 0.240082 0.022461
0.707977 0.256042 0.040344
0.800568 0.276825 0.065735
0.891266 0.299713 0.093475
0.203918 0.293365 0.193970
0.258118 0.308685 0.168152
0.346283 0.329803 0.116577
0.454498 0.347290 0.064240
0.557220 0.356598 0.039642
0.654694 0.365326 0.036041
0.752167 0.377197 0.046692
0.847595 0.391907 0.065460
0.939758 0.407745 0.087250
0.283417 0.437714 0.278839
0.331390 0.449860 0.254364
0.402557 0.468048 0.198853
0.492462 0.486023 0.129608
0.583405 0.494476 0.085449
0.674652 0.497192 0.064056
0.771973 0.501617 0.055298
0.873566 0.509064 0.058838
0.973419 0.517456 0.071045
0.355469 0.578888 0.359528
0.398590 0.587646 0.336517
0.453857 0.601074 0.284363
0.523834 0.616669 0.209106
0.599701 0.626984 0.146149
0.683228 0.629700 0.109161
0.777130 0.628113 0.079071
0.881805 0.627716 0.057098
0.990997 0.629517 0.048950
0.411896 0.701904 0.422791
0.450562 0.708435 0.399689
0.495056 0.718842 0.353363
0.551544 0.732635 0.282410
0.616638 0.744720 0.208344
0.691467 0.752350 0.155762
0.779877 0.754120 0.119385
0.881287 0.752014 0.076691
0.994781 0.750092 0.037109
0.450500 0.806366 0.465454
0.487152 0.812256 0.441711
0.526550 0.821808 0.400452
0.574799 0.835999 0.336884
0.630859 0.850952 0.256683
0.698792 0.862793 0.185120
0.782318 0.870544 0.135834
0.881348 0.873535 0.095612
0.993378 0.874176 0.050751
0.388977 0.919525 0.403778
0.440308 0.925079 0.381989
0.489868 0.934021 0.344635
0.545197 0.947601 0.291870
0.611176 0.962646 0.228851
0.689606 0.975494 0.165985
0.780304 0.985199 0.114960
0.882935 0.991608 0.082031
0.995605 0.995331 0.055878
0.009949 0.011322 0.038300
0.062836 0.020599 0.035339
0.150604 0.032227 0.030975
0.262451 0.044067 0.031281
0.371033 0.055084 0.037415
0.471985 0.067841 0.051880
0.570618 0.083679 0.073425
0.671326 0.104187 0.102356
0.774078 0.129730 0.136932
0.053741 0.079132 0.105713
0.114166 0.093048 0.091125
0.215637 0.104614 0.068268
0.335876 0.111938 0.052307
0.444061 0.120880 0.053589
0.540771 0.134521 0.067291
0.634064 0.153290 0.090668
0.728638 0.177277 0.120483
0.824524 0.204498 0.154510
0.114868 0.176422 0.178436
0.173340 0.192688 0.158478
0.275696 0.208496 0.119537
0.401245 0.218536 0.086670
0.513184 0.226318 0.079010
0.611267 0.238007 0.089722
0.703461 0.255676 0.111694
0.793701 0.278198 0.140106
0.883209 0.302795 0.170929
0.193512 0.307190 0.260986
0.245422 0.322327 0.240143
0.333466 0.338959 0.191071
0.448578 0.352234 0.139252
0.557129 0.359100 0.117615
0.656097 0.366516 0.118622
0.752289 0.378540 0.132660
0.845551 0.394135 0.154175
0.935699 0.411133 0.177979
0.278290 0.454346 0.352234
0.325378 0.466064 0.332092
0.394714 0.479553 0.281128
0.486450 0.492737 0.213715
0.581085 0.499084 0.171753
0.674713 0.500183 0.155212
0.772919 0.503601 0.151031
0.873993 0.510834 0.157501
0.972565 0.519623 0.171051
0.355560 0.595093 0.437653
0.399078 0.603455 0.417480
0.452881 0.612732 0.369904
0.521332 0.623596 0.298126
0.597473 0.631592 0.236786
0.682159 0.632965 0.202301
0.777405 0.629913 0.178070
0.882568 0.628784 0.161438
0.991241 0.630554 0.156616
0.415466 0.714844 0.501465
0.455444 0.721191 0.480530
0.499451 0.728638 0.438171
0.553009 0.738251 0.371857
0.615906 0.747925 0.300568
0.690277 0.754730 0.249664
0.779541 0.755737 0.216919
0.881683 0.752747 0.182343
0.995239 0.750305 0.150970
0.457916 0.814789 0.541779
0.495941 0.821320 0.521149
0.534790 0.829163 0.483917
0.579102 0.839874 0.424744
0.631470 0.852325 0.349274
0.697937 0.863495 0.281342
0.781647 0.871124 0.235504
0.881348 0.873901 0.201385
0.993713 0.874176 0.165283
0.398895 0.923157 0.486633
0.450562 0.929688 0.468201
0.498657 0.938080 0.435059
0.550201 0.949280 0.386353
0.612457 0.962463 0.327789
0.689087 0.975067 0.269440
0.779694 0.985107 0.222382
0.882629 0.991699 0.192780
0.995636 0.995392 0.171051
0.022278 0.035492 0.100342
0.060974 0.043762 0.091980
0.135040 0.054871 0.079926
0.241730 0.067413 0.075317
0.352386 0.078308 0.084106
0.454895 0.089752 0.103973
0.553741 0.104187 0.131775
0.655273 0.123840 0.166229
0.759491 0.148102 0.205872
0.054871 0.101532 0.173401
0.098358 0.113739 0.164093
0.186157 0.124573 0.139587
0.309692 0.131500 0.116943
0.425812 0.139130 0.115967
0.524780 0.151794 0.133270
0.617676 0.170380 0.160919
0.712067 0.193878 0.195343
0.808472 0.220673 0.233673
0.105530 0.195343 0.258301
0.150574 0.212708 0.250031
0.244080 0.226379 0.216400
0.378601 0.232330 0.176117
0.501434 0.237213 0.162384
0.601379 0.248901 0.173492
0.691650 0.268066 0.198029
0.780151 0.291870 0.229462
0.868744 0.317139 0.262726
0.184052 0.327637 0.351929
0.227661 0.345978 0.344391
0.311249 0.360870 0.305695
0.434692 0.367889 0.248810
0.552673 0.369446 0.219971
0.653687 0.374512 0.220032
0.747803 0.386749 0.234985
0.838043 0.403442 0.257080
0.925629 0.421417 0.280975
0.273224 0.479797 0.451996
0.315948 0.494049 0.441589
0.383331 0.504669 0.399597
0.479187 0.509979 0.328979
0.578552 0.509644 0.278931
0.673920 0.507416 0.262451
0.772217 0.509521 0.261383
0.871704 0.516632 0.269684
0.967926 0.525787 0.283081
0.353638 0.619720 0.538910
0.395294 0.628784 0.524506
0.449158 0.634827 0.482758
0.519104 0.638245 0.409760
0.596222 0.639862 0.340912
0.681030 0.637939 0.304474
0.777039 0.633484 0.285767
0.882477 0.631897 0.275482
0.990204 0.633911 0.274506
0.416412 0.731964 0.596008
0.456177 0.738434 0.579102
0.501526 0.743561 0.541351
0.555359 0.748138 0.476135
0.616669 0.753082 0.401642
0.689392 0.757385 0.347443
0.778870 0.757446 0.317291
0.881958 0.753906 0.291534
0.995758 0.751282 0.269531
0.464722 0.823914 0.628296
0.503082 0.830597 0.611450
0.542969 0.837555 0.578735
0.585358 0.845306 0.521729
0.633972 0.854462 0.447418
0.697418 0.864044 0.379944
0.780548 0.871490 0.335876
0.881165 0.874115 0.307648
0.994263 0.874146 0.280365
0.409515 0.926025 0.573273
0.461304 0.932861 0.558502
0.508911 0.941223 0.529816
0.557617 0.951050 0.485046
0.615387 0.962433 0.429565
0.688782 0.974396 0.374207
0.778656 0.984772 0.330078
0.882080 0.991730 0.303406
0.995728 0.995483 0.286102
0.035095 0.069794 0.172119
0.062744 0.076782 0.164032
0.122620 0.086304 0.144592
0.221558 0.099884 0.127960
0.333679 0.114502 0.133575
0.438782 0.128571 0.158386
0.536804 0.143585 0.192596
0.635529 0.161621 0.232819
0.737213 0.183319 0.278046
0.063202 0.133392 0.244202
0.092468 0.144745 0.240631
0.161469 0.155090 0.217255
0.277649 0.165009 0.186493
0.401581 0.177094 0.180786
0.506866 0.191406 0.201630
0.599548 0.208557 0.234619
0.691254 0.229614 0.273651
0.785248 0.253845 0.316406
0.108978 0.222931 0.330719
0.139526 0.241089 0.334442
0.212250 0.255737 0.313599
0.340881 0.263184 0.270966
0.475861 0.268829 0.248840
0.583069 0.280273 0.259521
0.673035 0.298676 0.287323
0.759277 0.321716 0.321838
0.845886 0.346100 0.358368
0.185638 0.348969 0.433350
0.218323 0.373566 0.444092
0.287018 0.394501 0.430817
0.410492 0.401947 0.381531
0.542267 0.398041 0.337494
0.647369 0.398071 0.328308
0.737732 0.408356 0.341614
0.823364 0.424744 0.363831
0.907318 0.442566 0.388031
0.282501 0.502808 0.546631
0.316040 0.524780 0.554535
0.374573 0.542114 0.538696
0.474701 0.546204 0.481598
0.584473 0.536255 0.415924
0.678986 0.525085 0.383911
0.771729 0.523102 0.378540
0.865753 0.528992 0.385864
0.957245 0.537903 0.398132
0.364197 0.645203 0.643005
0.397217 0.658173 0.640808
0.446320 0.666534 0.615784
0.521851 0.666595 0.553284
0.606995 0.658997 0.474884
0.689270 0.648590 0.423767
0.780151 0.640137 0.401459
0.881989 0.637543 0.393646
0.986572 0.639679 0.394867
0.422150 0.751129 0.698303
0.456024 0.758484 0.688568
0.500183 0.763611 0.660309
0.559387 0.765198 0.602081
0.625702 0.764160 0.524048
0.696136 0.762665 0.459869
0.781769 0.759888 0.425385
0.883057 0.755371 0.404144
0.995911 0.752838 0.389771
0.472198 0.834076 0.722778
0.507629 0.840698 0.710724
0.548279 0.847290 0.684418
0.592621 0.853424 0.631744
0.641571 0.859100 0.558258
0.701019 0.865448 0.487305
0.781250 0.871552 0.440979
0.881500 0.874023 0.415894
0.995026 0.874084 0.396149
0.419189 0.929016 0.663696
0.470428 0.935333 0.652222
0.518768 0.943542 0.628540
0.567261 0.952911 0.589050
0.621521 0.962952 0.536621
0.690216 0.973663 0.482391
0.777802 0.984070 0.439331
0.881378 0.991608 0.414520
0.995911 0.995605 0.401154
0.044373 0.107452 0.246368
0.064636 0.113708 0.240479
0.112793 0.121399 0.220459
0.203125 0.135712 0.193909
0.315735 0.156403 0.186676
0.424652 0.177704 0.209717
0.524994 0.197693 0.251892
0.621613 0.218231 0.301666
0.717529 0.239868 0.354156
0.071014 0.170868 0.317474
0.091980 0.181244 0.317596
0.145142 0.191223 0.298218
0.248993 0.203491 0.262573
0.375336 0.222076 0.244843
0.488312 0.243500 0.263977
0.584625 0.265045 0.305267
0.674377 0.287109 0.353088
0.763031 0.309174 0.401581
0.118164 0.257629 0.398193
0.141479 0.274841 0.406769
0.196777 0.290771 0.396423
0.307007 0.302307 0.359222
0.443298 0.315063 0.329254
0.559082 0.331940 0.338379
0.651855 0.351837 0.372925
0.736145 0.373718 0.413818
0.818970 0.395203 0.454010
0.199646 0.375214 0.493225
0.227692 0.401611 0.511749
0.281433 0.428131 0.518097
0.385986 0.444794 0.492676
0.519623 0.448853 0.451721
0.631836 0.450012 0.436829
0.720428 0.456604 0.449585
0.801117 0.468719 0.472260
0.880249 0.482330 0.496246
0.304749 0.518677 0.606201
0.334198 0.548523 0.628937
0.381287 0.577606 0.642242
0.470001 0.595032 0.623566
0.587555 0.590973 0.570496
0.686493 0.573273 0.523682
0.770447 0.561340 0.506104
0.853760 0.559967 0.507385
0.936798 0.563843 0.515564
0.394623 0.661469 0.717560
0.419678 0.682159 0.730865
0.458252 0.699951 0.732086
0.529816 0.708679 0.703827
0.627808 0.702118 0.640991
0.713074 0.681763 0.574036
0.791870 0.662506 0.534088
0.881409 0.653870 0.519135
0.976532 0.652740 0.517578
0.448273 0.768524 0.787567
0.472595 0.778748 0.787964
0.508392 0.787140 0.775848
0.568207 0.791290 0.739624
0.647858 0.788910 0.676331
0.722412 0.779846 0.605133
0.797546 0.769043 0.555542
0.888123 0.760529 0.527466
0.993958 0.756805 0.513611
0.491516 0.845398 0.813477
0.519989 0.852234 0.807251
0.555420 0.859070 0.789642
0.601044 0.865143 0.749573
0.658447 0.869080 0.688477
0.719330 0.870972 0.618561
0.792053 0.872894 0.565155
0.885773 0.873810 0.535461
0.995514 0.873962 0.516418
0.429047 0.932800 0.753296
0.477966 0.938477 0.745087
0.525879 0.946106 0.726990
0.576355 0.955078 0.695526
0.632538 0.964233 0.651367
0.699066 0.973389 0.601501
0.781921 0.982788 0.558319
0.882599 0.990448 0.532562
0.996155 0.995056 0.520508
0.051941 0.146179 0.319397
0.066254 0.151672 0.315796
0.104675 0.158539 0.298248
0.185577 0.172638 0.268494
0.297485 0.198273 0.249268
0.409058 0.229980 0.261139
0.511261 0.259186 0.304565
0.608856 0.285583 0.364838
0.704224 0.311157 0.429443
0.076752 0.209656 0.388458
0.092621 0.219391 0.390717
0.133881 0.228882 0.376373
0.223755 0.241547 0.342102
0.347992 0.264984 0.314423
0.466370 0.297150 0.322296
0.566986 0.328339 0.365417
0.658539 0.355560 0.423889
0.746704 0.380096 0.483337
0.127594 0.295441 0.464539
0.147278 0.311829 0.474640
0.191132 0.327698 0.470551
0.281982 0.340790 0.441010
0.410431 0.359192 0.407227
0.532227 0.387329 0.407196
0.629913 0.415680 0.443909
0.714813 0.439362 0.493713
0.795441 0.459473 0.541595
0.220703 0.408905 0.549255
0.247620 0.433777 0.567627
0.293060 0.460266 0.579681
0.374939 0.480469 0.569519
0.492920 0.494720 0.540314
0.608337 0.509918 0.526123
0.699280 0.522552 0.541107
0.776917 0.531891 0.568665
0.851013 0.539886 0.595612
0.338379 0.542084 0.648468
0.367798 0.571991 0.672607
0.409088 0.603821 0.695007
0.477142 0.629028 0.700958
0.578918 0.640778 0.679138
0.680908 0.638824 0.646332
0.761658 0.628021 0.627716
0.834503 0.617737 0.625366
0.907440 0.611603 0.629639
0.439301 0.673462 0.755157
0.462585 0.698700 0.776489
0.493469 0.723297 0.794281
0.547028 0.742432 0.797638
0.636047 0.750336 0.773621
0.729340 0.739807 0.724396
0.803162 0.716125 0.677246
0.876190 0.696350 0.651703
0.955444 0.684967 0.642395
0.500824 0.779083 0.840302
0.518921 0.793976 0.850494
0.544159 0.807434 0.854889
0.589539 0.817963 0.845917
0.666840 0.822968 0.815430
0.752258 0.816162 0.761230
0.822510 0.798004 0.702515
0.896088 0.779877 0.661560
0.986908 0.769775 0.642090
0.538940 0.855072 0.881378
0.558441 0.863159 0.881714
0.581329 0.871246 0.873749
0.618225 0.878693 0.852539
0.677429 0.884033 0.815033
0.746796 0.884491 0.761505
0.815033 0.880859 0.705688
0.895905 0.877136 0.666779
0.995148 0.875549 0.643860
0.448883 0.936707 0.833832
0.493134 0.942017 0.829346
0.536713 0.949005 0.817657
0.585419 0.957489 0.796448
0.644775 0.966309 0.766113
0.715210 0.974426 0.728638
0.794586 0.981964 0.688812
0.888123 0.988678 0.660004
0.996552 0.993805 0.646179
0.056366 0.184753 0.386902
0.066406 0.189911 0.385712
0.096252 0.196075 0.372314
0.167145 0.208893 0.343475
0.277618 0.235748 0.317474
0.393951 0.276154 0.318939
0.496979 0.321320 0.355194
0.592865 0.359833 0.418976
0.687073 0.390503 0.493561
0.081146 0.247467 0.453491
0.092682 0.256592 0.457550
0.124634 0.265656 0.448273
0.200836 0.277557 0.418396
0.320374 0.302155 0.386688
0.444427 0.343384 0.384308
0.548676 0.390411 0.420563
0.639832 0.428986 0.482361
0.727203 0.456970 0.550751
0.136658 0.333923 0.527954
0.154419 0.349518 0.538239
0.189880 0.364716 0.538177
0.263580 0.377380 0.515594
0.380554 0.396881 0.482758
0.505707 0.433594 0.474731
0.608429 0.477112 0.504791
0.693512 0.510040 0.557068
0.772583 0.530701 0.612000
0.243347 0.446655 0.605896
0.269775 0.469604 0.622284
0.309143 0.494171 0.635101
0.372803 0.513092 0.631897
0.470764 0.529419 0.611359
0.582825 0.554962 0.598114
0.677612 0.583618 0.610535
0.754272 0.600311 0.640686
0.824554 0.606049 0.673523
0.376556 0.573822 0.690887
0.405792 0.600342 0.711151
0.443298 0.628906 0.731842
0.494781 0.652496 0.743774
0.571442 0.668976 0.738983
0.664185 0.682404 0.723450
0.745911 0.690094 0.713165
0.813263 0.685547 0.714783
0.877319 0.674316 0.722931
0.487152 0.692657 0.780884
0.510284 0.715881 0.800323
0.537933 0.739227 0.819305
0.576569 0.759430 0.832489
0.640747 0.775024 0.832672
0.724731 0.782410 0.814758
0.799835 0.776672 0.787109
0.862488 0.759247 0.765381
0.925842 0.738983 0.754364
0.556976 0.787567 0.861206
0.573303 0.803772 0.874878
0.593048 0.819000 0.886292
0.623199 0.832764 0.892670
0.678741 0.845123 0.889343
0.759216 0.850983 0.868134
0.834290 0.842102 0.828918
0.897339 0.819885 0.789246
0.971283 0.799286 0.766144
0.595551 0.859528 0.913513
0.609619 0.869141 0.918884
0.624634 0.878418 0.920258
0.648041 0.887299 0.915314
0.692719 0.895721 0.901245
0.761017 0.900452 0.873718
0.833771 0.897400 0.833252
0.906647 0.889557 0.794281
0.992737 0.883423 0.769836
0.481659 0.938385 0.896240
0.521545 0.943573 0.895416
0.559296 0.950256 0.890289
0.601105 0.958435 0.879700
0.655792 0.967621 0.863373
0.727417 0.976349 0.841248
0.808502 0.983337 0.812836
0.896393 0.988708 0.785736
0.997406 0.993500 0.770844
0.058655 0.219910 0.445587
0.065430 0.224701 0.446747
0.087585 0.230438 0.438141
0.148132 0.242035 0.413605
0.255035 0.268463 0.385376
0.377747 0.313995 0.379791
0.485962 0.371765 0.409363
0.579193 0.429230 0.468597
0.667938 0.475098 0.544556
0.084259 0.282013 0.510590
0.093414 0.290741 0.516052
0.117828 0.299530 0.511658
0.180817 0.310608 0.488098
0.293091 0.334717 0.456482
0.422791 0.380035 0.447906
0.533966 0.439270 0.477020
0.624176 0.495850 0.533661
0.706360 0.537079 0.602173
0.146759 0.370667 0.585114
0.162781 0.385315 0.595062
0.191803 0.399780 0.597900
0.250702 0.411316 0.581879
0.354736 0.429749 0.552612
0.481262 0.468964 0.540283
0.590698 0.523315 0.562653
0.675720 0.572632 0.609009
0.749939 0.604309 0.663696
0.266113 0.484863 0.659424
0.291107 0.505615 0.673462
0.325043 0.527496 0.685577
0.374451 0.544006 0.686096
0.454559 0.558929 0.671722
0.560028 0.586273 0.659637
0.658112 0.625183 0.667419
0.734680 0.658203 0.693390
0.799927 0.674194 0.727325
0.412323 0.607635 0.732880
0.439545 0.630188 0.748932
0.472015 0.654175 0.765991
0.511078 0.674042 0.778625
0.567749 0.689240 0.780945
0.646576 0.706055 0.774109
0.727356 0.726227 0.768219
0.793396 0.739563 0.771545
0.850647 0.738434 0.783508
0.529846 0.715454 0.806000
0.551117 0.734528 0.821106
0.575165 0.753876 0.836578
0.604431 0.771088 0.849945
0.649261 0.786438 0.857910
0.715485 0.799866 0.855835
0.786438 0.809265 0.844513
0.845581 0.809662 0.833282
0.898621 0.796509 0.828735
0.601685 0.799072 0.873199
0.616272 0.812775 0.884613
0.633057 0.826080 0.895355
0.655212 0.838776 0.904480
0.693451 0.852295 0.910950
0.756378 0.864899 0.909607
0.827026 0.868652 0.895782
0.888062 0.857727 0.876923
0.951721 0.837280 0.863800
0.631714 0.862640 0.924438
0.644958 0.871704 0.931305
0.657135 0.880493 0.936646
0.673462 0.889038 0.939941
0.704285 0.898346 0.940460
0.760406 0.907349 0.934998
0.833771 0.911041 0.919678
0.907898 0.906860 0.898438
0.986877 0.898743 0.882172
0.504669 0.937500 0.940063
0.544495 0.942993 0.942078
0.580414 0.949615 0.942139
0.617920 0.957367 0.940002
0.665497 0.966522 0.935486
0.731506 0.976746 0.927704
0.813416 0.985565 0.915192
0.901825 0.991272 0.899323
0.998505 0.995117 0.888489
0.059265 0.250519 0.496613
0.063721 0.255066 0.499603
0.079681 0.260864 0.495850
0.129822 0.271912 0.478058
0.230988 0.298035 0.451202
0.359467 0.346100 0.440247
0.476196 0.410736 0.465027
0.571045 0.483246 0.519318
0.651947 0.554718 0.585785
0.087646 0.313202 0.560547
0.094971 0.321655 0.567108
0.113312 0.330597 0.567230
0.164124 0.341339 0.551453
0.267029 0.364197 0.523041
0.400574 0.410492 0.509857
0.521301 0.475922 0.533356
0.614288 0.546265 0.583466
0.689240 0.610901 0.641571
0.157654 0.404480 0.635193
0.172546 0.418396 0.645050
0.195892 0.432159 0.650238
0.242065 0.442963 0.640900
0.332520 0.459595 0.617096
0.457764 0.498138 0.602325
0.575439 0.556244 0.617706
0.663940 0.617371 0.655823
0.731628 0.670776 0.700500
0.288391 0.521088 0.707672
0.311584 0.539673 0.719574
0.340088 0.558716 0.730560
0.377808 0.572784 0.733765
0.442169 0.585571 0.724884
0.539398 0.611145 0.714050
0.640930 0.651917 0.717102
0.720337 0.696228 0.735931
0.779572 0.734375 0.762268
0.443665 0.640198 0.771973
0.467834 0.658936 0.784332
0.494690 0.678375 0.797943
0.523834 0.694489 0.809967
0.565430 0.707275 0.815979
0.631042 0.722809 0.813934
0.709351 0.745178 0.809235
0.776520 0.771057 0.810547
0.827850 0.793793 0.818970
0.564667 0.737976 0.830505
0.582825 0.752960 0.841766
0.602325 0.768066 0.853699
0.624420 0.782196 0.865692
0.656311 0.795624 0.876251
0.707306 0.808990 0.881256
0.771271 0.822449 0.877563
0.829132 0.835876 0.871124
0.878204 0.840912 0.871460
0.635773 0.810913 0.884155
0.648102 0.821747 0.892853
0.661804 0.832489 0.901398
0.679443 0.843323 0.909943
0.708282 0.855621 0.918732
0.756531 0.868958 0.925964
0.816864 0.876312 0.928436
0.876526 0.875366 0.927582
0.937286 0.867310 0.928864
0.648682 0.866943 0.933319
0.661987 0.874390 0.939636
0.673492 0.881744 0.946198
0.687805 0.889099 0.953125
0.712769 0.897369 0.960876
0.759247 0.907257 0.968658
0.826477 0.915222 0.973114
0.901184 0.917450 0.973816
0.980530 0.914185 0.974579
0.504700 0.938904 0.978455
0.546570 0.943878 0.981537
0.584137 0.950043 0.984833
0.622009 0.957092 0.988281
0.666748 0.965485 0.992065
0.727264 0.975891 0.996277
0.806427 0.986755 0.999542
0.898193 0.994659 1.000000
0.998718 0.998505 1.000000
