lut/retro-80s/The Shining (1980) - Standard.cube
# Created by Benjamin (IWLTBAP): https://luts.iwltbap.com
# Copyright: (C) Copyright 2018 Triune Films and IWLTBAP SAS
# Cannot be resold, shared or otherwise redistributed
TITLE "Triune Films 80s Retro LUTs (Rec.709, sRGB, DCI-P3)"
LUT_3D_SIZE 9
0.002136 0.001465 0.000214
0.067657 0.002960 0.001404
0.178284 0.005920 0.002472
0.323639 0.009888 0.004578
0.455231 0.014282 0.007690
0.571014 0.019165 0.012634
0.683868 0.025818 0.020325
0.799896 0.036041 0.031952
0.913879 0.049713 0.047363
0.012604 0.060242 0.012421
0.083069 0.069275 0.010559
0.207123 0.079681 0.007416
0.353790 0.083038 0.009186
0.484955 0.088623 0.013733
0.601135 0.096039 0.021545
0.717926 0.107208 0.033539
0.838562 0.121613 0.052521
0.948669 0.139282 0.079987
0.030304 0.149292 0.030396
0.102783 0.162170 0.030914
0.234283 0.186005 0.023163
0.378052 0.204285 0.016174
0.506165 0.209381 0.019226
0.623840 0.216217 0.026978
0.739288 0.228912 0.038666
0.855835 0.247345 0.055206
0.966736 0.265076 0.074188
0.063873 0.275330 0.057861
0.143890 0.292999 0.062225
0.264709 0.315338 0.056061
0.412476 0.335358 0.039764
0.533478 0.350372 0.032745
0.645782 0.361481 0.038116
0.763824 0.369354 0.050476
0.879181 0.380859 0.066162
0.989166 0.393219 0.081696
0.114716 0.407684 0.092224
0.200928 0.428589 0.101624
0.310608 0.449341 0.099365
0.438171 0.472046 0.084961
0.567200 0.483368 0.067810
0.676239 0.493866 0.063599
0.788116 0.505005 0.067139
0.903168 0.511200 0.077484
1.000000 0.516327 0.091339
0.174377 0.530090 0.133881
0.262482 0.551971 0.148468
0.361511 0.571686 0.151917
0.466522 0.593994 0.141449
0.582184 0.612549 0.121399
0.701416 0.621735 0.108124
0.810303 0.630157 0.102386
0.922394 0.639008 0.099915
1.000000 0.643402 0.102051
0.236755 0.646545 0.180695
0.320282 0.668304 0.200775
0.408875 0.686523 0.209991
0.498535 0.707336 0.204895
0.596405 0.727814 0.185089
0.707642 0.743195 0.163635
0.824524 0.751831 0.149780
0.936249 0.758606 0.139526
1.000000 0.766235 0.132294
0.291138 0.757080 0.229095
0.369415 0.779144 0.253143
0.451294 0.797150 0.266205
0.531891 0.815796 0.268951
0.617798 0.836792 0.257385
0.715118 0.854553 0.233093
0.825836 0.867950 0.206879
0.941528 0.874573 0.187073
1.000000 0.879852 0.172272
0.338867 0.863342 0.277222
0.412201 0.884583 0.303192
0.489410 0.901489 0.318451
0.564911 0.917877 0.324646
0.642944 0.936646 0.321899
0.729675 0.956543 0.305847
0.829102 0.973419 0.278442
0.937073 0.984833 0.245026
1.000000 0.989471 0.221313
0.001709 0.002136 0.067841
0.065460 0.003754 0.066650
0.170593 0.006958 0.064484
0.317505 0.011414 0.066620
0.451599 0.016541 0.072418
0.567780 0.021851 0.080078
0.680725 0.029144 0.090149
0.796783 0.039764 0.104462
0.911438 0.053314 0.123169
0.009491 0.064606 0.080688
0.075775 0.068024 0.079956
0.194519 0.075409 0.078400
0.348663 0.083282 0.078735
0.481384 0.090668 0.083984
0.598450 0.099640 0.094086
0.714966 0.111115 0.109619
0.835602 0.126221 0.132538
0.944305 0.145172 0.164215
0.025543 0.158142 0.098175
0.095184 0.167328 0.100586
0.222778 0.190826 0.103149
0.375122 0.209930 0.101166
0.506409 0.212646 0.100189
0.623322 0.221008 0.106354
0.738403 0.235382 0.119385
0.853882 0.253632 0.137421
0.964966 0.271729 0.158569
0.055603 0.288330 0.125946
0.134705 0.303284 0.133057
0.255096 0.319916 0.133087
0.408173 0.346771 0.128876
0.532806 0.359528 0.124054
0.647949 0.366852 0.128876
0.765350 0.375000 0.138367
0.880585 0.387787 0.151917
0.989960 0.399536 0.166931
0.103058 0.421295 0.163025
0.192993 0.439667 0.176758
0.307251 0.455109 0.179016
0.436218 0.479095 0.170868
0.567505 0.494568 0.159912
0.677795 0.503326 0.155762
0.789825 0.511719 0.159851
0.905945 0.516998 0.167847
1.000000 0.522125 0.179047
0.165100 0.542419 0.206848
0.258392 0.562469 0.227325
0.363434 0.577667 0.235809
0.469116 0.598846 0.227020
0.583191 0.619873 0.208527
0.703430 0.631592 0.198120
0.813080 0.639160 0.191803
0.926147 0.646179 0.190155
1.000000 0.649597 0.191620
0.232239 0.656952 0.255310
0.320129 0.676819 0.279510
0.413635 0.692261 0.292572
0.504272 0.711304 0.291077
0.599823 0.732819 0.271820
0.709839 0.750244 0.248993
0.827576 0.760437 0.234528
0.939941 0.766998 0.224335
1.000000 0.774353 0.217499
0.291748 0.765717 0.302124
0.372864 0.786621 0.327698
0.457703 0.802887 0.343384
0.539185 0.820404 0.348602
0.623718 0.840973 0.339294
0.718994 0.859772 0.315521
0.828857 0.874603 0.287842
0.945251 0.882538 0.266968
1.000000 0.888611 0.263123
0.343597 0.870758 0.346558
0.418152 0.891205 0.372620
0.496948 0.907196 0.389069
0.572845 0.922546 0.397034
0.650055 0.940674 0.395721
0.735107 0.960632 0.381561
0.833221 0.978394 0.355499
0.940674 0.991272 0.322052
1.000000 0.996277 0.331116
0.002014 0.004456 0.165253
0.064392 0.005646 0.162262
0.168121 0.007172 0.153656
0.318115 0.011047 0.149017
0.453735 0.017090 0.151764
0.568634 0.024017 0.161163
0.680420 0.031830 0.175385
0.795929 0.042633 0.194397
0.910400 0.056458 0.217560
0.007324 0.070312 0.182983
0.072296 0.073395 0.183228
0.182678 0.075378 0.173218
0.341339 0.080627 0.163391
0.479523 0.090729 0.167358
0.596954 0.101776 0.181396
0.712433 0.114563 0.202057
0.833069 0.130829 0.231476
0.940643 0.150177 0.267181
0.019226 0.171326 0.199951
0.087006 0.179443 0.203308
0.200256 0.185120 0.197144
0.362762 0.198761 0.190552
0.502655 0.212372 0.191345
0.619659 0.225586 0.200836
0.733002 0.241821 0.217377
0.847626 0.260712 0.239349
0.958038 0.280304 0.264069
0.044006 0.305634 0.221893
0.120209 0.319855 0.232086
0.235748 0.329041 0.233734
0.392487 0.352600 0.236115
0.525635 0.366791 0.234833
0.646637 0.372498 0.236206
0.762634 0.382385 0.244812
0.876495 0.394928 0.259064
0.984009 0.406677 0.275177
0.082672 0.440918 0.258972
0.170654 0.458069 0.276764
0.289825 0.467682 0.284973
0.424957 0.482117 0.279205
0.559845 0.505493 0.275177
0.673584 0.513062 0.270538
0.787994 0.517456 0.273163
0.904297 0.522858 0.280334
1.000000 0.528442 0.289703
0.138580 0.562500 0.305328
0.233368 0.579498 0.327637
0.347778 0.588715 0.340027
0.463806 0.600555 0.338440
0.578125 0.623962 0.322540
0.699097 0.640808 0.312439
0.811157 0.647736 0.304413
0.926239 0.652557 0.302032
1.000000 0.654114 0.304535
0.207764 0.672607 0.348541
0.299011 0.689117 0.371735
0.402405 0.699585 0.387177
0.502930 0.712219 0.392761
0.599396 0.733337 0.380463
0.707031 0.753967 0.359375
0.825378 0.767548 0.344208
0.939880 0.775238 0.332611
1.000000 0.781708 0.329010
0.275940 0.776581 0.386963
0.360992 0.795074 0.411560
0.453400 0.808197 0.429077
0.541504 0.821899 0.439331
0.627136 0.840851 0.436218
0.719757 0.861237 0.417633
0.827362 0.878052 0.391968
0.944824 0.889648 0.371674
1.000000 0.897705 0.373169
0.337708 0.878540 0.425812
0.415558 0.897339 0.450226
0.497955 0.911255 0.468048
0.577515 0.924530 0.479370
0.655518 0.941040 0.482361
0.738708 0.960602 0.473236
0.833893 0.980042 0.450897
0.940338 0.994751 0.420654
1.000000 1.000000 0.443329
0.002502 0.008820 0.300171
0.061859 0.009888 0.299194
0.162292 0.008911 0.283386
0.319122 0.009979 0.269684
0.467102 0.015076 0.267303
0.584503 0.021973 0.273254
0.693542 0.031006 0.285339
0.804810 0.044037 0.305298
0.916565 0.059875 0.330994
0.006409 0.077820 0.318939
0.068481 0.082672 0.323792
0.172119 0.082062 0.310883
0.337189 0.083008 0.290894
0.487579 0.090057 0.285889
0.606903 0.100861 0.296356
0.720398 0.116394 0.317841
0.837250 0.135590 0.349457
0.942566 0.159546 0.384521
0.015900 0.183105 0.327209
0.081848 0.193939 0.336945
0.188599 0.198700 0.334137
0.348999 0.201050 0.317596
0.498688 0.210236 0.304413
0.617035 0.227875 0.312561
0.728088 0.248230 0.331696
0.841034 0.271149 0.357544
0.949738 0.290161 0.382965
0.036804 0.320831 0.340057
0.113220 0.333893 0.352081
0.223694 0.345459 0.361694
0.372314 0.352478 0.357574
0.517487 0.363190 0.347778
0.638702 0.378418 0.352417
0.752014 0.391449 0.365051
0.864319 0.404541 0.380798
0.970459 0.417023 0.397644
0.070801 0.456085 0.371399
0.158813 0.472473 0.389709
0.272766 0.484711 0.403503
0.408203 0.491852 0.405609
0.543152 0.509796 0.401398
0.660950 0.516846 0.394073
0.779907 0.523071 0.398254
0.894287 0.529236 0.404785
1.000000 0.535004 0.412750
0.115784 0.579315 0.413361
0.208038 0.595490 0.432922
0.320801 0.604736 0.445740
0.445984 0.610565 0.450897
0.566467 0.623138 0.443176
0.688538 0.646851 0.435974
0.803009 0.653503 0.425415
0.920410 0.655731 0.422394
1.000000 0.658112 0.427551
0.171631 0.690155 0.447052
0.262787 0.705200 0.466400
0.371307 0.712799 0.479553
0.485413 0.719269 0.488708
0.593781 0.731293 0.487366
0.701050 0.754242 0.474579
0.819305 0.772705 0.462402
0.934692 0.781342 0.448944
1.000000 0.787323 0.446503
0.241119 0.792694 0.474945
0.330444 0.808319 0.495789
0.430542 0.817383 0.511597
0.530701 0.826141 0.524597
0.626099 0.839264 0.529968
0.719177 0.859711 0.520782
0.823914 0.879425 0.501678
0.940765 0.894287 0.484192
1.000000 0.903992 0.486298
0.317078 0.889771 0.504944
0.399475 0.906158 0.527222
0.488373 0.917084 0.544617
0.574768 0.927551 0.558533
0.658051 0.940308 0.567291
0.741608 0.958374 0.565155
0.834015 0.979187 0.549774
0.938171 0.996185 0.525208
1.000000 1.000000 0.553558
0.002686 0.012970 0.446075
0.058563 0.015717 0.452515
0.153320 0.013245 0.435577
0.308228 0.012817 0.415009
0.470184 0.015808 0.406219
0.597412 0.021423 0.411896
0.710785 0.031342 0.423737
0.822845 0.044983 0.440674
0.930939 0.063324 0.460968
0.005951 0.086792 0.461090
0.064392 0.094940 0.471283
0.163055 0.092712 0.461700
0.321991 0.090332 0.439941
0.488403 0.094269 0.428192
0.617004 0.106110 0.435974
0.733887 0.121643 0.455322
0.851074 0.142609 0.482208
0.954681 0.166534 0.509338
0.014191 0.195740 0.461670
0.077576 0.210693 0.474670
0.182098 0.215912 0.476593
0.333099 0.215668 0.464691
0.494537 0.219330 0.447052
0.621307 0.233917 0.448151
0.733704 0.255463 0.462891
0.844086 0.277954 0.482239
0.948120 0.300049 0.502716
0.034698 0.330872 0.461731
0.110748 0.347382 0.476807
0.223694 0.360199 0.489624
0.362518 0.367828 0.494629
0.508606 0.371216 0.484039
0.633118 0.381256 0.479156
0.744446 0.397156 0.487793
0.852722 0.413940 0.501343
0.956299 0.426941 0.515808
0.067047 0.466125 0.482086
0.160980 0.481110 0.497864
0.276489 0.495117 0.514526
0.400818 0.505219 0.526398
0.530182 0.509888 0.524261
0.649231 0.514771 0.515442
0.763977 0.526184 0.518555
0.875122 0.534943 0.524628
0.979187 0.542023 0.531860
0.109833 0.588287 0.515076
0.205627 0.604309 0.532959
0.316071 0.615692 0.547058
0.431458 0.623779 0.556763
0.552307 0.628693 0.557098
0.672424 0.643463 0.551453
0.788788 0.651886 0.542206
0.906097 0.656769 0.544586
1.000000 0.660034 0.548309
0.150635 0.701965 0.546417
0.242554 0.717804 0.564178
0.349762 0.726624 0.575592
0.461487 0.732727 0.584076
0.577850 0.738586 0.587921
0.689484 0.750763 0.583099
0.808777 0.774445 0.576782
0.926025 0.784210 0.565155
1.000000 0.788757 0.563782
0.203888 0.808167 0.568909
0.295166 0.823303 0.586639
0.399719 0.831055 0.598877
0.505127 0.836853 0.609528
0.612244 0.843994 0.618591
0.714050 0.856354 0.619171
0.818054 0.877777 0.608856
0.934601 0.897095 0.597137
1.000000 0.908417 0.597473
0.279907 0.904907 0.588867
0.367218 0.919800 0.608612
0.463074 0.928223 0.623535
0.557922 0.935028 0.636841
0.651367 0.943512 0.649048
0.741547 0.955933 0.654663
0.833282 0.975922 0.648163
0.934692 0.996216 0.630402
1.000000 1.000000 0.660858
0.002350 0.017700 0.577179
0.053802 0.023224 0.590942
0.144745 0.019348 0.577057
0.289734 0.017792 0.558563
0.460144 0.019806 0.544067
0.597198 0.026459 0.546387
0.716370 0.036438 0.558838
0.833344 0.051300 0.575623
0.944763 0.070648 0.593719
0.005341 0.095917 0.589539
0.059296 0.108673 0.605682
0.155579 0.104553 0.598389
0.302399 0.100677 0.582275
0.474915 0.103729 0.564880
0.615845 0.115173 0.569641
0.738312 0.133331 0.588257
0.860687 0.154236 0.614258
0.966339 0.179047 0.635925
0.013062 0.210693 0.589142
0.073181 0.231201 0.605347
0.178833 0.233459 0.608521
0.319275 0.232239 0.602386
0.480591 0.232056 0.584412
0.618896 0.246399 0.580994
0.738525 0.267181 0.594086
0.852997 0.289948 0.610077
0.958405 0.308899 0.626434
0.033691 0.344086 0.582611
0.107544 0.365845 0.600433
0.227356 0.375824 0.614410
0.359833 0.382751 0.623383
0.497101 0.383392 0.616852
0.628601 0.390625 0.609955
0.746490 0.405060 0.614319
0.857208 0.419312 0.623688
0.957886 0.432220 0.632965
0.068909 0.474396 0.590790
0.163971 0.493134 0.609802
0.286011 0.505432 0.626892
0.405579 0.515350 0.642761
0.523193 0.519958 0.648376
0.643921 0.523102 0.643066
0.759216 0.529938 0.639252
0.866394 0.537933 0.640656
0.964508 0.546082 0.645599
0.110535 0.598206 0.618500
0.215881 0.612122 0.634094
0.329651 0.623413 0.648621
0.437317 0.632172 0.661713
0.544769 0.638397 0.669800
0.659943 0.641724 0.667755
0.771729 0.643860 0.660004
0.882538 0.653046 0.659485
0.985016 0.659668 0.662384
0.153748 0.711060 0.645416
0.250763 0.726166 0.661743
0.357117 0.735840 0.673279
0.460449 0.742859 0.682373
0.564972 0.749298 0.689636
0.676422 0.754364 0.690521
0.793884 0.768585 0.685883
0.912476 0.779633 0.677887
1.000000 0.784851 0.681610
0.193512 0.819672 0.667480
0.287140 0.834778 0.683868
0.390442 0.843109 0.694458
0.491058 0.848938 0.702911
0.593079 0.854645 0.710571
0.700104 0.860718 0.715607
0.808441 0.872955 0.713593
0.924469 0.896271 0.707733
1.000000 0.910065 0.707031
0.250244 0.919312 0.684052
0.339203 0.933990 0.701263
0.437164 0.941833 0.713013
0.533386 0.947052 0.722809
0.630859 0.952362 0.732910
0.730957 0.959412 0.742493
0.829651 0.972168 0.746368
0.929810 0.993408 0.736115
1.000000 1.000000 0.765320
0.002136 0.021637 0.698761
0.045990 0.032471 0.723450
0.137939 0.025177 0.706512
0.270081 0.023102 0.692078
0.443695 0.024536 0.674805
0.590546 0.032501 0.672455
0.714600 0.044952 0.685516
0.834961 0.060974 0.704224
0.950226 0.080078 0.722168
0.004974 0.103546 0.712952
0.051392 0.126129 0.737671
0.150269 0.117188 0.727264
0.284698 0.112732 0.716644
0.457001 0.112610 0.697754
0.607269 0.125641 0.696320
0.736664 0.146362 0.716400
0.862793 0.167572 0.742767
0.972168 0.189056 0.760956
0.012695 0.224213 0.712769
0.066406 0.254547 0.735535
0.177429 0.250458 0.736481
0.310394 0.248962 0.734619
0.462585 0.245972 0.718445
0.609253 0.258575 0.710419
0.736603 0.280579 0.721619
0.855896 0.300690 0.738525
0.966248 0.317688 0.753418
0.033508 0.359741 0.706299
0.102173 0.387512 0.729065
0.229889 0.391998 0.740112
0.359741 0.397644 0.749939
0.487274 0.396637 0.747467
0.618835 0.400818 0.739807
0.744568 0.412903 0.741547
0.861328 0.426514 0.750031
0.965973 0.437653 0.759064
0.071075 0.486725 0.707489
0.161072 0.509003 0.731384
0.290924 0.517273 0.746979
0.410034 0.524567 0.761627
0.519897 0.528778 0.770172
0.636047 0.530731 0.769867
0.756714 0.535126 0.765625
0.869568 0.542114 0.765472
0.970886 0.549072 0.768341
0.118011 0.605896 0.724457
0.220764 0.622833 0.743500
0.338318 0.631592 0.757568
0.444000 0.638367 0.771088
0.544891 0.644073 0.782227
0.652191 0.648163 0.788025
0.768280 0.651276 0.785217
0.879272 0.655823 0.780975
0.976959 0.659698 0.779572
0.154144 0.722443 0.749695
0.261749 0.733856 0.762299
0.369598 0.742401 0.773132
0.468933 0.748871 0.782654
0.564545 0.755249 0.791931
0.667908 0.761230 0.799377
0.780823 0.764832 0.799744
0.889099 0.766907 0.794678
0.989197 0.774597 0.793671
0.199158 0.828491 0.766632
0.295258 0.842010 0.781311
0.397186 0.850128 0.790863
0.493622 0.856201 0.798492
0.587463 0.862091 0.806122
0.687744 0.868256 0.813599
0.797577 0.873779 0.816528
0.911377 0.889343 0.814362
1.000000 0.903839 0.814423
0.243683 0.928650 0.782104
0.333771 0.942719 0.797394
0.430298 0.950775 0.806946
0.523743 0.956360 0.814514
0.616180 0.961395 0.822021
0.714111 0.967407 0.830475
0.819000 0.974670 0.838104
0.923157 0.988892 0.839508
1.000000 1.000000 0.863800
0.001862 0.024994 0.818787
0.041534 0.040222 0.849823
0.131866 0.031403 0.833069
0.255920 0.028900 0.823669
0.423889 0.029663 0.806824
0.579529 0.037415 0.798798
0.709717 0.053223 0.811554
0.833038 0.071716 0.831207
0.950287 0.089966 0.848450
0.004608 0.112152 0.834686
0.046844 0.141083 0.865723
0.146576 0.129181 0.855194
0.275146 0.124084 0.848083
0.437592 0.122101 0.832977
0.596130 0.134521 0.826599
0.732178 0.156952 0.843292
0.862061 0.178925 0.868744
0.973480 0.199005 0.882507
0.012665 0.236389 0.837677
0.060944 0.276825 0.865662
0.176544 0.267792 0.863037
0.306854 0.265015 0.862915
0.447876 0.260162 0.853180
0.595184 0.268616 0.842621
0.730835 0.290405 0.848450
0.854645 0.309692 0.862885
0.968811 0.324432 0.877441
0.034607 0.374512 0.831360
0.092987 0.412659 0.860840
0.231232 0.407898 0.866730
0.360748 0.409332 0.875153
0.480103 0.407288 0.876099
0.606628 0.408722 0.869781
0.737427 0.418762 0.867340
0.860321 0.431671 0.873291
0.969879 0.441132 0.881439
0.073730 0.499878 0.829987
0.149475 0.528900 0.857452
0.292694 0.529938 0.868500
0.410950 0.533478 0.880859
0.517090 0.535461 0.889709
0.627319 0.536102 0.892181
0.748230 0.538849 0.888153
0.868408 0.544861 0.886505
0.975311 0.551483 0.889709
0.122192 0.615021 0.835876
0.212952 0.636414 0.858734
0.339203 0.640259 0.870697
0.445282 0.644440 0.882965
0.543854 0.648376 0.893616
0.646820 0.652802 0.901733
0.761627 0.654816 0.902924
0.877655 0.657471 0.899628
0.980927 0.661224 0.898529
0.161621 0.727997 0.850037
0.260712 0.743225 0.865936
0.372559 0.748596 0.875183
0.471069 0.753815 0.884705
0.564545 0.758850 0.894409
0.664093 0.764526 0.904144
0.774414 0.768829 0.910065
0.887390 0.770996 0.909393
0.987854 0.773773 0.907196
0.189636 0.839417 0.868042
0.296906 0.848083 0.877411
0.400574 0.854767 0.885742
0.496124 0.860291 0.892944
0.587494 0.865723 0.900452
0.683105 0.871948 0.908966
0.790009 0.878510 0.916840
0.899750 0.883636 0.919525
0.995636 0.888702 0.919037
0.239838 0.935394 0.878326
0.332977 0.947632 0.890869
0.430389 0.955444 0.898621
0.522766 0.961060 0.904877
0.612549 0.966248 0.910950
0.706238 0.972351 0.917938
0.809021 0.979675 0.925720
0.913788 0.987640 0.931427
1.000000 0.999390 0.948730
0.001587 0.028870 0.936127
0.042603 0.046143 0.951691
0.126221 0.039429 0.950195
0.246765 0.035797 0.948181
0.404785 0.035339 0.937805
0.566650 0.042206 0.928375
0.702515 0.058411 0.934906
0.829956 0.080292 0.951050
0.948395 0.099762 0.964478
0.005432 0.119812 0.952881
0.049896 0.150574 0.959991
0.143890 0.144348 0.962708
0.270844 0.137970 0.961334
0.420441 0.134918 0.952698
0.578247 0.145782 0.942017
0.715546 0.170197 0.944824
0.840149 0.196411 0.956360
0.951599 0.218842 0.967438
0.014038 0.249817 0.955292
0.067078 0.288116 0.959229
0.178162 0.285614 0.969086
0.308014 0.281036 0.972290
0.437744 0.276428 0.968628
0.578430 0.281372 0.958679
0.716370 0.301331 0.955658
0.841278 0.323242 0.962555
0.952148 0.339935 0.970673
0.037506 0.388519 0.950958
0.105499 0.422394 0.953674
0.236633 0.422119 0.970276
0.364471 0.421082 0.978973
0.476990 0.419128 0.981781
0.593994 0.419495 0.978760
0.722321 0.427948 0.972626
0.846680 0.441406 0.972260
0.955231 0.453186 0.975983
0.078979 0.511963 0.943451
0.160828 0.538940 0.949310
0.298126 0.540070 0.969910
0.413788 0.541107 0.981750
0.516907 0.542480 0.988831
0.619476 0.543762 0.992126
0.734863 0.546478 0.988586
0.854340 0.553345 0.983826
0.960175 0.562622 0.983185
0.129089 0.623138 0.939911
0.216309 0.646301 0.947327
0.345154 0.646271 0.965515
0.449097 0.649170 0.977692
0.545959 0.652924 0.986786
0.644623 0.658020 0.993652
0.752991 0.661316 0.995483
0.864716 0.666046 0.992004
0.966156 0.673584 0.989288
0.174469 0.730743 0.941284
0.269928 0.747589 0.950317
0.382416 0.750702 0.962372
0.478790 0.755249 0.972351
0.570801 0.760590 0.981567
0.667664 0.767029 0.990143
0.772430 0.773682 0.996124
0.878998 0.779907 0.996704
0.973511 0.788300 0.995239
0.210602 0.836761 0.949951
0.314667 0.846710 0.957855
0.418091 0.851868 0.965698
0.510559 0.857300 0.972717
0.600372 0.863281 0.979950
0.694580 0.870758 0.988098
0.797028 0.880249 0.995667
0.897461 0.890381 0.999451
0.985016 0.902832 1.000000
0.248871 0.935822 0.963257
0.356903 0.941803 0.968994
0.455292 0.947052 0.973999
0.546448 0.951782 0.978821
0.636536 0.957001 0.984161
0.732697 0.964844 0.990631
0.834961 0.974396 0.996796
0.931091 0.985199 1.000000
1.000000 1.000000 1.000000
