lut/retro-80s/The Terminator (1984) - Standard.cube
# Created by Benjamin (IWLTBAP): https://luts.iwltbap.com
# Copyright: (C) Copyright 2018 Triune Films and IWLTBAP SAS
# Cannot be resold, shared or otherwise redistributed
TITLE "Triune Films 80s Retro LUTs (Rec.709, sRGB, DCI-P3)"
LUT_3D_SIZE 5
0.009552 0.006775 0.000000
0.197510 0.062958 0.000000
0.400879 0.105438 0.039551
0.631805 0.133118 0.074707
0.918884 0.140778 0.088013
0.014984 0.142426 0.000000
0.166840 0.185974 0.000000
0.443359 0.237244 0.000000
0.702148 0.262543 0.007294
0.985260 0.285461 0.034027
0.014984 0.284271 0.051483
0.121490 0.325073 0.009277
0.403625 0.381989 0.000397
0.729004 0.468018 0.000000
1.000000 0.485016 0.002777
0.014984 0.450897 0.099274
0.099091 0.495819 0.035400
0.397583 0.562317 0.029846
0.734314 0.625366 0.037384
1.000000 0.721954 0.005310
0.014984 0.664368 0.066559
0.144043 0.702057 0.027679
0.415161 0.768097 0.030823
0.737457 0.839478 0.056610
1.000000 0.885437 0.044922
0.020874 0.058105 0.205902
0.164764 0.059021 0.271393
0.394928 0.077728 0.251617
0.613739 0.112915 0.230286
0.876404 0.133698 0.234741
0.066193 0.182922 0.186493
0.180115 0.224762 0.223389
0.419556 0.241547 0.230316
0.699219 0.271210 0.222412
0.958344 0.304718 0.254089
0.058380 0.414581 0.261414
0.133209 0.390503 0.254913
0.344330 0.408203 0.230896
0.730743 0.478607 0.234955
1.000000 0.493958 0.247101
0.041260 0.540588 0.283997
0.035553 0.544830 0.238464
0.310638 0.587555 0.219879
0.702362 0.655579 0.222870
1.000000 0.730072 0.244720
0.014313 0.703247 0.234344
0.100586 0.724670 0.192108
0.382629 0.786133 0.184021
0.721954 0.859619 0.215363
1.000000 0.904053 0.223022
0.027954 0.108337 0.320557
0.039703 0.136078 0.422699
0.304352 0.105591 0.481354
0.557037 0.122314 0.459930
0.814270 0.152527 0.420471
0.119690 0.247528 0.361237
0.120575 0.255554 0.377502
0.265503 0.265900 0.449646
0.599365 0.271362 0.445953
0.881531 0.315430 0.442566
0.122498 0.338715 0.336060
0.126343 0.359344 0.344360
0.343597 0.441437 0.435883
0.665527 0.476593 0.471436
0.992706 0.513428 0.486664
0.168854 0.541870 0.451935
0.213257 0.635590 0.474213
0.328522 0.663849 0.471222
0.615326 0.686584 0.465271
1.000000 0.735748 0.492859
0.049194 0.857727 0.473907
0.142731 0.850677 0.447357
0.276672 0.808044 0.393555
0.660126 0.882568 0.421539
1.000000 0.927704 0.448425
0.036377 0.151520 0.393494
0.056458 0.193268 0.513611
0.123169 0.193665 0.581482
0.462280 0.145264 0.649231
0.743896 0.160278 0.644043
0.110229 0.287231 0.468262
0.110626 0.295105 0.487061
0.093811 0.296509 0.553101
0.452881 0.275482 0.653259
0.783508 0.290283 0.650970
0.179230 0.360199 0.470032
0.178070 0.374146 0.469666
0.198639 0.390564 0.518738
0.523376 0.477783 0.674347
0.856354 0.496979 0.683563
0.178711 0.496063 0.479156
0.191895 0.537903 0.505585
0.208527 0.573975 0.534119
0.600616 0.700897 0.681854
0.996155 0.748108 0.718933
0.279175 0.727203 0.619110
0.295166 0.762024 0.632660
0.346893 0.849701 0.666351
0.584534 0.911194 0.678864
1.000000 0.950714 0.688904
0.045349 0.180115 0.459900
0.070374 0.225922 0.563416
0.080414 0.232574 0.609131
0.300812 0.216858 0.672729
0.646301 0.166748 0.727631
0.103455 0.300018 0.513306
0.097839 0.301910 0.532257
0.088287 0.296204 0.568909
0.266174 0.291962 0.677551
0.676941 0.258301 0.747223
0.201385 0.378235 0.534332
0.204102 0.386353 0.546661
0.195251 0.394196 0.572449
0.236969 0.432281 0.683777
0.744934 0.429169 0.779877
0.191895 0.477173 0.512207
0.203369 0.511902 0.535950
0.223663 0.546234 0.574249
0.373077 0.608215 0.672791
0.885040 0.717438 0.823547
0.261261 0.712982 0.657532
0.283203 0.743439 0.679108
0.329681 0.804199 0.718445
0.471741 0.899017 0.772186
0.994568 0.978027 0.910797
