lut/retro-80s/The Neverending Story (1984) - Standard.cube
# Created by Benjamin (IWLTBAP): https://luts.iwltbap.com
# Copyright: (C) Copyright 2018 Triune Films and IWLTBAP SAS
# Cannot be resold, shared or otherwise redistributed
TITLE "Triune Films 80s Retro LUTs (Rec.709, sRGB, DCI-P3)"
LUT_3D_SIZE 5
0.000793 0.000671 0.000732
0.155579 0.004669 0.000000
0.366699 0.016388 0.000000
0.576355 0.025299 0.000000
0.797058 0.034241 0.000916
0.000793 0.169434 0.034058
0.236084 0.191071 0.002991
0.461395 0.194855 0.000000
0.664917 0.192444 0.000000
0.872314 0.198334 0.000000
0.018280 0.394714 0.087463
0.289368 0.409729 0.076965
0.520477 0.464020 0.012268
0.753815 0.476349 0.000000
0.980804 0.473022 0.000000
0.143921 0.619354 0.149353
0.370789 0.624695 0.134338
0.589661 0.674896 0.103699
0.775452 0.733490 0.023254
0.999207 0.745056 0.000000
0.257599 0.833374 0.210907
0.446594 0.836731 0.193970
0.649780 0.876282 0.184052
0.837494 0.937195 0.125854
0.999023 0.986145 0.044525
0.000702 0.037170 0.135529
0.140106 0.031555 0.125397
0.361420 0.027802 0.099274
0.564240 0.034729 0.105072
0.785034 0.043518 0.120087
0.000000 0.196075 0.178497
0.193909 0.191071 0.161163
0.451721 0.178406 0.121246
0.648560 0.188354 0.123505
0.854950 0.201477 0.133972
0.000000 0.412567 0.224182
0.234955 0.418274 0.217682
0.521027 0.462463 0.208771
0.755432 0.473328 0.204865
0.976807 0.471252 0.193268
0.081604 0.634796 0.292297
0.340576 0.635254 0.282257
0.578156 0.669189 0.271851
0.775787 0.735229 0.249023
0.999268 0.744934 0.226501
0.232819 0.844391 0.358795
0.427063 0.841248 0.341278
0.633423 0.871552 0.342041
0.832886 0.935669 0.321930
0.998962 0.986847 0.274567
0.001068 0.080292 0.289825
0.110718 0.090271 0.292358
0.317566 0.079834 0.275116
0.560516 0.069855 0.239594
0.761230 0.074493 0.230133
0.000000 0.232697 0.348969
0.124542 0.254059 0.354950
0.392334 0.230225 0.323456
0.646027 0.212585 0.280426
0.836090 0.217590 0.270233
0.000000 0.451660 0.425598
0.176208 0.465942 0.432434
0.496033 0.445953 0.390625
0.747314 0.449188 0.387329
0.949890 0.451416 0.376923
0.017090 0.664673 0.456879
0.264404 0.678131 0.462097
0.549225 0.666077 0.443878
0.780548 0.730408 0.479156
0.998077 0.742249 0.477936
0.176636 0.874817 0.522369
0.396240 0.878723 0.524353
0.606781 0.877014 0.511292
0.821381 0.922455 0.515320
0.996735 0.982910 0.505829
0.001404 0.114685 0.441498
0.115509 0.129822 0.445740
0.250916 0.136780 0.446838
0.499268 0.130005 0.432404
0.758667 0.133148 0.426117
0.001038 0.274719 0.507446
0.127930 0.298431 0.517731
0.285767 0.313080 0.520477
0.579437 0.289703 0.501587
0.816132 0.283539 0.477783
0.000000 0.468933 0.608582
0.164856 0.488251 0.615784
0.357483 0.515686 0.597534
0.682281 0.491028 0.575012
0.897797 0.478577 0.551453
0.000000 0.708069 0.679840
0.211700 0.721771 0.689056
0.484863 0.729523 0.687103
0.771484 0.729065 0.664429
0.971527 0.721741 0.673279
0.068909 0.915039 0.692719
0.325531 0.927307 0.707214
0.566376 0.925964 0.710297
0.810486 0.923462 0.717194
0.987701 0.966431 0.735840
0.001740 0.149261 0.596649
0.122131 0.167664 0.606140
0.241699 0.188538 0.605743
0.430695 0.196075 0.630585
0.697998 0.197968 0.633820
0.005493 0.320892 0.675262
0.133484 0.343628 0.688202
0.259857 0.366791 0.684906
0.513947 0.363953 0.698029
0.760620 0.355530 0.695892
0.006348 0.500641 0.768616
0.155853 0.523773 0.778320
0.305542 0.557800 0.774170
0.628937 0.568634 0.774841
0.844177 0.553833 0.775879
0.000000 0.719421 0.886536
0.200317 0.733154 0.894348
0.438354 0.751038 0.894135
0.726685 0.770081 0.853851
0.920929 0.760895 0.846954
0.023773 0.963531 0.935089
0.275146 0.972992 0.944885
0.521393 0.975830 0.950226
0.772888 0.969727 0.938660
0.957581 0.939056 0.898102
