lut/retro-80s/The Goonies (1985) - Standard.cube
# Created by Benjamin (IWLTBAP): https://luts.iwltbap.com
# Copyright: (C) Copyright 2018 Triune Films and IWLTBAP SAS
# Cannot be resold, shared or otherwise redistributed
TITLE "Triune Films 80s Retro LUTs (Rec.709, sRGB, DCI-P3)"
LUT_3D_SIZE 5
0.000000 0.010712 0.002228
0.073212 0.030182 0.002167
0.176331 0.043121 0.002045
0.292023 0.048248 0.001953
0.431702 0.053589 0.001831
0.000000 0.114227 0.002228
0.169281 0.147614 0.001740
0.377838 0.162384 0.001434
0.496948 0.151978 0.001556
0.630280 0.155334 0.001556
0.023651 0.212646 0.002228
0.219910 0.284332 0.002228
0.494659 0.379395 0.001953
0.740631 0.459290 0.000580
0.919525 0.456207 0.000671
0.049225 0.334930 0.002228
0.301697 0.425934 0.005127
0.551422 0.540588 0.006409
0.742950 0.645844 0.005768
0.978455 0.763489 0.000458
0.058868 0.440674 0.012482
0.362000 0.546967 0.090240
0.600647 0.687622 0.006805
0.765778 0.756134 0.014099
0.921082 0.880219 0.014191
0.020538 0.054382 0.088013
0.090149 0.053589 0.095459
0.196014 0.010468 0.069702
0.306488 0.009827 0.069214
0.441376 0.009186 0.080200
0.039032 0.131348 0.133392
0.171997 0.187622 0.189789
0.393982 0.155273 0.125519
0.519104 0.132874 0.092896
0.641266 0.139679 0.100128
0.056152 0.274902 0.176453
0.144012 0.355621 0.167450
0.528320 0.435883 0.186493
0.753448 0.478119 0.220337
0.914642 0.462769 0.158203
0.086212 0.428375 0.230164
0.200287 0.475220 0.192749
0.565277 0.602509 0.210297
0.756531 0.680695 0.193848
0.983002 0.772369 0.246826
0.120209 0.552490 0.292938
0.219543 0.563416 0.255798
0.596344 0.711243 0.275299
0.758514 0.786560 0.157776
0.922333 0.890411 0.218750
0.050629 0.085175 0.161896
0.091675 0.086334 0.167114
0.208618 0.072052 0.161774
0.316650 0.010498 0.133240
0.426636 0.011139 0.132202
0.074524 0.157349 0.234436
0.137085 0.194244 0.297668
0.385406 0.189484 0.265900
0.511841 0.159576 0.211914
0.611053 0.158966 0.213013
0.090973 0.276672 0.302155
0.187714 0.390808 0.419739
0.520233 0.497894 0.503174
0.710724 0.479462 0.460632
0.842529 0.462433 0.429352
0.113464 0.431702 0.373444
0.224640 0.566864 0.482544
0.568085 0.626129 0.494843
0.769928 0.705719 0.511810
0.978638 0.772614 0.523071
0.154419 0.585144 0.455841
0.281128 0.709442 0.572601
0.594696 0.747009 0.485229
0.783325 0.823273 0.524170
0.923950 0.900146 0.552856
0.077393 0.110687 0.247345
0.113403 0.113586 0.253021
0.193817 0.110779 0.254211
0.334961 0.094940 0.217346
0.446228 0.081573 0.197418
0.092896 0.177948 0.311249
0.145294 0.204285 0.362061
0.256622 0.218445 0.398010
0.510010 0.191650 0.295532
0.606567 0.185669 0.282013
0.124023 0.331543 0.449097
0.217712 0.406708 0.542480
0.440369 0.481903 0.648804
0.695953 0.486481 0.588257
0.789978 0.477112 0.565552
0.144684 0.444977 0.494659
0.249451 0.550995 0.605988
0.511841 0.687164 0.736542
0.772430 0.747528 0.743958
0.900879 0.750458 0.720795
0.172241 0.559265 0.542847
0.281708 0.663879 0.650208
0.506470 0.826508 0.772095
0.807648 0.850403 0.723267
0.922791 0.905457 0.766418
0.097015 0.134155 0.338715
0.135651 0.140656 0.349518
0.203125 0.138184 0.341461
0.329224 0.132294 0.302582
0.466064 0.115601 0.260437
0.109161 0.205109 0.398804
0.162506 0.231262 0.446259
0.245636 0.254150 0.489624
0.458038 0.238464 0.408661
0.619751 0.218842 0.358856
0.144897 0.352386 0.544159
0.231476 0.414124 0.631927
0.379303 0.480286 0.736420
0.662842 0.476990 0.710083
0.811066 0.486633 0.686798
0.210205 0.533936 0.702942
0.319855 0.607300 0.792328
0.448395 0.675629 0.865082
0.756622 0.746338 0.841431
0.880249 0.762665 0.834686
0.220947 0.601471 0.693787
0.330078 0.685181 0.790680
0.473389 0.789886 0.885162
0.775085 0.863617 0.886749
0.903931 0.899414 0.885376
