lut/retro-80s/The Breakfast Club (1985) - Standard.cube
# Created by Benjamin (IWLTBAP): https://luts.iwltbap.com
# Copyright: (C) Copyright 2018 Triune Films and IWLTBAP SAS
# Cannot be resold, shared or otherwise redistributed
TITLE "Triune Films 80s Retro LUTs (Rec.709, sRGB, DCI-P3)"
LUT_3D_SIZE 5
0.000000 0.000000 0.000000
0.221771 0.048798 0.028992
0.459747 0.110870 0.065460
0.622101 0.172699 0.093628
0.782227 0.250824 0.142548
0.105103 0.212891 0.099335
0.241058 0.189911 0.095367
0.508911 0.220306 0.087494
0.658234 0.273407 0.117126
0.814575 0.351440 0.160004
0.287109 0.478424 0.183899
0.310364 0.481232 0.220459
0.592255 0.417938 0.191132
0.712982 0.468079 0.170685
0.843170 0.495972 0.185852
0.377869 0.672699 0.300995
0.350403 0.675903 0.281891
0.642303 0.661987 0.337860
0.739502 0.620819 0.321289
0.850708 0.672119 0.277405
0.437439 0.820374 0.381500
0.397827 0.821777 0.333832
0.597015 0.820984 0.330963
0.788757 0.844604 0.478119
0.847931 0.778809 0.441956
0.068939 0.111298 0.209412
0.140228 0.053223 0.202362
0.431610 0.099457 0.177307
0.613495 0.152954 0.180908
0.764984 0.219788 0.221252
0.110077 0.269104 0.288452
0.209778 0.262817 0.270386
0.502045 0.258514 0.223938
0.654938 0.323334 0.252960
0.805603 0.410828 0.304443
0.202515 0.527954 0.396057
0.302856 0.511047 0.380280
0.575714 0.464478 0.334534
0.693237 0.479828 0.286407
0.838318 0.527466 0.316193
0.299042 0.695038 0.495850
0.382477 0.682312 0.476288
0.589783 0.672089 0.429688
0.731506 0.654510 0.445007
0.848969 0.694427 0.401459
0.378204 0.830353 0.561554
0.412964 0.827362 0.535889
0.580292 0.823669 0.501282
0.762482 0.846954 0.549988
0.850128 0.804901 0.550049
0.153717 0.262970 0.411499
0.189850 0.243317 0.402069
0.407166 0.132446 0.405304
0.599182 0.192291 0.426788
0.750641 0.260468 0.457733
0.181458 0.386505 0.463318
0.250031 0.400909 0.470154
0.456177 0.291718 0.441223
0.644165 0.347412 0.456177
0.784912 0.416199 0.470734
0.219635 0.546631 0.540588
0.314117 0.551056 0.549805
0.549194 0.531616 0.530151
0.699036 0.539215 0.508789
0.827423 0.587799 0.514893
0.267670 0.717590 0.658752
0.360840 0.700653 0.643494
0.571198 0.685242 0.624573
0.726440 0.693573 0.609222
0.846375 0.706909 0.567444
0.327148 0.847015 0.715759
0.435364 0.835571 0.688599
0.593506 0.834503 0.679810
0.730194 0.848206 0.660583
0.853821 0.828918 0.674957
0.215027 0.353424 0.562897
0.246521 0.382294 0.592346
0.295624 0.183929 0.546265
0.594940 0.221375 0.593536
0.751068 0.291656 0.649414
0.247528 0.468475 0.621002
0.286438 0.513794 0.665802
0.438385 0.440979 0.600372
0.642548 0.382019 0.636169
0.783691 0.444275 0.678741
0.273102 0.599243 0.693939
0.370392 0.614899 0.713257
0.560242 0.613068 0.707977
0.676453 0.566101 0.699158
0.815674 0.596680 0.719849
0.299988 0.734619 0.788116
0.394867 0.730103 0.785675
0.573853 0.722015 0.780334
0.720673 0.742798 0.774841
0.844116 0.727417 0.758057
0.325134 0.849609 0.834351
0.417572 0.847321 0.832001
0.583099 0.843597 0.826843
0.729889 0.855072 0.830200
0.860535 0.859070 0.815521
0.280273 0.428955 0.713043
0.311951 0.455505 0.744598
0.378235 0.409515 0.717712
0.586365 0.245361 0.748657
0.750549 0.315735 0.789093
0.306610 0.538940 0.768890
0.338074 0.564819 0.780060
0.469818 0.552185 0.773895
0.585510 0.405762 0.768250
0.780853 0.466156 0.805634
0.325287 0.639893 0.800964
0.391541 0.659943 0.807770
0.572784 0.653900 0.807648
0.672241 0.650757 0.799866
0.802338 0.614807 0.825134
0.342438 0.731201 0.825195
0.453613 0.737030 0.828522
0.607483 0.740967 0.832764
0.725433 0.765747 0.838776
0.831543 0.751617 0.848083
0.374725 0.833679 0.847473
0.512054 0.832977 0.849304
0.648010 0.839661 0.854828
0.768311 0.851898 0.861145
0.874146 0.870148 0.868011
