lut/retro-80s/The Breakfast Club (1985) - Standard.cube
# Created by Benjamin (IWLTBAP): https://luts.iwltbap.com
# Copyright: (C) Copyright 2018 Triune Films and IWLTBAP SAS
# Cannot be resold, shared or otherwise redistributed
TITLE "Triune Films 80s Retro LUTs (Rec.709, sRGB, DCI-P3)"
LUT_3D_SIZE 9
0.000000 0.000000 0.000000
0.081604 0.008453 0.005859
0.221771 0.048798 0.028992
0.348358 0.082031 0.051300
0.459747 0.110870 0.065460
0.545807 0.140808 0.076447
0.622101 0.172699 0.093628
0.702026 0.209991 0.115753
0.782227 0.250824 0.142548
0.041016 0.100281 0.056488
0.088654 0.096680 0.052612
0.253815 0.119446 0.047668
0.383209 0.138184 0.058868
0.485809 0.159790 0.069336
0.562866 0.186646 0.085236
0.636627 0.217682 0.102966
0.716339 0.255157 0.124359
0.798157 0.299225 0.151733
0.105103 0.212891 0.099335
0.143280 0.213165 0.092041
0.241058 0.189911 0.095367
0.403839 0.209564 0.082062
0.508911 0.220306 0.087494
0.585510 0.243622 0.099243
0.658234 0.273407 0.117126
0.737640 0.311890 0.138306
0.814575 0.351440 0.160004
0.194885 0.346039 0.141602
0.231812 0.346466 0.149750
0.307526 0.331116 0.140839
0.446075 0.298981 0.139221
0.550629 0.319397 0.123047
0.613281 0.334991 0.126068
0.680634 0.351227 0.137115
0.757690 0.381439 0.154114
0.829529 0.415802 0.171448
0.287109 0.478424 0.183899
0.316986 0.480194 0.197906
0.310364 0.481232 0.220459
0.517639 0.425537 0.221039
0.592255 0.417938 0.191132
0.656403 0.448761 0.173981
0.712982 0.468079 0.170685
0.778503 0.480865 0.175171
0.843170 0.495972 0.185852
0.342804 0.584076 0.240295
0.360382 0.585388 0.235016
0.335083 0.588074 0.258484
0.537598 0.564178 0.240692
0.625671 0.528778 0.278687
0.679138 0.524689 0.255585
0.736359 0.557312 0.236877
0.793091 0.580902 0.221497
0.849701 0.592682 0.219543
0.377869 0.672699 0.300995
0.385956 0.672577 0.275909
0.350403 0.675903 0.281891
0.508911 0.661469 0.274628
0.642303 0.661987 0.337860
0.692474 0.631958 0.345978
0.739502 0.620819 0.321289
0.800903 0.650574 0.296387
0.850708 0.672119 0.277405
0.410278 0.755096 0.346680
0.415039 0.756104 0.319855
0.376007 0.758667 0.306549
0.498749 0.750610 0.311157
0.617004 0.751617 0.314301
0.713715 0.758209 0.407745
0.762390 0.728363 0.414551
0.801666 0.704987 0.383453
0.847595 0.721741 0.365021
0.437439 0.820374 0.381500
0.440430 0.819580 0.349854
0.397827 0.821777 0.333832
0.497009 0.816498 0.338959
0.597015 0.820984 0.330963
0.695435 0.834839 0.387939
0.788757 0.844604 0.478119
0.828583 0.810547 0.474670
0.847931 0.778809 0.441956
0.025391 0.046387 0.110413
0.068542 0.046661 0.110199
0.165344 0.032562 0.103088
0.316711 0.067566 0.086700
0.448059 0.101044 0.094849
0.542023 0.132843 0.109863
0.621124 0.166656 0.127594
0.697510 0.204559 0.151398
0.775879 0.244720 0.178680
0.053040 0.129944 0.149048
0.088104 0.130127 0.145050
0.215485 0.123260 0.124420
0.364868 0.148224 0.116730
0.481232 0.175079 0.127838
0.563477 0.204987 0.141510
0.637238 0.237152 0.161469
0.715363 0.277527 0.188019
0.793091 0.321289 0.215851
0.076874 0.228577 0.191467
0.113586 0.226715 0.186768
0.226013 0.216980 0.170441
0.398315 0.221527 0.137451
0.506531 0.233704 0.139496
0.582947 0.258972 0.150391
0.655121 0.289703 0.168182
0.732971 0.330566 0.193268
0.810913 0.373627 0.219086
0.160919 0.366119 0.239471
0.196686 0.363068 0.230835
0.257874 0.354950 0.221802
0.435822 0.321014 0.201416
0.543152 0.328918 0.171356
0.605896 0.340271 0.171143
0.677063 0.364075 0.185577
0.754608 0.398376 0.204620
0.827789 0.435150 0.223602
0.243591 0.498077 0.294067
0.277679 0.495392 0.285156
0.301514 0.491730 0.265686
0.507324 0.459229 0.271271
0.588654 0.439728 0.248260
0.651184 0.462830 0.223694
0.706329 0.474243 0.217712
0.773376 0.486511 0.221069
0.841492 0.506836 0.235352
0.297150 0.595154 0.356628
0.316254 0.595886 0.349915
0.329620 0.595734 0.329559
0.491699 0.578033 0.289215
0.624207 0.556915 0.340088
0.674957 0.544983 0.313507
0.731140 0.572296 0.290344
0.788361 0.586914 0.271210
0.847839 0.598206 0.268341
0.338531 0.678345 0.408203
0.343689 0.679443 0.399750
0.362244 0.679565 0.378296
0.488739 0.669830 0.342560
0.620056 0.666077 0.373566
0.692291 0.653534 0.403839
0.736450 0.636597 0.377472
0.799255 0.665710 0.350342
0.849945 0.683746 0.330902
0.376373 0.758087 0.446198
0.376678 0.759064 0.434113
0.383575 0.761261 0.414185
0.492340 0.754822 0.385590
0.594330 0.754486 0.379211
0.697296 0.761139 0.441345
0.763123 0.747131 0.467316
0.801483 0.720093 0.437958
0.847595 0.736115 0.418854
0.405762 0.823364 0.479401
0.405518 0.822845 0.463470
0.398926 0.823578 0.443481
0.494873 0.817810 0.412170
0.585724 0.820770 0.407837
0.674377 0.833221 0.436401
0.776031 0.846436 0.510162
0.830231 0.823364 0.522858
0.848541 0.792450 0.490692
0.068939 0.111298 0.209412
0.090576 0.103424 0.206970
0.140228 0.053223 0.202362
0.294067 0.072052 0.197632
0.431610 0.099457 0.177307
0.532196 0.126007 0.170044
0.613495 0.152954 0.180908
0.690186 0.183960 0.198425
0.764984 0.219788 0.221252
0.091522 0.191315 0.249573
0.114410 0.191864 0.246277
0.167542 0.156891 0.226074
0.322968 0.142914 0.210510
0.465790 0.162140 0.186768
0.558380 0.193939 0.191620
0.633606 0.227295 0.210693
0.709045 0.267242 0.235748
0.784851 0.309204 0.262451
0.110077 0.269104 0.288452
0.132416 0.272156 0.287628
0.209778 0.262817 0.270386
0.360504 0.240234 0.239594
0.502045 0.258514 0.223938
0.583496 0.288666 0.233307
0.654938 0.323334 0.252960
0.730316 0.365112 0.278656
0.805603 0.410828 0.304443
0.138916 0.392395 0.336548
0.163727 0.389252 0.332825
0.263245 0.378357 0.330627
0.404816 0.359009 0.306641
0.524323 0.338959 0.246338
0.599182 0.357758 0.248199
0.671417 0.388275 0.263519
0.748718 0.427124 0.284637
0.824280 0.467224 0.304596
0.202515 0.527954 0.396057
0.227417 0.518860 0.387085
0.302856 0.511047 0.380280
0.471466 0.486542 0.399994
0.575714 0.464478 0.334534
0.638336 0.474457 0.296356
0.693237 0.479828 0.286407
0.767426 0.500336 0.296906
0.838318 0.527466 0.316193
0.252441 0.620148 0.454803
0.269928 0.611237 0.444305
0.345825 0.604370 0.435577
0.493683 0.586334 0.440613
0.604034 0.580292 0.414307
0.666901 0.568024 0.389099
0.721832 0.585602 0.360016
0.781342 0.593933 0.341736
0.844940 0.604187 0.339233
0.299042 0.695038 0.495850
0.303802 0.688721 0.484985
0.382477 0.682312 0.476288
0.478821 0.676331 0.456909
0.589783 0.672089 0.429688
0.688568 0.674530 0.464844
0.731506 0.654510 0.445007
0.795166 0.679871 0.417206
0.848969 0.694427 0.401459
0.345428 0.767365 0.528259
0.338715 0.765045 0.520569
0.402863 0.762878 0.509338
0.494232 0.759430 0.490753
0.581818 0.758728 0.470276
0.672302 0.766052 0.479797
0.761597 0.764099 0.523682
0.798950 0.735199 0.497375
0.847656 0.753937 0.483185
0.378204 0.830353 0.561554
0.372864 0.829102 0.549408
0.412964 0.827362 0.535889
0.502167 0.822296 0.516754
0.580292 0.823669 0.501282
0.657318 0.834198 0.501099
0.762482 0.846954 0.549988
0.831787 0.834991 0.579620
0.850128 0.804901 0.550049
0.114349 0.191132 0.319489
0.129456 0.203827 0.327911
0.150269 0.140961 0.302185
0.275574 0.087677 0.308105
0.420837 0.114166 0.308472
0.523193 0.140015 0.300537
0.605164 0.169922 0.304596
0.680267 0.203552 0.319153
0.755829 0.236420 0.337219
0.132233 0.262756 0.351349
0.148651 0.280121 0.363129
0.191040 0.245941 0.332855
0.295776 0.161896 0.328400
0.448944 0.177490 0.320557
0.547668 0.202759 0.309204
0.626251 0.234283 0.315308
0.699890 0.269043 0.329834
0.772736 0.305267 0.345673
0.148346 0.332458 0.379059
0.167145 0.354675 0.394592
0.227448 0.337677 0.373932
0.307556 0.294403 0.344452
0.480652 0.267883 0.342285
0.579895 0.293854 0.327240
0.651672 0.325073 0.333771
0.723633 0.361084 0.348053
0.795288 0.398010 0.363068
0.170197 0.422272 0.415833
0.191010 0.433716 0.425049
0.257965 0.427643 0.418884
0.390503 0.411438 0.401306
0.506927 0.386566 0.384796
0.604767 0.404327 0.363007
0.675812 0.437561 0.372437
0.747620 0.473572 0.385986
0.818604 0.509247 0.403290
0.197144 0.537659 0.469788
0.221893 0.538452 0.473480
0.297577 0.530212 0.471161
0.459259 0.507935 0.468353
0.558502 0.497437 0.449432
0.616425 0.482025 0.383179
0.683838 0.502411 0.385040
0.761963 0.531860 0.400848
0.834351 0.561890 0.418335
0.235260 0.636261 0.540070
0.264465 0.627686 0.528687
0.341644 0.618469 0.522156
0.461578 0.605438 0.512054
0.593384 0.592529 0.526215
0.656036 0.597809 0.482635
0.707520 0.594757 0.439575
0.771545 0.601410 0.425629
0.841614 0.621063 0.435181
0.276245 0.716003 0.590149
0.298523 0.699005 0.570068
0.376648 0.689362 0.561462
0.476227 0.681488 0.551025
0.578827 0.679657 0.530365
0.668915 0.687500 0.523254
0.727875 0.673615 0.522064
0.788055 0.692719 0.492157
0.846649 0.703674 0.481171
0.319427 0.786377 0.618835
0.327850 0.771606 0.599365
0.407532 0.764954 0.592468
0.497589 0.761444 0.582092
0.580933 0.764801 0.567749
0.655945 0.773651 0.547729
0.753418 0.774628 0.580048
0.799042 0.749725 0.571320
0.848755 0.769196 0.555908
0.352600 0.838898 0.638672
0.355347 0.834503 0.623901
0.435364 0.829376 0.615082
0.515076 0.825684 0.603729
0.587067 0.829254 0.594849
0.653625 0.837341 0.584778
0.742401 0.846802 0.592926
0.831055 0.845459 0.634369
0.852417 0.816620 0.612061
0.153717 0.262970 0.411499
0.166412 0.277344 0.421875
0.189850 0.243317 0.402069
0.222961 0.122650 0.396088
0.407166 0.132446 0.405304
0.516937 0.159912 0.414886
0.599182 0.192291 0.426788
0.675476 0.225067 0.443726
0.750641 0.260468 0.457733
0.167328 0.327301 0.437225
0.183655 0.347076 0.455383
0.221436 0.332703 0.435883
0.254944 0.247711 0.407013
0.431946 0.197845 0.419769
0.538940 0.225128 0.425323
0.619598 0.257477 0.438171
0.692963 0.293396 0.452728
0.765747 0.329773 0.464386
0.181458 0.386505 0.463318
0.199127 0.410278 0.485229
0.250031 0.400909 0.470154
0.334869 0.377258 0.443817
0.456177 0.291718 0.441223
0.567078 0.313995 0.446228
0.644165 0.347412 0.456177
0.716278 0.381744 0.464172
0.784912 0.416199 0.470734
0.200653 0.455566 0.496643
0.218536 0.481232 0.519928
0.283661 0.470490 0.507385
0.394440 0.461609 0.497803
0.483887 0.437256 0.463287
0.581268 0.424896 0.477692
0.674927 0.451599 0.482574
0.742157 0.479492 0.481110
0.807495 0.500824 0.479889
0.219635 0.546631 0.540588
0.240021 0.561127 0.555695
0.314117 0.551056 0.549805
0.423157 0.546295 0.548859
0.549194 0.531616 0.530151
0.617126 0.525269 0.523376
0.699036 0.539215 0.508789
0.763184 0.562683 0.505035
0.827423 0.587799 0.514893
0.241638 0.636200 0.604492
0.261475 0.643066 0.614655
0.336761 0.628021 0.602386
0.437378 0.619537 0.597748
0.574890 0.606964 0.586304
0.646301 0.615356 0.581299
0.693665 0.602600 0.526611
0.765625 0.621643 0.527374
0.839478 0.646973 0.544220
0.267670 0.717590 0.658752
0.284515 0.720367 0.663208
0.360840 0.700653 0.643494
0.457153 0.691742 0.635406
0.571198 0.685242 0.624573
0.657776 0.692719 0.623444
0.726440 0.693573 0.609222
0.780365 0.696228 0.575867
0.846375 0.706909 0.567444
0.303619 0.801117 0.697418
0.317017 0.788544 0.683258
0.396027 0.773560 0.669037
0.487091 0.767120 0.663788
0.579498 0.766693 0.656403
0.652649 0.778107 0.643005
0.732483 0.782318 0.630707
0.800964 0.767090 0.644501
0.850647 0.780914 0.627960
0.327148 0.847015 0.715759
0.352570 0.841461 0.699127
0.435364 0.835571 0.688599
0.518768 0.831024 0.683228
0.593506 0.834503 0.679810
0.657623 0.841125 0.673431
0.730194 0.848206 0.660583
0.824646 0.853180 0.687744
0.853821 0.828918 0.674957
0.183685 0.313354 0.489136
0.198456 0.327698 0.502747
0.217682 0.335052 0.507965
0.240112 0.251160 0.466187
0.384918 0.147003 0.487549
0.507355 0.173462 0.494110
0.594757 0.205444 0.516388
0.674164 0.240784 0.542755
0.751282 0.275787 0.565033
0.199036 0.370758 0.515198
0.216705 0.390289 0.535736
0.238647 0.397797 0.540680
0.289764 0.345856 0.495270
0.389984 0.215668 0.499451
0.529999 0.238739 0.508301
0.615875 0.274933 0.531830
0.692841 0.311584 0.558228
0.765991 0.347168 0.574188
0.214966 0.429077 0.543793
0.234192 0.452332 0.566742
0.268158 0.457520 0.569733
0.356354 0.432892 0.541748
0.403534 0.342133 0.513184
0.560913 0.329376 0.532562
0.642944 0.364441 0.555054
0.716217 0.398682 0.575012
0.783661 0.429199 0.584167
0.228302 0.492828 0.572754
0.245239 0.520874 0.598602
0.305756 0.516052 0.591949
0.405243 0.509979 0.584991
0.508820 0.491058 0.565674
0.587036 0.436432 0.568634
0.671234 0.464203 0.585876
0.740509 0.489288 0.597473
0.804169 0.512726 0.594147
0.242950 0.569519 0.611816
0.262329 0.591614 0.639771
0.344086 0.579437 0.625000
0.445862 0.579254 0.627350
0.550781 0.577271 0.622467
0.620667 0.565491 0.603882
0.689026 0.558105 0.615936
0.761658 0.575317 0.616791
0.820465 0.591309 0.606903
0.261688 0.645477 0.669678
0.280640 0.660950 0.690216
0.363037 0.643372 0.673340
0.459412 0.639191 0.672974
0.559479 0.636047 0.668610
0.646149 0.644043 0.659973
0.691406 0.636169 0.645752
0.774017 0.641510 0.636536
0.835693 0.655792 0.631561
0.278168 0.721405 0.723358
0.292755 0.733887 0.739288
0.365509 0.711609 0.717834
0.458527 0.703064 0.712494
0.558838 0.697052 0.707764
0.648438 0.703613 0.700867
0.715912 0.710510 0.697144
0.774353 0.704193 0.661499
0.848633 0.723328 0.666504
0.299164 0.802124 0.762299
0.310791 0.815552 0.777924
0.387024 0.787048 0.747864
0.479736 0.777802 0.740601
0.572296 0.773041 0.736176
0.652924 0.781799 0.732880
0.723328 0.788574 0.718903
0.801178 0.785980 0.717926
0.852875 0.793365 0.703156
0.316589 0.851044 0.785522
0.347565 0.849213 0.781860
0.423523 0.843048 0.766846
0.510254 0.838623 0.760559
0.590912 0.840179 0.758636
0.663635 0.846161 0.758789
0.730530 0.851685 0.753021
0.811157 0.857666 0.742767
0.856659 0.842194 0.741669
0.215027 0.353424 0.562897
0.230042 0.367645 0.578186
0.246521 0.382294 0.592346
0.277924 0.336365 0.556824
0.295624 0.183929 0.546265
0.502899 0.186340 0.572906
0.594940 0.221375 0.593536
0.674316 0.256317 0.622223
0.751068 0.291656 0.649414
0.231537 0.409790 0.591919
0.249329 0.428833 0.611847
0.268372 0.446625 0.630493
0.323425 0.417328 0.597351
0.342163 0.317169 0.556915
0.524017 0.253326 0.588806
0.616028 0.291809 0.611328
0.693207 0.330017 0.637573
0.766449 0.363678 0.663055
0.247528 0.468475 0.621002
0.265686 0.492798 0.645416
0.286438 0.513794 0.665802
0.365204 0.486115 0.635376
0.438385 0.440979 0.600372
0.539093 0.344543 0.613007
0.642548 0.382019 0.636169
0.715698 0.415649 0.659851
0.783691 0.444275 0.678741
0.259277 0.533325 0.653290
0.278656 0.559967 0.680115
0.323639 0.566010 0.685913
0.420990 0.555267 0.671295
0.518799 0.543762 0.656342
0.567657 0.485474 0.639648
0.670502 0.476166 0.670258
0.739838 0.501770 0.685425
0.802307 0.523163 0.698730
0.273102 0.599243 0.693939
0.294006 0.625641 0.727386
0.370392 0.614899 0.713257
0.469818 0.612549 0.709717
0.560242 0.613068 0.707977
0.631805 0.617554 0.701630
0.676453 0.566101 0.699158
0.755798 0.581390 0.713226
0.815674 0.596680 0.719849
0.288940 0.667450 0.743805
0.308868 0.688263 0.769409
0.394531 0.669098 0.748016
0.488037 0.666931 0.747284
0.576416 0.668762 0.747498
0.648163 0.681549 0.747742
0.698914 0.674042 0.735992
0.769623 0.653564 0.743988
0.830170 0.663422 0.743835
0.299988 0.734619 0.788116
0.314636 0.750580 0.805725
0.394867 0.730103 0.785675
0.488129 0.722961 0.781372
0.573853 0.722015 0.780334
0.648651 0.733582 0.780212
0.720673 0.742798 0.774841
0.777802 0.721893 0.765137
0.844116 0.727417 0.758057
0.308868 0.804901 0.819672
0.322357 0.814972 0.827148
0.394165 0.796967 0.815857
0.487122 0.787292 0.809753
0.572571 0.783447 0.808441
0.647369 0.791351 0.809570
0.722900 0.797394 0.804871
0.794464 0.803528 0.798035
0.854706 0.806458 0.783112
0.325134 0.849609 0.834351
0.356659 0.849670 0.835297
0.417572 0.847321 0.832001
0.503662 0.843231 0.827454
0.583099 0.843597 0.826843
0.654541 0.849335 0.829193
0.729889 0.855072 0.830200
0.806641 0.861115 0.827148
0.860535 0.859070 0.815521
0.246063 0.391632 0.635742
0.262177 0.406250 0.653107
0.280792 0.421967 0.671326
0.308929 0.425171 0.673645
0.324860 0.316040 0.614044
0.475281 0.196106 0.646820
0.594238 0.234650 0.672180
0.675201 0.271301 0.700684
0.750000 0.303955 0.724976
0.265320 0.448242 0.668243
0.283752 0.467834 0.690674
0.301605 0.486420 0.709991
0.332184 0.485260 0.706818
0.392334 0.416962 0.652496
0.455505 0.276123 0.656830
0.616119 0.306549 0.691864
0.694641 0.344604 0.717468
0.765686 0.376556 0.738922
0.279602 0.508698 0.700378
0.299835 0.532593 0.725555
0.319977 0.553619 0.747833
0.373657 0.542908 0.734772
0.471039 0.512787 0.701294
0.501190 0.420563 0.676208
0.635956 0.395355 0.718353
0.716156 0.427216 0.738586
0.783508 0.454529 0.757233
0.294464 0.572601 0.737549
0.316132 0.596100 0.765381
0.338776 0.611603 0.779938
0.435425 0.596313 0.763092
0.525269 0.587891 0.750580
0.590729 0.566559 0.731415
0.631317 0.485809 0.736572
0.739624 0.508667 0.765228
0.800751 0.530396 0.776642
0.307770 0.633667 0.776642
0.324585 0.651031 0.793549
0.382507 0.652954 0.794464
0.482941 0.645813 0.787537
0.566986 0.645691 0.785767
0.636108 0.653534 0.782990
0.665863 0.624573 0.768402
0.744812 0.586121 0.789581
0.811615 0.601685 0.798767
0.314087 0.688232 0.804169
0.332367 0.699280 0.809540
0.408722 0.693848 0.808411
0.502563 0.690857 0.807983
0.583710 0.693512 0.808929
0.648529 0.706207 0.810303
0.707611 0.712769 0.808167
0.746002 0.661591 0.807648
0.824982 0.668427 0.821381
0.318909 0.736206 0.818634
0.342102 0.745453 0.822174
0.419495 0.738220 0.821472
0.509583 0.734802 0.821777
0.587677 0.737793 0.824493
0.653259 0.749542 0.826965
0.719635 0.762238 0.829346
0.771393 0.755035 0.824371
0.839081 0.737122 0.836914
0.329620 0.787201 0.830109
0.365875 0.792572 0.832092
0.443542 0.786377 0.832611
0.524811 0.782471 0.833771
0.598328 0.785370 0.836670
0.661163 0.794769 0.840607
0.727509 0.805298 0.843384
0.796570 0.818054 0.845703
0.853333 0.814484 0.849762
0.362183 0.837097 0.841583
0.419098 0.836243 0.842346
0.492401 0.834381 0.842682
0.565918 0.834106 0.844299
0.627991 0.839264 0.847321
0.686676 0.844696 0.851166
0.752686 0.851501 0.853912
0.825165 0.860931 0.857574
0.867523 0.867523 0.859253
0.280273 0.428955 0.713043
0.296539 0.442535 0.730103
0.311951 0.455505 0.744598
0.328491 0.469604 0.755371
0.378235 0.409515 0.717712
0.374542 0.251221 0.700684
0.586365 0.245361 0.748657
0.677673 0.282532 0.773529
0.750549 0.315735 0.789093
0.296417 0.484650 0.744049
0.310150 0.499298 0.758667
0.323486 0.510162 0.766571
0.340607 0.519318 0.769135
0.430695 0.491638 0.753357
0.452789 0.392517 0.724091
0.590576 0.318542 0.762878
0.697418 0.354370 0.786255
0.765839 0.388031 0.797089
0.306610 0.538940 0.768890
0.320709 0.553375 0.776245
0.338074 0.564819 0.780060
0.365814 0.570862 0.782745
0.469818 0.552185 0.773895
0.530060 0.510620 0.757202
0.585510 0.405762 0.768250
0.715820 0.438019 0.797852
0.780853 0.466156 0.805634
0.315796 0.590027 0.786194
0.333710 0.604858 0.791412
0.356079 0.617340 0.795227
0.439026 0.610260 0.795288
0.522125 0.604645 0.792175
0.599792 0.599731 0.786957
0.625000 0.539429 0.774139
0.728577 0.517517 0.806000
0.793365 0.542511 0.813019
0.325287 0.639893 0.800964
0.348114 0.653320 0.804932
0.391541 0.659943 0.807770
0.495239 0.652466 0.807770
0.572784 0.653900 0.807648
0.632599 0.662109 0.807373
0.672241 0.650757 0.799866
0.722809 0.595398 0.810394
0.802338 0.614807 0.825134
0.335144 0.686096 0.813446
0.361176 0.697021 0.817139
0.435883 0.695282 0.817719
0.525146 0.693237 0.819550
0.596466 0.698090 0.820648
0.653687 0.710938 0.822876
0.708954 0.719788 0.822784
0.736603 0.682281 0.817963
0.815521 0.682770 0.837463
0.342438 0.731201 0.825195
0.375458 0.739685 0.827972
0.453613 0.737030 0.828522
0.540802 0.733826 0.830414
0.607483 0.740967 0.832764
0.665985 0.752655 0.835876
0.725433 0.765747 0.838776
0.777588 0.768616 0.837097
0.831543 0.751617 0.848083
0.352142 0.781067 0.836304
0.401367 0.784668 0.838257
0.473633 0.783752 0.839172
0.557556 0.780518 0.841187
0.620331 0.786560 0.844299
0.678070 0.796143 0.848175
0.739594 0.807953 0.850922
0.803162 0.822601 0.854980
0.854126 0.830597 0.860626
0.374725 0.833679 0.847473
0.436768 0.833801 0.848572
0.512054 0.832977 0.849304
0.588440 0.834595 0.851715
0.648010 0.839661 0.854828
0.705322 0.844879 0.858673
0.768311 0.851898 0.861145
0.835724 0.861847 0.865204
0.874146 0.870148 0.868011
