lut/retro-80s/The Terminator (1984) - Standard.cube
# Created by Benjamin (IWLTBAP): https://luts.iwltbap.com
# Copyright: (C) Copyright 2018 Triune Films and IWLTBAP SAS
# Cannot be resold, shared or otherwise redistributed
TITLE "Triune Films 80s Retro LUTs (Rec.709, sRGB, DCI-P3)"
LUT_3D_SIZE 9
0.009552 0.006775 0.000000
0.101471 0.035553 0.000000
0.197510 0.062958 0.000000
0.296234 0.085724 0.017181
0.400879 0.105438 0.039551
0.511719 0.121765 0.059692
0.631805 0.133118 0.074707
0.766754 0.139160 0.083588
0.918884 0.140778 0.088013
0.015778 0.073730 0.000000
0.085510 0.098877 0.000000
0.194641 0.124268 0.000000
0.308990 0.144226 0.000000
0.426605 0.162689 0.006592
0.546875 0.179260 0.022522
0.670227 0.192932 0.038147
0.807861 0.203522 0.051880
0.951050 0.211304 0.063843
0.014984 0.142426 0.000000
0.068604 0.161285 0.000000
0.166840 0.185974 0.000000
0.313049 0.221527 0.000000
0.443359 0.237244 0.000000
0.572632 0.250305 0.000214
0.702148 0.262543 0.007294
0.846283 0.274353 0.019958
0.985260 0.285461 0.034027
0.014984 0.210114 0.019440
0.050018 0.227966 0.003448
0.141907 0.249664 0.000000
0.271729 0.278595 0.000000
0.442444 0.328491 0.000000
0.584015 0.346222 0.000000
0.720886 0.356415 0.000000
0.872253 0.365967 0.001587
1.000000 0.375885 0.012238
0.014984 0.284271 0.051483
0.032654 0.302460 0.027374
0.121490 0.325073 0.009277
0.249969 0.350616 0.002350
0.403625 0.381989 0.000397
0.579895 0.442108 0.000000
0.729004 0.468018 0.000000
0.884003 0.477509 0.000000
1.000000 0.485016 0.002777
0.014984 0.366211 0.081085
0.020874 0.385498 0.050110
0.104919 0.409210 0.024506
0.238220 0.437927 0.014618
0.394165 0.465485 0.015778
0.560913 0.498047 0.013611
0.728607 0.562408 0.003265
0.889252 0.594788 0.000580
1.000000 0.604797 0.001587
0.014984 0.450897 0.099274
0.018005 0.470886 0.064850
0.099091 0.495819 0.035400
0.235779 0.527954 0.023621
0.397583 0.562317 0.029846
0.567383 0.591553 0.039429
0.734314 0.625366 0.037384
0.895081 0.687531 0.016083
1.000000 0.721954 0.005310
0.014984 0.546509 0.092712
0.024994 0.565369 0.062439
0.113617 0.589508 0.037201
0.247070 0.621460 0.026764
0.404999 0.658051 0.035583
0.573334 0.692719 0.050293
0.741028 0.720825 0.058655
0.907196 0.755432 0.050476
1.000000 0.816071 0.022705
0.014984 0.664368 0.066559
0.043365 0.680511 0.045441
0.144043 0.702057 0.027679
0.268921 0.731659 0.021332
0.415161 0.768097 0.030823
0.573822 0.806396 0.046722
0.737457 0.839478 0.056610
0.907288 0.862000 0.055664
1.000000 0.885437 0.044922
0.014984 0.037811 0.073273
0.082397 0.042847 0.128143
0.194153 0.052185 0.141144
0.300232 0.067932 0.136169
0.404999 0.086517 0.133575
0.510956 0.105194 0.136902
0.624847 0.119995 0.144226
0.752686 0.129456 0.152588
0.900421 0.134857 0.160126
0.032257 0.095734 0.090271
0.098083 0.118011 0.114716
0.179840 0.126251 0.119598
0.304047 0.140991 0.114929
0.428833 0.158447 0.112793
0.550629 0.175781 0.117706
0.670837 0.191498 0.128510
0.801056 0.204559 0.142761
0.936890 0.215118 0.157806
0.024567 0.202667 0.118561
0.079895 0.195007 0.117340
0.148254 0.197815 0.113007
0.307007 0.226715 0.111328
0.444641 0.240417 0.107391
0.578705 0.253906 0.107361
0.708954 0.267426 0.113861
0.846436 0.281433 0.127747
0.976593 0.294830 0.145905
0.042175 0.271851 0.145752
0.057953 0.260620 0.136505
0.117279 0.268341 0.122345
0.249054 0.291534 0.110138
0.440430 0.336823 0.109619
0.588226 0.351898 0.108154
0.728485 0.362152 0.109314
0.876343 0.372650 0.117493
1.000000 0.383881 0.131226
0.037262 0.330902 0.170776
0.029297 0.333405 0.150177
0.089386 0.346069 0.130890
0.215729 0.365631 0.118378
0.381439 0.395203 0.108917
0.579407 0.451782 0.109161
0.733063 0.473663 0.112061
0.887634 0.482422 0.116272
1.000000 0.489288 0.123444
0.021149 0.402802 0.187927
0.016541 0.413635 0.160004
0.066986 0.430328 0.135529
0.198273 0.452820 0.121796
0.358459 0.478607 0.117035
0.543030 0.512543 0.111267
0.728363 0.572754 0.111908
0.891113 0.599609 0.118195
1.000000 0.607086 0.121979
0.014832 0.478790 0.192169
0.015167 0.494476 0.160248
0.061554 0.515076 0.132446
0.197357 0.542175 0.118347
0.360657 0.574402 0.118439
0.541901 0.604950 0.122253
0.723755 0.640015 0.121155
0.895386 0.697144 0.120514
1.000000 0.725861 0.122772
0.014923 0.565430 0.174835
0.022064 0.582794 0.145142
0.084930 0.604675 0.120300
0.219147 0.633575 0.108185
0.378265 0.668579 0.112305
0.553986 0.704132 0.124146
0.730164 0.734100 0.131561
0.905365 0.768555 0.131195
1.000000 0.823822 0.125671
0.014984 0.675690 0.144196
0.039215 0.691772 0.122589
0.128448 0.712799 0.104462
0.255157 0.741211 0.095856
0.403229 0.776733 0.101715
0.565430 0.815216 0.117004
0.732513 0.849213 0.129608
0.905853 0.871948 0.132141
1.000000 0.894226 0.127716
0.020874 0.058105 0.205902
0.044037 0.066132 0.247192
0.164764 0.059021 0.271393
0.282776 0.062439 0.269592
0.394928 0.077728 0.251617
0.503174 0.095642 0.237244
0.613739 0.112915 0.230286
0.734467 0.125610 0.230194
0.876404 0.133698 0.234741
0.048553 0.129578 0.194305
0.052979 0.137756 0.213928
0.144653 0.141296 0.237946
0.263916 0.145813 0.247925
0.406921 0.157806 0.234314
0.537872 0.174072 0.224701
0.659241 0.190826 0.224060
0.783447 0.206543 0.233154
0.913971 0.220032 0.247345
0.066193 0.182922 0.186493
0.068176 0.189117 0.186920
0.180115 0.224762 0.223389
0.265289 0.228027 0.232361
0.419556 0.241547 0.230316
0.565674 0.255890 0.222382
0.699219 0.271210 0.222412
0.833130 0.287933 0.234406
0.958344 0.304718 0.254089
0.075531 0.254395 0.214661
0.098358 0.298401 0.228699
0.161987 0.312714 0.234253
0.214935 0.298950 0.231659
0.427765 0.342926 0.235779
0.581512 0.355713 0.230804
0.724396 0.366333 0.228607
0.870880 0.378998 0.235565
0.999023 0.393311 0.251526
0.058380 0.414581 0.261414
0.114319 0.415344 0.260437
0.133209 0.390503 0.254913
0.181580 0.381653 0.243103
0.344330 0.408203 0.230896
0.572784 0.462067 0.232697
0.730743 0.478607 0.234955
0.886871 0.486816 0.238983
1.000000 0.493958 0.247101
0.071411 0.484619 0.282959
0.082642 0.482025 0.269379
0.071442 0.467712 0.252716
0.152039 0.470459 0.237732
0.310181 0.493042 0.229736
0.511383 0.527222 0.222900
0.722015 0.584045 0.231232
0.890533 0.604431 0.241272
1.000000 0.609436 0.245728
0.041260 0.540588 0.283997
0.035309 0.545807 0.261719
0.035553 0.544830 0.238464
0.146149 0.558716 0.222565
0.310638 0.587555 0.219879
0.503326 0.618896 0.222015
0.702362 0.655579 0.222870
0.891602 0.708191 0.235535
1.000000 0.730072 0.244720
0.014191 0.608856 0.264587
0.026764 0.618042 0.239197
0.053040 0.625824 0.214844
0.178802 0.646973 0.200531
0.339355 0.679749 0.202026
0.523651 0.716034 0.212982
0.709869 0.748413 0.221802
0.897644 0.783051 0.227722
1.000000 0.833069 0.237518
0.014313 0.703247 0.234344
0.038940 0.711212 0.211884
0.100586 0.724670 0.192108
0.231445 0.751678 0.181152
0.382629 0.786133 0.184021
0.550415 0.824615 0.199158
0.721954 0.859619 0.215363
0.900635 0.883118 0.222260
1.000000 0.904053 0.223022
0.024109 0.084015 0.276459
0.027374 0.096558 0.324982
0.086945 0.099945 0.356812
0.235870 0.080963 0.381989
0.367920 0.078186 0.378479
0.477478 0.098450 0.358612
0.593811 0.114655 0.338654
0.711456 0.129211 0.325043
0.847534 0.139923 0.318756
0.052948 0.161011 0.272186
0.053589 0.168335 0.291931
0.060516 0.173096 0.323669
0.191650 0.168060 0.353790
0.357025 0.162048 0.364014
0.497040 0.175995 0.344727
0.630402 0.191376 0.329620
0.753540 0.208832 0.326416
0.881836 0.225128 0.332794
0.102539 0.213165 0.283783
0.102997 0.216919 0.285828
0.109650 0.222534 0.295074
0.241760 0.243256 0.340424
0.339264 0.246674 0.351288
0.514221 0.256866 0.340088
0.664673 0.273041 0.330292
0.799957 0.292419 0.335083
0.926086 0.312836 0.351166
0.094604 0.262878 0.263580
0.094788 0.269409 0.263702
0.098694 0.275909 0.267853
0.258728 0.330536 0.328308
0.378723 0.340454 0.346649
0.538116 0.353058 0.348969
0.696228 0.368073 0.342712
0.847260 0.385132 0.348816
0.978546 0.404114 0.365570
0.111389 0.330872 0.298920
0.119202 0.348907 0.309418
0.166534 0.406830 0.335236
0.252014 0.432037 0.347656
0.304108 0.415833 0.344666
0.552887 0.466675 0.358215
0.718292 0.480713 0.357941
0.879395 0.490265 0.361847
1.000000 0.500580 0.370209
0.102142 0.492950 0.367554
0.143066 0.526306 0.372742
0.196228 0.546112 0.370239
0.221283 0.526489 0.361969
0.260162 0.507874 0.350494
0.460663 0.540833 0.344849
0.709503 0.593445 0.357147
0.887543 0.607880 0.366425
1.000000 0.611664 0.370270
0.077118 0.630890 0.382660
0.120850 0.636108 0.372833
0.141235 0.625610 0.359436
0.151215 0.606537 0.343353
0.247406 0.603180 0.333435
0.446625 0.633942 0.335907
0.666840 0.671661 0.339905
0.883301 0.719818 0.359222
1.000000 0.733612 0.369415
0.045074 0.697968 0.369019
0.066833 0.699951 0.353027
0.082550 0.691223 0.333191
0.141022 0.682739 0.313782
0.280914 0.692627 0.306366
0.474396 0.728821 0.316559
0.675354 0.763947 0.328369
0.879913 0.799438 0.339111
1.000000 0.844055 0.357697
0.012146 0.771667 0.344299
0.051483 0.771027 0.325470
0.085022 0.760773 0.302155
0.186493 0.763611 0.282074
0.341766 0.796082 0.280701
0.518372 0.834320 0.293854
0.699005 0.870728 0.312958
0.887665 0.895782 0.324982
1.000000 0.915741 0.331207
0.027954 0.108337 0.320557
0.032166 0.127930 0.372650
0.039703 0.136078 0.422699
0.140106 0.131653 0.452423
0.304352 0.105591 0.481354
0.477753 0.081940 0.484039
0.557037 0.122314 0.459930
0.678589 0.139160 0.437744
0.814270 0.152527 0.420471
0.055603 0.187469 0.335785
0.057373 0.196564 0.357880
0.055267 0.200745 0.386139
0.087860 0.200500 0.429657
0.266113 0.187622 0.463989
0.475861 0.168060 0.476990
0.579437 0.193695 0.449615
0.709869 0.211426 0.432678
0.843384 0.230011 0.425903
0.119690 0.247528 0.361237
0.121887 0.252106 0.367828
0.120575 0.255554 0.377502
0.118958 0.263123 0.406097
0.265503 0.265900 0.449646
0.464661 0.257385 0.470001
0.599365 0.271362 0.445953
0.745148 0.291779 0.437439
0.881531 0.315430 0.442566
0.126709 0.281982 0.342285
0.125519 0.288025 0.340088
0.127136 0.291107 0.344238
0.149719 0.300507 0.367340
0.344421 0.347046 0.446564
0.453033 0.354614 0.463379
0.625092 0.364288 0.453339
0.791534 0.387115 0.453918
0.935272 0.412018 0.467377
0.122498 0.338715 0.336060
0.124481 0.351898 0.340912
0.126343 0.359344 0.344360
0.167480 0.386230 0.373260
0.343597 0.441437 0.435883
0.506775 0.463593 0.465729
0.665527 0.476593 0.471436
0.842438 0.494995 0.474396
0.992706 0.513428 0.486664
0.143341 0.414825 0.379181
0.154297 0.440247 0.395721
0.164551 0.460846 0.408386
0.244293 0.528046 0.445923
0.349945 0.557709 0.464142
0.443512 0.558685 0.466858
0.686920 0.597473 0.482056
0.875336 0.610229 0.487610
1.000000 0.616058 0.492981
0.168854 0.541870 0.451935
0.184784 0.584808 0.466309
0.213257 0.635590 0.474213
0.278564 0.670105 0.477509
0.328522 0.663849 0.471222
0.388000 0.649750 0.460083
0.615326 0.686584 0.465271
0.870544 0.728424 0.485077
1.000000 0.735748 0.492859
0.102264 0.736115 0.484375
0.144958 0.752716 0.477722
0.192932 0.766296 0.470459
0.228516 0.760803 0.457977
0.288055 0.747833 0.443024
0.407349 0.743347 0.433258
0.625549 0.780518 0.446686
0.849609 0.816833 0.460846
1.000000 0.854523 0.482208
0.049194 0.857727 0.473907
0.097504 0.859314 0.463165
0.142731 0.850677 0.447357
0.174347 0.822998 0.419525
0.276672 0.808044 0.393555
0.462738 0.844940 0.402374
0.660126 0.882568 0.421539
0.863586 0.909882 0.437958
1.000000 0.927704 0.448425
0.031769 0.131317 0.358063
0.038940 0.155579 0.419342
0.045776 0.167755 0.469971
0.067200 0.167938 0.510864
0.209564 0.158142 0.540649
0.378906 0.126495 0.572784
0.602234 0.080017 0.591644
0.639801 0.145599 0.555603
0.775146 0.163605 0.537109
0.057343 0.208344 0.392334
0.060638 0.219299 0.419067
0.060883 0.224091 0.443390
0.061615 0.224335 0.485382
0.154785 0.220490 0.528778
0.358246 0.199677 0.566437
0.605927 0.168640 0.590088
0.660126 0.210846 0.552368
0.800293 0.230988 0.536346
0.118652 0.273285 0.420868
0.121521 0.279053 0.429871
0.118988 0.281281 0.439148
0.109192 0.282898 0.461151
0.127045 0.286835 0.511475
0.340759 0.277161 0.557892
0.603027 0.261169 0.588257
0.678955 0.284760 0.553314
0.830078 0.308777 0.544067
0.161865 0.310638 0.433746
0.162994 0.315552 0.434448
0.164307 0.319061 0.440033
0.166779 0.324829 0.456055
0.180206 0.343506 0.493622
0.381042 0.366821 0.559387
0.594604 0.362488 0.586334
0.704865 0.376984 0.562286
0.873688 0.406128 0.563995
0.145477 0.347870 0.393829
0.145538 0.360352 0.394623
0.146637 0.367035 0.397705
0.150085 0.369751 0.406067
0.226990 0.401001 0.465729
0.452515 0.458435 0.556274
0.591522 0.476349 0.585297
0.750732 0.489960 0.581146
0.936951 0.518433 0.591003
0.149597 0.414215 0.406036
0.154053 0.433990 0.416382
0.157990 0.447998 0.424744
0.160858 0.456177 0.430817
0.262177 0.513794 0.495300
0.447418 0.563416 0.552032
0.647736 0.596344 0.592468
0.817963 0.611816 0.601562
0.998962 0.629364 0.609680
0.175385 0.500031 0.457733
0.188049 0.528625 0.476654
0.199829 0.552307 0.492035
0.216278 0.578033 0.508484
0.333252 0.656036 0.561066
0.472687 0.690735 0.586151
0.616486 0.708130 0.597046
0.850769 0.732880 0.608002
1.000000 0.740051 0.612671
0.226318 0.612610 0.527283
0.235046 0.643829 0.541077
0.242035 0.687073 0.554657
0.282867 0.747955 0.572723
0.376068 0.793884 0.587341
0.460785 0.796234 0.583282
0.573853 0.796997 0.574829
0.810364 0.833069 0.587799
1.000000 0.862549 0.605713
0.161163 0.818909 0.581268
0.188171 0.836823 0.577881
0.223297 0.863434 0.576233
0.282562 0.894012 0.577484
0.339478 0.889435 0.563690
0.400879 0.859100 0.531219
0.613281 0.897156 0.546082
0.833252 0.925507 0.561615
1.000000 0.940369 0.571320
0.036377 0.151520 0.393494
0.046143 0.178131 0.465057
0.056458 0.193268 0.513611
0.065186 0.196167 0.554810
0.123169 0.193665 0.581482
0.290741 0.178864 0.616547
0.462280 0.145264 0.649231
0.726440 0.080994 0.695618
0.743896 0.160278 0.644043
0.059631 0.223358 0.440369
0.064178 0.235657 0.470703
0.066193 0.241547 0.494110
0.067719 0.242340 0.523865
0.090027 0.241333 0.573761
0.258698 0.233429 0.612518
0.460724 0.205017 0.652405
0.732697 0.169464 0.697510
0.764099 0.220093 0.646210
0.110229 0.287231 0.468262
0.112854 0.293152 0.477936
0.110626 0.295105 0.487061
0.102325 0.294495 0.503632
0.093811 0.296509 0.553101
0.215363 0.295807 0.605225
0.452881 0.275482 0.653259
0.735138 0.262573 0.699188
0.783508 0.290283 0.650970
0.166321 0.333984 0.485962
0.170959 0.339386 0.491302
0.171539 0.342743 0.497223
0.168060 0.345947 0.508453
0.159454 0.354675 0.540070
0.198608 0.368042 0.595184
0.466431 0.365479 0.659424
0.735016 0.364624 0.701599
0.809357 0.380829 0.662415
0.179230 0.360199 0.470032
0.176727 0.368256 0.465912
0.178070 0.374146 0.469666
0.184998 0.378601 0.485779
0.198639 0.390564 0.518738
0.256470 0.427216 0.575439
0.523376 0.477783 0.674347
0.736237 0.480560 0.705902
0.856354 0.496979 0.683563
0.165680 0.415924 0.446259
0.168640 0.434967 0.453918
0.171570 0.448242 0.461304
0.174683 0.455353 0.469055
0.180664 0.463226 0.483185
0.338806 0.524170 0.584564
0.586487 0.584351 0.676086
0.736389 0.608795 0.708588
0.926605 0.628021 0.707397
0.178711 0.496063 0.479156
0.184906 0.518127 0.492432
0.191895 0.537903 0.505585
0.198914 0.554688 0.517975
0.208527 0.573975 0.534119
0.381104 0.656372 0.629578
0.600616 0.700897 0.681854
0.785553 0.729645 0.710999
0.996155 0.748108 0.718933
0.212891 0.598480 0.543152
0.224792 0.620819 0.557922
0.237366 0.642792 0.572479
0.251312 0.665405 0.587524
0.289185 0.709015 0.618713
0.439758 0.787292 0.678192
0.631989 0.827393 0.708954
0.779602 0.842987 0.706451
1.000000 0.866547 0.716705
0.279175 0.727203 0.619110
0.287598 0.742645 0.625610
0.295166 0.762024 0.632660
0.304474 0.791260 0.642639
0.346893 0.849701 0.666351
0.510071 0.929596 0.705231
0.584534 0.911194 0.678864
0.805420 0.940857 0.687897
1.000000 0.950714 0.688904
0.041748 0.167816 0.430939
0.053406 0.195618 0.497925
0.065674 0.212616 0.547394
0.071869 0.217896 0.576447
0.083557 0.217529 0.606537
0.205139 0.212677 0.633026
0.384003 0.187622 0.674591
0.552002 0.160248 0.700165
0.845673 0.083557 0.787872
0.063049 0.234344 0.474304
0.068024 0.246735 0.506653
0.070374 0.253265 0.528076
0.072571 0.254303 0.548920
0.080750 0.254059 0.591827
0.172028 0.251373 0.631836
0.374023 0.233551 0.677063
0.561981 0.206360 0.707642
0.854462 0.169617 0.791199
0.103851 0.294617 0.498260
0.105255 0.299500 0.508148
0.102631 0.300568 0.517151
0.096283 0.298828 0.530609
0.090454 0.298798 0.567474
0.136780 0.299713 0.627869
0.351868 0.290405 0.676849
0.568604 0.264679 0.715759
0.861877 0.261261 0.794342
0.162231 0.344452 0.512421
0.165283 0.349091 0.518158
0.164032 0.350922 0.523956
0.157623 0.350769 0.533447
0.145721 0.352295 0.556885
0.138397 0.360870 0.618713
0.320923 0.363556 0.674683
0.587311 0.346985 0.731476
0.867554 0.362183 0.796051
0.199066 0.373108 0.519043
0.200470 0.378784 0.521240
0.202484 0.383514 0.527618
0.205322 0.388550 0.541321
0.207092 0.398376 0.564453
0.211578 0.423889 0.614807
0.318054 0.453949 0.673096
0.630951 0.463654 0.757538
0.873352 0.474701 0.793854
0.178467 0.409088 0.477142
0.180298 0.424622 0.482391
0.183502 0.436066 0.490509
0.188782 0.442413 0.502625
0.198914 0.449768 0.525085
0.234528 0.471771 0.572937
0.390076 0.535645 0.663666
0.681610 0.599518 0.779358
0.880890 0.600494 0.783386
0.187347 0.489563 0.500580
0.192444 0.509613 0.511597
0.198364 0.528259 0.524048
0.205353 0.545166 0.538239
0.215210 0.563812 0.556732
0.235870 0.590240 0.587097
0.417236 0.635712 0.653503
0.748016 0.724640 0.795166
0.925781 0.739685 0.780029
0.211456 0.588440 0.557098
0.220062 0.606934 0.569397
0.230225 0.627686 0.584137
0.242828 0.651398 0.602051
0.259674 0.680206 0.624664
0.287781 0.718628 0.655670
0.507599 0.784515 0.727844
0.794403 0.848846 0.809937
0.995453 0.865509 0.786316
0.264130 0.720032 0.640594
0.274933 0.734375 0.650116
0.288208 0.752380 0.662079
0.307434 0.776520 0.678070
0.335144 0.808929 0.698303
0.378876 0.851807 0.722382
0.558655 0.903198 0.753723
0.783264 0.945679 0.770874
0.999878 0.956146 0.768005
0.045349 0.180115 0.459900
0.059875 0.208099 0.524139
0.070374 0.225922 0.563416
0.074646 0.232208 0.580688
0.080414 0.232574 0.609131
0.123016 0.230194 0.635193
0.300812 0.216858 0.672729
0.489655 0.176300 0.713928
0.646301 0.166748 0.727631
0.065857 0.242798 0.499695
0.070221 0.254303 0.524933
0.073456 0.260468 0.546112
0.075104 0.261169 0.560455
0.080353 0.260651 0.588928
0.109100 0.258850 0.635559
0.290344 0.249268 0.676147
0.494263 0.215332 0.720398
0.661407 0.206909 0.736664
0.103455 0.300018 0.513306
0.101807 0.302643 0.523560
0.097839 0.301910 0.532257
0.092133 0.298737 0.543823
0.088287 0.296204 0.568909
0.100128 0.296265 0.627960
0.266174 0.291962 0.677551
0.491425 0.267303 0.726013
0.676941 0.258301 0.747223
0.160095 0.348755 0.524261
0.160095 0.350922 0.529327
0.155487 0.350037 0.534943
0.145721 0.346191 0.542847
0.131683 0.343048 0.560242
0.116669 0.346985 0.613373
0.233215 0.351746 0.678528
0.483063 0.340057 0.731476
0.701141 0.329285 0.761292
0.201385 0.378235 0.534332
0.203827 0.382843 0.539978
0.204102 0.386353 0.546661
0.200745 0.389221 0.556488
0.195251 0.394196 0.572449
0.187805 0.408936 0.613251
0.236969 0.432281 0.683777
0.483643 0.439545 0.740112
0.744934 0.429169 0.779877
0.189117 0.403046 0.499115
0.190277 0.413208 0.503113
0.194336 0.421173 0.512787
0.203064 0.427155 0.531403
0.218018 0.436127 0.562500
0.242889 0.460449 0.613068
0.332489 0.518707 0.692200
0.518585 0.566650 0.753815
0.808838 0.561493 0.802094
0.191895 0.477173 0.512207
0.196899 0.494568 0.522766
0.203369 0.511902 0.535950
0.211823 0.528473 0.552368
0.223663 0.546234 0.574249
0.243286 0.570923 0.608582
0.373077 0.608215 0.672791
0.608673 0.690613 0.766479
0.885040 0.717438 0.823547
0.216431 0.579498 0.569550
0.224243 0.596893 0.581421
0.234039 0.617340 0.596832
0.246765 0.641602 0.616577
0.264221 0.670776 0.641541
0.289673 0.708649 0.674469
0.408295 0.755646 0.717194
0.676178 0.811737 0.771362
0.957642 0.861755 0.834015
0.261261 0.712982 0.657532
0.270935 0.725922 0.666534
0.283203 0.743439 0.679108
0.302246 0.769348 0.696869
0.329681 0.804199 0.718445
0.367920 0.848907 0.743622
0.471741 0.899017 0.772186
0.728210 0.939392 0.802185
0.994568 0.978027 0.910797
