lut/retro-80s/The Terminator (1984) - Standard.cube
# Created by Benjamin (IWLTBAP): https://luts.iwltbap.com
# Copyright: (C) Copyright 2018 Triune Films and IWLTBAP SAS
# Cannot be resold, shared or otherwise redistributed
TITLE "Triune Films 80s Retro LUTs (Rec.709, sRGB, DCI-P3)"
LUT_3D_SIZE 33
0.009552 0.006775 0.000000
0.035278 0.018188 0.000000
0.056335 0.023346 0.000000
0.078003 0.029114 0.000000
0.101471 0.035553 0.000000
0.125336 0.041504 0.000000
0.149353 0.048737 0.000000
0.173492 0.055939 0.000000
0.197510 0.062958 0.000000
0.221832 0.069733 0.002289
0.246338 0.074860 0.006409
0.271057 0.080383 0.011871
0.296234 0.085724 0.017181
0.321869 0.090881 0.022980
0.347870 0.096344 0.028717
0.374084 0.100800 0.033752
0.400879 0.105438 0.039551
0.427856 0.109863 0.045105
0.455200 0.114166 0.049652
0.483154 0.118256 0.054596
0.511719 0.121765 0.059692
0.540894 0.125061 0.064026
0.570648 0.128265 0.067688
0.601074 0.130920 0.071533
0.631805 0.133118 0.074707
0.662994 0.135132 0.077545
0.695343 0.136719 0.079956
0.730103 0.138123 0.081879
0.766754 0.139160 0.083588
0.804474 0.139740 0.085144
0.842621 0.140228 0.086243
0.881439 0.140503 0.087372
0.918884 0.140778 0.088013
0.017334 0.026062 0.000000
0.034363 0.031921 0.000000
0.053162 0.037262 0.000000
0.075226 0.043457 0.000000
0.098663 0.049835 0.000000
0.122375 0.056305 0.000000
0.147003 0.063171 0.000000
0.171722 0.070129 0.000000
0.196503 0.076782 0.000000
0.221741 0.082886 0.000000
0.247467 0.088501 0.001373
0.273499 0.094147 0.005127
0.299652 0.099396 0.009766
0.326141 0.104675 0.014587
0.353180 0.109680 0.020020
0.380371 0.114502 0.025055
0.407654 0.119171 0.030457
0.435303 0.123627 0.035309
0.463287 0.127960 0.040100
0.491821 0.132080 0.045135
0.520844 0.135742 0.049988
0.550354 0.139221 0.054443
0.580383 0.142395 0.058533
0.610748 0.145416 0.062683
0.641510 0.147919 0.066040
0.672729 0.150116 0.069000
0.705383 0.151978 0.071899
0.740356 0.153595 0.074463
0.776794 0.154968 0.076538
0.813995 0.156250 0.078400
0.851715 0.157074 0.080200
0.889771 0.157776 0.081696
0.926727 0.158203 0.082855
0.016998 0.040314 0.000000
0.032288 0.046539 0.000000
0.050659 0.052826 0.000000
0.072144 0.059784 0.000000
0.095337 0.066223 0.000000
0.120026 0.072784 0.000000
0.144897 0.079041 0.000000
0.170410 0.085541 0.000000
0.195892 0.091705 0.000000
0.222168 0.097626 0.000000
0.248627 0.103119 0.000000
0.275696 0.108582 0.000458
0.302979 0.113739 0.003052
0.330444 0.118927 0.006866
0.358124 0.123871 0.011688
0.386200 0.128601 0.016510
0.414398 0.133331 0.021790
0.442719 0.137909 0.026611
0.471252 0.142212 0.031433
0.500488 0.146332 0.035461
0.529999 0.150146 0.039978
0.559814 0.153809 0.044678
0.589935 0.157135 0.048950
0.620544 0.160156 0.053070
0.651337 0.162903 0.056854
0.682770 0.165497 0.059906
0.715790 0.167633 0.063385
0.750854 0.169647 0.066162
0.787109 0.171265 0.068848
0.823883 0.172821 0.071503
0.861023 0.174255 0.073486
0.898407 0.175323 0.075592
0.934540 0.176178 0.077148
0.016022 0.056366 0.000000
0.030579 0.062988 0.000000
0.047302 0.069244 0.000000
0.067535 0.075745 0.000000
0.091339 0.083099 0.000000
0.116974 0.089813 0.000000
0.142761 0.095703 0.000000
0.168976 0.101593 0.000000
0.195709 0.107574 0.000000
0.222382 0.112915 0.000000
0.249969 0.118256 0.000000
0.277924 0.123566 0.000000
0.306152 0.128387 0.000000
0.334381 0.133453 0.001495
0.362946 0.138306 0.004974
0.391785 0.143066 0.009094
0.420776 0.147705 0.013611
0.449890 0.152191 0.017914
0.478973 0.156464 0.022736
0.508728 0.160736 0.026642
0.538696 0.164459 0.031097
0.568909 0.168213 0.035187
0.599304 0.171722 0.039276
0.630005 0.174805 0.043274
0.660858 0.177826 0.047546
0.692566 0.180603 0.050934
0.726135 0.183044 0.054230
0.761322 0.185394 0.057495
0.797455 0.187378 0.060486
0.833893 0.189240 0.063385
0.870514 0.190979 0.066193
0.907227 0.192566 0.068695
0.942627 0.193756 0.070770
0.015778 0.073730 0.000000
0.028748 0.079773 0.000000
0.044373 0.085999 0.000000
0.063293 0.091949 0.000000
0.085510 0.098877 0.000000
0.112396 0.106445 0.000000
0.139801 0.112854 0.000000
0.167206 0.118805 0.000000
0.194641 0.124268 0.000000
0.222565 0.129303 0.000000
0.251282 0.134369 0.000000
0.280060 0.139313 0.000000
0.308990 0.144226 0.000000
0.338257 0.148865 0.000000
0.367554 0.153595 0.000488
0.396973 0.158203 0.002838
0.426605 0.162689 0.006592
0.456451 0.167023 0.010864
0.486328 0.171234 0.014069
0.516571 0.175385 0.018677
0.546875 0.179260 0.022522
0.577545 0.182922 0.026489
0.608276 0.186523 0.030334
0.639130 0.189789 0.034210
0.670227 0.192932 0.038147
0.702393 0.195831 0.041962
0.736511 0.198547 0.045105
0.771881 0.201080 0.048462
0.807861 0.203522 0.051880
0.844086 0.205627 0.055573
0.880280 0.207764 0.058624
0.916290 0.209595 0.061584
0.951050 0.211304 0.063843
0.014984 0.091614 0.000000
0.026672 0.097137 0.000000
0.041321 0.102600 0.000000
0.059662 0.108307 0.000000
0.080780 0.114258 0.000000
0.104675 0.120819 0.000000
0.133636 0.129303 0.000000
0.163757 0.136444 0.000000
0.193146 0.142242 0.000000
0.222260 0.147339 0.000000
0.251770 0.152222 0.000000
0.281586 0.156830 0.000000
0.311523 0.161377 0.000000
0.341675 0.165741 0.000000
0.371918 0.170227 0.000000
0.401917 0.174469 0.000153
0.432098 0.178802 0.001434
0.462524 0.183044 0.004272
0.492981 0.187195 0.008026
0.523743 0.191010 0.011017
0.554596 0.194885 0.014801
0.585602 0.198517 0.018585
0.616730 0.202087 0.021881
0.647888 0.205383 0.025574
0.679199 0.208588 0.029388
0.712067 0.211700 0.032867
0.746674 0.214569 0.036316
0.782196 0.217407 0.040161
0.818176 0.219879 0.043793
0.854126 0.222382 0.046722
0.889984 0.224701 0.050140
0.925598 0.226898 0.053406
0.959656 0.228821 0.056549
0.014984 0.108643 0.000000
0.025604 0.113922 0.000000
0.039032 0.119049 0.000000
0.056213 0.124329 0.000000
0.076477 0.129791 0.000000
0.099091 0.135773 0.000000
0.124573 0.142670 0.000000
0.155609 0.151672 0.000000
0.188263 0.159729 0.000000
0.220184 0.165985 0.000000
0.251587 0.171295 0.000000
0.282318 0.175934 0.000000
0.312988 0.180267 0.000000
0.343994 0.184601 0.000000
0.375031 0.188782 0.000000
0.406128 0.192719 0.000000
0.437103 0.196686 0.000153
0.467896 0.200592 0.000854
0.498871 0.204468 0.002808
0.530029 0.208160 0.005341
0.561432 0.211731 0.008087
0.592834 0.215332 0.010986
0.624237 0.218811 0.014252
0.655762 0.222137 0.017853
0.687683 0.225342 0.020935
0.721161 0.228485 0.024414
0.756226 0.231415 0.027863
0.792023 0.234253 0.031738
0.828064 0.237061 0.035339
0.863953 0.239685 0.038666
0.899475 0.242310 0.042206
0.934723 0.244751 0.045807
0.968384 0.247040 0.049255
0.014984 0.125702 0.000000
0.024719 0.130554 0.000000
0.037323 0.135376 0.000000
0.053436 0.140167 0.000000
0.072632 0.145569 0.000000
0.094147 0.150970 0.000000
0.117615 0.156616 0.000000
0.145203 0.164307 0.000000
0.178711 0.174103 0.000000
0.213989 0.183228 0.000000
0.248566 0.190430 0.000000
0.282013 0.196106 0.000000
0.313812 0.200684 0.000000
0.345428 0.204865 0.000000
0.377075 0.208801 0.000000
0.408997 0.212463 0.000000
0.440796 0.216095 0.000000
0.472504 0.219879 0.000000
0.503906 0.223328 0.000336
0.535614 0.226837 0.001221
0.567383 0.230133 0.002869
0.599243 0.233459 0.005188
0.631042 0.236786 0.008087
0.662872 0.240082 0.010559
0.695251 0.243225 0.013458
0.729675 0.246338 0.017090
0.765198 0.249329 0.020142
0.801270 0.252289 0.024017
0.837494 0.255188 0.027069
0.873352 0.257935 0.030945
0.908752 0.260712 0.034363
0.943726 0.263397 0.037872
0.976959 0.265808 0.041656
0.014984 0.142426 0.000000
0.024139 0.146851 0.000000
0.035675 0.151642 0.000000
0.050629 0.156342 0.000000
0.068604 0.161285 0.000000
0.089233 0.166534 0.000000
0.112305 0.172058 0.000000
0.137268 0.177856 0.000000
0.166840 0.185974 0.000000
0.203522 0.197296 0.000000
0.241364 0.207520 0.000000
0.278046 0.215485 0.000000
0.313049 0.221527 0.000000
0.346130 0.226135 0.000000
0.378571 0.230103 0.000000
0.410889 0.233765 0.000000
0.443359 0.237244 0.000000
0.475861 0.240692 0.000000
0.508209 0.244080 0.000000
0.540314 0.247162 0.000000
0.572632 0.250305 0.000214
0.604828 0.253357 0.001068
0.637085 0.256409 0.002899
0.669037 0.259460 0.004974
0.702148 0.262543 0.007294
0.737305 0.265472 0.010193
0.773315 0.268463 0.013275
0.809784 0.271393 0.016296
0.846283 0.274353 0.019958
0.882263 0.277222 0.023529
0.917511 0.280029 0.027069
0.952362 0.282837 0.030731
0.985260 0.285461 0.034027
0.014984 0.159302 0.000000
0.023773 0.163086 0.000000
0.034058 0.167725 0.000000
0.047394 0.172394 0.000000
0.064240 0.177246 0.000000
0.084290 0.182709 0.000000
0.106842 0.188080 0.000000
0.131561 0.193420 0.000000
0.158447 0.199463 0.000000
0.189972 0.207977 0.000000
0.229828 0.220947 0.000000
0.269836 0.232300 0.000000
0.308075 0.240906 0.000000
0.344696 0.247498 0.000000
0.379486 0.252594 0.000000
0.412292 0.256226 0.000000
0.445129 0.259674 0.000000
0.478027 0.263000 0.000000
0.511017 0.266266 0.000000
0.543915 0.269196 0.000000
0.576904 0.272156 0.000000
0.609528 0.274902 0.000000
0.642120 0.277740 0.000031
0.674530 0.280518 0.000183
0.708435 0.283356 0.002289
0.744080 0.286163 0.004791
0.780548 0.289032 0.007294
0.817444 0.291931 0.010193
0.854187 0.294830 0.013885
0.890381 0.297699 0.017059
0.925690 0.300598 0.020447
0.960358 0.303436 0.023987
0.993134 0.306091 0.027039
0.014984 0.175629 0.004974
0.022369 0.179810 0.001221
0.031525 0.184387 0.000305
0.043976 0.189026 0.000000
0.059967 0.193939 0.000000
0.079102 0.198853 0.000000
0.101532 0.204346 0.000000
0.126190 0.209839 0.000000
0.152710 0.215546 0.000000
0.181305 0.221680 0.000000
0.215607 0.231018 0.000000
0.256927 0.244568 0.000000
0.298859 0.256989 0.000000
0.338745 0.266693 0.000000
0.376740 0.274139 0.000000
0.412659 0.279510 0.000000
0.446686 0.283478 0.000000
0.479919 0.286804 0.000000
0.513062 0.289825 0.000000
0.546387 0.292755 0.000000
0.579681 0.295532 0.000000
0.612946 0.298279 0.000000
0.646088 0.300995 0.000000
0.678955 0.303558 0.000000
0.713654 0.306213 0.000061
0.749756 0.308838 0.001099
0.786743 0.311554 0.002991
0.823975 0.314301 0.005493
0.861115 0.317047 0.008392
0.897461 0.319763 0.011383
0.933014 0.322693 0.014801
0.967743 0.325470 0.018158
0.999542 0.328186 0.021393
0.014984 0.192719 0.011719
0.020569 0.196960 0.007874
0.028473 0.201355 0.004059
0.039398 0.205902 0.001495
0.054688 0.210632 0.000336
0.073608 0.215637 0.000000
0.096008 0.221069 0.000000
0.120758 0.226624 0.000000
0.147339 0.232269 0.000000
0.175720 0.238098 0.000000
0.206421 0.244415 0.000000
0.243011 0.254608 0.000000
0.285675 0.268829 0.000000
0.329010 0.282135 0.000000
0.370239 0.292786 0.000000
0.409393 0.301086 0.000000
0.446259 0.307159 0.000000
0.481049 0.311401 0.000000
0.514984 0.314697 0.000000
0.548401 0.317535 0.000000
0.581970 0.320312 0.000000
0.615479 0.322998 0.000000
0.648926 0.325684 0.000000
0.682281 0.328217 0.000000
0.717804 0.330688 0.000000
0.754700 0.333191 0.000000
0.792084 0.335632 0.000427
0.829742 0.338196 0.002045
0.867096 0.340820 0.004547
0.903839 0.343414 0.007416
0.939545 0.346100 0.010315
0.974335 0.348816 0.013184
1.000000 0.351471 0.016541
0.014984 0.210114 0.019440
0.019257 0.214294 0.015106
0.026031 0.218628 0.010895
0.035706 0.223206 0.006409
0.050018 0.227966 0.003448
0.068115 0.232971 0.001343
0.090271 0.238281 0.000244
0.115082 0.243927 0.000000
0.141907 0.249664 0.000000
0.170441 0.255463 0.000000
0.200897 0.261230 0.000000
0.233551 0.267822 0.000000
0.271729 0.278595 0.000000
0.315979 0.293671 0.000000
0.360382 0.307831 0.000000
0.402588 0.319458 0.000000
0.442444 0.328491 0.000000
0.480011 0.335114 0.000000
0.515594 0.339752 0.000000
0.550110 0.343292 0.000000
0.584015 0.346222 0.000000
0.617645 0.348816 0.000000
0.651215 0.351379 0.000000
0.684814 0.353912 0.000000
0.720886 0.356415 0.000000
0.758270 0.358826 0.000000
0.796448 0.361237 0.000000
0.834503 0.363586 0.000214
0.872253 0.365967 0.001587
0.909241 0.368439 0.003784
0.945251 0.370911 0.006470
0.980133 0.373413 0.009338
1.000000 0.375885 0.012238
0.014984 0.227936 0.027466
0.018127 0.232147 0.022644
0.023132 0.236359 0.017944
0.032135 0.240997 0.013641
0.045135 0.245728 0.009033
0.063080 0.250702 0.005463
0.085022 0.256042 0.002960
0.109711 0.261627 0.001160
0.136536 0.267517 0.000061
0.165314 0.273346 0.000000
0.196136 0.279327 0.000000
0.228180 0.285156 0.000000
0.262329 0.291901 0.000000
0.301819 0.303009 0.000000
0.347626 0.319122 0.000000
0.392700 0.334167 0.000000
0.435577 0.346558 0.000000
0.476044 0.356384 0.000000
0.514099 0.363556 0.000000
0.550323 0.368774 0.000000
0.585419 0.372711 0.000000
0.619629 0.375641 0.000000
0.653320 0.378143 0.000000
0.687012 0.380615 0.000000
0.723389 0.383057 0.000000
0.761078 0.385468 0.000000
0.799561 0.387848 0.000000
0.838226 0.390228 0.000000
0.876495 0.392548 0.000214
0.913818 0.394775 0.001587
0.950073 0.397003 0.003510
0.985260 0.399261 0.006165
1.000000 0.401459 0.008392
0.014984 0.246246 0.035187
0.016998 0.250275 0.030182
0.021179 0.254700 0.024689
0.028900 0.259186 0.019867
0.040802 0.263824 0.015686
0.057983 0.269073 0.011047
0.079681 0.274445 0.007385
0.104401 0.279968 0.004456
0.131561 0.286041 0.002167
0.160370 0.291901 0.000183
0.191406 0.298157 0.000061
0.223846 0.304230 0.000000
0.257477 0.310181 0.000000
0.292999 0.316833 0.000000
0.333923 0.328247 0.000000
0.380341 0.345123 0.000000
0.425842 0.360809 0.000000
0.469177 0.373993 0.000000
0.510010 0.384430 0.000000
0.548492 0.392456 0.000000
0.585297 0.398285 0.000000
0.620758 0.402771 0.000000
0.655151 0.405945 0.000000
0.689087 0.408325 0.000000
0.725616 0.410706 0.000000
0.763428 0.413116 0.000000
0.802032 0.415436 0.000000
0.840942 0.417755 0.000000
0.879517 0.420044 0.000000
0.917297 0.422211 0.000488
0.953979 0.424316 0.002380
0.989471 0.426331 0.004303
1.000000 0.428284 0.006226
0.014984 0.265015 0.042999
0.015930 0.269135 0.037140
0.019165 0.273560 0.031891
0.025818 0.278137 0.026398
0.036499 0.282867 0.021576
0.052673 0.288086 0.016754
0.074677 0.293457 0.012543
0.099274 0.299133 0.008698
0.126373 0.305145 0.005798
0.155548 0.311310 0.003326
0.186890 0.317719 0.001953
0.219635 0.323944 0.000916
0.253632 0.329987 0.000427
0.288757 0.336060 0.000214
0.325714 0.342773 0.000183
0.368134 0.354828 0.000000
0.414429 0.371582 0.000000
0.460266 0.388000 0.000000
0.503662 0.401794 0.000000
0.544678 0.412994 0.000000
0.583344 0.421753 0.000000
0.620239 0.428162 0.000000
0.655853 0.433044 0.000000
0.690643 0.436676 0.000000
0.727631 0.439453 0.000000
0.765503 0.441711 0.000000
0.804230 0.443909 0.000000
0.843201 0.446228 0.000000
0.881866 0.448456 0.000000
0.919800 0.450531 0.000061
0.956726 0.452606 0.001007
0.992493 0.454529 0.002594
1.000000 0.456268 0.004303
0.014984 0.284271 0.051483
0.015717 0.288483 0.044830
0.017242 0.292969 0.038727
0.022644 0.297607 0.032867
0.032654 0.302460 0.027374
0.047974 0.307587 0.022156
0.069397 0.313202 0.017334
0.094269 0.319000 0.012939
0.121490 0.325073 0.009277
0.150726 0.331360 0.006744
0.182312 0.337799 0.004822
0.215485 0.344269 0.003235
0.249969 0.350616 0.002350
0.285400 0.356720 0.001709
0.321869 0.362549 0.001526
0.360626 0.369659 0.000580
0.403625 0.381989 0.000397
0.450073 0.399017 0.000000
0.495789 0.415741 0.000000
0.539001 0.430115 0.000000
0.579895 0.442108 0.000000
0.618561 0.451416 0.000000
0.655334 0.458405 0.000000
0.691193 0.463745 0.000000
0.729004 0.468018 0.000000
0.767426 0.471039 0.000000
0.806274 0.473267 0.000000
0.845276 0.475372 0.000000
0.884003 0.477509 0.000000
0.921967 0.479523 0.000000
0.958984 0.481445 0.000458
0.993683 0.483368 0.001617
1.000000 0.485016 0.002777
0.014984 0.304077 0.059631
0.015137 0.308380 0.052643
0.016663 0.313019 0.045776
0.020142 0.317627 0.039124
0.028931 0.322601 0.033264
0.043457 0.327820 0.027466
0.064514 0.333435 0.022156
0.089233 0.339355 0.017334
0.116821 0.345551 0.013336
0.146332 0.351929 0.010223
0.178101 0.358551 0.008301
0.211609 0.365173 0.006348
0.246490 0.371826 0.005157
0.282410 0.378143 0.004761
0.319489 0.384277 0.004578
0.357391 0.389923 0.003632
0.397095 0.397308 0.002655
0.440582 0.409698 0.001923
0.487122 0.427246 0.000580
0.532196 0.444183 0.000458
0.575134 0.459137 0.000000
0.615723 0.471619 0.000000
0.653992 0.481384 0.000000
0.690704 0.488861 0.000000
0.729401 0.494904 0.000000
0.768646 0.499573 0.000000
0.808014 0.502930 0.000000
0.847137 0.505188 0.000000
0.885956 0.507172 0.000000
0.923889 0.509064 0.000000
0.960907 0.510925 0.000458
0.994080 0.512634 0.001404
1.000000 0.514282 0.002380
0.014984 0.324402 0.067291
0.015137 0.328857 0.060089
0.016113 0.333466 0.052216
0.018677 0.338287 0.045563
0.025299 0.343262 0.039124
0.038788 0.348602 0.032532
0.059753 0.354218 0.026733
0.084625 0.360199 0.021820
0.112335 0.366394 0.017334
0.142303 0.372986 0.014069
0.174225 0.379791 0.011383
0.208008 0.386658 0.009460
0.243134 0.393463 0.008545
0.279755 0.400208 0.007812
0.317291 0.406494 0.007751
0.355835 0.412567 0.007690
0.394745 0.418304 0.007233
0.435242 0.425690 0.006287
0.479034 0.438263 0.004578
0.525177 0.456055 0.002777
0.569611 0.473236 0.001190
0.611877 0.488495 0.000275
0.651825 0.501404 0.000000
0.689789 0.511780 0.000000
0.729126 0.519806 0.000000
0.768921 0.526184 0.000000
0.808838 0.531250 0.000000
0.848602 0.535095 0.000000
0.887573 0.537354 0.000000
0.925659 0.539185 0.000000
0.962677 0.540894 0.000458
0.994629 0.542511 0.001404
1.000000 0.543976 0.001617
0.014984 0.345306 0.074432
0.014984 0.349792 0.066528
0.015320 0.354462 0.058807
0.017181 0.359253 0.051422
0.022675 0.364258 0.044189
0.034851 0.369598 0.038025
0.055145 0.375366 0.031433
0.080231 0.381348 0.026062
0.108246 0.387695 0.021118
0.138611 0.394409 0.017059
0.170898 0.401428 0.014282
0.204895 0.408539 0.012482
0.240479 0.415619 0.011047
0.277374 0.422516 0.010620
0.315552 0.429260 0.010742
0.354706 0.435638 0.010956
0.394196 0.441681 0.011658
0.434143 0.447571 0.011658
0.475372 0.454895 0.011047
0.519348 0.467804 0.008514
0.564545 0.485413 0.006409
0.608154 0.502808 0.004211
0.649414 0.518341 0.002472
0.688599 0.531586 0.000580
0.728760 0.542450 0.000244
0.769073 0.550934 0.000122
0.809296 0.557678 0.000122
0.849274 0.562958 0.000000
0.888641 0.567017 0.000092
0.926971 0.569702 0.000122
0.964111 0.571411 0.000458
0.994965 0.572876 0.001404
1.000000 0.574219 0.001587
0.014984 0.366211 0.081085
0.014984 0.370819 0.073486
0.015320 0.375580 0.064941
0.016510 0.380463 0.057281
0.020874 0.385498 0.050110
0.031982 0.390839 0.042267
0.051239 0.396637 0.035858
0.076599 0.402710 0.029633
0.104919 0.409210 0.024506
0.135376 0.416016 0.019958
0.168121 0.423248 0.017181
0.202393 0.430603 0.015259
0.238220 0.437927 0.014618
0.275452 0.445160 0.013641
0.314087 0.452209 0.014374
0.353912 0.459076 0.014832
0.394165 0.465485 0.015778
0.434509 0.471466 0.016479
0.475220 0.477203 0.016785
0.517120 0.485046 0.016144
0.560913 0.498047 0.013611
0.605042 0.515594 0.011230
0.647491 0.533112 0.008026
0.687592 0.548828 0.005646
0.728607 0.562408 0.003265
0.769409 0.573547 0.002106
0.809875 0.582306 0.001373
0.849915 0.589294 0.000671
0.889252 0.594788 0.000580
0.927673 0.598969 0.001099
0.965088 0.601776 0.001099
0.995178 0.603577 0.001404
1.000000 0.604797 0.001587
0.014984 0.387238 0.087311
0.014984 0.391907 0.079224
0.014984 0.396729 0.070923
0.016266 0.401672 0.062500
0.019531 0.406769 0.054565
0.029510 0.412140 0.047119
0.048370 0.417969 0.039703
0.073486 0.424194 0.033356
0.102081 0.430664 0.027679
0.132874 0.437714 0.022858
0.165741 0.445007 0.020081
0.200287 0.452576 0.018127
0.236359 0.460205 0.016724
0.274048 0.467804 0.016541
0.313049 0.475250 0.017242
0.353455 0.482483 0.018433
0.394318 0.489410 0.019653
0.435394 0.495911 0.021088
0.476501 0.501862 0.022064
0.517792 0.507629 0.022552
0.560120 0.515991 0.021942
0.603302 0.529144 0.019409
0.646301 0.546661 0.016327
0.687256 0.564148 0.012329
0.728851 0.579926 0.009003
0.770172 0.593597 0.006104
0.810852 0.604919 0.004486
0.850800 0.613770 0.003052
0.890015 0.620880 0.002502
0.928314 0.626526 0.002228
0.965607 0.630829 0.002045
0.995300 0.633698 0.001587
1.000000 0.635529 0.001587
0.014984 0.408203 0.092865
0.014984 0.412903 0.084320
0.014984 0.417847 0.075745
0.015503 0.422821 0.067169
0.018646 0.427917 0.058594
0.027527 0.433380 0.050812
0.045746 0.439240 0.043427
0.070831 0.445526 0.036804
0.099945 0.452209 0.030792
0.130951 0.459290 0.025757
0.163940 0.466736 0.022827
0.198853 0.474548 0.020721
0.235168 0.482483 0.019592
0.273193 0.490540 0.019287
0.312653 0.498322 0.020142
0.353424 0.506042 0.021332
0.394897 0.513489 0.023254
0.436523 0.520569 0.025024
0.478333 0.527130 0.026886
0.520081 0.533173 0.027832
0.561798 0.539185 0.028656
0.603851 0.547668 0.028381
0.646210 0.560944 0.025818
0.687714 0.578522 0.021301
0.729828 0.595703 0.016815
0.771515 0.611267 0.013123
0.812439 0.624969 0.009430
0.852295 0.636292 0.007294
0.891144 0.645264 0.005615
0.929047 0.652496 0.004547
0.966064 0.658173 0.003204
0.995392 0.662537 0.003021
1.000000 0.665405 0.002228
0.014984 0.429230 0.097107
0.014984 0.433868 0.088257
0.014984 0.438843 0.079315
0.015503 0.443909 0.070648
0.017822 0.449097 0.062286
0.026428 0.454590 0.054047
0.044373 0.460571 0.046722
0.069427 0.466858 0.039795
0.098816 0.473602 0.033661
0.130066 0.480835 0.028625
0.163269 0.488586 0.025024
0.198273 0.496643 0.023102
0.234802 0.504913 0.021667
0.273041 0.513336 0.022064
0.312775 0.521667 0.023041
0.354095 0.529938 0.024445
0.395844 0.537781 0.026947
0.438080 0.545319 0.028900
0.480469 0.552551 0.030823
0.522675 0.559235 0.032806
0.564667 0.565308 0.034424
0.606354 0.571533 0.034973
0.647827 0.579956 0.034363
0.689117 0.593201 0.031006
0.731659 0.610352 0.026733
0.773743 0.627197 0.021301
0.814667 0.642670 0.016998
0.854309 0.656219 0.013123
0.892731 0.667603 0.010101
0.930176 0.676636 0.007721
0.966736 0.683929 0.006287
0.995544 0.689728 0.004364
1.000000 0.694153 0.003204
0.014984 0.450897 0.099274
0.014984 0.455688 0.090637
0.015167 0.460571 0.081665
0.015686 0.465637 0.073151
0.018005 0.470886 0.064850
0.025848 0.476440 0.056152
0.044006 0.482483 0.048920
0.069641 0.488922 0.041504
0.099091 0.495819 0.035400
0.130646 0.503143 0.030365
0.164093 0.511108 0.026825
0.199188 0.519379 0.024384
0.235779 0.527954 0.023621
0.274109 0.536652 0.023773
0.314087 0.545288 0.024994
0.355530 0.554016 0.027130
0.397583 0.562317 0.029846
0.440002 0.570282 0.032349
0.482574 0.577850 0.034698
0.525146 0.584961 0.037354
0.567383 0.591553 0.039429
0.609161 0.597565 0.040863
0.650421 0.603699 0.041687
0.691406 0.612183 0.040436
0.734314 0.625366 0.037384
0.776672 0.642029 0.031586
0.817810 0.658691 0.026123
0.857178 0.673920 0.021118
0.895081 0.687531 0.016083
0.931793 0.699005 0.012817
0.967773 0.708374 0.009918
0.995697 0.716003 0.007446
1.000000 0.721954 0.005310
0.014984 0.473572 0.099884
0.015137 0.478302 0.091278
0.015350 0.483307 0.082611
0.016266 0.488312 0.074158
0.018982 0.493652 0.065704
0.027191 0.499207 0.057404
0.045380 0.505219 0.049835
0.071075 0.511688 0.042786
0.100891 0.518646 0.036743
0.132507 0.526062 0.031708
0.166107 0.534058 0.028381
0.201019 0.542480 0.026123
0.237579 0.551147 0.024872
0.275879 0.560028 0.025238
0.315826 0.568970 0.026917
0.357239 0.577881 0.029083
0.399414 0.586578 0.031982
0.441895 0.594879 0.035248
0.484619 0.602844 0.038147
0.527252 0.610260 0.040588
0.569641 0.617218 0.043365
0.611603 0.623627 0.045990
0.652924 0.629517 0.047150
0.693909 0.635559 0.047913
0.736969 0.644226 0.046326
0.779785 0.657288 0.042145
0.821136 0.673645 0.036407
0.860535 0.690186 0.030243
0.898010 0.705688 0.024078
0.934113 0.719543 0.018982
0.969330 0.731201 0.014740
0.995911 0.740845 0.011475
1.000000 0.748505 0.008575
0.014984 0.497101 0.099060
0.015503 0.501831 0.090668
0.016113 0.506744 0.082184
0.017334 0.511780 0.073914
0.019836 0.517029 0.065765
0.029175 0.522552 0.057739
0.047974 0.528534 0.050171
0.074158 0.534943 0.043579
0.104156 0.541901 0.037384
0.135590 0.549286 0.032562
0.169006 0.557281 0.028961
0.203735 0.565674 0.027100
0.240082 0.574402 0.026123
0.278137 0.583374 0.026489
0.318054 0.592468 0.028320
0.359222 0.601532 0.030457
0.401184 0.610413 0.033752
0.443634 0.619080 0.037384
0.486328 0.627289 0.040497
0.528992 0.635132 0.043915
0.571411 0.642426 0.046967
