lut/retro-80s/The Neverending Story (1984) - Standard.cube
# Created by Benjamin (IWLTBAP): https://luts.iwltbap.com
# Copyright: (C) Copyright 2018 Triune Films and IWLTBAP SAS
# Cannot be resold, shared or otherwise redistributed
TITLE "Triune Films 80s Retro LUTs (Rec.709, sRGB, DCI-P3)"
LUT_3D_SIZE 33
0.000793 0.000671 0.000732
0.007202 0.000610 0.000671
0.016266 0.000549 0.000671
0.031433 0.000885 0.000610
0.050812 0.001038 0.000519
0.073669 0.001556 0.000000
0.099182 0.002289 0.000000
0.126801 0.003510 0.000000
0.155579 0.004669 0.000000
0.184814 0.005798 0.000000
0.212616 0.007477 0.000000
0.238892 0.009094 0.000000
0.264374 0.010681 0.000000
0.289734 0.012207 0.000000
0.315125 0.013611 0.000000
0.340851 0.015045 0.000000
0.366699 0.016388 0.000000
0.392731 0.017639 0.000000
0.418823 0.018555 0.000000
0.444977 0.019714 0.000000
0.470825 0.020935 0.000000
0.496735 0.021851 0.000000
0.522827 0.022766 0.000000
0.549377 0.024231 0.000000
0.576355 0.025299 0.000000
0.603668 0.026306 0.000000
0.631042 0.027283 0.000000
0.658569 0.028564 0.000000
0.686066 0.029541 0.000000
0.713684 0.030762 0.000000
0.741425 0.031799 0.000000
0.769470 0.033264 0.000336
0.797058 0.034241 0.000916
0.000946 0.016968 0.002350
0.007660 0.017151 0.001770
0.018372 0.016998 0.001221
0.035065 0.017090 0.000732
0.056152 0.017517 0.000732
0.080780 0.017639 0.000000
0.107971 0.018707 0.000000
0.136597 0.019897 0.000000
0.166168 0.021301 0.000000
0.195435 0.022888 0.000000
0.222961 0.024017 0.000000
0.248749 0.025879 0.000000
0.274170 0.027283 0.000000
0.299530 0.028687 0.000000
0.324921 0.030090 0.000000
0.350494 0.031342 0.000000
0.376221 0.032623 0.000000
0.402039 0.033844 0.000000
0.428040 0.035095 0.000000
0.453857 0.036194 0.000000
0.479584 0.037323 0.000000
0.505432 0.038483 0.000000
0.531616 0.039520 0.000000
0.558197 0.040619 0.000000
0.585144 0.041931 0.000000
0.612244 0.043182 0.000000
0.639496 0.044189 0.000000
0.666870 0.045349 0.000000
0.694153 0.046631 0.000000
0.721588 0.047821 0.000000
0.749146 0.049072 0.000000
0.777069 0.050232 0.000244
0.804504 0.051422 0.000793
0.001160 0.034393 0.004181
0.007599 0.034882 0.003662
0.020050 0.034821 0.002380
0.039215 0.035004 0.001038
0.062347 0.035553 0.000519
0.088928 0.035797 0.000000
0.117889 0.036682 0.000000
0.147797 0.037415 0.000000
0.177765 0.038879 0.000000
0.206970 0.040314 0.000000
0.233704 0.041687 0.000000
0.259430 0.043152 0.000000
0.284729 0.044464 0.000000
0.310059 0.045715 0.000000
0.335327 0.047150 0.000000
0.360779 0.048431 0.000000
0.386322 0.049652 0.000000
0.412079 0.050781 0.000000
0.437805 0.052185 0.000000
0.463318 0.053314 0.000000
0.488953 0.054413 0.000000
0.514832 0.055603 0.000000
0.541077 0.056732 0.000000
0.567627 0.058044 0.000000
0.594482 0.059052 0.000000
0.621399 0.060394 0.000000
0.648468 0.061615 0.000000
0.675629 0.062805 0.000000
0.702759 0.064117 0.000000
0.729950 0.065338 0.000000
0.757324 0.066589 0.000000
0.785065 0.067932 0.000153
0.812408 0.069214 0.000702
0.000793 0.052795 0.006897
0.007568 0.053314 0.006134
0.020020 0.053986 0.004608
0.042145 0.054382 0.002533
0.068298 0.055206 0.000946
0.097076 0.055664 0.000000
0.128082 0.056122 0.000000
0.159485 0.056915 0.000000
0.189941 0.057922 0.000000
0.218689 0.059174 0.000000
0.245026 0.060364 0.000000
0.270691 0.061523 0.000000
0.295959 0.062775 0.000000
0.321228 0.063690 0.000000
0.346375 0.065033 0.000000
0.371674 0.066101 0.000000
0.397095 0.067291 0.000000
0.422546 0.068542 0.000000
0.447998 0.069641 0.000000
0.473328 0.070862 0.000000
0.498871 0.072083 0.000000
0.524780 0.073181 0.000000
0.550964 0.074432 0.000000
0.577454 0.075623 0.000000
0.604126 0.076843 0.000000
0.630920 0.077942 0.000000
0.657776 0.079163 0.000000
0.684753 0.080475 0.000000
0.711670 0.081726 0.000000
0.738708 0.083069 0.000000
0.765839 0.084412 0.000000
0.793396 0.085785 0.000000
0.820557 0.087219 0.000549
0.000793 0.072601 0.010315
0.007660 0.073395 0.009460
0.020569 0.074066 0.008179
0.043304 0.075104 0.006256
0.071625 0.076599 0.002747
0.104004 0.077637 0.000000
0.137909 0.078430 0.000000
0.171082 0.079132 0.000000
0.202271 0.079742 0.000000
0.230530 0.080353 0.000000
0.256775 0.081177 0.000000
0.282623 0.081940 0.000000
0.307983 0.082703 0.000000
0.333069 0.083618 0.000000
0.358215 0.084351 0.000000
0.383423 0.085510 0.000000
0.408630 0.086365 0.000000
0.433899 0.087402 0.000000
0.459015 0.088623 0.000000
0.484192 0.089630 0.000000
0.509705 0.090790 0.000000
0.535492 0.091797 0.000000
0.561584 0.092926 0.000000
0.587952 0.094055 0.000000
0.614410 0.095398 0.000000
0.640991 0.096497 0.000000
0.667633 0.097717 0.000000
0.694275 0.098846 0.000000
0.721100 0.100128 0.000000
0.747925 0.101410 0.000000
0.774841 0.102783 0.000000
0.802216 0.104248 0.000000
0.829193 0.105713 0.000397
0.001434 0.094055 0.015045
0.008484 0.095398 0.014282
0.021820 0.096375 0.013184
0.044769 0.097717 0.011200
0.073639 0.099396 0.007751
0.108459 0.101379 0.002869
0.145660 0.103271 0.000000
0.181061 0.104523 0.000000
0.213440 0.105316 0.000000
0.242310 0.105499 0.000000
0.269257 0.105499 0.000000
0.295288 0.105713 0.000000
0.320770 0.105896 0.000000
0.345978 0.106293 0.000000
0.371094 0.106750 0.000000
0.396149 0.107422 0.000000
0.421204 0.108002 0.000000
0.446198 0.108795 0.000000
0.471100 0.109589 0.000000
0.496155 0.110596 0.000000
0.521545 0.111542 0.000000
0.547302 0.112488 0.000000
0.573273 0.113495 0.000000
0.599426 0.114349 0.000000
0.625610 0.115387 0.000000
0.651917 0.116516 0.000000
0.678314 0.117554 0.000000
0.704773 0.118713 0.000000
0.731262 0.120087 0.000000
0.757874 0.121277 0.000000
0.784607 0.122589 0.000000
0.811707 0.124084 0.000000
0.838501 0.125488 0.000061
0.001251 0.117981 0.020813
0.008698 0.119354 0.020294
0.022888 0.120575 0.019379
0.046448 0.122162 0.017700
0.076172 0.124176 0.014587
0.111908 0.126343 0.009430
0.151581 0.129456 0.002869
0.188812 0.131836 0.000000
0.222443 0.133270 0.000000
0.252533 0.133972 0.000000
0.280701 0.133972 0.000000
0.307587 0.133759 0.000000
0.333588 0.133484 0.000000
0.359131 0.133240 0.000000
0.384338 0.132996 0.000000
0.409515 0.133057 0.000000
0.434509 0.133301 0.000000
0.459381 0.133759 0.000000
0.484161 0.134094 0.000000
0.509155 0.134644 0.000000
0.534576 0.135193 0.000000
0.560150 0.135803 0.000000
0.585938 0.136536 0.000000
0.611877 0.137390 0.000000
0.637756 0.138214 0.000000
0.663788 0.138977 0.000000
0.689911 0.139923 0.000000
0.716125 0.141022 0.000000
0.742401 0.142090 0.000000
0.768768 0.143188 0.000000
0.795288 0.144531 0.000000
0.822205 0.145935 0.000000
0.848755 0.147308 0.000000
0.000793 0.143066 0.027283
0.008820 0.144501 0.027130
0.023956 0.146332 0.026337
0.048035 0.148041 0.025146
0.078705 0.150177 0.022461
0.115387 0.152405 0.017517
0.156067 0.155731 0.010559
0.195099 0.159485 0.002808
0.229645 0.162262 0.000000
0.260956 0.163910 0.000000
0.290283 0.164703 0.000000
0.318390 0.164825 0.000000
0.345398 0.164368 0.000000
0.371643 0.163788 0.000000
0.397461 0.163177 0.000000
0.422943 0.162720 0.000000
0.448181 0.162292 0.000000
0.473083 0.162170 0.000000
0.497925 0.162140 0.000000
0.523102 0.162170 0.000000
0.548462 0.162231 0.000000
0.573914 0.162384 0.000000
0.599487 0.162781 0.000000
0.625183 0.163177 0.000000
0.650848 0.163727 0.000000
0.676636 0.164246 0.000000
0.702515 0.165009 0.000000
0.728516 0.165802 0.000000
0.754578 0.166748 0.000000
0.780731 0.167664 0.000000
0.807007 0.168854 0.000000
0.833679 0.170135 0.000000
0.860016 0.171478 0.000000
0.000793 0.169434 0.034058
0.008972 0.170959 0.034027
0.024963 0.172821 0.033752
0.049805 0.174866 0.032928
0.080627 0.177094 0.031067
0.118591 0.179504 0.026398
0.160645 0.182800 0.019714
0.200653 0.186829 0.011292
0.236084 0.191071 0.002991
0.268127 0.194275 0.000000
0.298004 0.196167 0.000000
0.327087 0.197205 0.000000
0.355347 0.197479 0.000000
0.382812 0.197113 0.000000
0.409485 0.196350 0.000000
0.435699 0.195648 0.000000
0.461395 0.194855 0.000000
0.486755 0.194153 0.000000
0.512024 0.193604 0.000000
0.537445 0.193207 0.000000
0.562897 0.192810 0.000000
0.588409 0.192505 0.000000
0.613831 0.192413 0.000000
0.639343 0.192444 0.000000
0.664917 0.192444 0.000000
0.690521 0.192719 0.000000
0.716217 0.193085 0.000000
0.742004 0.193573 0.000000
0.767822 0.194336 0.000000
0.793762 0.195099 0.000000
0.819885 0.196014 0.000000
0.846252 0.197205 0.000000
0.872314 0.198334 0.000000
0.000793 0.197021 0.040710
0.009094 0.198547 0.041077
0.025970 0.200256 0.040924
0.051270 0.202454 0.040588
0.083038 0.204834 0.039459
0.121460 0.207458 0.035797
0.164978 0.210632 0.029480
0.205994 0.214905 0.020966
0.242279 0.219635 0.011932
0.274963 0.224243 0.003662
0.305023 0.227722 0.000000
0.334290 0.229828 0.000000
0.363220 0.231140 0.000000
0.391785 0.231628 0.000000
0.419739 0.231506 0.000000
0.446991 0.230865 0.000000
0.473602 0.230072 0.000000
0.499817 0.229126 0.000000
0.525879 0.228271 0.000000
0.551727 0.227448 0.000000
0.577484 0.226654 0.000000
0.603180 0.225922 0.000000
0.628754 0.225281 0.000000
0.654205 0.224792 0.000000
0.679779 0.224609 0.000000
0.705292 0.224487 0.000000
0.730896 0.224426 0.000000
0.756531 0.224548 0.000000
0.782196 0.225098 0.000000
0.807953 0.225708 0.000000
0.833832 0.226379 0.000000
0.859985 0.227295 0.000000
0.885803 0.228333 0.000000
0.000793 0.225342 0.047485
0.009613 0.226654 0.047729
0.027863 0.228333 0.047852
0.053497 0.230469 0.048004
0.085449 0.232880 0.047211
0.124908 0.235321 0.044464
0.169067 0.238312 0.039215
0.211304 0.242615 0.031403
0.248566 0.247559 0.022278
0.281860 0.252869 0.013000
0.312195 0.258118 0.003876
0.341187 0.261719 0.000000
0.369934 0.263977 0.000000
0.398712 0.265411 0.000000
0.427429 0.266266 0.000000
0.455750 0.266418 0.000000
0.483490 0.266022 0.000000
0.510895 0.265320 0.000000
0.537964 0.264374 0.000000
0.564880 0.263489 0.000000
0.591278 0.262512 0.000000
0.617462 0.261536 0.000000
0.643402 0.260681 0.000000
0.669159 0.259888 0.000000
0.694977 0.259277 0.000000
0.720520 0.258911 0.000000
0.746155 0.258606 0.000000
0.771759 0.258514 0.000000
0.797424 0.258667 0.000000
0.823029 0.259003 0.000000
0.848816 0.259521 0.000000
0.874817 0.260223 0.000000
0.900391 0.260956 0.000000
0.000793 0.253601 0.054291
0.010193 0.254883 0.054413
0.030457 0.256378 0.054626
0.056763 0.258362 0.054962
0.089081 0.260681 0.054657
0.128784 0.263092 0.052643
0.173584 0.265839 0.048004
0.216583 0.269928 0.041382
0.254700 0.274902 0.032959
0.288818 0.280518 0.023376
0.319763 0.286621 0.013367
0.348602 0.292175 0.004425
0.376770 0.295959 0.000000
0.405121 0.298279 0.000000
0.433624 0.299866 0.000000
0.462280 0.300934 0.000000
0.491028 0.301361 0.000000
0.519592 0.301208 0.000000
0.547821 0.300720 0.000000
0.575806 0.299957 0.000000
0.603394 0.299103 0.000000
0.630341 0.298126 0.000000
0.656921 0.297089 0.000000
0.683258 0.296173 0.000000
0.709503 0.295410 0.000000
0.735413 0.294769 0.000000
0.761261 0.294250 0.000000
0.786987 0.293915 0.000000
0.812714 0.293823 0.000000
0.838440 0.293884 0.000000
0.864197 0.294250 0.000000
0.890137 0.294739 0.000000
0.915649 0.295227 0.000000
0.000397 0.281830 0.060608
0.011780 0.282990 0.060944
0.034027 0.284454 0.061279
0.061615 0.286255 0.061829
0.094055 0.288422 0.061768
0.134216 0.290710 0.060211
0.178925 0.293274 0.056244
0.222015 0.297058 0.050446
0.260681 0.301971 0.043030
0.295715 0.307617 0.033875
0.327240 0.314178 0.023987
0.356567 0.320740 0.014130
0.384369 0.326416 0.005310
0.411835 0.330261 0.000000
0.439514 0.332672 0.000000
0.467773 0.334320 0.000000
0.496674 0.335510 0.000000
0.526001 0.336243 0.000000
0.555237 0.336365 0.000000
0.584290 0.336151 0.000000
0.613007 0.335632 0.000000
0.641174 0.334900 0.000000
0.668701 0.334015 0.000000
0.695801 0.333038 0.000000
0.722717 0.332184 0.000000
0.749298 0.331421 0.000000
0.775604 0.330750 0.000000
0.801697 0.330292 0.000000
0.827728 0.329987 0.000000
0.853699 0.329895 0.000000
0.879578 0.329956 0.000000
0.905548 0.330261 0.000000
0.931091 0.330566 0.000000
0.000153 0.309998 0.066925
0.015381 0.311096 0.067566
0.039551 0.312500 0.068176
0.067993 0.314270 0.068542
0.101105 0.316223 0.068573
0.141174 0.318390 0.067444
0.185486 0.320770 0.064178
0.227997 0.324249 0.058990
0.266876 0.328918 0.052277
0.302399 0.334442 0.044067
0.334625 0.341156 0.034668
0.364471 0.348236 0.024841
0.392639 0.355103 0.015228
0.419495 0.360962 0.006653
0.445953 0.364685 0.000000
0.473297 0.367096 0.000000
0.501678 0.368835 0.000000
0.530884 0.370148 0.000000
0.560516 0.371063 0.000000
0.590454 0.371582 0.000000
0.620178 0.371613 0.000000
0.649475 0.371277 0.000000
0.678253 0.370789 0.000000
0.706360 0.369934 0.000000
0.734131 0.369202 0.000000
0.761536 0.368408 0.000000
0.788605 0.367706 0.000000
0.815369 0.367126 0.000000
0.841919 0.366760 0.000000
0.868225 0.366516 0.000000
0.894440 0.366394 0.000000
0.920685 0.366425 0.000000
0.946381 0.366638 0.000000
0.000488 0.338074 0.073578
0.021790 0.339294 0.074249
0.047577 0.340668 0.074890
0.076843 0.342346 0.075378
0.110657 0.344177 0.075500
0.149963 0.346222 0.074310
0.193420 0.348358 0.071472
0.235046 0.351501 0.067047
0.273621 0.355804 0.061218
0.309296 0.361053 0.053528
0.342072 0.367737 0.045044
0.372253 0.374939 0.035370
0.400787 0.382507 0.025909
0.427856 0.389679 0.016693
0.453674 0.395508 0.008148
0.479584 0.399078 0.001160
0.506897 0.401520 0.000000
0.535339 0.403290 0.000000
0.564636 0.404663 0.000000
0.594666 0.405853 0.000000
0.624939 0.406555 0.000000
0.655151 0.406860 0.000000
0.684998 0.406799 0.000000
0.714417 0.406372 0.000000
0.743347 0.405853 0.000000
0.771698 0.405243 0.000000
0.799652 0.404602 0.000000
0.827301 0.404022 0.000000
0.854645 0.403503 0.000000
0.881531 0.403137 0.000000
0.908203 0.402893 0.000000
0.934845 0.402832 0.000000
0.960968 0.402802 0.000000
0.008118 0.366394 0.080536
0.031647 0.367645 0.081207
0.058472 0.368988 0.082001
0.088318 0.370544 0.082336
0.122131 0.372162 0.082214
0.161194 0.373962 0.081268
0.202606 0.375854 0.078491
0.243011 0.378754 0.074463
0.281097 0.382782 0.069275
0.316833 0.387848 0.062500
0.349670 0.394073 0.054749
0.380219 0.401306 0.045959
0.408966 0.409149 0.036774
0.436218 0.417145 0.027802
0.462097 0.424286 0.018768
0.487183 0.429871 0.010223
0.513000 0.433411 0.002747
0.540222 0.435822 0.000000
0.568634 0.437622 0.000000
0.598083 0.439148 0.000000
0.628235 0.440338 0.000000
0.658661 0.441132 0.000000
0.689240 0.441650 0.000000
0.719666 0.441803 0.000000
0.749817 0.441650 0.000000
0.779297 0.441254 0.000000
0.808350 0.440765 0.000000
0.836975 0.440308 0.000000
0.865173 0.439758 0.000000
0.892944 0.439331 0.000000
0.920380 0.438995 0.000000
0.947449 0.438751 0.000000
0.973083 0.438416 0.000000
0.018280 0.394714 0.087463
0.043091 0.396027 0.088196
0.070831 0.397400 0.088928
0.101501 0.398743 0.089294
0.135620 0.400208 0.089050
0.174072 0.401794 0.087952
0.213684 0.403503 0.085388
0.252136 0.406067 0.081726
0.289368 0.409729 0.076965
0.324707 0.414490 0.070862
0.357422 0.420410 0.063812
0.388123 0.427338 0.055786
0.417145 0.435303 0.047546
0.444519 0.443665 0.039001
0.470490 0.451599 0.029968
0.495758 0.458649 0.021118
0.520477 0.464020 0.012268
0.546051 0.467468 0.004517
0.573090 0.469879 0.000000
0.601624 0.471741 0.000000
0.631104 0.473267 0.000000
0.661285 0.474426 0.000000
0.691956 0.475342 0.000000
0.722839 0.475983 0.000000
0.753815 0.476349 0.000000
0.784515 0.476379 0.000000
0.814667 0.476166 0.000000
0.844299 0.475800 0.000000
0.873566 0.475372 0.000000
0.902313 0.474945 0.000000
0.930695 0.474579 0.000000
0.957825 0.474060 0.000000
0.980804 0.473022 0.000000
0.030792 0.422882 0.094604
0.056702 0.424286 0.095367
0.085022 0.425598 0.095947
0.116211 0.426910 0.096344
0.150452 0.428192 0.095886
0.188080 0.429504 0.094543
0.225708 0.431091 0.092102
0.262421 0.433411 0.088806
0.298309 0.436584 0.084320
0.332947 0.441010 0.078766
0.365417 0.446564 0.072327
0.396027 0.453125 0.065063
0.425140 0.460907 0.057709
0.452759 0.469482 0.050079
0.478821 0.477844 0.041321
0.504303 0.485901 0.032532
0.529083 0.492767 0.023499
0.553406 0.498047 0.014343
0.578674 0.501434 0.006226
0.605743 0.503845 0.000000
0.634216 0.505707 0.000000
0.663696 0.507233 0.000000
0.694031 0.508423 0.000000
0.724884 0.509430 0.000000
0.756104 0.510193 0.000000
0.787506 0.510712 0.000000
0.818756 0.510925 0.000000
0.849487 0.510864 0.000000
0.879700 0.510620 0.000000
0.909546 0.510315 0.000000
0.938660 0.509888 0.000000
0.965271 0.509094 0.000000
0.985901 0.507446 0.000000
0.045044 0.450958 0.101898
0.071136 0.452240 0.102600
0.100250 0.453552 0.103088
0.131805 0.454803 0.103333
0.166107 0.455872 0.102844
0.202698 0.457001 0.101349
0.238098 0.458344 0.098694
0.273407 0.460510 0.095428
0.308136 0.463287 0.091431
0.341705 0.467316 0.086487
0.373657 0.472473 0.080414
0.404053 0.478760 0.073944
0.433167 0.486328 0.067413
0.460907 0.494934 0.060608
0.487335 0.503632 0.052429
0.512848 0.512146 0.043884
0.537720 0.520142 0.034851
0.561951 0.526917 0.025757
0.585907 0.532166 0.016479
0.611053 0.535370 0.007538
0.638092 0.537781 0.000427
0.666504 0.539642 0.000000
0.696075 0.541199 0.000000
0.726501 0.542450 0.000000
0.757599 0.543518 0.000000
0.789062 0.544373 0.000000
0.820862 0.545044 0.000000
0.852478 0.545410 0.000000
0.883759 0.545441 0.000000
0.914703 0.545349 0.000000
0.944550 0.544983 0.000000
0.970184 0.544006 0.000000
0.990204 0.542511 0.000000
0.060577 0.478912 0.109344
0.086884 0.480164 0.109802
0.116333 0.481476 0.110229
0.148254 0.482544 0.110291
0.182495 0.483521 0.109436
0.216980 0.484314 0.107727
0.250702 0.485443 0.105286
0.284821 0.487274 0.102142
0.318298 0.489807 0.098419
0.350952 0.493469 0.093689
0.382111 0.498291 0.088318
0.412323 0.504395 0.082642
0.441345 0.511810 0.076904
0.469147 0.520233 0.070770
0.495880 0.529205 0.063568
0.521576 0.538147 0.055298
0.546387 0.546783 0.046356
0.570587 0.554565 0.037292
0.594421 0.561218 0.028137
0.618134 0.566132 0.018158
0.643250 0.569305 0.008850
0.670166 0.571625 0.001190
0.698608 0.573486 0.000000
0.728210 0.575043 0.000000
0.758820 0.576355 0.000000
0.790070 0.577454 0.000000
0.821716 0.578430 0.000000
0.853668 0.579102 0.000000
0.885712 0.579590 0.000000
0.917542 0.579803 0.000000
0.947876 0.579651 0.000000
0.973175 0.578705 0.000000
0.993683 0.577698 0.000000
0.076447 0.507019 0.117004
0.103485 0.508301 0.117584
0.133484 0.509460 0.117615
0.165436 0.510406 0.117279
0.198669 0.511200 0.116394
0.231171 0.511780 0.114532
0.263519 0.512726 0.111938
0.296265 0.514374 0.108978
0.328613 0.516571 0.105347
0.360321 0.519806 0.100952
0.390930 0.524323 0.096008
0.420685 0.530334 0.091156
0.449615 0.537689 0.086151
0.477478 0.545929 0.080658
0.504425 0.554840 0.074310
0.530304 0.563904 0.066589
0.555206 0.572876 0.058044
0.579285 0.581329 0.049011
0.602966 0.588959 0.039856
0.626465 0.595276 0.030121
0.650055 0.600006 0.019623
0.675110 0.603088 0.009796
0.701996 0.605286 0.001648
0.730469 0.607147 0.000000
0.760193 0.608765 0.000000
0.790924 0.610138 0.000000
0.822327 0.611267 0.000000
0.854095 0.612213 0.000000
0.886230 0.612976 0.000000
0.918488 0.613556 0.000000
0.948853 0.613647 0.000000
0.974426 0.613068 0.000000
0.996063 0.612305 0.000000
0.092773 0.535339 0.125031
0.120605 0.536530 0.125397
0.150970 0.537598 0.125366
0.182373 0.538422 0.124634
0.214111 0.538910 0.123444
0.245300 0.539307 0.121521
0.276642 0.540253 0.118958
0.307922 0.541687 0.115906
0.339111 0.543640 0.112335
0.369934 0.546387 0.108093
0.399963 0.550720 0.103577
0.429260 0.556580 0.099426
0.457947 0.563751 0.095215
0.485840 0.571808 0.090332
0.512970 0.580536 0.084656
0.538971 0.589508 0.077576
0.564026 0.598602 0.069641
0.588104 0.607483 0.060944
0.611664 0.615723 0.051697
0.634979 0.623230 0.042114
0.658264 0.629242 0.031891
0.681702 0.633698 0.020874
0.706726 0.636627 0.010559
0.733704 0.638855 0.002014
0.762207 0.640686 0.000000
0.792023 0.642334 0.000000
0.822876 0.643738 0.000000
0.854431 0.644897 0.000000
0.886292 0.645844 0.000000
0.918457 0.646606 0.000000
0.948669 0.646912 0.000000
0.974609 0.646667 0.000000
0.997437 0.646210 0.000000
0.109711 0.563599 0.133087
0.137970 0.564697 0.133362
0.168365 0.565643 0.132996
0.198914 0.566284 0.132141
0.228973 0.566589 0.130676
0.259094 0.566864 0.128571
0.289581 0.567810 0.126160
0.319824 0.569031 0.123230
0.349701 0.570648 0.119659
0.379669 0.573029 0.115540
0.409027 0.577209 0.111237
0.438019 0.582977 0.107727
0.466400 0.589935 0.104126
0.494202 0.597717 0.099945
0.521454 0.606262 0.094910
0.547516 0.615051 0.088440
0.572693 0.624146 0.081055
0.596954 0.633209 0.072815
0.620392 0.641907 0.063690
0.643616 0.650055 0.054199
0.666687 0.657196 0.044159
0.689758 0.662964 0.033478
0.713196 0.667206 0.021973
0.738220 0.670013 0.011078
0.765228 0.672241 0.002045
0.793854 0.674103 0.000000
0.823761 0.675751 0.000000
0.854736 0.677155 0.000000
0.886292 0.678314 0.000000
0.918243 0.679260 0.000000
0.948181 0.679749 0.000000
0.974396 0.679749 0.000000
0.998260 0.679535 0.000000
0.126862 0.591736 0.141418
0.155396 0.592743 0.141327
0.185455 0.593567 0.140686
0.214783 0.594025 0.139587
0.243469 0.594238 0.137970
0.272522 0.594391 0.135864
0.302002 0.595184 0.133362
0.331360 0.596313 0.130493
0.360474 0.597778 0.127106
0.389465 0.599670 0.123108
0.418213 0.603699 0.119232
0.446747 0.609558 0.116302
0.474884 0.616272 0.113220
0.502625 0.623779 0.109589
0.529816 0.631989 0.105072
0.555969 0.640564 0.099091
0.581238 0.649567 0.092346
0.605621 0.658630 0.084564
0.629211 0.667542 0.075775
0.652283 0.676178 0.066376
0.675140 0.684021 0.056305
0.697968 0.690887 0.045898
0.720978 0.696442 0.034821
0.744415 0.700470 0.022797
0.769592 0.703217 0.011292
0.796661 0.705383 0.001923
0.825378 0.707306 0.000000
0.855408 0.708954 0.000000
0.886383 0.710388 0.000000
0.917938 0.711578 0.000000
0.947693 0.712219 0.000000
0.974060 0.712463 0.000000
0.998840 0.712494 0.000000
0.143921 0.619354 0.149353
0.171906 0.620239 0.148895
0.200867 0.620972 0.148132
0.229065 0.621368 0.146912
0.257141 0.621521 0.145264
0.285248 0.621643 0.143127
0.313782 0.622437 0.140686
0.342346 0.623444 0.137756
0.370789 0.624695 0.134338
0.399109 0.626465 0.130524
0.427277 0.630310 0.127289
0.455414 0.636047 0.124908
0.483276 0.642578 0.122253
0.510925 0.649841 0.119080
0.538025 0.657776 0.115112
0.564240 0.666077 0.109955
0.589661 0.674896 0.103699
0.614136 0.683899 0.096283
0.637878 0.692871 0.087860
0.660980 0.701752 0.078583
0.683655 0.710022 0.068573
0.706268 0.717712 0.058167
0.729004 0.724335 0.047485
0.751984 0.729645 0.035950
0.775452 0.733490 0.023254
0.800751 0.736176 0.011383
0.827942 0.738342 0.001770
0.856842 0.740326 0.000000
0.886932 0.742035 0.000000
0.917816 0.743439 0.000000
0.947296 0.744324 0.000000
0.973877 0.744781 0.000000
0.999207 0.745056 0.000000
0.160675 0.646790 0.157166
0.187927 0.647614 0.156647
0.215454 0.648193 0.155609
0.242767 0.648529 0.154236
0.270081 0.648682 0.152466
0.297699 0.648804 0.150208
0.325378 0.649506 0.147766
0.353149 0.650360 0.144867
0.380951 0.651489 0.141479
0.408691 0.653137 0.137909
0.436462 0.657196 0.135559
0.464081 0.662659 0.133484
0.491638 0.669006 0.131195
0.519135 0.675995 0.128387
0.546173 0.683563 0.124939
0.572357 0.691650 0.120453
0.597809 0.700165 0.114807
0.622498 0.708923 0.108032
0.646393 0.717926 0.100037
0.669586 0.726868 0.090881
0.692230 0.735535 0.080963
0.714661 0.743683 0.070526
0.737152 0.751099 0.059845
0.759796 0.757446 0.048645
0.782715 0.762482 0.036621
0.806335 0.766235 0.023499
0.831757 0.768921 0.011322
0.859192 0.771179 0.001465
0.888245 0.773254 0.000000
0.918243 0.774933 0.000000
0.947113 0.776062 0.000000
0.973724 0.776703 0.000000
0.999451 0.777222 0.000000
0.177002 0.674194 0.165070
0.203033 0.674866 0.164337
0.229645 0.675354 0.163116
0.256073 0.675598 0.161560
0.282806 0.675659 0.159576
0.309753 0.675873 0.157379
0.336731 0.676483 0.154846
0.363800 0.677185 0.151917
0.390961 0.678162 0.148621
0.418213 0.679932 0.145386
0.445526 0.684082 0.143829
0.472809 0.689423 0.142059
0.500031 0.695465 0.140076
0.527283 0.702179 0.137634
0.554138 0.709412 0.134644
0.580353 0.717255 0.130737
0.605835 0.725433 0.125641
0.630615 0.733978 0.119324
0.654663 0.742767 0.111786
0.677948 0.751709 0.103180
0.700714 0.760529 0.093597
