lut/retro-80s/The Neverending Story (1984) - Standard.cube
# Created by Benjamin (IWLTBAP): https://luts.iwltbap.com
# Copyright: (C) Copyright 2018 Triune Films and IWLTBAP SAS
# Cannot be resold, shared or otherwise redistributed
TITLE "Triune Films 80s Retro LUTs (Rec.709, sRGB, DCI-P3)"
LUT_3D_SIZE 9
0.000793 0.000671 0.000732
0.050812 0.001038 0.000519
0.155579 0.004669 0.000000
0.264374 0.010681 0.000000
0.366699 0.016388 0.000000
0.470825 0.020935 0.000000
0.576355 0.025299 0.000000
0.686066 0.029541 0.000000
0.797058 0.034241 0.000916
0.000793 0.072601 0.010315
0.071625 0.076599 0.002747
0.202271 0.079742 0.000000
0.307983 0.082703 0.000000
0.408630 0.086365 0.000000
0.509705 0.090790 0.000000
0.614410 0.095398 0.000000
0.721100 0.100128 0.000000
0.829193 0.105713 0.000397
0.000793 0.169434 0.034058
0.080627 0.177094 0.031067
0.236084 0.191071 0.002991
0.355347 0.197479 0.000000
0.461395 0.194855 0.000000
0.562897 0.192810 0.000000
0.664917 0.192444 0.000000
0.767822 0.194336 0.000000
0.872314 0.198334 0.000000
0.000397 0.281830 0.060608
0.094055 0.288422 0.061768
0.260681 0.301971 0.043030
0.384369 0.326416 0.005310
0.496674 0.335510 0.000000
0.613007 0.335632 0.000000
0.722717 0.332184 0.000000
0.827728 0.329987 0.000000
0.931091 0.330566 0.000000
0.018280 0.394714 0.087463
0.135620 0.400208 0.089050
0.289368 0.409729 0.076965
0.417145 0.435303 0.047546
0.520477 0.464020 0.012268
0.631104 0.473267 0.000000
0.753815 0.476349 0.000000
0.873566 0.475372 0.000000
0.980804 0.473022 0.000000
0.076447 0.507019 0.117004
0.198669 0.511200 0.116394
0.328613 0.516571 0.105347
0.449615 0.537689 0.086151
0.555206 0.572876 0.058044
0.650055 0.600006 0.019623
0.760193 0.608765 0.000000
0.886230 0.612976 0.000000
0.996063 0.612305 0.000000
0.143921 0.619354 0.149353
0.257141 0.621521 0.145264
0.370789 0.624695 0.134338
0.483276 0.642578 0.122253
0.589661 0.674896 0.103699
0.683655 0.710022 0.068573
0.775452 0.733490 0.023254
0.886932 0.742035 0.000000
0.999207 0.745056 0.000000
0.206207 0.728241 0.180725
0.306793 0.729187 0.173920
0.410461 0.731262 0.163055
0.516449 0.748291 0.157471
0.621277 0.776093 0.146179
0.717010 0.809387 0.117859
0.805725 0.842316 0.074677
0.898315 0.863495 0.024780
0.999664 0.871246 0.000000
0.257599 0.833374 0.210907
0.349640 0.832825 0.201935
0.446594 0.836731 0.193970
0.547272 0.851898 0.190979
0.649780 0.876282 0.184052
0.747131 0.905060 0.162689
0.837494 0.937195 0.125854
0.920471 0.967468 0.086975
0.999023 0.986145 0.044525
0.000183 0.011871 0.061829
0.049347 0.010529 0.059875
0.153229 0.011414 0.054047
0.263702 0.015686 0.050262
0.365295 0.020386 0.049957
0.468964 0.024536 0.051697
0.573944 0.028168 0.054749
0.683685 0.032227 0.058899
0.795013 0.036926 0.063171
0.000000 0.082428 0.073914
0.061584 0.081940 0.069366
0.194061 0.079681 0.057526
0.305206 0.082184 0.052460
0.406250 0.086670 0.051697
0.506805 0.091492 0.053833
0.610901 0.096405 0.056702
0.717651 0.101288 0.061005
0.825897 0.106842 0.065125
0.000275 0.177094 0.091675
0.069824 0.180756 0.091034
0.231018 0.189636 0.078278
0.355042 0.194214 0.069855
0.458832 0.189880 0.062988
0.558533 0.189117 0.061646
0.660004 0.190704 0.063416
0.762756 0.193665 0.066101
0.867645 0.198730 0.070221
0.000000 0.288574 0.117462
0.079254 0.293793 0.118744
0.247284 0.300751 0.107666
0.382660 0.324860 0.089539
0.497406 0.334076 0.085480
0.612244 0.333008 0.080750
0.720184 0.329956 0.078827
0.823914 0.328613 0.079651
0.927002 0.330627 0.083069
0.007751 0.401184 0.147339
0.116608 0.406677 0.148743
0.274231 0.410706 0.139832
0.412262 0.432800 0.120697
0.520569 0.464081 0.107513
0.631592 0.472870 0.098236
0.754395 0.475708 0.093750
0.872864 0.474792 0.093201
0.980164 0.473083 0.095581
0.052124 0.513550 0.181946
0.177582 0.517883 0.181915
0.315826 0.519379 0.172760
0.442444 0.535522 0.158173
0.553497 0.572052 0.145050
0.650482 0.600769 0.123840
0.760773 0.609100 0.105377
0.886749 0.613068 0.098907
0.995911 0.612000 0.098083
0.119934 0.625519 0.217743
0.240875 0.627991 0.214661
0.360046 0.628448 0.204712
0.475281 0.641296 0.194946
0.585480 0.673645 0.186920
0.683289 0.710510 0.166443
0.775818 0.734436 0.134735
0.887177 0.742432 0.108124
0.999237 0.744934 0.101196
0.192688 0.734070 0.251984
0.294861 0.734528 0.245636
0.401031 0.734314 0.234436
0.508606 0.747742 0.230652
0.615234 0.774719 0.225983
0.714539 0.809296 0.209930
0.805481 0.842957 0.179016
0.898621 0.864471 0.140930
0.999695 0.871521 0.113708
0.247314 0.837524 0.283020
0.340149 0.836731 0.274292
0.438049 0.838379 0.265442
0.539856 0.852417 0.264984
0.642395 0.874847 0.262054
0.742737 0.904816 0.249817
0.835876 0.937592 0.223145
0.920715 0.968292 0.193054
0.999054 0.986633 0.159088
0.000702 0.037170 0.135529
0.046326 0.037872 0.134827
0.140106 0.031555 0.125397
0.260895 0.026337 0.108093
0.361420 0.027802 0.099274
0.461121 0.031097 0.099579
0.564240 0.034729 0.105072
0.673248 0.039032 0.112305
0.785034 0.043518 0.120087
0.000305 0.104004 0.152985
0.051575 0.108704 0.153625
0.165985 0.100616 0.140350
0.302216 0.090027 0.112610
0.402222 0.090149 0.101562
0.499878 0.094940 0.103851
0.601379 0.100647 0.109436
0.707367 0.106140 0.116516
0.815735 0.112000 0.123840
0.000000 0.196075 0.178497
0.065002 0.201965 0.182007
0.193909 0.191071 0.161163
0.349609 0.181641 0.134399
0.451721 0.178406 0.121246
0.549255 0.182495 0.120544
0.648560 0.188354 0.123505
0.750641 0.194580 0.128113
0.854950 0.201477 0.133972
0.000000 0.302429 0.195740
0.062683 0.308655 0.197113
0.207458 0.305603 0.187195
0.380676 0.320374 0.180420
0.499542 0.329285 0.183716
0.611145 0.325409 0.170715
0.714447 0.322968 0.161774
0.815277 0.324280 0.158569
0.915833 0.328705 0.159363
0.000000 0.412567 0.224182
0.078033 0.419220 0.225006
0.234955 0.418274 0.217682
0.402039 0.428406 0.203796
0.521027 0.462463 0.208771
0.632874 0.471985 0.211456
0.755432 0.473328 0.204865
0.871155 0.472076 0.197418
0.976807 0.471252 0.193268
0.015167 0.523621 0.257751
0.129578 0.529205 0.257629
0.286560 0.527283 0.250458
0.428741 0.532654 0.237488
0.549530 0.568085 0.236328
0.650818 0.601288 0.233551
0.761169 0.609161 0.225037
0.887939 0.612915 0.219788
0.995361 0.611023 0.215240
0.081604 0.634796 0.292297
0.210968 0.638489 0.291595
0.340576 0.635254 0.282257
0.462646 0.640228 0.272522
0.578156 0.669189 0.271851
0.681763 0.708771 0.265930
0.775787 0.735229 0.249023
0.887512 0.742981 0.231750
0.999268 0.744934 0.226501
0.168793 0.741608 0.326080
0.276062 0.743225 0.322906
0.386841 0.739594 0.311615
0.497467 0.748047 0.307922
0.606506 0.770996 0.307861
0.710052 0.805511 0.302032
0.804840 0.842468 0.284729
0.898743 0.865265 0.258240
0.999695 0.871918 0.238068
0.232819 0.844391 0.358795
0.327484 0.843628 0.352295
0.427063 0.841248 0.341278
0.530060 0.852783 0.342316
0.633423 0.871552 0.342041
0.735748 0.900848 0.337585
0.832886 0.935669 0.321930
0.921021 0.968262 0.300629
0.998962 0.986847 0.274567
0.000549 0.062469 0.215088
0.047089 0.067413 0.218140
0.116760 0.065857 0.214722
0.233307 0.056152 0.198608
0.356262 0.047516 0.173218
0.461731 0.045227 0.158691
0.557495 0.047791 0.155609
0.659058 0.051910 0.159821
0.767181 0.057068 0.168121
0.000610 0.129608 0.236511
0.051117 0.138367 0.242615
0.122711 0.140808 0.242004
0.262146 0.126984 0.223175
0.400330 0.112976 0.186279
0.503357 0.109375 0.168762
0.596985 0.111694 0.163513
0.695465 0.116821 0.166840
0.799866 0.123535 0.174042
0.000000 0.213531 0.269470
0.062042 0.222595 0.276245
0.132996 0.227386 0.269409
0.297821 0.206635 0.244476
0.447388 0.188782 0.203186
0.546936 0.184296 0.183594
0.641174 0.188873 0.180939
0.738983 0.197052 0.184601
0.840118 0.206604 0.189972
0.000000 0.324158 0.300873
0.072601 0.331940 0.306702
0.163483 0.335999 0.305115
0.340149 0.315094 0.272125
0.500031 0.312195 0.255798
0.605743 0.306458 0.240662
0.704010 0.308167 0.234314
0.802521 0.314240 0.232117
0.901306 0.322540 0.230774
0.000000 0.430847 0.315338
0.068939 0.438660 0.318268
0.175995 0.442261 0.315033
0.366760 0.429169 0.295959
0.522278 0.456421 0.311829
0.636322 0.467041 0.322052
0.755768 0.465698 0.312561
0.865997 0.463226 0.300079
0.969025 0.463562 0.288177
0.000427 0.537964 0.340881
0.092987 0.546021 0.341949
0.236511 0.546844 0.338074
0.398712 0.536255 0.321625
0.544250 0.561279 0.328430
0.653564 0.598236 0.343475
0.763214 0.607910 0.346313
0.890259 0.611298 0.342590
0.993378 0.607178 0.331848
0.043610 0.648254 0.371887
0.170868 0.652710 0.371887
0.307892 0.651581 0.367310
0.439331 0.643616 0.351807
0.566833 0.663605 0.356384
0.679626 0.702820 0.364136
0.777435 0.734131 0.363770
0.888336 0.743011 0.356567
0.999329 0.744659 0.353363
0.133026 0.755066 0.405457
0.250641 0.757843 0.406189
0.366791 0.755676 0.399658
0.479889 0.751129 0.386658
0.593323 0.767029 0.389069
0.702820 0.798706 0.392151
0.803192 0.838745 0.388855
0.898834 0.864868 0.375488
0.999664 0.872009 0.362579
0.212555 0.857605 0.440948
0.312073 0.860107 0.440063
0.414673 0.857361 0.432007
0.516266 0.855377 0.421326
0.621002 0.869385 0.422546
0.725159 0.894226 0.422516
0.827301 0.930084 0.417786
0.921082 0.966034 0.406433
0.998230 0.986023 0.389099
0.001068 0.080292 0.289825
0.049286 0.086548 0.293823
0.110718 0.090271 0.292358
0.194641 0.087585 0.289948
0.317566 0.079834 0.275116
0.447937 0.072601 0.251038
0.560516 0.069855 0.239594
0.662994 0.070892 0.232758
0.761230 0.074493 0.230133
0.000732 0.150482 0.314545
0.053497 0.160095 0.321106
0.115204 0.167694 0.321228
0.206390 0.165497 0.321747
0.350494 0.151459 0.300629
0.490173 0.140533 0.272552
0.602600 0.136017 0.258392
0.701508 0.135559 0.248993
0.797272 0.138306 0.244354
0.000000 0.232697 0.348969
0.060974 0.243469 0.356201
0.124542 0.254059 0.354950
0.222443 0.253326 0.352142
0.392334 0.230225 0.323456
0.536926 0.217743 0.295990
0.646027 0.212585 0.280426
0.740967 0.213074 0.272095
0.836090 0.217590 0.270233
0.000000 0.336182 0.396027
0.074127 0.344788 0.402008
0.152710 0.353271 0.402161
0.250061 0.355347 0.383942
0.445160 0.324646 0.348816
0.590118 0.316437 0.329773
0.694000 0.311462 0.314545
0.789612 0.315521 0.313416
0.887238 0.323486 0.315979
0.000000 0.451660 0.425598
0.081726 0.459229 0.430298
0.176208 0.465942 0.432434
0.306061 0.466553 0.424622
0.496033 0.445953 0.390625
0.639771 0.454590 0.397461
0.747314 0.449188 0.387329
0.848816 0.448547 0.381897
0.949890 0.451416 0.376923
0.000000 0.557800 0.435272
0.084290 0.566742 0.438690
0.197510 0.573730 0.439758
0.349152 0.570312 0.432281
0.525085 0.558746 0.416992
0.656464 0.592468 0.449860
0.766724 0.602997 0.460114
0.890228 0.604431 0.454987
0.985779 0.596375 0.440979
0.017090 0.664673 0.456879
0.128204 0.674072 0.460327
0.264404 0.678131 0.462097
0.405640 0.672241 0.453430
0.549225 0.666077 0.443878
0.678040 0.695862 0.462860
0.780548 0.730408 0.479156
0.891144 0.741364 0.480438
0.998077 0.742249 0.477936
0.083069 0.772369 0.487274
0.210754 0.778229 0.491547
0.336761 0.779785 0.492615
0.457092 0.773926 0.482300
0.577026 0.772675 0.476013
0.696228 0.793762 0.485138
0.802216 0.831696 0.494232
0.900909 0.862366 0.494507
0.998718 0.870728 0.487701
0.176636 0.874817 0.522369
0.286316 0.878052 0.525696
0.396240 0.878723 0.524353
0.500519 0.873352 0.513794
0.606781 0.877014 0.511292
0.715759 0.891907 0.513245
0.821381 0.922455 0.515320
0.920654 0.960724 0.514343
0.996735 0.982910 0.505829
0.001160 0.097321 0.365112
0.052002 0.104279 0.369110
0.111786 0.110321 0.367737
0.178253 0.112854 0.366882
0.273651 0.109680 0.366180
0.404083 0.102905 0.348755
0.540894 0.100128 0.337463
0.661469 0.099579 0.330780
0.768829 0.100647 0.327026
0.000702 0.171204 0.392303
0.055847 0.180969 0.398621
0.117645 0.190247 0.399292
0.185333 0.194855 0.399597
0.294891 0.189301 0.400116
0.441559 0.176208 0.376160
0.580994 0.170837 0.362823
0.698547 0.168060 0.353302
0.803009 0.167877 0.347961
0.000214 0.253113 0.427551
0.061981 0.264618 0.434845
0.126160 0.276672 0.436035
0.194427 0.284943 0.433533
0.326355 0.277344 0.434174
0.485535 0.257477 0.406342
0.622406 0.249878 0.389130
0.734924 0.247498 0.379730
0.834900 0.248566 0.375458
0.000000 0.349152 0.475159
0.071472 0.359467 0.480927
0.144684 0.370941 0.482574
0.213470 0.383362 0.473846
0.368042 0.377197 0.466156
0.538330 0.351593 0.438660
0.669495 0.342987 0.420654
0.777344 0.343079 0.414062
0.873444 0.346771 0.412140
0.000000 0.460693 0.526703
0.084198 0.468475 0.531433
0.175507 0.476624 0.535156
0.268036 0.485291 0.529205
0.424530 0.482758 0.498108
0.594299 0.460999 0.474945
0.719788 0.455750 0.466339
0.824158 0.452789 0.457428
0.921356 0.454315 0.456116
0.000000 0.579315 0.551636
0.090332 0.586700 0.555939
0.194122 0.594299 0.560608
0.315247 0.599945 0.559967
0.482086 0.596252 0.545410
0.643890 0.591766 0.529480
0.767517 0.598206 0.541687
0.875031 0.593445 0.534546
0.968353 0.584534 0.525055
0.003021 0.686310 0.557098
0.101410 0.695190 0.561279
0.222717 0.703369 0.565826
0.360291 0.706238 0.566345
0.518890 0.699890 0.555969
0.669861 0.701782 0.558380
0.782410 0.727478 0.588898
0.894470 0.737488 0.596924
0.992371 0.734131 0.590851
0.036560 0.791107 0.574707
0.157440 0.799927 0.580231
0.290833 0.805481 0.586182
0.422943 0.804718 0.585022
0.556000 0.799713 0.578918
0.689209 0.803192 0.585144
0.801270 0.827087 0.601257
0.902191 0.857788 0.614380
0.996429 0.867004 0.610901
0.120544 0.893738 0.602997
0.244324 0.899597 0.609955
0.365417 0.902252 0.614075
0.477692 0.899475 0.610870
0.590942 0.897766 0.609009
0.708954 0.900940 0.612885
0.817719 0.919678 0.620483
0.918365 0.953064 0.626770
0.993713 0.976379 0.624084
0.001404 0.114685 0.441498
0.054565 0.122253 0.445923
0.115509 0.129822 0.445740
0.175781 0.135803 0.442535
0.250916 0.136780 0.446838
0.360107 0.133484 0.447235
0.499268 0.130005 0.432404
0.638641 0.131653 0.430023
0.758667 0.133148 0.426117
0.001160 0.191406 0.469971
0.058502 0.201721 0.476807
0.120667 0.212067 0.479095
0.182190 0.220306 0.477448
0.265381 0.221802 0.484009
0.392975 0.214386 0.483185
0.537079 0.206482 0.466278
0.672699 0.204559 0.457520
0.788361 0.203949 0.450287
0.001038 0.274719 0.507446
0.063660 0.285980 0.514709
0.127930 0.298431 0.517731
0.189972 0.309692 0.515228
0.285767 0.313080 0.520477
0.435608 0.300995 0.517181
0.579437 0.289703 0.501587
0.706726 0.284912 0.487579
0.816132 0.283539 0.477783
0.000000 0.366821 0.554688
0.071045 0.377533 0.560364
0.141571 0.390015 0.563049
0.205597 0.404236 0.557983
0.310791 0.413635 0.556335
0.488831 0.398376 0.549652
0.630432 0.385803 0.538574
0.748718 0.379089 0.522034
0.853516 0.378418 0.513184
0.000000 0.468933 0.608582
0.081665 0.478088 0.613098
0.164856 0.488251 0.615784
0.243103 0.500885 0.611389
0.357483 0.515686 0.597534
0.547791 0.504211 0.581482
0.682281 0.491028 0.575012
0.793396 0.480988 0.558777
0.897797 0.478577 0.551453
0.000000 0.588104 0.660583
0.092621 0.595062 0.664948
0.193359 0.602295 0.669495
0.299194 0.609924 0.669281
0.437317 0.618134 0.658325
0.604950 0.616119 0.620087
0.730957 0.606842 0.611908
0.839294 0.600891 0.610138
0.940735 0.595062 0.602844
0.000000 0.708069 0.679840
0.098816 0.714661 0.683899
0.211700 0.721771 0.689056
0.336853 0.727295 0.691589
0.484863 0.729523 0.687103
0.637512 0.728333 0.673950
0.771484 0.729065 0.664429
0.885010 0.734741 0.681580
0.971527 0.721741 0.673279
0.011169 0.813660 0.679901
0.121826 0.821960 0.684875
0.251099 0.829254 0.690887
0.384094 0.832947 0.694794
0.523285 0.831604 0.692200
0.665039 0.829407 0.689362
0.793243 0.829773 0.692078
0.898590 0.852478 0.720123
0.990509 0.859100 0.724548
0.068909 0.915039 0.692719
0.198273 0.922668 0.699982
0.325531 0.927307 0.707214
0.446472 0.927856 0.709412
0.566376 0.925964 0.710297
0.692902 0.922607 0.712128
0.810486 0.923462 0.717194
0.912231 0.944031 0.728729
0.987701 0.966431 0.735840
0.001862 0.131989 0.518219
0.057007 0.140198 0.523804
0.118561 0.149017 0.525360
0.178375 0.157074 0.522034
0.242920 0.162811 0.524628
0.332184 0.165314 0.535919
0.459808 0.163269 0.537201
0.600342 0.164124 0.533661
0.732361 0.166656 0.530212
0.001648 0.212006 0.549774
0.061096 0.222473 0.557556
0.123596 0.233368 0.561157
0.184235 0.243439 0.559845
0.252899 0.250305 0.563416
0.359589 0.250183 0.574432
0.496918 0.242615 0.571869
0.634827 0.240570 0.567566
0.761322 0.240265 0.559601
0.002350 0.297668 0.590546
0.066101 0.308746 0.598236
0.130341 0.320465 0.601318
0.191833 0.332336 0.599182
0.265778 0.341492 0.600891
0.397430 0.339142 0.609192
0.541595 0.327148 0.604645
0.671997 0.322845 0.599579
0.790466 0.320892 0.589417
0.003479 0.387360 0.636719
0.072632 0.398102 0.642975
0.141418 0.410370 0.645966
0.205261 0.424744 0.643036
0.284302 0.438782 0.640717
0.445496 0.438171 0.643738
0.597595 0.425232 0.641541
0.718353 0.418976 0.635986
0.829315 0.415710 0.625702
0.002258 0.482697 0.687653
0.080383 0.492737 0.692688
0.158478 0.504486 0.695526
0.232208 0.518738 0.693542
0.321350 0.537445 0.686035
0.499847 0.543610 0.678619
0.653015 0.532288 0.679962
0.765442 0.523193 0.676086
0.871155 0.515381 0.663879
0.000000 0.592834 0.745972
0.090271 0.600891 0.750427
0.182770 0.609680 0.753754
0.276978 0.620056 0.753845
0.390076 0.634277 0.745544
0.562988 0.645203 0.721527
0.703827 0.641205 0.713043
0.809845 0.632111 0.712494
0.908783 0.621094 0.702026
0.000000 0.716736 0.795410
0.099579 0.722351 0.799225
0.208801 0.728607 0.803986
0.328003 0.734802 0.807465
0.462585 0.740509 0.803406
0.614929 0.745239 0.787109
0.744751 0.745850 0.750580
0.847717 0.740448 0.747284
0.944946 0.734467 0.748779
0.000000 0.836060 0.808228
0.110565 0.841858 0.812164
0.234802 0.848267 0.817627
0.364563 0.852844 0.822540
0.499512 0.854340 0.821228
0.638428 0.854919 0.816162
0.767639 0.851257 0.802856
0.881927 0.849182 0.792603
0.967712 0.844666 0.802765
0.037354 0.939636 0.803040
0.164490 0.947083 0.809021
0.293274 0.952087 0.815643
0.417542 0.955139 0.820587
0.539642 0.954498 0.821350
0.668884 0.952698 0.822357
0.791992 0.945374 0.817657
0.901306 0.940857 0.814941
0.976746 0.954163 0.832214
0.001740 0.149261 0.596649
0.059631 0.158264 0.603241
0.122131 0.167664 0.606140
0.182312 0.177643 0.604767
0.241699 0.188538 0.605743
0.317230 0.195587 0.619110
0.430695 0.196075 0.630585
0.564789 0.195007 0.633026
0.697998 0.197968 0.633820
0.002777 0.233063 0.631897
0.064026 0.244202 0.641235
0.127197 0.255829 0.646545
0.188507 0.267120 0.646362
0.250061 0.277527 0.646667
0.338318 0.282806 0.659027
0.467896 0.278381 0.666901
0.601532 0.273865 0.668457
0.728302 0.273651 0.665710
0.005493 0.320892 0.675262
0.069153 0.332031 0.683960
0.133484 0.343628 0.688202
0.195709 0.355469 0.686615
0.259857 0.366791 0.684906
0.367371 0.372192 0.694580
0.513947 0.363953 0.698029
0.643127 0.357452 0.699768
0.760620 0.355530 0.695892
0.007141 0.408936 0.720551
0.074402 0.419769 0.727753
0.142395 0.431976 0.731506
0.207062 0.446136 0.730194
0.274811 0.461243 0.726959
0.406555 0.470886 0.731445
0.572235 0.461426 0.733002
0.694244 0.454346 0.735931
0.802063 0.451355 0.733521
0.006348 0.500641 0.768616
0.080688 0.511108 0.774384
0.155853 0.523773 0.778320
0.227600 0.538788 0.778473
0.305542 0.557800 0.774170
0.457367 0.573975 0.773132
0.628937 0.568634 0.774841
0.742981 0.560150 0.777924
0.844177 0.553833 0.775879
0.003204 0.602570 0.824890
0.088928 0.611786 0.830017
0.175079 0.622375 0.834015
0.261963 0.634949 0.835632
0.360535 0.651886 0.831635
0.521790 0.669861 0.820648
0.680145 0.673279 0.811462
0.788757 0.665588 0.814392
0.884216 0.657806 0.814087
0.000000 0.719421 0.886536
0.098145 0.726013 0.890656
0.200317 0.733154 0.894348
0.312561 0.741455 0.897644
0.438354 0.751038 0.894135
0.591858 0.761505 0.881165
0.726685 0.770081 0.853851
0.829926 0.767761 0.845642
0.920929 0.760895 0.846954
0.000000 0.845612 0.930176
0.110382 0.850494 0.933685
0.232483 0.855896 0.938293
0.360901 0.860657 0.944214
0.492004 0.863678 0.943390
0.627258 0.865906 0.935944
0.755859 0.866730 0.917084
0.862549 0.862732 0.879333
0.949554 0.857147 0.874817
0.023773 0.963531 0.935089
0.148865 0.968719 0.939178
0.275146 0.972992 0.944885
0.398773 0.976318 0.950378
0.521393 0.975830 0.950226
0.648468 0.974060 0.947449
0.772888 0.969727 0.938660
0.884369 0.960388 0.921356
0.957581 0.939056 0.898102
