lut/retro-80s/Top Gun (1986) - Standard.cube
# Created by Benjamin (IWLTBAP): https://luts.iwltbap.com
# Copyright: (C) Copyright 2018 Triune Films and IWLTBAP SAS
# Cannot be resold, shared or otherwise redistributed
TITLE "Triune Films 80s Retro LUTs (Rec.709, sRGB, DCI-P3)"
LUT_3D_SIZE 5
0.001587 0.000000 0.000793
0.125153 0.000000 0.000000
0.243164 0.000000 0.000000
0.372955 0.000000 0.000000
0.529541 0.000000 0.000000
0.000000 0.136688 0.000000
0.167297 0.157471 0.000000
0.386200 0.170441 0.000000
0.535614 0.157104 0.000000
0.691437 0.153625 0.000000
0.000793 0.302032 0.000793
0.212708 0.355255 0.000000
0.455322 0.395081 0.000000
0.711548 0.458130 0.000000
0.920441 0.447449 0.000000
0.014801 0.498474 0.000000
0.307861 0.573578 0.009460
0.518494 0.609924 0.004730
0.717377 0.663635 0.000641
0.992371 0.741211 0.000000
0.110077 0.729858 0.022095
0.382263 0.804657 0.052368
0.574036 0.834747 0.039825
0.731995 0.837952 0.012817
0.922791 0.899292 0.000610
0.000000 0.000000 0.087463
0.097076 0.000000 0.080963
0.202209 0.000000 0.072937
0.324738 0.000000 0.081024
0.481445 0.000000 0.094086
0.000000 0.135651 0.106537
0.146881 0.152252 0.113556
0.364258 0.152557 0.123322
0.518280 0.143463 0.119659
0.675720 0.144989 0.125244
0.000000 0.291321 0.097717
0.188507 0.366913 0.115265
0.474365 0.417297 0.160370
0.715485 0.458496 0.211517
0.913818 0.443115 0.201843
0.001190 0.472534 0.104126
0.273193 0.574036 0.146515
0.528839 0.633636 0.175049
0.728821 0.679565 0.209412
0.993256 0.742676 0.242523
0.028381 0.680878 0.132019
0.355896 0.775604 0.209167
0.570648 0.813354 0.234222
0.725525 0.823669 0.242188
0.914001 0.892914 0.245758
0.000000 0.000366 0.183319
0.076935 0.000000 0.168243
0.168762 0.000000 0.155487
0.262878 0.000000 0.149750
0.368835 0.000000 0.149078
0.000000 0.140045 0.254242
0.101868 0.141602 0.269897
0.277496 0.124329 0.241364
0.438599 0.114105 0.209839
0.574493 0.116547 0.210632
0.000000 0.304535 0.261932
0.144531 0.365723 0.301453
0.432526 0.387756 0.323547
0.656189 0.396454 0.357056
0.830841 0.397308 0.364105
0.000000 0.424072 0.214783
0.191437 0.530640 0.268402
0.517517 0.628296 0.361633
0.735077 0.683441 0.447174
0.985626 0.738983 0.489227
0.002777 0.602539 0.235901
0.288116 0.712067 0.324219
0.571075 0.793152 0.421600
0.747253 0.834595 0.492737
0.919373 0.900543 0.515167
0.000000 0.003754 0.287323
0.072876 0.001923 0.275787
0.150726 0.000000 0.242249
0.237244 0.000000 0.233246
0.328308 0.000000 0.226807
0.000000 0.133118 0.357147
0.081177 0.132294 0.382019
0.178986 0.112030 0.356140
0.355713 0.105682 0.318115
0.499451 0.107635 0.297028
0.000000 0.375092 0.527313
0.150879 0.402222 0.562561
0.352295 0.377167 0.515625
0.565674 0.350830 0.453369
0.711609 0.348999 0.443451
0.000000 0.495087 0.442474
0.156769 0.569214 0.489227
0.480408 0.645874 0.562378
0.727356 0.684662 0.615021
0.899719 0.709045 0.661224
0.000000 0.535797 0.329407
0.204620 0.653137 0.409424
0.561646 0.788696 0.566559
0.789734 0.878693 0.708954
0.946289 0.933441 0.762848
0.000000 0.008789 0.396790
0.073456 0.006866 0.393188
0.139587 0.003113 0.344025
0.222168 0.000793 0.317200
0.310638 0.000793 0.310272
0.000000 0.134369 0.465942
0.080658 0.133484 0.489868
0.145569 0.115448 0.459717
0.279480 0.101532 0.422974
0.441284 0.102692 0.390656
0.000000 0.368622 0.678833
0.128998 0.385681 0.715332
0.289764 0.369659 0.684601
0.486084 0.327454 0.564697
0.658142 0.335052 0.534454
0.000000 0.664795 0.847870
0.196533 0.693237 0.879944
0.464203 0.709503 0.894867
0.702545 0.692474 0.793457
0.854462 0.710480 0.773102
0.000000 0.694305 0.625153
0.187958 0.775330 0.688721
0.516663 0.862122 0.791840
0.780273 0.923096 0.884430
0.967377 0.961853 0.937378
