lut/retro-80s/Top Gun (1986) - Standard.cube
# Created by Benjamin (IWLTBAP): https://luts.iwltbap.com
# Copyright: (C) Copyright 2018 Triune Films and IWLTBAP SAS
# Cannot be resold, shared or otherwise redistributed
TITLE "Triune Films 80s Retro LUTs (Rec.709, sRGB, DCI-P3)"
LUT_3D_SIZE 9
0.001587 0.000000 0.000793
0.063477 0.000000 0.000000
0.125153 0.000000 0.000000
0.184387 0.000000 0.000000
0.243164 0.000000 0.000000
0.305145 0.000000 0.000000
0.372955 0.000000 0.000000
0.448120 0.000000 0.000000
0.529541 0.000000 0.000000
0.000793 0.065033 0.000000
0.066620 0.068695 0.000000
0.158661 0.072601 0.000000
0.237762 0.067200 0.000000
0.306396 0.063477 0.000000
0.372101 0.061493 0.000000
0.441223 0.061279 0.000000
0.516449 0.062531 0.000000
0.597443 0.064636 0.000000
0.000000 0.136688 0.000000
0.064789 0.148438 0.000000
0.167297 0.157471 0.000000
0.296722 0.177917 0.000000
0.386200 0.170441 0.000000
0.462311 0.162750 0.000000
0.535614 0.157104 0.000000
0.611481 0.154358 0.000000
0.691437 0.153625 0.000000
0.000000 0.216095 0.000488
0.071014 0.238770 0.000000
0.180328 0.251617 0.000000
0.308105 0.267670 0.000000
0.445831 0.307709 0.000000
0.551300 0.308167 0.000000
0.642059 0.299927 0.000000
0.727203 0.291443 0.000000
0.811066 0.284515 0.000000
0.000793 0.302032 0.000793
0.091187 0.333160 0.000000
0.212708 0.355255 0.000000
0.336670 0.368195 0.000000
0.455322 0.395081 0.000000
0.590881 0.446991 0.000000
0.711548 0.458130 0.000000
0.819366 0.454285 0.000000
0.920441 0.447449 0.000000
0.002655 0.395966 0.000000
0.124695 0.432709 0.001099
0.259033 0.462067 0.001862
0.379181 0.480774 0.001099
0.483551 0.495056 0.000702
0.592621 0.530243 0.000000
0.727600 0.585846 0.000000
0.857544 0.603577 0.000000
0.979156 0.605865 0.000000
0.014801 0.498474 0.000000
0.166840 0.539093 0.006805
0.307861 0.573578 0.009460
0.422821 0.596405 0.007996
0.518494 0.609924 0.004730
0.609741 0.623383 0.001770
0.717377 0.663635 0.000641
0.857086 0.720581 0.000000
0.992371 0.741211 0.000000
0.052429 0.610352 0.005035
0.212341 0.652924 0.020813
0.349152 0.688904 0.027405
0.458313 0.712585 0.024841
0.549225 0.724640 0.017853
0.632874 0.731659 0.009949
0.719269 0.742859 0.003845
0.831299 0.789246 0.000641
0.978760 0.850037 0.000000
0.110077 0.729858 0.022095
0.257355 0.771393 0.043640
0.382263 0.804657 0.052368
0.485382 0.825348 0.048798
0.574036 0.834747 0.039825
0.654877 0.837128 0.026428
0.731995 0.837952 0.012817
0.810608 0.845642 0.004547
0.922791 0.899292 0.000610
0.000092 0.000000 0.043854
0.054382 0.000000 0.042175
0.111023 0.000000 0.038635
0.168365 0.000000 0.037506
0.227661 0.000000 0.039001
0.289917 0.000000 0.041260
0.358154 0.000000 0.044098
0.433838 0.000000 0.046783
0.515991 0.000000 0.049988
0.000000 0.063507 0.046478
0.059967 0.066528 0.045563
0.143768 0.068054 0.048798
0.227234 0.064789 0.048584
0.298462 0.061432 0.047516
0.364990 0.059509 0.047821
0.434357 0.059723 0.049011
0.509979 0.061249 0.051300
0.591553 0.063660 0.053925
0.000000 0.133636 0.043671
0.062012 0.149109 0.045654
0.166077 0.160614 0.053040
0.298676 0.179749 0.071259
0.387421 0.169098 0.067047
0.463104 0.160248 0.063568
0.536102 0.154541 0.061951
0.612030 0.152100 0.062103
0.692352 0.151978 0.063751
0.000000 0.214325 0.044312
0.066132 0.241333 0.044830
0.178680 0.259705 0.048096
0.315857 0.277802 0.060608
0.454315 0.313904 0.086945
0.556610 0.309204 0.086487
0.645508 0.298798 0.082886
0.729797 0.289886 0.080383
0.813477 0.283569 0.079620
0.000000 0.300934 0.046021
0.081512 0.336334 0.046631
0.206390 0.365509 0.050049
0.343201 0.384094 0.055664
0.467560 0.409180 0.070862
0.598145 0.453735 0.098267
0.715271 0.460266 0.102631
0.821167 0.454773 0.100403
0.921051 0.447662 0.098114
0.000397 0.391876 0.046997
0.110077 0.433899 0.052216
0.248901 0.471222 0.059723
0.382416 0.497009 0.064209
0.494812 0.513641 0.068787
0.603180 0.543793 0.083191
0.732086 0.591278 0.106567
0.859161 0.605438 0.112976
0.979370 0.606537 0.112213
0.005524 0.488770 0.048553
0.148224 0.535889 0.064545
0.296661 0.578400 0.077667
0.423553 0.608093 0.082794
0.525574 0.624908 0.083374
0.618774 0.637939 0.085724
0.723816 0.673035 0.095947
0.859344 0.723907 0.112457
0.992889 0.742004 0.118683
0.025940 0.594604 0.057037
0.190308 0.644135 0.084900
0.338928 0.687073 0.103546
0.457550 0.715729 0.109070
0.552216 0.730072 0.107544
0.636841 0.737823 0.105072
0.722687 0.748627 0.103455
0.832916 0.792572 0.107086
0.979340 0.851257 0.116516
0.066772 0.709259 0.077209
0.234009 0.757050 0.112213
0.373932 0.795441 0.133850
0.483826 0.818359 0.139435
0.573669 0.828064 0.136353
0.653595 0.831085 0.130066
0.729492 0.833374 0.123596
0.806976 0.842407 0.118561
0.919464 0.897491 0.116791
0.000000 0.000000 0.087463
0.045410 0.000000 0.085602
0.097076 0.000000 0.080963
0.150940 0.000000 0.075867
0.202209 0.000000 0.072937
0.259033 0.000000 0.075623
0.324738 0.000000 0.081024
0.399353 0.000000 0.087341
0.481445 0.000000 0.094086
0.000000 0.063141 0.105377
0.053223 0.065094 0.104645
0.123230 0.063538 0.101166
0.203003 0.059235 0.095551
0.272827 0.054901 0.089478
0.339569 0.053558 0.089386
0.408722 0.054504 0.092590
0.484314 0.057037 0.097900
0.566223 0.060089 0.103912
0.000000 0.135651 0.106537
0.058380 0.150330 0.115082
0.146881 0.152252 0.113556
0.265961 0.156586 0.123505
0.364258 0.152557 0.123322
0.444153 0.147034 0.120758
0.518280 0.143463 0.119659
0.594757 0.143127 0.121521
0.675720 0.144989 0.125244
0.000000 0.206757 0.096588
0.057373 0.236053 0.104523
0.164886 0.259064 0.114563
0.309357 0.277435 0.135284
0.453003 0.310486 0.179169
0.551514 0.300293 0.173767
0.637360 0.288513 0.166321
0.719635 0.280365 0.162048
0.802368 0.275970 0.161072
0.000000 0.291321 0.097717
0.067444 0.330231 0.103943
0.188507 0.366913 0.115265
0.339050 0.392853 0.131134
0.474365 0.417297 0.160370
0.603516 0.458527 0.208740
0.715485 0.458496 0.211517
0.817169 0.450500 0.206177
0.913818 0.443115 0.201843
0.000000 0.379913 0.100464
0.090088 0.425812 0.110352
0.226624 0.471466 0.125458
0.376312 0.506470 0.141296
0.502136 0.527527 0.157166
0.612061 0.554169 0.185974
0.736084 0.596375 0.224915
0.859680 0.606171 0.232666
0.977142 0.605499 0.230682
0.001190 0.472534 0.104126
0.122986 0.523956 0.123901
0.273193 0.574036 0.146515
0.415497 0.611908 0.163239
0.528839 0.633636 0.175049
0.625793 0.647675 0.187988
0.728821 0.679565 0.209412
0.861420 0.727142 0.234863
0.993256 0.742676 0.242523
0.008270 0.572601 0.113098
0.161804 0.626556 0.146027
0.317444 0.675537 0.175629
0.449066 0.709869 0.193420
0.551666 0.727966 0.202728
0.638733 0.737885 0.210693
0.724121 0.749512 0.218567
0.833008 0.793243 0.228790
0.980164 0.852631 0.241516
0.028381 0.680878 0.132019
0.202942 0.733032 0.175476
0.355896 0.775604 0.209167
0.476135 0.801483 0.226807
0.570648 0.813354 0.234222
0.651062 0.818939 0.238708
0.725525 0.823669 0.242188
0.801056 0.834503 0.244629
0.914001 0.892914 0.245758
0.000000 0.000000 0.133362
0.039673 0.000000 0.131195
0.084808 0.000000 0.124237
0.134766 0.000000 0.117950
0.184540 0.000000 0.113556
0.233246 0.000000 0.111084
0.283966 0.000000 0.110870
0.348724 0.000000 0.116577
0.425201 0.000000 0.125427
0.000000 0.058990 0.157379
0.044159 0.061340 0.163940
0.099426 0.059082 0.159698
0.174225 0.055756 0.152802
0.247131 0.052002 0.140625
0.309814 0.048889 0.130737
0.369385 0.048096 0.127625
0.439178 0.050293 0.133057
0.517792 0.053711 0.141937
0.000000 0.145935 0.194794
0.058014 0.156342 0.209473
0.125916 0.148682 0.196198
0.225006 0.141296 0.186768
0.324585 0.134064 0.175720
0.403625 0.126343 0.164124
0.477081 0.124573 0.162628
0.553040 0.126984 0.167480
0.633728 0.131653 0.175140
0.000000 0.216827 0.179871
0.054657 0.241547 0.196655
0.147217 0.259277 0.208405
0.275909 0.260468 0.208649
0.411438 0.267334 0.225830
0.514954 0.263977 0.228699
0.601624 0.258850 0.227417
0.683838 0.256592 0.227814
0.766510 0.257385 0.230865
0.000000 0.278168 0.156158
0.052551 0.316742 0.170502
0.158936 0.356995 0.189972
0.315735 0.387939 0.215149
0.465607 0.410126 0.250641
0.598053 0.448364 0.310730
0.702026 0.442078 0.308380
0.797485 0.434296 0.302307
0.889252 0.428802 0.298309
0.000000 0.360748 0.156036
0.067261 0.407013 0.170288
0.191040 0.458252 0.192871
0.353760 0.502502 0.222321
0.499420 0.529846 0.253937
0.615387 0.554932 0.294922
0.736420 0.596649 0.345612
0.855377 0.602600 0.351685
0.967804 0.600311 0.348053
0.000000 0.449005 0.160461
0.093384 0.500763 0.180695
0.235107 0.556152 0.210144
0.393982 0.603333 0.242249
0.526428 0.633362 0.272003
0.631348 0.651672 0.300781
0.732330 0.682068 0.331787
0.862579 0.729614 0.361511
0.992584 0.742737 0.368011
0.001678 0.543274 0.169464
0.127838 0.598083 0.201050
0.281952 0.651794 0.238403
0.430756 0.694275 0.272308
0.549103 0.720642 0.299438
0.643127 0.736694 0.323761
0.728790 0.751312 0.343414
0.834686 0.794647 0.358582
0.982178 0.855347 0.369843
0.008484 0.644073 0.185608
0.166138 0.698364 0.229492
0.326050 0.745575 0.272675
0.462494 0.778778 0.306000
0.569183 0.799011 0.330688
0.655121 0.811951 0.351288
0.729797 0.821167 0.367401
0.802734 0.833618 0.377869
0.912872 0.892578 0.380737
0.000000 0.000366 0.183319
0.037567 0.000000 0.180023
0.076935 0.000000 0.168243
0.122070 0.000000 0.160522
0.168762 0.000000 0.155487
0.215454 0.000000 0.152191
0.262878 0.000000 0.149750
0.312714 0.000000 0.147980
0.368835 0.000000 0.149078
0.000000 0.057281 0.207520
0.038879 0.058289 0.216705
0.080719 0.055511 0.213501
0.140900 0.052643 0.207489
0.213013 0.049591 0.195038
0.281586 0.047577 0.181427
0.342041 0.046265 0.172516
0.399231 0.046265 0.168762
0.461609 0.048218 0.170959
0.000000 0.140045 0.254242
0.048309 0.146118 0.271301
0.101868 0.141602 0.269897
0.177704 0.131042 0.256348
0.277496 0.124329 0.241364
0.366394 0.118103 0.222443
0.438599 0.114105 0.209839
0.503143 0.112885 0.205231
0.574493 0.116547 0.210632
0.000000 0.247345 0.301544
0.063141 0.264191 0.322113
0.146393 0.274353 0.334717
0.238251 0.254242 0.304352
0.359161 0.241577 0.288635
0.465118 0.232391 0.276367
0.547058 0.224396 0.265961
0.623688 0.224304 0.267181
0.703186 0.229462 0.275269
0.000000 0.304535 0.261932
0.053467 0.334595 0.280884
0.144531 0.365723 0.301453
0.285492 0.386383 0.318268
0.432526 0.387756 0.323547
0.558167 0.396149 0.348145
0.656189 0.396454 0.357056
0.744537 0.396057 0.360565
0.830841 0.397308 0.364105
0.000000 0.346619 0.216888
0.050293 0.389526 0.235291
0.153625 0.440796 0.262604
0.317993 0.489716 0.300690
0.482605 0.522156 0.342346
0.609070 0.545502 0.388153
0.728180 0.586121 0.450623
0.834961 0.586151 0.452118
0.937103 0.583954 0.448700
0.000000 0.424072 0.214783
0.067261 0.472992 0.235413
0.191437 0.530640 0.268402
0.361145 0.586761 0.313416
0.517517 0.628296 0.361633
0.635864 0.654633 0.406525
0.735077 0.683441 0.447174
0.860443 0.729095 0.484039
0.985626 0.738983 0.489227
0.000000 0.510254 0.221954
0.094360 0.563446 0.250275
0.238770 0.621399 0.291626
0.404755 0.674835 0.341125
0.545929 0.715118 0.389465
0.653015 0.742310 0.433197
0.741089 0.761993 0.466217
0.839996 0.800293 0.486481
0.982941 0.857391 0.496796
0.002777 0.602539 0.235901
0.128021 0.657990 0.274994
0.288116 0.712067 0.324219
0.444977 0.757996 0.375092
0.571075 0.793152 0.421600
0.668488 0.818085 0.462006
0.747253 0.834595 0.492737
0.818481 0.848907 0.511353
0.919373 0.900543 0.515167
0.000000 0.001526 0.235046
0.036591 0.001038 0.232483
0.074280 0.000793 0.219482
0.114166 0.000000 0.204773
0.158020 0.000000 0.198181
0.202332 0.000000 0.194305
0.247559 0.000000 0.191467
0.294434 0.000000 0.188416
0.343536 0.000000 0.185730
0.000000 0.057281 0.256561
0.037170 0.057220 0.265991
0.073242 0.054840 0.264435
0.116058 0.050507 0.254974
0.178894 0.048035 0.246307
0.248535 0.046722 0.232849
0.313721 0.046265 0.220947
0.372864 0.046265 0.214020
0.429749 0.046997 0.210907
0.000000 0.135590 0.306610
0.043518 0.138947 0.324799
0.086945 0.135590 0.329895
0.137726 0.123871 0.316376
0.222900 0.116730 0.303253
0.317169 0.111969 0.281952
0.399261 0.109558 0.263885
0.468323 0.109070 0.254578
0.531830 0.110138 0.251434
0.000000 0.247589 0.380524
0.057892 0.258453 0.400513
0.124573 0.262909 0.412323
0.198090 0.246399 0.391418
0.299164 0.226807 0.362000
0.412079 0.217560 0.340149
0.503479 0.211578 0.322296
0.577362 0.208923 0.313568
0.643951 0.209045 0.311066
0.000000 0.359894 0.418304
0.068695 0.380219 0.437958
0.160217 0.401642 0.460449
0.279572 0.409119 0.466370
0.393799 0.382019 0.420502
0.512512 0.369598 0.402710
0.606201 0.363983 0.396759
0.680847 0.359894 0.393280
0.754150 0.361511 0.397858
0.000000 0.397278 0.349457
0.055267 0.429596 0.368408
0.147552 0.468170 0.393311
0.294983 0.503113 0.420746
0.458130 0.524567 0.444336
0.589386 0.530731 0.456757
0.691803 0.544312 0.487823
0.781128 0.549774 0.502350
0.869263 0.552979 0.510132
0.000000 0.413818 0.278259
0.050323 0.458435 0.299652
0.154877 0.514404 0.333344
0.325317 0.574219 0.383484
0.500458 0.624207 0.441772
0.634644 0.658630 0.496185
0.734802 0.685120 0.542694
0.850891 0.723541 0.593018
0.960846 0.727997 0.596161
0.000000 0.483124 0.274048
0.067780 0.533325 0.299713
0.196198 0.593842 0.341705
0.373199 0.657288 0.401398
0.537689 0.712097 0.467712
0.661957 0.752655 0.529694
0.756134 0.779419 0.576324
0.846710 0.810242 0.604462
0.980591 0.858246 0.620331
0.000793 0.563171 0.282379
0.093231 0.618042 0.315735
0.245728 0.679291 0.367279
0.421967 0.739624 0.432922
0.570404 0.791565 0.500977
0.683319 0.830963 0.562622
0.770538 0.857330 0.609528
0.843018 0.875336 0.637268
0.931763 0.915497 0.644348
0.000000 0.003754 0.287323
0.036469 0.003021 0.286926
0.072876 0.001923 0.275787
0.109192 0.000793 0.254578
0.150726 0.000000 0.242249
0.193787 0.000000 0.236603
0.237244 0.000000 0.233246
0.281830 0.000000 0.230164
0.328308 0.000000 0.226807
0.000000 0.059052 0.307129
0.037262 0.058685 0.316467
0.072052 0.056458 0.315521
0.105530 0.051453 0.302673
0.154022 0.047943 0.292755
0.218201 0.046265 0.282104
0.285156 0.045654 0.269897
0.347260 0.046173 0.260468
0.405609 0.046997 0.254669
0.000000 0.133118 0.357147
0.041931 0.135010 0.375031
0.081177 0.132294 0.382019
0.118958 0.122009 0.371521
0.178986 0.112030 0.356140
0.267151 0.107239 0.338593
0.355713 0.105682 0.318115
0.431763 0.105957 0.304108
0.499451 0.107635 0.297028
0.000000 0.242096 0.442596
0.053436 0.249695 0.463379
0.109497 0.251953 0.476288
0.168304 0.239319 0.464478
0.243896 0.216400 0.429413
0.353424 0.206055 0.402985
0.454346 0.201599 0.378418
0.536499 0.200989 0.364166
0.607483 0.202301 0.358215
0.000000 0.375092 0.527313
0.069000 0.389496 0.545807
0.150879 0.402222 0.562561
0.250031 0.402252 0.561035
0.352295 0.377167 0.515625
0.464050 0.355743 0.471008
0.565674 0.350830 0.453369
0.644257 0.349091 0.445648
0.711609 0.348999 0.443451
0.000000 0.479797 0.540771
0.074432 0.501251 0.558411
0.172089 0.526550 0.581482
0.304413 0.546997 0.601288
0.448090 0.552856 0.601501
0.565521 0.531433 0.548187
0.662720 0.529785 0.539001
0.738434 0.531708 0.544464
0.804047 0.531799 0.548645
0.000000 0.495087 0.442474
0.058777 0.528290 0.461761
0.156769 0.569214 0.489227
0.310944 0.611298 0.524780
0.480408 0.645874 0.562378
0.622467 0.670197 0.594299
0.727356 0.684662 0.615021
0.814362 0.701080 0.645905
0.899719 0.709045 0.661224
0.000000 0.481598 0.342285
0.052521 0.527985 0.367249
0.164032 0.586823 0.407471
0.342041 0.652100 0.468506
0.521057 0.712677 0.541748
0.660583 0.761108 0.613129
0.764618 0.794952 0.668945
0.850525 0.820770 0.704895
0.969299 0.855927 0.734802
0.000000 0.535797 0.329407
0.067627 0.588013 0.358948
0.204620 0.653137 0.409424
0.392487 0.723785 0.483002
0.561646 0.788696 0.566559
0.690857 0.841125 0.646210
0.789734 0.878693 0.708954
0.867462 0.903076 0.747253
0.946289 0.933441 0.762848
0.000000 0.006012 0.340881
0.036896 0.005310 0.342407
0.072449 0.004059 0.334106
0.107117 0.002716 0.312653
0.143799 0.001282 0.289307
0.186859 0.000610 0.279694
0.229797 0.000000 0.275055
0.273315 0.000000 0.271851
0.318359 0.000000 0.268433
0.000000 0.061920 0.360901
0.038086 0.061523 0.370056
0.073273 0.059296 0.369781
0.104553 0.054688 0.356354
0.139801 0.049469 0.337860
0.195068 0.046722 0.328461
0.259857 0.045654 0.317780
0.324036 0.045654 0.307617
0.384552 0.046356 0.299561
0.000000 0.132965 0.409851
0.041534 0.134094 0.427063
0.080170 0.131805 0.434387
0.113770 0.123657 0.425659
0.154053 0.111694 0.404907
0.227173 0.105133 0.390045
0.314850 0.102814 0.371429
0.396545 0.103271 0.354614
0.469055 0.105103 0.342804
0.000000 0.236481 0.498779
0.050293 0.242126 0.520111
0.101074 0.243561 0.533508
0.151642 0.234497 0.527466
0.210876 0.213623 0.495270
0.302399 0.198151 0.461548
0.406433 0.193146 0.434113
0.496643 0.193695 0.414490
0.573914 0.196442 0.403503
0.000000 0.374298 0.608826
0.065674 0.385681 0.628082
0.138519 0.394653 0.643585
0.224060 0.394104 0.643799
0.317108 0.372925 0.603546
0.417633 0.345062 0.539764
0.524628 0.338440 0.509003
0.610992 0.339325 0.494873
0.683472 0.342529 0.490601
0.000000 0.514709 0.683899
0.079865 0.529968 0.699860
0.174622 0.545898 0.716980
0.294006 0.557159 0.727631
0.424042 0.553284 0.709412
0.539062 0.530884 0.643524
0.636719 0.521149 0.600159
0.716431 0.525879 0.598450
0.781799 0.530090 0.603455
0.000000 0.605896 0.668884
0.080139 0.627075 0.685638
0.185028 0.652222 0.708435
0.324707 0.676819 0.734772
0.474030 0.692535 0.751251
0.609955 0.698761 0.749207
0.716309 0.690460 0.702454
0.796539 0.699249 0.703003
0.863251 0.707245 0.714966
0.000000 0.599304 0.543182
0.064728 0.633362 0.565033
0.172119 0.674988 0.596710
0.332520 0.719299 0.640167
0.499420 0.757172 0.686096
0.642426 0.787811 0.728973
0.759247 0.811523 0.762115
0.848541 0.828033 0.781769
0.928528 0.845581 0.806671
0.000000 0.547852 0.402679
0.055023 0.596039 0.431366
0.176880 0.657410 0.477570
0.364319 0.726746 0.548096
0.544434 0.793427 0.633698
0.685516 0.850128 0.718597
0.796082 0.894043 0.788818
0.883240 0.924408 0.835297
0.959076 0.949738 0.862244
0.000000 0.008789 0.396790
0.037933 0.008087 0.398987
0.073456 0.006866 0.393188
0.106445 0.005341 0.374207
0.139587 0.003113 0.344025
0.179382 0.001282 0.324432
0.222168 0.000793 0.317200
0.265625 0.000000 0.313721
0.310638 0.000793 0.310272
0.000000 0.065216 0.417847
0.038940 0.064819 0.426483
0.074646 0.062866 0.426910
0.106506 0.058746 0.414307
0.135406 0.052856 0.390259
0.178131 0.048126 0.373657
0.238159 0.046204 0.364380
0.302979 0.045654 0.355042
0.365723 0.046356 0.345764
0.000000 0.134369 0.465942
0.041779 0.135376 0.482422
0.080658 0.133484 0.489868
0.114014 0.127075 0.482239
0.145569 0.115448 0.459717
0.197937 0.105347 0.438110
0.279480 0.101532 0.422974
0.364227 0.101227 0.406006
0.441284 0.102692 0.390656
0.000000 0.231934 0.554321
0.048523 0.236542 0.575989
0.096680 0.238037 0.589874
0.142822 0.232025 0.587433
0.192657 0.214813 0.559753
0.262970 0.194458 0.517487
0.363556 0.186890 0.489075
0.459595 0.187073 0.465637
0.542725 0.190552 0.449158
0.000000 0.368622 0.678833
0.062592 0.378357 0.699341
0.128998 0.385681 0.715332
0.204346 0.386169 0.718262
0.289764 0.369659 0.684601
0.382965 0.341187 0.615662
0.486084 0.327454 0.564697
0.579437 0.328918 0.542480
0.658142 0.335052 0.534454
0.000000 0.527802 0.796661
0.079010 0.539886 0.812988
0.168610 0.551300 0.828247
0.276703 0.558624 0.836121
0.398865 0.552734 0.813599
0.514313 0.530182 0.740936
0.610687 0.511749 0.662109
0.696106 0.516937 0.647186
0.766174 0.525970 0.651733
0.000000 0.664795 0.847870
0.089783 0.678802 0.862793
0.196533 0.693237 0.879944
0.326355 0.705566 0.895874
0.464203 0.709503 0.894867
0.595001 0.704285 0.864563
0.702545 0.692474 0.793457
0.785065 0.697388 0.762177
0.854462 0.710480 0.773102
0.000000 0.736359 0.799042
0.087067 0.757690 0.817474
0.201111 0.781464 0.841614
0.344238 0.804871 0.870728
0.488953 0.821198 0.892761
0.623718 0.831970 0.904938
0.747223 0.838074 0.901062
0.845581 0.837860 0.862823
0.919678 0.852936 0.868988
0.000000 0.694305 0.625153
0.070068 0.731415 0.651733
0.187958 0.775330 0.688721
0.353607 0.821930 0.738922
0.516663 0.862122 0.791840
0.657135 0.895630 0.841797
0.780273 0.923096 0.884430
0.885132 0.944672 0.915894
0.967377 0.961853 0.937378
