lut/retro-80s/Top Gun (1986) - Standard.cube
# Created by Benjamin (IWLTBAP): https://luts.iwltbap.com
# Copyright: (C) Copyright 2018 Triune Films and IWLTBAP SAS
# Cannot be resold, shared or otherwise redistributed
TITLE "Triune Films 80s Retro LUTs (Rec.709, sRGB, DCI-P3)"
LUT_3D_SIZE 33
0.001587 0.000000 0.000793
0.016968 0.000000 0.000610
0.032410 0.000000 0.000000
0.048126 0.000000 0.000000
0.063477 0.000000 0.000000
0.079163 0.000000 0.000000
0.094482 0.000000 0.000000
0.109894 0.000000 0.000000
0.125153 0.000000 0.000000
0.140076 0.000000 0.000000
0.154968 0.000000 0.000000
0.169678 0.000000 0.000000
0.184387 0.000000 0.000000
0.198975 0.000000 0.000000
0.213593 0.000000 0.000000
0.228271 0.000000 0.000000
0.243164 0.000000 0.000000
0.258362 0.000000 0.000000
0.273621 0.000000 0.000000
0.289215 0.000000 0.000000
0.305145 0.000000 0.000000
0.321503 0.000000 0.000000
0.338226 0.000000 0.000000
0.355286 0.000000 0.000000
0.372955 0.000000 0.000000
0.391052 0.000000 0.000000
0.409607 0.000000 0.000000
0.428589 0.000000 0.000000
0.448120 0.000000 0.000000
0.468018 0.000000 0.000000
0.488251 0.000000 0.000000
0.508881 0.000000 0.000000
0.529541 0.000000 0.000000
0.001404 0.016174 0.000610
0.016235 0.016418 0.000000
0.033081 0.016724 0.000000
0.049133 0.016266 0.000000
0.065765 0.016022 0.000000
0.082428 0.016052 0.000000
0.099396 0.015930 0.000000
0.116089 0.015747 0.000000
0.132904 0.015289 0.000000
0.149200 0.015198 0.000000
0.165466 0.014557 0.000000
0.181366 0.014435 0.000000
0.196808 0.014221 0.000000
0.212189 0.013855 0.000000
0.227417 0.013885 0.000000
0.242523 0.013855 0.000000
0.257751 0.013611 0.000000
0.273102 0.013336 0.000000
0.288574 0.013397 0.000000
0.304352 0.013397 0.000000
0.320435 0.013428 0.000000
0.336853 0.013519 0.000000
0.353638 0.013611 0.000000
0.370880 0.013702 0.000000
0.388580 0.013794 0.000000
0.406708 0.013885 0.000000
0.425293 0.013977 0.000000
0.444244 0.014191 0.000000
0.463745 0.014282 0.000000
0.483643 0.014374 0.000000
0.503876 0.014465 0.000000
0.524475 0.014923 0.000000
0.545166 0.015320 0.000000
0.000793 0.031891 0.000000
0.016174 0.032043 0.000000
0.032227 0.032990 0.000000
0.050079 0.033936 0.000000
0.068146 0.034027 0.000000
0.086121 0.033722 0.000000
0.104340 0.033478 0.000000
0.122803 0.032654 0.000000
0.140717 0.032471 0.000000
0.158600 0.031616 0.000000
0.176178 0.031219 0.000000
0.193298 0.030426 0.000000
0.209808 0.029785 0.000000
0.225830 0.029297 0.000000
0.241730 0.028992 0.000000
0.257385 0.028503 0.000000
0.272919 0.028198 0.000000
0.288574 0.027985 0.000000
0.304291 0.028137 0.000000
0.320251 0.027985 0.000000
0.336456 0.027740 0.000000
0.352997 0.027588 0.000000
0.369873 0.027740 0.000000
0.387146 0.027924 0.000000
0.404907 0.028076 0.000000
0.423065 0.028259 0.000000
0.441650 0.028412 0.000000
0.460663 0.029205 0.000000
0.480164 0.029419 0.000000
0.500031 0.029602 0.000000
0.520233 0.030060 0.000000
0.540802 0.030212 0.000000
0.561432 0.030762 0.000000
0.000793 0.048340 0.000000
0.015656 0.048767 0.000000
0.031372 0.049316 0.000000
0.048767 0.050293 0.000000
0.069366 0.052704 0.000000
0.089996 0.053070 0.000000
0.110107 0.052979 0.000000
0.129761 0.052032 0.000000
0.149567 0.051178 0.000000
0.168701 0.050079 0.000000
0.187531 0.049255 0.000000
0.205719 0.048187 0.000000
0.223297 0.047272 0.000000
0.240295 0.046539 0.000000
0.256866 0.045837 0.000000
0.273071 0.045380 0.000000
0.289032 0.044708 0.000000
0.305023 0.044098 0.000000
0.321045 0.044281 0.000000
0.337158 0.043762 0.000000
0.353577 0.043732 0.000000
0.370148 0.043732 0.000000
0.387146 0.043701 0.000000
0.404510 0.043457 0.000000
0.422272 0.043701 0.000000
0.440430 0.043915 0.000000
0.459015 0.044128 0.000000
0.478119 0.044952 0.000000
0.497559 0.045258 0.000000
0.517426 0.045502 0.000000
0.537598 0.046082 0.000000
0.558136 0.046600 0.000000
0.578735 0.046814 0.000000
0.000793 0.065033 0.000000
0.015381 0.065704 0.000000
0.031097 0.066315 0.000000
0.047638 0.066986 0.000000
0.066620 0.068695 0.000000
0.091095 0.072723 0.000000
0.114960 0.074158 0.000000
0.137360 0.073883 0.000000
0.158661 0.072601 0.000000
0.179504 0.071075 0.000000
0.199677 0.070007 0.000000
0.219025 0.068604 0.000000
0.237762 0.067200 0.000000
0.255737 0.065887 0.000000
0.273071 0.065155 0.000000
0.289886 0.064087 0.000000
0.306396 0.063477 0.000000
0.322784 0.062927 0.000000
0.339233 0.061920 0.000000
0.355560 0.061920 0.000000
0.372101 0.061493 0.000000
0.388885 0.061340 0.000000
0.405975 0.061066 0.000000
0.423401 0.061188 0.000000
0.441223 0.061279 0.000000
0.459412 0.061188 0.000000
0.477997 0.061432 0.000000
0.497009 0.062195 0.000000
0.516449 0.062531 0.000000
0.536285 0.062805 0.000000
0.556427 0.063385 0.000000
0.576935 0.063904 0.000000
0.597443 0.064636 0.000000
0.000000 0.081909 0.000000
0.014587 0.083557 0.000000
0.030243 0.084717 0.000000
0.046936 0.085602 0.000000
0.064880 0.086151 0.000000
0.087219 0.088806 0.000000
0.115631 0.094269 0.000000
0.142670 0.096954 0.000000
0.167328 0.097046 0.000000
0.190430 0.095825 0.000000
0.212280 0.093872 0.000000
0.233154 0.092163 0.000000
0.252991 0.090363 0.000000
0.272064 0.088959 0.000000
0.290466 0.087616 0.000000
0.308014 0.086365 0.000000
0.325226 0.085175 0.000000
0.342163 0.084015 0.000000
0.358948 0.083344 0.000000
0.375732 0.082367 0.000000
0.392487 0.081909 0.000000
0.409485 0.081451 0.000000
0.426697 0.081055 0.000000
0.444214 0.081116 0.000000
0.462036 0.080811 0.000000
0.480255 0.081024 0.000000
0.498901 0.080963 0.000000
0.517853 0.081085 0.000000
0.537231 0.081787 0.000000
0.557007 0.082062 0.000000
0.577057 0.082336 0.000000
0.597504 0.082977 0.000000
0.617950 0.083374 0.000000
0.000000 0.099762 0.000000
0.014404 0.101837 0.000000
0.029968 0.103516 0.000000
0.046448 0.105042 0.000000
0.064880 0.105957 0.000000
0.085083 0.106537 0.000000
0.110962 0.110168 0.000000
0.142578 0.117310 0.000000
0.172516 0.121246 0.000000
0.199585 0.122009 0.000000
0.224457 0.121216 0.000000
0.247345 0.119415 0.000000
0.268707 0.117340 0.000000
0.289093 0.115387 0.000000
0.308502 0.113495 0.000000
0.327271 0.111908 0.000000
0.345276 0.110321 0.000000
0.362854 0.108917 0.000000
0.380188 0.107635 0.000000
0.397430 0.106537 0.000000
0.414642 0.105530 0.000000
0.431915 0.104858 0.000000
0.449310 0.104218 0.000000
0.466919 0.103729 0.000000
0.484924 0.103333 0.000000
0.503204 0.102997 0.000000
0.521790 0.102966 0.000000
0.540741 0.103088 0.000000
0.560089 0.103210 0.000000
0.579803 0.103455 0.000000
0.599792 0.103729 0.000000
0.620148 0.104187 0.000000
0.640503 0.104553 0.000000
0.000000 0.117981 0.000000
0.014404 0.120697 0.000000
0.029175 0.123230 0.000000
0.046234 0.125397 0.000000
0.064789 0.126831 0.000000
0.085358 0.127960 0.000000
0.108582 0.128479 0.000000
0.137573 0.133087 0.000000
0.172119 0.141571 0.000000
0.204498 0.146881 0.000000
0.233795 0.148956 0.000000
0.260101 0.148621 0.000000
0.283783 0.147064 0.000000
0.305878 0.144897 0.000000
0.326691 0.142944 0.000000
0.346680 0.140747 0.000000
0.365906 0.138794 0.000000
0.384369 0.137115 0.000000
0.402435 0.135437 0.000000
0.420319 0.133850 0.000000
0.438080 0.132629 0.000000
0.455780 0.131226 0.000000
0.473480 0.130371 0.000000
0.491364 0.129395 0.000000
0.509521 0.128662 0.000000
0.527924 0.128082 0.000000
0.546600 0.127716 0.000000
0.565582 0.127533 0.000000
0.584900 0.127319 0.000000
0.604523 0.127289 0.000000
0.624451 0.127411 0.000000
0.644714 0.127655 0.000000
0.665039 0.127899 0.000000
0.000000 0.136688 0.000000
0.014008 0.140076 0.000000
0.029175 0.143372 0.000000
0.045502 0.146240 0.000000
0.064789 0.148438 0.000000
0.085968 0.149933 0.000000
0.109894 0.150940 0.000000
0.135529 0.151550 0.000000
0.167297 0.157471 0.000000
0.204041 0.167236 0.000000
0.238342 0.174103 0.000000
0.269196 0.177307 0.000000
0.296722 0.177917 0.000000
0.321350 0.176636 0.000000
0.344147 0.174805 0.000000
0.365662 0.172638 0.000000
0.386200 0.170441 0.000000
0.406036 0.168335 0.000000
0.425140 0.166443 0.000000
0.443817 0.164429 0.000000
0.462311 0.162750 0.000000
0.480682 0.161072 0.000000
0.498932 0.159515 0.000000
0.517151 0.158356 0.000000
0.535614 0.157104 0.000000
0.554260 0.156128 0.000000
0.573090 0.155426 0.000000
0.592163 0.154663 0.000000
0.611481 0.154358 0.000000
0.631134 0.153961 0.000000
0.651031 0.153748 0.000000
0.671204 0.153656 0.000000
0.691437 0.153625 0.000000
0.000000 0.155701 0.000000
0.013794 0.159943 0.000000
0.029175 0.164001 0.000000
0.045959 0.167480 0.000000
0.065247 0.170380 0.000000
0.087006 0.172638 0.000000
0.111542 0.174225 0.000000
0.137909 0.175201 0.000000
0.165985 0.176056 0.000000
0.199860 0.183044 0.000000
0.237915 0.194214 0.000000
0.273346 0.202515 0.000000
0.305267 0.207092 0.000000
0.333893 0.208710 0.000000
0.359619 0.208160 0.000000
0.383209 0.206573 0.000000
0.405518 0.204498 0.000000
0.426819 0.202362 0.000000
0.447357 0.200104 0.000000
0.467224 0.197937 0.000000
0.486755 0.195953 0.000000
0.505951 0.193878 0.000000
0.524933 0.192017 0.000000
0.543823 0.190277 0.000000
0.562775 0.188812 0.000000
0.581757 0.187347 0.000000
0.600861 0.186066 0.000000
0.620117 0.185059 0.000000
0.639587 0.184204 0.000000
0.659332 0.183441 0.000000
0.679260 0.182892 0.000000
0.699432 0.182404 0.000000
0.719635 0.181976 0.000000
0.000000 0.175476 0.000000
0.013794 0.180359 0.000000
0.029663 0.185089 0.000000
0.046783 0.189240 0.000000
0.066132 0.192993 0.000000
0.088776 0.195923 0.000000
0.114075 0.198120 0.000000
0.141205 0.199707 0.000000
0.169739 0.200592 0.000000
0.199615 0.201904 0.000000
0.234680 0.209961 0.000000
0.273132 0.222504 0.000000
0.309021 0.232025 0.000000
0.341644 0.237915 0.000000
0.371216 0.240723 0.000000
0.398010 0.241180 0.000000
0.422607 0.240021 0.000000
0.445862 0.238342 0.000000
0.468079 0.236237 0.000000
0.489624 0.234161 0.000000
0.510406 0.231934 0.000000
0.530731 0.229706 0.000000
0.550720 0.227539 0.000000
0.570526 0.225494 0.000000
0.590271 0.223541 0.000000
0.609802 0.221741 0.000000
0.629395 0.220184 0.000000
0.649078 0.218689 0.000000
0.668884 0.217285 0.000000
0.688812 0.216125 0.000000
0.708862 0.215149 0.000000
0.729187 0.214294 0.000000
0.749481 0.213531 0.000000
0.000000 0.195587 0.000000
0.014587 0.201111 0.000000
0.030182 0.206573 0.000000
0.048157 0.211395 0.000000
0.068176 0.215790 0.000000
0.091309 0.219391 0.000000
0.117218 0.222260 0.000000
0.145294 0.224457 0.000000
0.174622 0.225952 0.000000
0.204651 0.227051 0.000000
0.235596 0.228973 0.000000
0.271027 0.238281 0.000000
0.309204 0.251831 0.000000
0.345154 0.262604 0.000000
0.378204 0.269775 0.000000
0.408630 0.273865 0.000000
0.436462 0.275269 0.000000
0.462097 0.274780 0.000000
0.486328 0.273499 0.000000
0.509674 0.271729 0.000000
0.532227 0.269653 0.000000
0.554016 0.267487 0.000000
0.575287 0.265259 0.000000
0.596222 0.263092 0.000000
0.617004 0.260895 0.000000
0.637482 0.258728 0.000000
0.657776 0.256805 0.000000
0.678040 0.254913 0.000000
0.698334 0.253235 0.000000
0.718719 0.251648 0.000000
0.739105 0.250275 0.000000
0.759674 0.248993 0.000000
0.780182 0.247772 0.000000
0.000000 0.216095 0.000488
0.015259 0.222198 0.000000
0.031647 0.228241 0.000000
0.050110 0.233765 0.000000
0.071014 0.238770 0.000000
0.094788 0.243073 0.000000
0.121490 0.246582 0.000000
0.150146 0.249390 0.000000
0.180328 0.251617 0.000000
0.211029 0.253204 0.000000
0.241699 0.254456 0.000000
0.272949 0.257294 0.000000
0.308105 0.267670 0.000000
0.345642 0.282166 0.000000
0.381348 0.294098 0.000000
0.414734 0.302521 0.000000
0.445831 0.307709 0.000000
0.474640 0.310089 0.000000
0.501373 0.310394 0.000000
0.526794 0.309601 0.000000
0.551300 0.308167 0.000000
0.574951 0.306366 0.000000
0.597717 0.304321 0.000000
0.620026 0.302155 0.000000
0.642059 0.299927 0.000000
0.663727 0.297699 0.000000
0.685059 0.295532 0.000000
0.706146 0.293396 0.000000
0.727203 0.291443 0.000000
0.748199 0.289490 0.000000
0.769165 0.287750 0.000000
0.790161 0.286072 0.000000
0.811066 0.284515 0.000000
0.000000 0.236786 0.000793
0.016205 0.243591 0.000000
0.033234 0.250183 0.000000
0.052612 0.256348 0.000000
0.074432 0.261993 0.000000
0.099060 0.266876 0.000000
0.126770 0.271057 0.000000
0.156067 0.274536 0.000000
0.186737 0.277252 0.000000
0.218079 0.279510 0.000000
0.249176 0.281311 0.000000
0.279785 0.282959 0.000000
0.310913 0.286743 0.000000
0.345337 0.298126 0.000000
0.382050 0.313507 0.000000
0.417450 0.326508 0.000000
0.451080 0.335968 0.000000
0.482758 0.342163 0.000000
0.512451 0.345490 0.000000
0.540375 0.346619 0.000000
0.566986 0.346436 0.000000
0.592560 0.345398 0.000000
0.617310 0.343903 0.000000
0.641174 0.342072 0.000000
0.664642 0.339996 0.000000
0.687683 0.337860 0.000000
0.710297 0.335693 0.000000
0.732605 0.333496 0.000000
0.754578 0.331390 0.000000
0.776428 0.329254 0.000000
0.798157 0.327240 0.000000
0.819946 0.325287 0.000000
0.841461 0.323456 0.000000
0.000061 0.258057 0.000793
0.017426 0.265381 0.000000
0.035675 0.272552 0.000000
0.056091 0.279236 0.000000
0.078857 0.285370 0.000000
0.104736 0.290955 0.000000
0.132996 0.295715 0.000000
0.163147 0.299683 0.000000
0.194275 0.303101 0.000000
0.225861 0.305939 0.000000
0.257385 0.308289 0.000000
0.288177 0.310333 0.000000
0.318237 0.312378 0.000000
0.348816 0.317291 0.000000
0.382507 0.329651 0.000000
0.418304 0.345825 0.000000
0.453400 0.359528 0.000000
0.487122 0.369843 0.000000
0.519257 0.376953 0.000000
0.549835 0.381195 0.000000
0.578827 0.383148 0.000000
0.606506 0.383575 0.000000
0.633118 0.382996 0.000000
0.658966 0.381866 0.000000
0.684082 0.380280 0.000000
0.708588 0.378479 0.000000
0.732635 0.376495 0.000000
0.756256 0.374451 0.000000
0.779602 0.372284 0.000000
0.802521 0.370178 0.000000
0.825256 0.368073 0.000000
0.847961 0.366058 0.000000
0.870392 0.364044 0.000000
0.000793 0.279816 0.000793
0.019043 0.287628 0.000000
0.038788 0.295197 0.000000
0.060425 0.302399 0.000000
0.084595 0.309113 0.000000
0.111481 0.315155 0.000000
0.140656 0.320587 0.000000
0.171417 0.325165 0.000000
0.203064 0.329102 0.000000
0.234955 0.332428 0.000000
0.266388 0.335236 0.000000
0.297180 0.337860 0.000000
0.327240 0.340271 0.000000
0.356445 0.342743 0.000000
0.386353 0.348602 0.000000
0.419159 0.362061 0.000000
0.454193 0.378723 0.000000
0.488983 0.393005 0.000000
0.522736 0.404053 0.000000
0.555328 0.411896 0.000000
0.586578 0.416931 0.000000
0.616425 0.419586 0.000000
0.645050 0.420654 0.000000
0.672729 0.420593 0.000000
0.699738 0.419952 0.000000
0.725891 0.418701 0.000000
0.751434 0.417175 0.000000
0.776489 0.415405 0.000000
0.801239 0.413544 0.000000
0.825623 0.411591 0.000000
0.849548 0.409607 0.000000
0.873352 0.407623 0.000000
0.896881 0.405670 0.000000
0.000793 0.302032 0.000793
0.020905 0.310211 0.000000
0.042542 0.318298 0.000000
0.065582 0.325989 0.000000
0.091187 0.333160 0.000000
0.119202 0.339722 0.000000
0.149292 0.345673 0.000000
0.180756 0.350769 0.000000
0.212708 0.355255 0.000000
0.244751 0.359100 0.000000
0.276184 0.362396 0.000000
0.306793 0.365387 0.000000
0.336670 0.368195 0.000000
0.365662 0.371002 0.000000
0.393951 0.373901 0.000000
0.423218 0.380951 0.000000
0.455322 0.395081 0.000000
0.489746 0.412109 0.000000
0.524109 0.426910 0.000000
0.557922 0.438507 0.000000
0.590881 0.446991 0.000000
0.622681 0.452606 0.000000
0.653290 0.455902 0.000000
0.682800 0.457550 0.000000
0.711548 0.458130 0.000000
0.739502 0.457825 0.000000
0.766663 0.456970 0.000000
0.793182 0.455750 0.000000
0.819366 0.454285 0.000000
0.845184 0.452728 0.000000
0.870605 0.450989 0.000000
0.895691 0.449219 0.000000
0.920441 0.447449 0.000000
0.000793 0.324707 0.000214
0.022797 0.333282 0.000000
0.046234 0.341736 0.000000
0.071442 0.349792 0.000000
0.098480 0.357483 0.000000
0.127594 0.364532 0.000000
0.158875 0.370911 0.000000
0.191010 0.376648 0.000000
0.223389 0.381622 0.000000
0.255493 0.385925 0.000000
0.286804 0.389618 0.000000
0.317200 0.393005 0.000000
0.346619 0.396149 0.000000
0.375275 0.399231 0.000000
0.403229 0.402374 0.000000
0.430664 0.405914 0.000000
0.459381 0.413910 0.000000
0.490814 0.428558 0.000000
0.524658 0.445923 0.000000
0.558807 0.460999 0.000000
0.592682 0.473053 0.000000
0.625885 0.481995 0.000000
0.658173 0.488129 0.000000
0.689423 0.491974 0.000000
0.719849 0.494232 0.000000
0.749420 0.495270 0.000000
0.778259 0.495392 0.000000
0.806335 0.494904 0.000000
0.833893 0.494019 0.000000
0.861115 0.492920 0.000000
0.887970 0.491638 0.000000
0.914581 0.490295 0.000000
0.940674 0.488831 0.000000
0.000793 0.347931 0.000000
0.025055 0.356750 0.000000
0.050781 0.365601 0.000000
0.077484 0.374054 0.000000
0.106354 0.382111 0.000000
0.137054 0.389709 0.000061
0.169250 0.396515 0.000732
0.201935 0.402649 0.000732
0.234680 0.408112 0.000732
0.266937 0.412903 0.000732
0.298096 0.417053 0.000610
0.328125 0.420746 0.000000
0.357147 0.424133 0.000000
0.385254 0.427460 0.000000
0.412689 0.430756 0.000000
0.439636 0.434296 0.000000
0.466461 0.438477 0.000000
0.494659 0.447266 0.000000
0.525635 0.462402 0.000000
0.558990 0.479889 0.000000
0.592987 0.495239 0.000000
0.626892 0.507538 0.000000
0.660339 0.516876 0.000000
0.693054 0.523407 0.000000
0.724976 0.527771 0.000000
0.756042 0.530457 0.000000
0.786377 0.531952 0.000000
0.816040 0.532471 0.000000
0.845001 0.532379 0.000000
0.873535 0.531891 0.000000
0.901733 0.531158 0.000000
0.929718 0.530273 0.000000
0.957275 0.529297 0.000000
0.001709 0.371704 0.000000
0.028320 0.380859 0.000000
0.055664 0.389954 0.000122
0.084839 0.398773 0.000519
0.115173 0.407227 0.000793
0.147339 0.415100 0.000793
0.180389 0.422485 0.000916
0.213776 0.429047 0.000916
0.246735 0.434967 0.000916
0.278992 0.440216 0.000916
0.309814 0.444702 0.000793
0.339508 0.448730 0.000793
0.368042 0.452393 0.000793
0.395630 0.455841 0.000793
0.422485 0.459229 0.000122
0.448761 0.462830 0.000122
0.474945 0.466553 0.000000
0.501160 0.471252 0.000000
0.528992 0.480835 0.000000
0.559540 0.496307 0.000000
0.592621 0.513855 0.000000
0.626526 0.529297 0.000000
0.660522 0.541840 0.000000
0.694244 0.551453 0.000000
0.727356 0.558380 0.000000
0.759705 0.563080 0.000000
0.791382 0.566193 0.000000
0.822327 0.568024 0.000000
0.852722 0.568970 0.000000
0.882507 0.569244 0.000000
0.911926 0.569122 0.000000
0.941101 0.568817 0.000000
0.969910 0.568390 0.000000
0.002655 0.395966 0.000000
0.031677 0.405426 0.000183
0.061768 0.414856 0.000336
0.092529 0.423950 0.000793
0.124695 0.432709 0.001099
0.158051 0.441010 0.001099
0.192169 0.448730 0.001099
0.225861 0.455780 0.001862
0.259033 0.462067 0.001862
0.291229 0.467743 0.001862
0.321869 0.472626 0.001587
0.351135 0.476929 0.001099
0.379181 0.480774 0.001099
0.406281 0.484344 0.001099
0.432526 0.487823 0.000793
0.458130 0.491333 0.000793
0.483551 0.495056 0.000702
0.509003 0.499023 0.000305
0.534760 0.504211 0.000000
0.562286 0.514465 0.000000
0.592621 0.530243 0.000000
0.625610 0.547821 0.000000
0.659485 0.563293 0.000000
0.693604 0.575989 0.000000
0.727600 0.585846 0.000000
0.761047 0.593048 0.000000
0.793854 0.597992 0.000000
0.825989 0.601379 0.000000
0.857544 0.603577 0.000000
0.888580 0.604889 0.000000
0.919067 0.605499 0.000000
0.949280 0.605804 0.000000
0.979156 0.605865 0.000000
0.004089 0.420807 0.000000
0.035431 0.430481 0.000183
0.067871 0.440216 0.001129
0.101044 0.449585 0.001251
0.134766 0.458649 0.001953
0.169220 0.467316 0.002106
0.204071 0.475372 0.002502
0.238312 0.482788 0.002502
0.271545 0.489532 0.002838
0.303558 0.495483 0.002838
0.333954 0.500732 0.002502
0.362885 0.505371 0.002197
0.390411 0.509430 0.002045
0.416992 0.513092 0.002045
0.442657 0.516571 0.001251
0.467621 0.520020 0.001251
0.492340 0.523560 0.000854
0.516968 0.527405 0.000793
0.541870 0.531555 0.000519
0.567261 0.537231 0.000336
0.594696 0.548096 0.000000
0.624969 0.564056 0.000000
0.657898 0.581604 0.000000
0.691895 0.597107 0.000000
0.726288 0.609924 0.000000
0.760529 0.619965 0.000000
0.794342 0.627350 0.000000
0.827515 0.632568 0.000000
0.860077 0.636200 0.000000
0.892151 0.638672 0.000000
0.923706 0.640259 0.000000
0.954834 0.641235 0.000000
0.985535 0.641846 0.000000
0.006012 0.446167 0.000000
0.040222 0.456055 0.000824
0.074768 0.465973 0.001434
0.109741 0.475616 0.002106
0.145050 0.484985 0.002899
0.180756 0.493927 0.003632
0.216064 0.502319 0.004028
0.250641 0.510132 0.004425
0.283966 0.517212 0.004425
0.315857 0.523590 0.004425
0.345947 0.529114 0.004272
0.374481 0.533966 0.003784
0.401611 0.538269 0.003143
0.427612 0.542053 0.003021
0.452759 0.545502 0.002228
0.477142 0.548859 0.001984
0.501221 0.552277 0.001587
0.525116 0.555817 0.001434
0.549164 0.559692 0.000793
0.573547 0.563965 0.000793
0.598755 0.570160 0.000641
0.626160 0.581543 0.000183
0.656494 0.597656 0.000000
0.689575 0.615143 0.000000
0.723877 0.630737 0.000000
0.758514 0.643646 0.000000
0.793091 0.653809 0.000000
0.827240 0.661346 0.000000
0.860748 0.666748 0.000000
0.893738 0.670593 0.000000
0.926147 0.673309 0.000000
0.958160 0.675171 0.000000
0.989624 0.676392 0.000000
0.009583 0.472015 0.000000
0.045471 0.482147 0.000977
0.082367 0.492310 0.001953
0.119019 0.502136 0.003448
0.155701 0.511780 0.004669
0.192291 0.520966 0.005585
0.228058 0.529694 0.005829
0.262817 0.537811 0.006378
0.296143 0.545227 0.006378
0.327850 0.551849 0.006378
0.357605 0.557678 0.006226
0.385773 0.562775 0.005585
0.412476 0.567261 0.005096
0.438019 0.571136 0.004791
0.462646 0.574646 0.003937
0.486481 0.577881 0.003204
0.509979 0.581055 0.002808
0.533203 0.584351 0.002380
0.556549 0.587860 0.001648
0.580048 0.591766 0.001465
0.604126 0.596130 0.000824
0.629242 0.602722 0.000763
0.656769 0.614594 0.000732
0.687347 0.630859 0.000031
0.720764 0.648407 0.000000
0.755310 0.664032 0.000000
0.790344 0.677032 0.000000
0.825287 0.687347 0.000000
0.859772 0.695068 0.000000
0.893646 0.700592 0.000000
0.926910 0.704620 0.000000
0.959656 0.707489 0.000000
0.991821 0.709503 0.000000
0.014801 0.498474 0.000000
0.052582 0.508820 0.002075
0.091187 0.519196 0.003448
0.128937 0.529266 0.005371
0.166840 0.539093 0.006805
0.203949 0.548584 0.007751
0.240051 0.557526 0.008728
0.274750 0.565887 0.009460
0.307861 0.573578 0.009460
0.339294 0.580475 0.009460
0.368713 0.586578 0.009247
0.396484 0.591827 0.008484
0.422821 0.596405 0.007996
0.448029 0.600372 0.007019
0.472229 0.603882 0.006073
0.495514 0.606903 0.005127
0.518494 0.609924 0.004730
0.541168 0.612946 0.003784
0.563843 0.616089 0.002808
0.586609 0.619507 0.002441
0.609741 0.623383 0.001770
0.633575 0.627808 0.001312
0.658722 0.634796 0.000977
0.686401 0.647095 0.000732
0.717377 0.663635 0.000641
0.751221 0.681274 0.000000
0.786255 0.697021 0.000000
0.821686 0.710114 0.000000
0.857086 0.720581 0.000000
0.891937 0.728455 0.000000
0.926056 0.734131 0.000000
0.959564 0.738251 0.000000
0.992371 0.741211 0.000000
0.021881 0.525574 0.000366
0.060883 0.536072 0.002838
0.100433 0.546631 0.005371
0.139648 0.556885 0.007660
0.178009 0.566864 0.009583
0.215576 0.576569 0.011017
0.251617 0.585724 0.011963
0.286194 0.594269 0.012939
0.319061 0.602173 0.013306
0.350159 0.609283 0.013306
0.379211 0.615540 0.012512
0.406616 0.620911 0.012207
0.432648 0.625580 0.011230
0.457489 0.629639 0.010284
0.481262 0.633087 0.008942
0.504242 0.636078 0.007965
0.526703 0.638824 0.006653
0.548920 0.641510 0.005676
0.570984 0.644287 0.004730
0.593109 0.647247 0.003784
0.615540 0.650543 0.002808
0.638428 0.654388 0.002258
0.662140 0.658905 0.001587
0.687347 0.666321 0.001129
0.715454 0.679230 0.000732
0.746887 0.695923 0.000641
0.781250 0.713715 0.000275
0.816742 0.729584 0.000000
0.852722 0.742920 0.000000
0.888489 0.753540 0.000000
0.923645 0.761566 0.000000
0.958069 0.767365 0.000000
0.991608 0.771515 0.000000
0.030121 0.553192 0.001343
0.070404 0.563843 0.004395
0.110840 0.574554 0.007629
0.150604 0.584991 0.010284
0.189453 0.595184 0.012482
0.226990 0.604950 0.014862
0.262970 0.614258 0.016083
0.297211 0.622925 0.016907
0.329620 0.630951 0.017700
0.360413 0.638184 0.017700
0.389099 0.644501 0.016754
0.416168 0.649994 0.016052
0.441833 0.654724 0.015076
0.466370 0.658783 0.014130
0.489838 0.662201 0.012390
0.512512 0.665070 0.011200
0.534607 0.667633 0.009918
0.556427 0.670044 0.008148
0.578033 0.672485 0.007202
0.599609 0.674927 0.005676
0.621368 0.677704 0.004730
