lut/retro-80s/Tron (1982) - Standard.cube
# Created by Benjamin (IWLTBAP): https://luts.iwltbap.com
# Copyright: (C) Copyright 2018 Triune Films and IWLTBAP SAS
# Cannot be resold, shared or otherwise redistributed
TITLE "Triune Films 80s Retro LUTs (Rec.709, sRGB, DCI-P3)"
LUT_3D_SIZE 5
0.002411 0.002380 0.000031
0.188110 0.000000 0.027893
0.394073 0.000000 0.059235
0.620880 0.000000 0.079681
0.862122 0.000397 0.086334
0.051147 0.169586 0.096771
0.210083 0.189331 0.083405
0.453674 0.208618 0.050598
0.686310 0.205688 0.054199
0.920868 0.155731 0.041779
0.138733 0.338776 0.211243
0.228302 0.360901 0.202393
0.460602 0.392365 0.201447
0.731537 0.466705 0.051941
0.984741 0.469818 0.014496
0.229553 0.524475 0.324463
0.291809 0.549042 0.315948
0.501282 0.587738 0.307159
0.733704 0.630798 0.254669
0.997620 0.729431 0.023315
0.215759 0.769409 0.285431
0.327576 0.789185 0.278748
0.523743 0.825836 0.253265
0.763092 0.872955 0.216949
0.991608 0.928375 0.094208
0.050415 0.166077 0.254211
0.141022 0.174896 0.278503
0.410217 0.067596 0.238892
0.604553 0.000000 0.224609
0.835052 0.000427 0.241425
0.068420 0.282410 0.348480
0.158234 0.274994 0.321075
0.449646 0.237030 0.247131
0.686035 0.224274 0.241394
0.908173 0.224426 0.253448
0.156372 0.432800 0.387878
0.185333 0.434631 0.373566
0.451508 0.431183 0.313629
0.736938 0.475037 0.259521
0.986084 0.475616 0.249084
0.220551 0.589386 0.455170
0.270355 0.601379 0.431152
0.463013 0.623199 0.396545
0.734894 0.651703 0.360504
1.000000 0.735535 0.253296
0.211365 0.795227 0.414368
0.319885 0.810669 0.402008
0.513947 0.841309 0.378845
0.761902 0.886414 0.360382
0.994293 0.936035 0.280701
0.032959 0.260956 0.402679
0.020844 0.303925 0.468414
0.284851 0.299988 0.483368
0.590027 0.195679 0.451324
0.789093 0.077728 0.407440
0.098724 0.386841 0.538696
0.099915 0.390503 0.545288
0.295807 0.383636 0.486755
0.625916 0.293030 0.446411
0.841736 0.266052 0.436676
0.091980 0.522736 0.626953
0.123016 0.536957 0.632233
0.323822 0.522186 0.589966
0.706360 0.485199 0.492798
0.956696 0.485962 0.492828
0.303436 0.663055 0.642029
0.278015 0.688110 0.614105
0.362152 0.695923 0.605194
0.721649 0.697479 0.543762
1.000000 0.743286 0.498657
0.198730 0.847717 0.600555
0.298035 0.854614 0.583588
0.462067 0.872040 0.560364
0.743591 0.909119 0.540710
1.000000 0.951019 0.503540
0.013916 0.344299 0.528839
0.024628 0.412628 0.628601
0.064728 0.422821 0.641907
0.446320 0.410004 0.660614
0.767334 0.299866 0.648529
0.057343 0.475433 0.687897
0.061737 0.482086 0.697327
0.095947 0.485992 0.705963
0.458313 0.481049 0.679840
0.795776 0.378052 0.660889
0.142944 0.587952 0.770508
0.150513 0.605225 0.786560
0.165863 0.608551 0.800049
0.523865 0.602905 0.709198
0.855957 0.535706 0.706573
0.213623 0.731293 0.851410
0.263428 0.756805 0.864502
0.337250 0.770569 0.867279
0.637329 0.774750 0.821594
0.977173 0.751862 0.757965
0.263092 0.900665 0.842194
0.368073 0.908356 0.832672
0.490601 0.925354 0.804993
0.702850 0.952942 0.792084
1.000000 0.973206 0.753662
0.019073 0.419800 0.640320
0.087860 0.484711 0.728516
0.090515 0.490295 0.736847
0.287628 0.501312 0.739441
0.666687 0.450439 0.772675
0.156555 0.527527 0.760773
0.168152 0.530731 0.765533
0.173920 0.533051 0.771820
0.343567 0.546600 0.755493
0.688751 0.509277 0.795502
0.216461 0.618896 0.835907
0.226746 0.626282 0.846069
0.237274 0.624756 0.853790
0.424408 0.638000 0.833679
0.754028 0.615540 0.852325
0.243835 0.742554 0.922485
0.284821 0.765350 0.943054
0.344513 0.785614 0.968506
0.592072 0.802979 0.969543
0.887451 0.797699 0.940369
0.242950 0.920776 0.995697
0.355804 0.933197 1.000000
0.515839 0.952759 1.000000
0.738220 0.978333 1.000000
1.000000 0.999512 1.000000
