lut/retro-80s/Tron (1982) - Standard.cube
# Created by Benjamin (IWLTBAP): https://luts.iwltbap.com
# Copyright: (C) Copyright 2018 Triune Films and IWLTBAP SAS
# Cannot be resold, shared or otherwise redistributed
TITLE "Triune Films 80s Retro LUTs (Rec.709, sRGB, DCI-P3)"
LUT_3D_SIZE 9
0.002411 0.002380 0.000031
0.092407 0.000000 0.005707
0.188110 0.000000 0.027893
0.288879 0.000000 0.044281
0.394073 0.000000 0.059235
0.504456 0.000000 0.071075
0.620880 0.000000 0.079681
0.740814 0.000427 0.084961
0.862122 0.000397 0.086334
0.011017 0.086395 0.045349
0.102905 0.096008 0.024475
0.209595 0.098053 0.000000
0.318329 0.093323 0.000000
0.426971 0.091339 0.033478
0.537903 0.093292 0.051788
0.653259 0.082581 0.060303
0.769226 0.063141 0.067902
0.885315 0.069580 0.073578
0.051147 0.169586 0.096771
0.109497 0.179565 0.088898
0.210083 0.189331 0.083405
0.338959 0.207977 0.052277
0.453674 0.208618 0.050598
0.569427 0.208954 0.053070
0.686310 0.205688 0.054199
0.803925 0.194733 0.048676
0.920868 0.155731 0.041779
0.094116 0.252106 0.151947
0.130890 0.261688 0.148529
0.212982 0.273712 0.143311
0.332550 0.287994 0.143433
0.468201 0.325287 0.079956
0.592560 0.333862 0.058868
0.714264 0.334167 0.050140
0.836548 0.331787 0.040131
0.957245 0.322021 0.020813
0.138733 0.338776 0.211243
0.164734 0.348145 0.208008
0.228302 0.360901 0.202393
0.338989 0.374146 0.206970
0.460602 0.392365 0.201447
0.597595 0.443726 0.102936
0.731537 0.466705 0.051941
0.856689 0.468475 0.036316
0.984741 0.469818 0.014496
0.186157 0.430695 0.272705
0.207153 0.440460 0.269379
0.255951 0.452911 0.265564
0.356873 0.468323 0.261780
0.476288 0.481445 0.273529
0.594238 0.502563 0.253906
0.728302 0.563873 0.120087
0.866364 0.598480 0.040680
0.998199 0.609253 0.010193
0.229553 0.524475 0.324463
0.249878 0.535309 0.321106
0.291809 0.549042 0.315948
0.382904 0.568176 0.305695
0.501282 0.587738 0.307159
0.619965 0.604584 0.302521
0.733704 0.630798 0.254669
0.862793 0.691467 0.108582
0.997620 0.729431 0.023315
0.237976 0.637085 0.324921
0.269745 0.647125 0.322876
0.318237 0.660583 0.317627
0.404694 0.679474 0.307312
0.519073 0.701111 0.298279
0.638977 0.722748 0.289734
0.755798 0.742188 0.264557
0.871948 0.772247 0.192596
0.990997 0.827026 0.068573
0.215759 0.769409 0.285431
0.265411 0.777557 0.284180
0.327576 0.789185 0.278748
0.414825 0.805389 0.267883
0.523743 0.825836 0.253265
0.641724 0.849396 0.242249
0.763092 0.872955 0.216949
0.884827 0.894745 0.166962
0.991608 0.928375 0.094208
0.044739 0.095642 0.141815
0.073090 0.101532 0.152832
0.210419 0.054077 0.149445
0.304962 0.000000 0.131653
0.398682 0.000000 0.131073
0.501312 0.000000 0.138336
0.613892 0.000000 0.148254
0.732208 0.000427 0.157288
0.852783 0.000397 0.164001
0.059021 0.145569 0.183044
0.093689 0.146820 0.174530
0.208313 0.129669 0.142303
0.323608 0.111053 0.125092
0.432434 0.104797 0.125793
0.542023 0.105225 0.135498
0.654968 0.101074 0.144348
0.769043 0.076630 0.149536
0.882141 0.067352 0.157318
0.090912 0.219299 0.217529
0.103363 0.223297 0.198303
0.204559 0.219391 0.167236
0.343353 0.221710 0.140350
0.460510 0.218140 0.137909
0.576538 0.215668 0.140869
0.692078 0.212341 0.144073
0.805603 0.207062 0.145111
0.919281 0.196564 0.143433
0.092926 0.301910 0.250641
0.121918 0.303101 0.240356
0.196106 0.304565 0.221588
0.329315 0.307709 0.196991
0.473206 0.335297 0.158905
0.597504 0.338654 0.149719
0.719910 0.338013 0.145203
0.839325 0.335083 0.141022
0.956757 0.329620 0.134216
0.135986 0.383148 0.295807
0.159058 0.386444 0.285248
0.210815 0.389587 0.271027
0.324280 0.395294 0.250946
0.458710 0.406464 0.241516
0.601501 0.451263 0.179657
0.734192 0.469696 0.151581
0.858765 0.470581 0.141998
0.985870 0.472260 0.129211
0.184204 0.468475 0.342804
0.204254 0.474152 0.332977
0.243622 0.478882 0.320862
0.337585 0.487976 0.305542
0.464661 0.497223 0.304169
0.593628 0.513397 0.288116
0.730896 0.569550 0.197083
0.867981 0.601196 0.146820
0.998627 0.609955 0.128296
0.228119 0.553619 0.380524
0.248352 0.561737 0.372009
0.283966 0.570618 0.361511
0.365631 0.585114 0.349121
0.487518 0.602081 0.339600
0.614685 0.616547 0.336182
0.734589 0.638428 0.298553
0.864258 0.695190 0.193054
0.998566 0.731293 0.136200
0.237030 0.655640 0.377411
0.268829 0.664368 0.371735
0.313934 0.675415 0.364014
0.394470 0.691833 0.353882
0.510040 0.711914 0.340332
0.634674 0.732483 0.335846
0.755707 0.750244 0.315308
0.873352 0.776978 0.256012
0.991943 0.829224 0.165039
0.214691 0.779755 0.344269
0.264740 0.787537 0.341339
0.325897 0.798248 0.335388
0.411316 0.813049 0.325470
0.520844 0.832428 0.310852
0.640442 0.855347 0.304016
0.763306 0.878571 0.284821
0.885986 0.899445 0.241608
0.992493 0.931213 0.182495
0.050415 0.166077 0.254211
0.049805 0.176483 0.270874
0.141022 0.174896 0.278503
0.315521 0.117401 0.269409
0.410217 0.067596 0.238892
0.502411 0.010742 0.224182
0.604553 0.000000 0.224609
0.717133 0.000183 0.231995
0.835052 0.000427 0.241425
0.072083 0.212982 0.300232
0.072632 0.214417 0.302002
0.152832 0.210785 0.271667
0.307556 0.173248 0.260895
0.425873 0.144135 0.235077
0.534821 0.129608 0.227356
0.644897 0.121246 0.230103
0.755951 0.112091 0.236969
0.868988 0.094238 0.244263
0.068420 0.282410 0.348480
0.073181 0.281586 0.343689
0.158234 0.274994 0.321075
0.317566 0.253082 0.265930
0.449646 0.237030 0.247131
0.570282 0.228943 0.240723
0.686035 0.224274 0.241394
0.797211 0.222961 0.246338
0.908173 0.224426 0.253448
0.114349 0.353882 0.385315
0.143280 0.353851 0.373901
0.195374 0.348755 0.349670
0.309937 0.343689 0.295593
0.475311 0.350769 0.260162
0.599976 0.348297 0.254059
0.721008 0.344421 0.251099
0.837250 0.341156 0.250488
0.951721 0.340607 0.252075
0.156372 0.432800 0.387878
0.153076 0.437653 0.384491
0.185333 0.434631 0.373566
0.291168 0.431274 0.349854
0.451508 0.431183 0.313629
0.606750 0.465485 0.272003
0.736938 0.475037 0.259521
0.861176 0.474884 0.254272
0.986084 0.475616 0.249084
0.175781 0.512756 0.430634
0.195007 0.518250 0.421844
0.224121 0.517883 0.407776
0.303497 0.519165 0.390411
0.444122 0.523163 0.363464
0.591583 0.532288 0.346954
0.735260 0.581207 0.285828
0.870972 0.606903 0.258392
0.999542 0.611450 0.249359
0.220551 0.589386 0.455170
0.241333 0.596466 0.444702
0.270355 0.601379 0.431152
0.337921 0.609894 0.417419
0.463013 0.623199 0.396545
0.604218 0.634857 0.389526
0.734894 0.651703 0.360504
0.866913 0.703217 0.287170
1.000000 0.735535 0.253296
0.231934 0.680542 0.445312
0.263885 0.687469 0.436584
0.304840 0.695770 0.426392
0.376862 0.708679 0.416046
0.492615 0.726501 0.401123
0.625275 0.745819 0.394287
0.753296 0.762299 0.379761
0.874603 0.785400 0.333710
0.994141 0.834076 0.270020
0.211365 0.795227 0.414368
0.261017 0.801514 0.409149
0.319885 0.810669 0.402008
0.403107 0.823608 0.392273
0.513947 0.841309 0.378845
0.636719 0.863251 0.372101
0.761902 0.886414 0.360382
0.886414 0.906647 0.326324
0.994293 0.936035 0.280701
0.042664 0.217316 0.335266
0.039642 0.236115 0.364380
0.045013 0.244446 0.376923
0.214783 0.238037 0.384064
0.406647 0.177887 0.379852
0.502014 0.134857 0.346893
0.597504 0.088593 0.324524
0.701630 0.023193 0.314423
0.811005 0.000488 0.317505
0.056366 0.272034 0.396301
0.055237 0.277557 0.404724
0.058685 0.278412 0.407135
0.203430 0.275024 0.377258
0.403076 0.223175 0.373383
0.518616 0.184967 0.338928
0.626312 0.156006 0.320984
0.732208 0.139404 0.319916
0.840881 0.129425 0.328400
0.073120 0.337097 0.449524
0.072174 0.339172 0.451080
0.077087 0.336792 0.448914
0.230469 0.326660 0.408051
0.397552 0.294342 0.379669
0.539490 0.261963 0.349030
0.661438 0.243744 0.335480
0.772552 0.239471 0.338776
0.881439 0.244965 0.351776
0.070679 0.406860 0.493835
0.074219 0.411621 0.494904
0.112244 0.408356 0.486603
0.233887 0.398010 0.457367
0.427673 0.376404 0.389587
0.575775 0.359741 0.368988
0.703613 0.350525 0.358948
0.821106 0.349365 0.359589
0.934662 0.355286 0.368408
0.145081 0.477539 0.527802
0.175262 0.484619 0.523834
0.204712 0.482483 0.511505
0.274628 0.474365 0.486908
0.419189 0.469208 0.421997
0.606232 0.478943 0.381989
0.735474 0.479065 0.375061
0.860291 0.479126 0.371948
0.981537 0.478943 0.371552
0.242798 0.551361 0.518738
0.220123 0.564911 0.509094
0.215027 0.567780 0.504486
0.260498 0.564148 0.495239
0.395599 0.561768 0.472870
0.580139 0.559631 0.431458
0.739136 0.594727 0.389679
0.872955 0.611389 0.376953
1.000000 0.614227 0.372681
0.212982 0.630127 0.539429
0.231659 0.638275 0.533203
0.254333 0.642578 0.522095
0.302185 0.645966 0.509277
0.416595 0.653809 0.493622
0.582428 0.661438 0.465485
0.732727 0.670624 0.442444
0.870270 0.714783 0.392120
1.000000 0.742065 0.374573
0.223450 0.712769 0.529358
0.255157 0.718231 0.519867
0.291718 0.724243 0.508667
0.350739 0.732880 0.497559
0.459290 0.746857 0.486115
0.605743 0.764069 0.468384
0.746155 0.779205 0.460510
0.875092 0.797760 0.426575
0.997528 0.841858 0.382477
0.205170 0.817719 0.499786
0.254120 0.821747 0.492249
0.309174 0.828705 0.483765
0.385498 0.838806 0.473206
0.495697 0.853577 0.460968
0.626343 0.873810 0.449158
0.756866 0.896698 0.445648
0.885254 0.916748 0.422821
0.996918 0.943176 0.388275
0.032959 0.260956 0.402679
0.028595 0.291382 0.448395
0.020844 0.303925 0.468414
0.098572 0.309937 0.469238
0.284851 0.299988 0.483368
0.486298 0.239075 0.484619
0.590027 0.195679 0.451324
0.687653 0.139496 0.423523
0.789093 0.077728 0.407440
0.071960 0.324982 0.477631
0.072510 0.334717 0.492035
0.078369 0.337616 0.497467
0.118622 0.339203 0.495575
0.271362 0.336243 0.483978
0.492523 0.275696 0.483124
0.607880 0.232086 0.442841
0.709747 0.191986 0.418640
0.809021 0.169769 0.414276
0.098724 0.386841 0.538696
0.098480 0.391113 0.543732
0.099915 0.390503 0.545288
0.116608 0.389160 0.544342
0.295807 0.383636 0.486755
0.492889 0.335785 0.486389
0.625916 0.293030 0.446411
0.737579 0.267883 0.429657
0.841736 0.266052 0.436676
0.068817 0.453308 0.585571
0.068726 0.460724 0.591492
0.069214 0.460876 0.592255
0.125336 0.455994 0.586151
0.322845 0.442627 0.538605
0.493073 0.413757 0.497620
0.656250 0.377197 0.466095
0.782013 0.365479 0.457855
0.895203 0.373260 0.470520
0.091980 0.522736 0.626953
0.101715 0.534271 0.633484
0.123016 0.536957 0.632233
0.181976 0.531830 0.621674
0.323822 0.522186 0.589966
0.544861 0.501892 0.513000
0.706360 0.485199 0.492798
0.836090 0.480469 0.486664
0.956696 0.485962 0.492828
0.190704 0.593750 0.657135
0.223663 0.606262 0.657318
0.248901 0.611053 0.651917
0.281067 0.608582 0.640198
0.370056 0.604340 0.616089
0.539795 0.600555 0.548248
0.737823 0.607666 0.505554
0.869293 0.610565 0.499084
0.997070 0.613586 0.497253
0.303436 0.663055 0.642029
0.295959 0.678284 0.621490
0.278015 0.688110 0.614105
0.287079 0.692139 0.609741
0.362152 0.695923 0.605194
0.533508 0.698853 0.583710
0.721649 0.697479 0.543762
0.872192 0.726105 0.507446
1.000000 0.743286 0.498657
0.222992 0.750854 0.622009
0.250244 0.756561 0.617432
0.281097 0.761597 0.609436
0.326538 0.767242 0.599548
0.414154 0.776276 0.590576
0.564240 0.789154 0.576874
0.729156 0.801544 0.557251
0.872314 0.813599 0.533142
1.000000 0.849274 0.501221
0.198730 0.847717 0.600555
0.246765 0.850006 0.592560
0.298035 0.854614 0.583588
0.363434 0.861542 0.572388
0.462067 0.872040 0.560364
0.598816 0.888123 0.547974
0.743591 0.909119 0.540710
0.880005 0.928833 0.529907
1.000000 0.951019 0.503540
0.022949 0.302673 0.466156
0.018890 0.343842 0.527405
0.014709 0.361023 0.553436
0.002899 0.366241 0.563263
0.171814 0.372223 0.563354
0.357605 0.359650 0.577789
0.561371 0.300720 0.582001
0.677246 0.252747 0.553711
0.774536 0.191071 0.525299
0.083710 0.374023 0.553192
0.086731 0.387329 0.572540
0.086334 0.392303 0.580902
0.082336 0.394989 0.587280
0.187439 0.400513 0.576630
0.353943 0.392853 0.583893
0.575836 0.331085 0.586090
0.694000 0.285034 0.551849
0.790405 0.239197 0.525879
0.070618 0.435211 0.621552
0.074677 0.440063 0.627625
0.069550 0.441162 0.630707
0.055969 0.441742 0.635406
0.209198 0.441498 0.616150
0.357574 0.439514 0.590546
0.585052 0.380737 0.591766
0.709900 0.336731 0.555603
0.811676 0.306763 0.536865
0.105164 0.493652 0.665100
0.104645 0.501526 0.672424
0.106384 0.503510 0.675720
0.112762 0.501892 0.678467
0.222870 0.498962 0.669617
0.399658 0.493286 0.602661
0.596375 0.447510 0.601379
0.733887 0.408936 0.569550
0.847229 0.397461 0.563782
0.102203 0.560608 0.708923
0.107452 0.573090 0.718567
0.110260 0.578644 0.723389
0.110962 0.578217 0.725708
0.219574 0.575653 0.717896
0.434296 0.562683 0.664764
0.612518 0.535370 0.620514
0.778076 0.506348 0.599213
0.907745 0.507263 0.603424
0.146179 0.632629 0.750305
0.162903 0.648132 0.759247
0.184418 0.656677 0.762665
0.207245 0.658264 0.761658
0.278259 0.658142 0.754425
0.447479 0.652618 0.719757
0.680542 0.631989 0.641235
0.840790 0.619171 0.625488
0.971619 0.618622 0.623993
0.240845 0.704254 0.772400
0.273743 0.717072 0.773468
0.300598 0.725464 0.770691
0.327759 0.729156 0.764160
0.382812 0.733063 0.754395
0.511108 0.736237 0.727875
0.688599 0.735229 0.668427
0.869934 0.737854 0.630157
1.000000 0.740387 0.623535
0.301666 0.778870 0.754486
0.342407 0.786438 0.734070
0.356262 0.795471 0.714813
0.368225 0.803497 0.702515
0.401245 0.813721 0.699036
0.516357 0.823303 0.699432
0.695892 0.831085 0.681000
0.863037 0.835419 0.652222
1.000000 0.857269 0.624573
0.227020 0.879822 0.701233
0.258087 0.882996 0.698120
0.300201 0.886780 0.693604
0.353943 0.891846 0.686340
0.432892 0.899963 0.678131
0.559784 0.911377 0.669342
0.719482 0.926849 0.656311
0.870209 0.944092 0.646667
1.000000 0.960754 0.625397
0.013916 0.344299 0.528839
0.018585 0.391266 0.597565
0.024628 0.412628 0.628601
0.020172 0.417725 0.637085
0.064728 0.422821 0.641907
0.246857 0.429443 0.646362
0.446320 0.410004 0.660614
0.646210 0.350830 0.668243
0.767334 0.299866 0.648529
0.089478 0.417572 0.620056
0.096008 0.433105 0.642120
0.097595 0.439636 0.652069
0.095215 0.442383 0.657471
0.098663 0.447113 0.665863
0.272552 0.454285 0.654144
0.453766 0.438751 0.669495
0.662933 0.377686 0.675903
0.781342 0.330444 0.652496
0.057343 0.475433 0.687897
0.061127 0.480530 0.694336
0.061737 0.482086 0.697327
0.065430 0.482880 0.700470
0.095947 0.485992 0.705963
0.300720 0.490692 0.670532
0.458313 0.481049 0.679840
0.675201 0.421417 0.685760
0.795776 0.378052 0.660889
0.154114 0.525055 0.726410
0.157043 0.532043 0.733337
0.159729 0.534302 0.737000
0.159760 0.534302 0.740906
0.149109 0.537598 0.751099
0.330994 0.539062 0.716187
0.472473 0.536255 0.692108
0.690186 0.481689 0.698547
0.816193 0.445221 0.676392
0.142944 0.587952 0.770508
0.146942 0.599426 0.780426
0.150513 0.605225 0.786560
0.155396 0.606262 0.791138
0.165863 0.608551 0.800049
0.354401 0.606720 0.778290
0.523865 0.602905 0.709198
0.716736 0.561462 0.718994
0.855957 0.535706 0.706573
0.167969 0.658051 0.815155
0.178833 0.673248 0.826538
0.186676 0.683258 0.834717
0.191406 0.687897 0.840637
0.214996 0.692261 0.847321
0.377747 0.693054 0.831787
0.591522 0.681763 0.775085
0.758270 0.662384 0.749725
0.914215 0.646240 0.744904
0.213623 0.731293 0.851410
0.237335 0.745789 0.859558
0.263428 0.756805 0.864502
0.289948 0.763977 0.866821
0.337250 0.770569 0.867279
0.455841 0.776459 0.856995
0.637329 0.774750 0.821594
0.830719 0.760895 0.768524
0.977173 0.751862 0.757965
0.261536 0.808716 0.858765
0.300171 0.817596 0.860199
0.337311 0.825867 0.860107
0.377441 0.833496 0.858246
0.433594 0.842194 0.854767
0.537811 0.851776 0.845123
0.694611 0.858002 0.817474
0.847473 0.862793 0.779572
1.000000 0.865875 0.752411
0.263092 0.900665 0.842194
0.315186 0.903839 0.838257
0.368073 0.908356 0.832672
0.426605 0.914703 0.823578
0.490601 0.925354 0.804993
0.569916 0.940582 0.792694
0.702850 0.952942 0.792084
0.861786 0.964081 0.775146
1.000000 0.973206 0.753662
0.011932 0.384186 0.588257
0.035675 0.431305 0.655273
0.057709 0.454681 0.687531
0.060059 0.459656 0.694885
0.056183 0.462524 0.700226
0.199524 0.469604 0.692413
0.352905 0.470245 0.710449
0.552032 0.442261 0.725037
0.746155 0.376465 0.737671
0.101074 0.453857 0.673981
0.111725 0.469788 0.695831
0.116333 0.477112 0.706238
0.115814 0.479523 0.710602
0.114258 0.483185 0.717346
0.219727 0.490784 0.709045
0.364655 0.493988 0.718964
0.562958 0.466919 0.734131
0.759460 0.402374 0.746552
0.103302 0.505615 0.732544
0.105835 0.509949 0.738251
0.115448 0.511139 0.739990
0.141785 0.510956 0.739136
0.155060 0.513824 0.744232
0.242523 0.520264 0.738068
0.380981 0.527283 0.729156
0.569794 0.504333 0.745819
0.770996 0.443115 0.758514
0.150482 0.550385 0.771088
0.156799 0.555511 0.776672
0.155548 0.557251 0.780212
0.148132 0.557465 0.783905
0.141296 0.560120 0.791901
0.222565 0.566010 0.790863
0.422974 0.570648 0.742401
0.581390 0.556122 0.761200
0.789337 0.498199 0.776611
0.184235 0.605042 0.809509
0.188324 0.614044 0.818115
0.193176 0.618408 0.823761
0.200317 0.618805 0.827972
0.213867 0.620361 0.835785
0.280487 0.625854 0.840881
0.478638 0.629120 0.785980
0.616425 0.622009 0.785431
0.823608 0.572235 0.803833
0.198853 0.670349 0.853271
0.207794 0.682861 0.863861
0.216034 0.692108 0.872742
0.223785 0.697083 0.880219
0.237976 0.701630 0.890320
0.326569 0.707703 0.895447
0.547363 0.704803 0.858063
0.687927 0.703583 0.819366
0.871033 0.669983 0.838715
0.229492 0.739624 0.894348
0.248688 0.752960 0.904449
0.268738 0.765472 0.914459
0.291290 0.775879 0.923920
0.326416 0.785431 0.933228
0.431793 0.794434 0.934143
0.614349 0.796509 0.910217
0.778870 0.792816 0.871185
0.923706 0.779327 0.872742
0.246979 0.819122 0.922394
0.284485 0.829071 0.928467
0.324677 0.839966 0.934570
0.370209 0.851501 0.940582
0.428192 0.863495 0.945801
0.525299 0.875458 0.945831
0.678009 0.882874 0.930298
0.831879 0.885498 0.906830
0.981476 0.879913 0.885193
0.248749 0.915070 0.929718
0.301727 0.919922 0.931396
0.355896 0.926666 0.932953
0.415314 0.935608 0.934540
0.485504 0.946899 0.936035
0.581451 0.959961 0.934875
0.717651 0.971497 0.924530
0.861298 0.981934 0.901245
1.000000 0.987915 0.884521
0.019073 0.419800 0.640320
0.062805 0.463226 0.700012
0.087860 0.484711 0.728516
0.092072 0.488983 0.734283
0.090515 0.490295 0.736847
0.120331 0.494263 0.739716
0.287628 0.501312 0.739441
0.471069 0.489532 0.756317
0.666687 0.450439 0.772675
0.117981 0.482758 0.715088
0.129822 0.496857 0.733917
0.135162 0.503479 0.743042
0.135071 0.505615 0.746796
0.134430 0.507904 0.751129
0.154907 0.512512 0.755890
0.316406 0.519623 0.746735
0.482483 0.510925 0.764832
0.678558 0.473755 0.782440
0.156555 0.527527 0.760773
0.161530 0.530121 0.764343
0.168152 0.530731 0.765533
0.171326 0.531067 0.767395
0.173920 0.533051 0.771820
0.184540 0.538116 0.779510
0.343567 0.546600 0.755493
0.491852 0.542572 0.775909
0.688751 0.509277 0.795502
0.156219 0.569946 0.801636
0.158478 0.572968 0.805725
0.155304 0.573273 0.808258
0.149689 0.572510 0.810486
0.148376 0.573120 0.814972
0.160370 0.578247 0.824219
0.376953 0.584106 0.782654
0.510223 0.587433 0.791534
0.711761 0.553955 0.818451
0.216461 0.618896 0.835907
0.220856 0.624725 0.842285
0.226746 0.626282 0.846069
0.234009 0.624847 0.848450
0.237274 0.624756 0.853790
0.236694 0.631531 0.867249
0.424408 0.638000 0.833679
0.567139 0.642853 0.822083
0.754028 0.615540 0.852325
0.226288 0.679077 0.877197
0.233643 0.688324 0.885620
0.241394 0.694885 0.893250
0.250488 0.698059 0.900299
0.267059 0.699921 0.910034
0.303436 0.706696 0.926300
0.504395 0.710632 0.908447
0.667572 0.714996 0.867310
0.814697 0.699005 0.895111
0.243835 0.742554 0.922485
0.263062 0.753754 0.931885
0.284821 0.765350 0.943054
0.311035 0.776031 0.955322
0.344513 0.785614 0.968506
0.411957 0.796844 0.981659
0.592072 0.802979 0.969543
0.763184 0.803131 0.940247
0.887451 0.797699 0.940369
0.253265 0.821289 0.965210
0.289642 0.830994 0.972748
0.328827 0.842621 0.982086
0.374542 0.855743 0.992920
0.432739 0.869263 1.000000
0.531708 0.882080 1.000000
0.666229 0.893250 1.000000
0.827118 0.897003 0.989288
0.955933 0.897827 0.977234
0.242950 0.920776 0.995697
0.298553 0.926025 0.999054
0.355804 0.933197 1.000000
0.423645 0.942566 1.000000
0.515839 0.952759 1.000000
0.621368 0.964874 1.000000
0.738220 0.978333 1.000000
0.865631 0.991425 1.000000
1.000000 0.999512 1.000000
