lut/retro-80s/Tron (1982) - Standard.cube
# Created by Benjamin (IWLTBAP): https://luts.iwltbap.com
# Copyright: (C) Copyright 2018 Triune Films and IWLTBAP SAS
# Cannot be resold, shared or otherwise redistributed
TITLE "Triune Films 80s Retro LUTs (Rec.709, sRGB, DCI-P3)"
LUT_3D_SIZE 33
0.002411 0.002380 0.000031
0.023895 0.000000 0.000977
0.046692 0.000000 0.001556
0.069550 0.000000 0.002563
0.092407 0.000000 0.005707
0.115875 0.000000 0.011719
0.139374 0.000000 0.017365
0.163696 0.000000 0.023285
0.188110 0.000000 0.027893
0.213013 0.000000 0.032227
0.238037 0.000000 0.036743
0.263367 0.000000 0.040649
0.288879 0.000000 0.044281
0.314789 0.000000 0.048462
0.340851 0.000000 0.052368
0.367340 0.000000 0.055817
0.394073 0.000000 0.059235
0.421143 0.000000 0.062378
0.448486 0.000000 0.065613
0.476257 0.000000 0.068420
0.504456 0.000000 0.071075
0.533020 0.000000 0.073639
0.561951 0.000000 0.075867
0.591187 0.000000 0.077942
0.620880 0.000000 0.079681
0.650665 0.000214 0.081451
0.680603 0.000458 0.082825
0.710663 0.000427 0.084045
0.740814 0.000427 0.084961
0.770996 0.000397 0.085602
0.801270 0.000397 0.085999
0.831696 0.000397 0.086273
0.862122 0.000397 0.086334
0.003784 0.022034 0.009369
0.029266 0.024139 0.000000
0.051270 0.025269 0.000000
0.073151 0.026886 0.000000
0.095245 0.028351 0.000000
0.119263 0.028259 0.000000
0.143616 0.026276 0.000000
0.168579 0.022461 0.000305
0.194000 0.018646 0.002289
0.219543 0.011688 0.010681
0.245148 0.007477 0.018066
0.270630 0.006653 0.027313
0.296600 0.006683 0.032166
0.322723 0.006958 0.038300
0.348969 0.007538 0.042999
0.375580 0.008148 0.047699
0.402374 0.008667 0.051697
0.429413 0.009216 0.055573
0.456818 0.009735 0.059082
0.484589 0.010315 0.062622
0.512726 0.010864 0.065704
0.541199 0.011353 0.068542
0.569977 0.011902 0.071167
0.599060 0.012390 0.073578
0.628418 0.013031 0.075775
0.657867 0.013641 0.077759
0.687561 0.014313 0.079407
0.717285 0.014771 0.080933
0.747040 0.015259 0.082062
0.776886 0.015717 0.083008
0.806732 0.016144 0.083710
0.836823 0.016541 0.084320
0.866852 0.016968 0.084686
0.001770 0.043060 0.018860
0.031616 0.046326 0.012451
0.054535 0.048401 0.000000
0.076508 0.049377 0.000000
0.099121 0.050903 0.000000
0.122894 0.051636 0.000000
0.147552 0.052094 0.000000
0.172852 0.052124 0.000000
0.198547 0.050629 0.000000
0.224762 0.048859 0.000000
0.251343 0.044189 0.000000
0.278168 0.032959 0.000000
0.304657 0.028381 0.006805
0.331207 0.024597 0.014282
0.357819 0.018066 0.022980
0.384430 0.017181 0.033600
0.411255 0.018250 0.040497
0.438354 0.019257 0.045715
0.465729 0.020294 0.050262
0.493408 0.021332 0.054718
0.521454 0.022400 0.058624
0.549805 0.023376 0.062195
0.578400 0.024353 0.065369
0.607239 0.025330 0.068207
0.636353 0.026520 0.070923
0.665527 0.027771 0.073151
0.694916 0.028687 0.075256
0.724304 0.029572 0.076965
0.753784 0.030457 0.078491
0.783234 0.031372 0.079590
0.812744 0.032257 0.080627
0.842499 0.033081 0.081451
0.872192 0.033875 0.081940
0.003143 0.064514 0.031433
0.033386 0.068268 0.024902
0.056366 0.071075 0.019257
0.078766 0.072479 0.005310
0.102570 0.073761 0.000000
0.127319 0.074615 0.000000
0.152374 0.074738 0.000000
0.177826 0.074524 0.000000
0.203918 0.074310 0.000000
0.230347 0.073273 0.000000
0.257172 0.071655 0.000000
0.284180 0.069427 0.000000
0.311371 0.066437 0.000000
0.338745 0.061554 0.000000
0.366089 0.052673 0.001282
0.392914 0.051056 0.021545
0.419739 0.052551 0.031189
0.446838 0.053619 0.038330
0.474213 0.054871 0.044006
0.501953 0.055389 0.048859
0.530029 0.055389 0.052856
0.558411 0.054413 0.056152
0.587067 0.051636 0.059204
0.615875 0.045959 0.062012
0.644867 0.043457 0.064636
0.673859 0.042297 0.067352
0.702850 0.043762 0.069855
0.731995 0.045044 0.071899
0.761108 0.046326 0.073792
0.790283 0.047638 0.075226
0.819489 0.048920 0.076477
0.848907 0.050171 0.077484
0.878326 0.051361 0.078247
0.011017 0.086395 0.045349
0.036438 0.089630 0.041351
0.058960 0.092346 0.035736
0.079620 0.094666 0.031830
0.102905 0.096008 0.024475
0.129730 0.098358 0.011841
0.156860 0.098755 0.000000
0.183228 0.098480 0.000000
0.209595 0.098053 0.000000
0.236359 0.097198 0.000000
0.263672 0.096283 0.000000
0.290924 0.095093 0.000000
0.318329 0.093323 0.000000
0.345795 0.091095 0.000000
0.372925 0.090393 0.015381
0.399872 0.090607 0.026001
0.426971 0.091339 0.033478
0.454285 0.092163 0.039337
0.481842 0.092896 0.044342
0.509735 0.093475 0.048462
0.537903 0.093292 0.051788
0.566376 0.092712 0.054779
0.595032 0.091095 0.057159
0.624084 0.087189 0.058929
0.653259 0.082581 0.060303
0.682526 0.068176 0.061096
0.711517 0.059906 0.063141
0.740356 0.061493 0.065704
0.769226 0.063141 0.067902
0.798065 0.064789 0.069702
0.827057 0.066437 0.071198
0.856140 0.068024 0.072479
0.885315 0.069580 0.073578
0.019745 0.107697 0.058624
0.041504 0.110443 0.055725
0.061676 0.113373 0.052155
0.081451 0.115784 0.047302
0.103149 0.117584 0.044098
0.128235 0.119415 0.039825
0.157196 0.122345 0.029205
0.186401 0.123749 0.018463
0.214844 0.123718 0.011322
0.242523 0.122803 0.006104
0.269867 0.121704 0.004395
0.297455 0.121063 0.008057
0.324951 0.120483 0.012512
0.352295 0.120239 0.021118
0.379486 0.120483 0.027588
0.406738 0.120758 0.032867
0.434143 0.121216 0.037964
0.461700 0.121857 0.042297
0.489441 0.122101 0.046204
0.517456 0.122375 0.049225
0.545807 0.122375 0.052094
0.574402 0.121918 0.054474
0.603180 0.120941 0.056366
0.632233 0.119446 0.057770
0.661407 0.116638 0.058502
0.690674 0.112366 0.058807
0.720032 0.102997 0.058502
0.749237 0.087799 0.058533
0.778015 0.081299 0.060822
0.806610 0.083252 0.062927
0.835358 0.085144 0.064819
0.864227 0.087006 0.066406
0.893158 0.088867 0.067688
0.028931 0.128510 0.071808
0.048676 0.131134 0.069214
0.065979 0.133789 0.066498
0.084076 0.136353 0.062073
0.104431 0.138641 0.059479
0.127411 0.140564 0.057709
0.154297 0.142456 0.054260
0.185028 0.146667 0.044830
0.215698 0.149292 0.037292
0.245575 0.150513 0.032837
0.274323 0.150421 0.030121
0.302216 0.149750 0.029968
0.330017 0.149445 0.031036
0.357941 0.149536 0.033386
0.385834 0.149689 0.036011
0.413574 0.149872 0.038666
0.441284 0.150024 0.041931
0.469055 0.150269 0.044952
0.497040 0.150604 0.047821
0.525269 0.150757 0.050507
0.553864 0.150543 0.052460
0.582520 0.150238 0.054199
0.611420 0.149353 0.055603
0.640503 0.148102 0.056580
0.669678 0.146149 0.057007
0.698975 0.143341 0.056946
0.728271 0.139038 0.056335
0.757629 0.132538 0.055267
0.786957 0.114655 0.053833
0.815826 0.103210 0.054626
0.844330 0.105316 0.057098
0.873016 0.107269 0.059052
0.901764 0.109283 0.060699
0.039948 0.149200 0.083893
0.057190 0.151367 0.081726
0.071991 0.154053 0.079468
0.087799 0.156738 0.076721
0.106720 0.159119 0.073212
0.128326 0.161560 0.072479
0.153168 0.163116 0.071991
0.181641 0.165802 0.068542
0.213837 0.171204 0.058868
0.245728 0.175293 0.051117
0.276672 0.177826 0.045471
0.306610 0.178955 0.042694
0.335022 0.178833 0.042053
0.363098 0.178528 0.042542
0.391266 0.178650 0.043457
0.419678 0.179016 0.044434
0.448120 0.179291 0.045624
0.476318 0.179413 0.047638
0.504578 0.179504 0.049469
0.533020 0.179504 0.051392
0.561737 0.179291 0.052826
0.590607 0.178925 0.054016
0.619659 0.178223 0.054932
0.648773 0.177124 0.055481
0.678070 0.175568 0.055511
0.707367 0.173523 0.055176
0.736725 0.170471 0.054321
0.766022 0.166260 0.052979
0.795441 0.160248 0.051056
0.824799 0.149353 0.048401
0.853882 0.127289 0.047363
0.882446 0.129364 0.050140
0.911041 0.131592 0.052277
0.051147 0.169586 0.096771
0.065277 0.171844 0.095184
0.078735 0.174286 0.093597
0.092316 0.176941 0.091553
0.109497 0.179565 0.088898
0.130280 0.182129 0.086304
0.153839 0.184326 0.086578
0.180267 0.186005 0.086761
0.210083 0.189331 0.083405
0.243378 0.196167 0.072968
0.276428 0.201874 0.063263
0.308258 0.205750 0.056396
0.338959 0.207977 0.052277
0.368225 0.208557 0.050507
0.396606 0.208374 0.050201
0.425018 0.208405 0.050415
0.453674 0.208618 0.050598
0.482635 0.209076 0.050751
0.511658 0.209259 0.051239
0.540466 0.209229 0.052216
0.569427 0.208954 0.053070
0.598450 0.208527 0.053772
0.627686 0.207947 0.054230
0.656952 0.206909 0.054413
0.686310 0.205688 0.054199
0.715698 0.203979 0.053619
0.745117 0.201691 0.052429
0.774506 0.198639 0.050842
0.803925 0.194733 0.048676
0.833344 0.189240 0.045898
0.862823 0.180695 0.042297
0.892273 0.158478 0.038971
0.920868 0.155731 0.041779
0.061859 0.190063 0.110565
0.074097 0.192200 0.108917
0.085693 0.194672 0.107605
0.097900 0.197235 0.106293
0.113098 0.199921 0.104279
0.132904 0.202728 0.100922
0.155457 0.205231 0.100189
0.180847 0.207458 0.101105
0.208588 0.209381 0.101990
0.239594 0.213287 0.098358
0.273895 0.221710 0.086182
0.307526 0.228821 0.075012
0.339874 0.233795 0.066193
0.371277 0.237122 0.060211
0.401642 0.238953 0.056793
0.430420 0.238831 0.055847
0.459137 0.238831 0.055237
0.488037 0.238892 0.054749
0.517273 0.239166 0.054382
0.546906 0.239441 0.053802
0.576599 0.239624 0.053406
0.605957 0.239227 0.053436
0.635406 0.238678 0.053497
0.664856 0.237854 0.053314
0.694397 0.236816 0.052826
0.723907 0.235352 0.051880
0.753448 0.233490 0.050629
0.782928 0.231201 0.048859
0.812439 0.228302 0.046600
0.841949 0.224670 0.043549
0.871490 0.219513 0.039795
0.901215 0.211578 0.034821
0.930878 0.194153 0.028778
0.072723 0.210632 0.123901
0.083008 0.212524 0.122742
0.093048 0.215088 0.121796
0.104156 0.217560 0.120636
0.118469 0.220306 0.118958
0.135986 0.223175 0.116547
0.157776 0.225983 0.113892
0.182129 0.228516 0.114960
0.209381 0.230957 0.116272
0.238312 0.232849 0.117554
0.270050 0.237793 0.113434
0.304779 0.247406 0.099792
0.338715 0.255737 0.086334
0.371613 0.261993 0.075470
0.403564 0.266296 0.067413
0.434631 0.269073 0.061951
0.464417 0.269989 0.059509
0.493469 0.269928 0.058502
0.522705 0.269958 0.057373
0.552277 0.270020 0.056244
0.582153 0.270203 0.055145
0.612335 0.270508 0.053925
0.642365 0.270355 0.052917
0.672241 0.269836 0.052124
0.702057 0.268921 0.051239
0.731781 0.267792 0.050201
0.761505 0.266327 0.048737
0.791168 0.264557 0.046936
0.820831 0.262390 0.044495
0.850494 0.259583 0.041443
0.880157 0.256104 0.037537
0.910004 0.251190 0.032440
0.939880 0.243713 0.025055
0.083282 0.231262 0.138000
0.092407 0.233246 0.136749
0.101746 0.235443 0.136047
0.111511 0.238098 0.134979
0.124023 0.240906 0.133881
0.140472 0.243774 0.132019
0.160980 0.246796 0.128998
0.184479 0.249695 0.128387
0.210693 0.252319 0.130005
0.239288 0.254730 0.131744
0.268890 0.256805 0.133514
0.301147 0.262756 0.128387
0.335907 0.273376 0.113037
0.370087 0.282806 0.097382
0.403351 0.290253 0.084259
0.435883 0.295746 0.073914
0.467621 0.299408 0.066589
0.498322 0.301300 0.062256
0.528015 0.301605 0.060211
0.557556 0.301544 0.058685
0.587402 0.301605 0.057098
0.617493 0.301758 0.055481
0.647888 0.301910 0.053680
0.678528 0.302063 0.051727
0.708984 0.301849 0.049957
0.739136 0.301147 0.048370
0.769135 0.299988 0.046783
0.799042 0.298584 0.044800
0.828918 0.296875 0.042358
0.858795 0.294830 0.039307
0.888702 0.292175 0.035431
0.918671 0.288666 0.030304
0.948700 0.283813 0.022736
0.094116 0.252106 0.151947
0.102142 0.254120 0.151062
0.110382 0.256409 0.150299
0.119385 0.258820 0.149353
0.130890 0.261688 0.148529
0.145752 0.264526 0.147064
0.164795 0.267609 0.144684
0.187469 0.270721 0.142212
0.212982 0.273712 0.143311
0.240631 0.276367 0.145416
0.270172 0.278900 0.147705
0.300171 0.281158 0.149445
0.332550 0.287994 0.143433
0.367249 0.299530 0.125946
0.401550 0.310150 0.108185
0.435181 0.318726 0.092468
0.468201 0.325287 0.079956
0.500488 0.329742 0.070831
0.531982 0.332550 0.064667
0.562683 0.333862 0.060791
0.592560 0.333862 0.058868
0.622589 0.333862 0.056915
0.652893 0.333923 0.054840
0.683472 0.334045 0.052582
0.714264 0.334167 0.050140
0.745270 0.334320 0.047424
0.776123 0.334106 0.044800
0.806335 0.333099 0.042633
0.836548 0.331787 0.040131
0.866699 0.330170 0.037079
0.896851 0.328186 0.033295
0.927032 0.325653 0.028168
0.957245 0.322021 0.020813
0.104767 0.273346 0.166534
0.112335 0.275269 0.165649
0.119904 0.277527 0.164612
0.128021 0.279938 0.164093
0.138367 0.282593 0.163086
0.151886 0.285614 0.162079
0.169556 0.288696 0.160126
0.191071 0.291931 0.157440
0.215820 0.295166 0.156616
0.242859 0.298065 0.158966
0.271851 0.300934 0.161163
0.301697 0.303497 0.163635
0.331818 0.306000 0.165527
0.364136 0.313507 0.158020
0.398773 0.326050 0.138977
0.433105 0.337708 0.118500
0.467041 0.347321 0.100494
0.500488 0.354828 0.085846
0.533386 0.360260 0.074707
0.565674 0.364136 0.066406
0.597137 0.366241 0.060974
0.627594 0.366730 0.058105
0.657806 0.366730 0.055786
0.688324 0.366760 0.053345
0.719055 0.366852 0.050659
0.749969 0.367004 0.047791
0.781097 0.367126 0.044678
0.812317 0.367188 0.041351
0.843475 0.366974 0.037964
0.873993 0.365845 0.034790
0.904480 0.364349 0.031036
0.934937 0.362335 0.026184
0.965424 0.359680 0.019196
0.115814 0.294769 0.181335
0.122742 0.296692 0.180145
0.129547 0.298920 0.179535
0.137024 0.301453 0.178741
0.146454 0.304108 0.178131
0.158966 0.306946 0.176849
0.175232 0.310211 0.175598
0.195648 0.313385 0.173309
0.219421 0.316742 0.170837
0.245605 0.319916 0.171844
0.274109 0.322998 0.174561
0.303711 0.325836 0.177216
0.333679 0.328369 0.179810
0.363861 0.331177 0.181549
0.395966 0.339355 0.172699
0.430389 0.352753 0.151337
0.464813 0.365326 0.128937
0.499023 0.375916 0.108551
0.532837 0.384369 0.091614
0.566223 0.390869 0.078308
0.599060 0.395538 0.068146
0.631500 0.398834 0.060486
0.662537 0.399933 0.056427
0.693024 0.400055 0.053772
0.723694 0.400146 0.050934
0.754578 0.400238 0.047913
0.785645 0.400360 0.044647
0.816864 0.400513 0.041260
0.848297 0.400665 0.037415
0.879883 0.400787 0.033203
0.911224 0.400360 0.028809
0.942139 0.399017 0.024048
0.973145 0.397308 0.017365
0.127319 0.316620 0.196320
0.133148 0.318665 0.195435
0.139648 0.320831 0.194397
0.146637 0.323212 0.193726
0.155426 0.325897 0.192932
0.166687 0.328674 0.191864
0.181610 0.331848 0.190765
0.200745 0.335236 0.189026
0.223541 0.338623 0.186432
0.249176 0.342041 0.185394
0.276917 0.345337 0.187927
0.306152 0.348358 0.190491
0.336151 0.351166 0.193420
0.366211 0.353760 0.196136
0.396118 0.356873 0.197601
0.428101 0.365723 0.187103
0.462372 0.379761 0.164001
0.496765 0.393097 0.139343
0.531036 0.404572 0.116760
0.565186 0.414032 0.097382
0.598969 0.421387 0.081818
0.632324 0.426880 0.069916
0.665161 0.430969 0.060608
0.697083 0.433197 0.054535
0.728119 0.433899 0.050781
0.758942 0.434021 0.047729
0.789978 0.434143 0.044403
0.821198 0.434265 0.040894
0.852570 0.434418 0.037079
0.884155 0.434601 0.032745
0.915985 0.434753 0.027954
0.948120 0.434998 0.022308
0.979889 0.434448 0.015533
0.138733 0.338776 0.211243
0.144470 0.340851 0.210419
0.150238 0.343231 0.209747
0.156738 0.345612 0.208862
0.164734 0.348145 0.208008
0.175171 0.350952 0.207153
0.189148 0.354034 0.206146
0.206665 0.357391 0.204681
0.228302 0.360901 0.202393
0.253296 0.364441 0.199677
0.280518 0.367859 0.201294
0.309265 0.371124 0.204010
0.338989 0.374146 0.206970
0.369110 0.376984 0.209808
0.398987 0.379669 0.212494
0.428833 0.382904 0.213318
0.460602 0.392365 0.201447
0.494598 0.406982 0.176483
0.528931 0.421082 0.149719
0.563263 0.433380 0.124664
0.597595 0.443726 0.102936
0.631714 0.451965 0.085358
0.665375 0.458221 0.071533
0.698669 0.463074 0.060547
0.731537 0.466705 0.051941
0.763092 0.467957 0.047119
0.794128 0.468170 0.043793
0.825287 0.468323 0.040192
0.856689 0.468475 0.036316
0.888336 0.468781 0.031921
0.920258 0.469147 0.027039
0.952423 0.469543 0.021362
0.984741 0.469818 0.014496
0.150269 0.361328 0.226624
0.155762 0.363525 0.225647
0.161224 0.365814 0.224945
0.167328 0.368256 0.224060
0.174713 0.370819 0.223328
0.184479 0.373627 0.222534
0.197327 0.376617 0.221436
0.213715 0.379974 0.220245
0.233856 0.383575 0.218323
0.257965 0.387115 0.215759
0.284760 0.390717 0.214783
0.313080 0.394135 0.217682
0.342529 0.397339 0.220520
0.372559 0.400421 0.223450
0.402557 0.403290 0.226257
0.432190 0.405884 0.228943
0.461792 0.409424 0.229004
0.493347 0.419312 0.215424
0.527100 0.434570 0.188721
0.561249 0.449280 0.159729
0.595673 0.462341 0.132355
0.630035 0.473450 0.108398
0.664337 0.482452 0.088745
0.698334 0.489471 0.073029
0.731995 0.495148 0.060150
0.765350 0.499542 0.049988
0.797943 0.502258 0.042755
0.829224 0.502625 0.038971
0.860718 0.503021 0.034943
0.892426 0.503418 0.030518
0.924347 0.503876 0.025696
0.956451 0.504272 0.020233
0.988739 0.504608 0.013611
0.162140 0.384247 0.242004
0.167236 0.386505 0.241089
0.172516 0.388885 0.240326
0.178284 0.391296 0.239532
0.185150 0.393768 0.238617
0.194214 0.396576 0.237823
0.206268 0.399536 0.236847
0.221436 0.402893 0.235748
0.240479 0.406464 0.234222
0.263214 0.410095 0.232025
0.289612 0.413818 0.229797
0.317413 0.417419 0.231232
0.346649 0.420837 0.234253
0.376526 0.424133 0.237274
0.406586 0.427124 0.240173
0.436401 0.429901 0.242859
0.465820 0.432465 0.245361
0.495270 0.436401 0.244354
0.526550 0.446686 0.229218
0.559875 0.462280 0.200409
0.593842 0.477509 0.169250
0.628143 0.491302 0.139801
0.662567 0.503082 0.113739
0.696930 0.512787 0.091980
0.731171 0.520691 0.074188
0.765228 0.527161 0.059509
0.799072 0.532440 0.047577
0.832520 0.536499 0.038055
0.864502 0.537750 0.032928
0.896210 0.538208 0.028625
0.928101 0.538666 0.023987
0.960175 0.539062 0.018768
0.992371 0.539459 0.012512
0.174164 0.407410 0.257446
0.178925 0.409760 0.256561
0.184052 0.412170 0.255646
0.189514 0.414551 0.254852
0.196136 0.417053 0.254089
0.204407 0.419830 0.253174
0.215607 0.422729 0.252289
0.229858 0.426056 0.251129
0.247803 0.429565 0.249908
0.269623 0.433380 0.248291
0.295105 0.437225 0.245728
0.322784 0.440948 0.244965
0.351410 0.444519 0.247986
0.381195 0.447937 0.251038
0.411224 0.451172 0.254150
0.441193 0.454132 0.256989
0.470825 0.456879 0.259430
0.499969 0.459351 0.261566
0.529175 0.463470 0.259369
0.560181 0.474243 0.242432
0.593048 0.490234 0.211792
0.626648 0.505981 0.178528
0.660736 0.520294 0.146973
0.695129 0.532776 0.118561
0.729767 0.543610 0.093964
0.764313 0.552429 0.073914
0.798645 0.559662 0.057556
0.832764 0.565491 0.044342
0.866577 0.570160 0.033722
0.899506 0.572876 0.026459
0.931396 0.573456 0.021942
0.963440 0.573914 0.017029
0.995575 0.574371 0.011261
0.186157 0.430695 0.272705
0.190796 0.433014 0.271881
0.195618 0.435547 0.271057
0.200806 0.437988 0.270233
0.207153 0.440460 0.269379
0.215027 0.443207 0.268463
0.225586 0.446075 0.267548
0.238922 0.449341 0.266663
0.255951 0.452911 0.265564
0.276642 0.456665 0.263947
0.301147 0.460693 0.261932
0.328461 0.464539 0.259613
0.356873 0.468323 0.261780
0.386383 0.471893 0.264984
0.416443 0.475311 0.268097
0.446503 0.478516 0.271027
0.476288 0.481445 0.273529
0.505615 0.484070 0.275787
0.534637 0.486511 0.277374
0.563599 0.491119 0.273590
0.594238 0.502563 0.253906
0.626709 0.519043 0.220917
0.660034 0.535522 0.185059
0.694000 0.550598 0.150879
0.728302 0.563873 0.120087
0.762909 0.575104 0.093994
0.797516 0.584381 0.072632
0.832031 0.592102 0.055023
0.866364 0.598480 0.040680
0.900360 0.603607 0.029175
0.933868 0.607269 0.020660
0.966309 0.608704 0.015015
0.998199 0.609253 0.010193
0.198059 0.453735 0.287628
0.202698 0.456207 0.286835
0.207306 0.458801 0.286072
0.212463 0.461273 0.285339
0.218475 0.463776 0.284546
0.226044 0.466431 0.283630
0.235840 0.469269 0.282715
0.248535 0.472473 0.281860
0.264618 0.476105 0.280853
0.284332 0.479919 0.279541
0.307983 0.483917 0.277893
0.334686 0.488007 0.275269
0.362976 0.492004 0.275482
0.392181 0.495697 0.278717
0.422150 0.499329 0.281891
0.452240 0.502808 0.284912
0.482239 0.506287 0.286957
0.511841 0.509491 0.288391
0.541138 0.512543 0.289154
0.569855 0.515472 0.289062
0.598694 0.520935 0.282196
0.629028 0.533081 0.260071
0.661011 0.549866 0.224854
0.693909 0.566498 0.187683
0.727509 0.581757 0.152039
0.761658 0.595245 0.120117
0.796173 0.606812 0.092865
0.830811 0.616425 0.070404
0.865417 0.624542 0.051758
0.899811 0.631287 0.036560
0.933990 0.636841 0.024445
0.967743 0.641022 0.015137
1.000000 0.643768 0.009277
0.210205 0.476532 0.302307
0.214417 0.479095 0.301575
0.219116 0.481750 0.300812
0.224030 0.484283 0.300110
0.230011 0.486755 0.299255
0.237061 0.489349 0.298431
0.246490 0.492249 0.297577
0.258545 0.495483 0.296814
0.273804 0.498962 0.296051
0.292603 0.502899 0.294983
0.315430 0.506897 0.293518
0.341400 0.511230 0.291107
0.369507 0.515686 0.289062
0.398560 0.519989 0.291077
0.428284 0.524231 0.293488
0.458466 0.528503 0.295349
0.488617 0.532532 0.296692
0.518494 0.536469 0.297394
0.548035 0.540070 0.297394
0.577057 0.543457 0.296539
0.605530 0.546692 0.294708
0.634155 0.552521 0.285858
0.663971 0.564789 0.262054
0.695465 0.581512 0.225800
0.727875 0.598114 0.187561
0.761169 0.613373 0.151184
0.795135 0.626953 0.118408
0.829559 0.638672 0.090363
0.864166 0.648529 0.066956
0.898804 0.656921 0.047607
0.933228 0.663940 0.031891
0.967499 0.669769 0.019135
1.000000 0.674774 0.011139
0.221741 0.499084 0.316193
0.226044 0.501740 0.315582
0.230438 0.504364 0.314789
0.235382 0.506927 0.314026
0.240967 0.509430 0.313232
0.247955 0.512207 0.312378
0.257080 0.515106 0.311554
0.268555 0.518494 0.310455
0.283203 0.522552 0.309143
0.301117 0.526978 0.307465
0.323273 0.531677 0.305176
0.348541 0.536560 0.302155
0.376343 0.541412 0.298676
0.405212 0.546234 0.298859
0.434784 0.550964 0.300629
0.464844 0.555542 0.302155
0.495117 0.559967 0.303223
0.525208 0.564148 0.303680
0.554932 0.568176 0.303253
0.584167 0.571899 0.302063
0.612946 0.575378 0.299896
0.641205 0.578735 0.296631
0.669495 0.584961 0.285828
0.698883 0.597351 0.260406
0.729889 0.613922 0.223419
0.761963 0.630310 0.184723
0.795044 0.645447 0.147919
0.828827 0.658997 0.114777
0.863129 0.670715 0.086121
0.897675 0.680695 0.062225
0.932251 0.689178 0.042450
0.966675 0.696350 0.026093
0.999298 0.702972 0.015930
0.229553 0.524475 0.324463
0.234192 0.527039 0.323792
0.238800 0.529846 0.323090
0.243927 0.532501 0.322174
0.249878 0.535309 0.321106
0.256958 0.538208 0.319885
0.266022 0.541443 0.318726
0.277466 0.545044 0.317383
0.291809 0.549042 0.315948
0.309418 0.553436 0.314270
0.330933 0.558197 0.312225
0.355652 0.563110 0.309326
0.382904 0.568176 0.305695
0.411743 0.573181 0.303986
0.441040 0.578156 0.305237
0.471100 0.583069 0.306396
0.501282 0.587738 0.307159
0.531525 0.592285 0.307220
0.561401 0.596588 0.306641
0.590912 0.600708 0.305054
0.619965 0.604584 0.302521
0.648499 0.608185 0.299072
0.676514 0.611725 0.294281
0.704620 0.618317 0.281525
0.733704 0.630798 0.254669
0.764435 0.647125 0.217377
0.796265 0.663239 0.178711
0.829102 0.678101 0.141876
0.862793 0.691467 0.108582
0.896973 0.703003 0.079712
0.931396 0.712891 0.055511
0.965729 0.721375 0.035370
0.997620 0.729431 0.023315
0.234650 0.551392 0.328796
0.239685 0.553925 0.328247
0.245026 0.556610 0.327515
0.250763 0.559357 0.326721
0.257019 0.562103 0.325623
0.264587 0.565063 0.324493
0.273926 0.568329 0.323273
0.285461 0.571838 0.321869
0.299774 0.575928 0.320496
0.317230 0.580322 0.318756
0.338287 0.585114 0.316620
0.362427 0.590210 0.313843
0.389191 0.595306 0.310303
0.417816 0.600525 0.306793
0.446930 0.605621 0.307373
0.476776 0.610718 0.308258
0.506989 0.615723 0.308655
0.537201 0.620544 0.308533
0.567230 0.625244 0.307648
0.596954 0.629700 0.305817
0.626221 0.633911 0.302948
0.655090 0.637909 0.299072
0.683411 0.641632 0.294220
0.711304 0.645447 0.287781
0.739380 0.652496 0.272980
0.768372 0.664978 0.245117
0.798920 0.681000 0.207855
0.830658 0.696686 0.169373
0.863464 0.711212 0.132812
0.897034 0.724182 0.099609
0.931091 0.735474 0.070587
0.965027 0.745239 0.046539
0.995758 0.754730 0.032715
0.237793 0.578979 0.330444
0.243469 0.581482 0.329865
0.249542 0.584167 0.329254
0.255981 0.586823 0.328491
0.262817 0.589630 0.327545
0.270935 0.592590 0.326385
0.280792 0.595795 0.325134
0.292664 0.599426 0.323730
0.306976 0.603394 0.322174
0.324341 0.607849 0.320557
0.345001 0.612610 0.318390
0.368774 0.617615 0.315552
0.394989 0.622894 0.312134
0.423340 0.628113 0.307709
0.452301 0.633423 0.307007
0.481873 0.638641 0.307617
0.511871 0.643860 0.307739
0.542084 0.648987 0.307312
0.572266 0.653961 0.306091
0.602081 0.658783 0.304047
0.631592 0.663330 0.300964
