lut/retro-80s/Who Framed Roger Rabbit (1988) - Standard.cube
# Created by Benjamin (IWLTBAP): https://luts.iwltbap.com
# Copyright: (C) Copyright 2018 Triune Films and IWLTBAP SAS
# Cannot be resold, shared or otherwise redistributed
TITLE "Triune Films 80s Retro LUTs (Rec.709, sRGB, DCI-P3)"
LUT_3D_SIZE 5
0.000671 0.000732 0.000000
0.197815 0.007141 0.000000
0.409973 0.011566 0.000000
0.616577 0.015228 0.000000
0.820740 0.011292 0.000000
0.038300 0.126007 0.027161
0.265869 0.194000 0.022034
0.520233 0.207184 0.000000
0.729004 0.202271 0.000000
0.918427 0.198730 0.000000
0.090454 0.297241 0.073120
0.299805 0.377808 0.089233
0.554138 0.483032 0.054565
0.775116 0.487183 0.012054
1.000000 0.476990 0.003021
0.165253 0.492645 0.135437
0.376312 0.562012 0.144989
0.616943 0.670319 0.128235
0.793488 0.762238 0.095825
1.000000 0.772064 0.006592
0.226105 0.688171 0.191254
0.425323 0.754150 0.186859
0.646118 0.860779 0.167938
0.827423 0.962524 0.155151
1.000000 1.000000 0.123169
0.000000 0.068237 0.150787
0.207062 0.085571 0.163879
0.423584 0.072632 0.119812
0.615784 0.068848 0.069733
0.810730 0.064575 0.071167
0.030853 0.209686 0.215057
0.262695 0.237823 0.230682
0.531464 0.229645 0.190826
0.718842 0.229095 0.160400
0.896576 0.227325 0.109253
0.109039 0.351074 0.249725
0.279358 0.398743 0.263702
0.551086 0.491119 0.260162
0.775696 0.492920 0.253906
0.999237 0.477661 0.238007
0.174988 0.523041 0.303894
0.349945 0.574005 0.315430
0.601196 0.669922 0.313263
0.793213 0.766663 0.307251
1.000000 0.772827 0.259064
0.220032 0.710999 0.359985
0.385956 0.762970 0.359039
0.620941 0.853973 0.349457
0.821259 0.962067 0.352722
1.000000 1.000000 0.338654
0.000000 0.115082 0.275543
0.170319 0.177368 0.346161
0.423157 0.172363 0.326172
0.611938 0.159973 0.290985
0.777740 0.157379 0.266418
0.000000 0.288666 0.401703
0.182343 0.336884 0.447144
0.517120 0.335968 0.417725
0.702881 0.310303 0.364441
0.850220 0.297302 0.335876
0.072815 0.461456 0.470245
0.216431 0.500305 0.507721
0.580200 0.514587 0.498657
0.783936 0.495544 0.466797
0.955658 0.475922 0.433502
0.177765 0.584808 0.502441
0.317078 0.613739 0.519257
0.592590 0.661957 0.523285
0.799530 0.750916 0.536621
1.000000 0.769226 0.517883
0.220947 0.747223 0.547577
0.354248 0.781769 0.549408
0.577942 0.840790 0.542023
0.811066 0.945984 0.553223
1.000000 1.000000 0.557739
0.000000 0.159943 0.401978
0.097137 0.240448 0.497162
0.391022 0.259796 0.505310
0.606140 0.251251 0.480835
0.766754 0.243134 0.457764
0.000000 0.350952 0.555237
0.079865 0.397217 0.601562
0.464172 0.423767 0.604675
0.691345 0.404694 0.564209
0.837921 0.382568 0.525970
0.000000 0.517548 0.659668
0.169891 0.551971 0.697083
0.498322 0.588959 0.694794
0.766785 0.569000 0.637726
0.902405 0.521423 0.571930
0.120361 0.681091 0.694214
0.253510 0.707825 0.719391
0.502502 0.735687 0.739288
0.819122 0.746063 0.730103
0.985901 0.746643 0.730011
0.204071 0.806183 0.722443
0.324646 0.833099 0.736664
0.532654 0.869080 0.748016
0.807281 0.931213 0.772095
1.000000 1.000000 0.801544
0.000000 0.205017 0.532166
0.062744 0.287567 0.630737
0.344360 0.328949 0.659332
0.593201 0.331573 0.649933
0.760590 0.322327 0.628296
0.000000 0.407074 0.702026
0.066589 0.447174 0.742065
0.408600 0.484314 0.753815
0.675751 0.482544 0.733643
0.832367 0.461456 0.698669
0.000000 0.558014 0.803467
0.097534 0.592102 0.836060
0.423187 0.629791 0.838837
0.738556 0.637604 0.802307
0.890137 0.606598 0.757416
0.049591 0.733612 0.885315
0.224854 0.756042 0.911804
0.429596 0.778656 0.933380
0.769348 0.797546 0.893616
0.949707 0.788818 0.879913
0.150848 0.886841 0.901489
0.288025 0.912170 0.925232
0.487762 0.942017 0.951721
0.781982 0.975739 0.978607
1.000000 1.000000 1.000000
