lut/retro-80s/Who Framed Roger Rabbit (1988) - Standard.cube
# Created by Benjamin (IWLTBAP): https://luts.iwltbap.com
# Copyright: (C) Copyright 2018 Triune Films and IWLTBAP SAS
# Cannot be resold, shared or otherwise redistributed
TITLE "Triune Films 80s Retro LUTs (Rec.709, sRGB, DCI-P3)"
LUT_3D_SIZE 9
0.000671 0.000732 0.000000
0.091797 0.003754 0.000000
0.197815 0.007141 0.000000
0.305176 0.010162 0.000000
0.409973 0.011566 0.000000
0.513977 0.013519 0.000000
0.616577 0.015228 0.000000
0.719482 0.014587 0.000000
0.820740 0.011292 0.000000
0.014587 0.055817 0.010834
0.114990 0.072144 0.009979
0.244690 0.081970 0.000000
0.365112 0.085327 0.000000
0.474365 0.090210 0.000000
0.578094 0.093994 0.000000
0.679321 0.094971 0.000000
0.777191 0.094543 0.000000
0.873230 0.092957 0.000000
0.038300 0.126007 0.027161
0.126678 0.151276 0.033752
0.265869 0.194000 0.022034
0.399902 0.207764 0.001831
0.520233 0.207184 0.000000
0.628632 0.204651 0.000000
0.729004 0.202271 0.000000
0.824768 0.200317 0.000000
0.918427 0.198730 0.000000
0.064087 0.207428 0.047791
0.140991 0.235321 0.059387
0.281097 0.288513 0.057983
0.420319 0.339355 0.034943
0.534760 0.345734 0.017548
0.650696 0.345825 0.000000
0.764557 0.339172 0.000000
0.869659 0.334076 0.000000
0.968506 0.331055 0.000000
0.090454 0.297241 0.073120
0.166901 0.327209 0.086151
0.299805 0.377808 0.089233
0.450623 0.440002 0.074921
0.554138 0.483032 0.054565
0.657837 0.485504 0.031036
0.775116 0.487183 0.012054
0.894257 0.483887 0.000000
1.000000 0.476990 0.003021
0.123352 0.393707 0.102875
0.205994 0.424774 0.115753
0.334167 0.470001 0.118286
0.480865 0.528595 0.109344
0.586853 0.583832 0.095978
0.675415 0.623962 0.077545
0.779633 0.628235 0.038666
0.902374 0.628540 0.014130
1.000000 0.629272 0.000732
0.165253 0.492645 0.135437
0.253143 0.521851 0.144592
0.376312 0.562012 0.144989
0.511749 0.614258 0.137695
0.616943 0.670319 0.128235
0.703461 0.722687 0.118073
0.793488 0.762238 0.095825
0.902557 0.771454 0.040649
1.000000 0.772064 0.006592
0.202332 0.587372 0.165466
0.291901 0.614624 0.171356
0.409882 0.650879 0.170135
0.537354 0.697540 0.163422
0.641022 0.753387 0.155243
0.726105 0.812683 0.145813
0.813599 0.862946 0.134399
0.909332 0.898621 0.107910
1.000000 0.911194 0.042542
0.226105 0.688171 0.191254
0.313660 0.716370 0.192261
0.425323 0.754150 0.186859
0.543793 0.803345 0.176910
0.646118 0.860779 0.167938
0.736786 0.916168 0.161652
0.827423 0.962524 0.155151
0.923248 0.997406 0.147552
1.000000 1.000000 0.123169
0.000000 0.036011 0.078491
0.093262 0.038544 0.077637
0.205292 0.037659 0.066650
0.315002 0.035309 0.045532
0.417755 0.034729 0.031372
0.518982 0.035950 0.031372
0.618835 0.035980 0.031372
0.719574 0.034943 0.031372
0.819519 0.032013 0.031525
0.013153 0.092621 0.095459
0.114838 0.102325 0.100464
0.248444 0.105103 0.090149
0.372650 0.103973 0.065857
0.479462 0.106476 0.038055
0.580231 0.109772 0.031372
0.678467 0.111572 0.031372
0.774414 0.111176 0.032501
0.869202 0.109558 0.034180
0.044220 0.154114 0.106659
0.127869 0.174164 0.116150
0.264862 0.207153 0.111389
0.403168 0.216949 0.104370
0.524628 0.212891 0.083435
0.629364 0.211426 0.050201
0.726410 0.210632 0.041443
0.820038 0.209229 0.041626
0.912079 0.207825 0.042725
0.072906 0.229462 0.121582
0.143677 0.251953 0.130646
0.275909 0.295532 0.132629
0.418579 0.345184 0.124573
0.535309 0.350800 0.123505
0.652100 0.348785 0.113525
0.764313 0.342194 0.093353
0.867035 0.337494 0.067444
0.963501 0.334534 0.065399
0.100311 0.314484 0.143066
0.171600 0.340027 0.154053
0.294861 0.382446 0.159088
0.446228 0.442841 0.158234
0.552856 0.487579 0.152039
0.658112 0.488586 0.140533
0.775726 0.489410 0.130402
0.894318 0.484375 0.121460
1.000000 0.477325 0.103119
0.133301 0.408600 0.174835
0.209778 0.435425 0.186188
0.329071 0.474518 0.190338
0.473053 0.529449 0.190369
0.583466 0.586334 0.188446
0.674957 0.627655 0.179138
0.780151 0.629791 0.151611
0.902832 0.629669 0.134583
1.000000 0.629059 0.127930
0.171478 0.504303 0.209869
0.251617 0.529572 0.217407
0.367798 0.565521 0.219391
0.501251 0.614136 0.218140
0.611023 0.670349 0.217346
0.701447 0.724823 0.214996
0.793457 0.764709 0.200012
0.903076 0.772034 0.157867
1.000000 0.772308 0.132294
0.203156 0.596222 0.241669
0.284424 0.620056 0.246277
0.396606 0.653259 0.246490
0.523651 0.696808 0.243713
0.632843 0.751526 0.241821
0.722321 0.812653 0.239716
0.812256 0.864410 0.234344
0.909393 0.899811 0.214508
1.000000 0.911194 0.162659
0.222107 0.697540 0.269592
0.301697 0.722778 0.269897
0.408142 0.757294 0.266388
0.527863 0.802307 0.260010
0.636047 0.857513 0.255463
0.731567 0.914429 0.254791
0.824951 0.962799 0.253479
0.922333 0.998383 0.249451
1.000000 1.000000 0.230347
0.000000 0.068237 0.150787
0.086395 0.086884 0.171387
0.207062 0.085571 0.163879
0.323120 0.077972 0.142944
0.423584 0.072632 0.119812
0.519897 0.069824 0.097900
0.615784 0.068848 0.069733
0.713196 0.066986 0.065887
0.810730 0.064575 0.071167
0.001099 0.139648 0.192963
0.101532 0.154449 0.205109
0.243713 0.157593 0.199097
0.379791 0.147827 0.172791
0.484680 0.141998 0.151093
0.580322 0.141266 0.136658
0.673798 0.142242 0.122101
0.765625 0.141541 0.095551
0.857422 0.139618 0.076080
0.030853 0.209686 0.215057
0.111176 0.228821 0.232208
0.262695 0.237823 0.230682
0.417053 0.235168 0.212463
0.531464 0.229645 0.190826
0.627686 0.228821 0.175446
0.718842 0.229095 0.160400
0.807953 0.228546 0.140198
0.896576 0.227325 0.109253
0.076813 0.274200 0.229584
0.141357 0.293091 0.242310
0.264801 0.317657 0.247375
0.415802 0.353943 0.240967
0.535706 0.360107 0.242523
0.654877 0.354034 0.233185
0.761963 0.348328 0.219910
0.859100 0.344543 0.204590
0.951050 0.341705 0.185822
0.109039 0.351074 0.249725
0.171906 0.371643 0.260864
0.279358 0.398743 0.263702
0.434875 0.448334 0.262085
0.551086 0.491119 0.260162
0.657196 0.493408 0.258331
0.775696 0.492920 0.253906
0.892334 0.485260 0.248230
0.999237 0.477661 0.238007
0.141113 0.435974 0.276001
0.208008 0.457886 0.286591
0.312897 0.486450 0.289642
0.456116 0.532501 0.288208
0.577759 0.587921 0.288208
0.674377 0.629913 0.285828
0.779999 0.632233 0.269135
0.903046 0.631927 0.259369
1.000000 0.628510 0.256866
0.174988 0.523041 0.303894
0.245880 0.544647 0.312439
0.349945 0.574005 0.315430
0.481842 0.616333 0.313812
0.601196 0.669922 0.313263
0.698273 0.725891 0.315155
0.793213 0.766663 0.307251
0.903564 0.772827 0.276672
1.000000 0.772827 0.259064
0.203522 0.610413 0.333099
0.275116 0.630646 0.338745
0.375824 0.658844 0.340424
0.501556 0.697906 0.338013
0.619812 0.748993 0.335754
0.716675 0.811310 0.336761
0.810120 0.865601 0.336090
0.909302 0.901276 0.322906
1.000000 0.910919 0.282959
0.220032 0.710999 0.359985
0.290222 0.732635 0.360931
0.385956 0.762970 0.359039
0.504364 0.803375 0.353912
0.620941 0.853973 0.349457
0.723602 0.910980 0.350159
0.821259 0.962067 0.352722
0.921051 0.999207 0.352325
1.000000 1.000000 0.338654
0.000000 0.092804 0.213837
0.070404 0.127319 0.255005
0.193146 0.135925 0.260651
0.319977 0.130157 0.246185
0.428558 0.121552 0.224762
0.523315 0.115967 0.204285
0.611511 0.113464 0.187622
0.702118 0.110931 0.174622
0.794464 0.107819 0.159088
0.000000 0.180542 0.279266
0.074432 0.200073 0.299286
0.219452 0.213196 0.306702
0.370605 0.207794 0.291016
0.487671 0.196747 0.265564
0.582062 0.190613 0.245575
0.667999 0.188385 0.233704
0.752625 0.185547 0.224884
0.838654 0.181793 0.214539
0.000000 0.254456 0.318481
0.078064 0.276184 0.342316
0.223145 0.296265 0.352753
0.405640 0.294769 0.334534
0.534302 0.277924 0.299225
0.625854 0.267578 0.274048
0.708618 0.262909 0.262024
0.790802 0.260345 0.253632
0.873749 0.257324 0.244507
0.050903 0.336884 0.343628
0.113525 0.358398 0.364502
0.220795 0.378906 0.382080
0.424713 0.382874 0.370758
0.565247 0.376190 0.352570
0.667023 0.366425 0.332916
0.756836 0.361359 0.319366
0.843353 0.357819 0.307648
0.928406 0.354034 0.294952
0.106689 0.400391 0.359436
0.164581 0.419678 0.375732
0.257751 0.437012 0.384796
0.429596 0.462311 0.386719
0.556244 0.493835 0.384003
0.660187 0.497406 0.381226
0.777252 0.492218 0.374451
0.886169 0.484589 0.364014
0.985626 0.477600 0.351379
0.146057 0.471832 0.380524
0.205780 0.490631 0.393494
0.297028 0.509186 0.398102
0.441345 0.537598 0.397461
0.577972 0.586029 0.398438
0.677521 0.626038 0.399506
0.781281 0.630249 0.391144
0.902832 0.632690 0.386261
1.000000 0.626221 0.384033
0.179810 0.548553 0.402740
0.242828 0.566467 0.412659
0.334839 0.587494 0.416534
0.463348 0.616516 0.414978
0.593292 0.663910 0.413818
0.697632 0.719299 0.418488
0.795410 0.760529 0.417175
0.904663 0.770264 0.397552
1.000000 0.773560 0.386902
0.206879 0.629395 0.428802
0.270508 0.645660 0.435059
0.359650 0.666656 0.437103
0.479706 0.695892 0.435242
0.604706 0.741882 0.431488
0.710815 0.802521 0.433685
0.808868 0.859375 0.437958
0.910400 0.895966 0.431976
1.000000 0.909851 0.402893
0.220703 0.727264 0.454193
0.283661 0.745148 0.455322
0.368073 0.769836 0.453644
0.480133 0.802917 0.449921
0.601227 0.847778 0.444366
0.712555 0.902039 0.444183
0.815887 0.956207 0.450012
0.919403 0.996307 0.453979
1.000000 1.000000 0.446411
0.000000 0.115082 0.275543
0.050140 0.155090 0.323639
0.170319 0.177368 0.346161
0.303833 0.178741 0.342041
0.423157 0.172363 0.326172
0.523224 0.164612 0.307190
0.611938 0.159973 0.290985
0.696167 0.158295 0.277466
0.777740 0.157379 0.266418
0.000000 0.215576 0.358612
0.033875 0.236511 0.381470
0.187592 0.255981 0.397217
0.346527 0.260895 0.395233
0.479095 0.252838 0.376343
0.579956 0.243561 0.355499
0.665588 0.238251 0.340118
0.744080 0.234711 0.326721
0.819489 0.230499 0.314026
0.000000 0.288666 0.401703
0.035004 0.312073 0.427551
0.182343 0.336884 0.447144
0.366241 0.347809 0.443970
0.517120 0.335968 0.417725
0.620514 0.320465 0.387115
0.702881 0.310303 0.364441
0.777100 0.303650 0.347534
0.850220 0.297302 0.335876
0.006653 0.376892 0.448578
0.080200 0.397552 0.472626
0.184265 0.419159 0.496216
0.375183 0.438629 0.494202
0.558685 0.431152 0.465179
0.668213 0.411041 0.429016
0.748383 0.395721 0.401764
0.822144 0.385345 0.385651
0.897034 0.376556 0.373840
0.072815 0.461456 0.470245
0.133820 0.481537 0.490112
0.216431 0.500305 0.507721
0.370667 0.517975 0.519623
0.580200 0.514587 0.498657
0.691284 0.507782 0.485382
0.783936 0.495544 0.466797
0.870483 0.484894 0.449493
0.955658 0.475922 0.433502
0.134918 0.522034 0.485474
0.190704 0.539062 0.500641
0.271271 0.553192 0.510101
0.411224 0.568756 0.515045
0.592285 0.591522 0.515442
0.687714 0.623138 0.522278
0.783936 0.629578 0.515961
0.900177 0.625793 0.509155
1.000000 0.616852 0.499420
0.177765 0.584808 0.502441
0.235077 0.599365 0.513245
0.317078 0.613739 0.519257
0.438995 0.631470 0.520294
0.592590 0.661957 0.523285
0.704834 0.711243 0.532776
0.799530 0.750916 0.536621
0.906036 0.762970 0.523438
1.000000 0.769226 0.517883
0.207672 0.655212 0.524017
0.265411 0.668030 0.530731
0.344666 0.682526 0.533813
0.454559 0.702301 0.532654
0.590088 0.735321 0.532288
0.709045 0.791901 0.539307
0.809326 0.849030 0.547943
0.911835 0.886932 0.546936
1.000000 0.902893 0.527649
0.220947 0.747223 0.547577
0.278595 0.762115 0.549805
0.354248 0.781769 0.549408
0.455109 0.807281 0.546082
0.577942 0.840790 0.542023
0.701263 0.891357 0.544373
0.811066 0.945984 0.553223
0.917572 0.989838 0.560425
1.000000 1.000000 0.557739
0.000000 0.137207 0.337982
0.031372 0.180511 0.390442
0.140015 0.211975 0.425232
0.280334 0.221405 0.429413
0.409424 0.218719 0.419678
0.517487 0.211914 0.403442
0.609375 0.206421 0.388519
0.693146 0.203125 0.376404
0.771790 0.201141 0.365356
0.000000 0.248932 0.436768
0.031372 0.270325 0.460663
0.151245 0.291809 0.480103
0.319153 0.304199 0.485046
0.463531 0.301819 0.474670
0.574188 0.293854 0.456909
0.661621 0.286224 0.440063
0.739899 0.280334 0.426025
0.812531 0.274506 0.411560
0.000000 0.320465 0.479340
0.031372 0.344086 0.505463
0.139801 0.368927 0.527405
0.327789 0.387054 0.531708
0.491516 0.384888 0.518951
0.609802 0.372009 0.492889
0.697540 0.359070 0.468475
0.772888 0.348999 0.448792
0.842041 0.339935 0.431610
0.000000 0.404999 0.533539
0.040710 0.426147 0.557281
0.152588 0.448517 0.579498
0.330322 0.471466 0.583984
0.523376 0.475220 0.564758
0.651733 0.459747 0.534698
0.739349 0.441284 0.503357
0.811218 0.425293 0.476746
0.876617 0.410278 0.452484
0.027039 0.496796 0.573486
0.105103 0.514374 0.593201
0.196259 0.531158 0.613617
0.326111 0.548859 0.629059
0.543060 0.560944 0.607819
0.691528 0.550446 0.577454
0.779602 0.528778 0.544525
0.850342 0.506104 0.512604
0.918732 0.487274 0.488190
0.096588 0.576721 0.588013
0.158936 0.592865 0.603729
0.235260 0.608368 0.618134
0.351959 0.623718 0.630127
0.542725 0.637329 0.633423
0.712463 0.632324 0.614105
0.803741 0.629150 0.608276
0.889740 0.616974 0.592102
0.973755 0.604370 0.574707
0.160370 0.629852 0.597565
0.214447 0.643585 0.609619
0.287476 0.656494 0.619171
0.399475 0.669403 0.625275
0.568481 0.685822 0.630127
0.721832 0.708710 0.636078
0.807709 0.743805 0.651917
0.905914 0.758301 0.648285
1.000000 0.760162 0.645264
0.198395 0.690887 0.614746
0.252594 0.701508 0.622589
0.324890 0.711395 0.627960
0.426880 0.724579 0.630524
0.568268 0.748077 0.634796
0.712402 0.785950 0.645966
0.814178 0.837555 0.661957
0.912933 0.875580 0.669128
1.000000 0.895538 0.656738
0.217316 0.772217 0.636627
0.271393 0.785645 0.641327
0.341125 0.801727 0.644043
0.433716 0.821442 0.644226
0.554993 0.848083 0.644989
0.693085 0.885956 0.652893
0.809540 0.935913 0.665894
0.916229 0.980469 0.677582
1.000000 1.000000 0.680695
0.000000 0.159943 0.401978
0.031372 0.204590 0.456604
0.097137 0.240448 0.497162
0.252441 0.258698 0.510406
0.391022 0.259796 0.505310
0.509155 0.255920 0.493591
0.606140 0.251251 0.480835
0.689697 0.246765 0.468811
0.766754 0.243134 0.457764
0.000000 0.281219 0.514191
0.031372 0.302246 0.537781
0.100281 0.323975 0.558380
0.291138 0.340332 0.566284
0.445160 0.343262 0.561890
0.565582 0.338623 0.548798
0.657654 0.330994 0.532837
0.735596 0.323334 0.517517
0.806946 0.316101 0.502808
0.000000 0.350952 0.555237
0.031372 0.373444 0.580017
0.079865 0.397217 0.601562
0.290497 0.417786 0.610321
0.464172 0.423767 0.604675
0.595795 0.416534 0.586578
0.691345 0.404694 0.564209
0.768646 0.393158 0.543945
0.837921 0.382568 0.525970
0.000000 0.431824 0.609528
0.038330 0.452484 0.631866
0.105103 0.474335 0.652191
0.294006 0.497040 0.659851
0.488770 0.509308 0.647308
0.632355 0.502106 0.627838
0.729980 0.486176 0.600128
0.804749 0.468597 0.572601
0.870392 0.450928 0.546112
0.000000 0.517548 0.659668
0.065308 0.534821 0.678375
0.169891 0.551971 0.697083
0.298676 0.570892 0.709412
0.498322 0.588959 0.694794
0.667328 0.586395 0.665985
0.766785 0.569000 0.637726
0.839569 0.545319 0.604462
0.902405 0.521423 0.571930
0.054138 0.609894 0.688293
0.132874 0.624512 0.703857
0.219482 0.638702 0.720581
0.326508 0.652374 0.735901
0.483246 0.666840 0.743042
0.687897 0.668854 0.707977
0.798706 0.656677 0.681183
0.871399 0.635437 0.652618
0.935028 0.614532 0.625458
0.120361 0.681091 0.694214
0.181732 0.694366 0.706940
0.253510 0.707825 0.719391
0.350311 0.720825 0.730042
0.502502 0.735687 0.739288
0.685455 0.745392 0.738617
0.819122 0.746063 0.730103
0.904022 0.747833 0.731293
0.985901 0.746643 0.730011
0.178192 0.729523 0.700378
0.230286 0.740417 0.709869
0.295685 0.751129 0.718445
0.388550 0.764252 0.726318
0.528107 0.783295 0.735657
0.692963 0.805084 0.744690
0.818909 0.831818 0.757477
0.912781 0.868317 0.778168
1.000000 0.891235 0.782257
0.204071 0.806183 0.722443
0.257782 0.818909 0.729919
0.324646 0.833099 0.736664
0.412750 0.848602 0.741791
0.532654 0.869080 0.748016
0.679047 0.898285 0.758820
0.807281 0.931213 0.772095
0.914398 0.972412 0.789215
1.000000 1.000000 0.801544
0.000000 0.182556 0.466766
0.031372 0.227692 0.522308
0.062744 0.265381 0.565521
0.220306 0.290222 0.586548
0.369232 0.296234 0.584320
0.497162 0.296143 0.578186
0.601227 0.293121 0.567993
0.687134 0.288666 0.556610
0.763031 0.283661 0.544983
0.000000 0.309967 0.587433
0.031372 0.332153 0.612915
0.062744 0.352936 0.632690
0.261871 0.370605 0.642151
0.425568 0.379303 0.641144
0.553589 0.377838 0.632690
0.652588 0.371979 0.619202
0.732239 0.363922 0.603699
0.803040 0.355774 0.588837
0.000000 0.380005 0.629669
0.031372 0.400818 0.652405
0.066040 0.423004 0.672546
0.253906 0.444122 0.683350
0.437134 0.456421 0.681061
0.579956 0.454742 0.670471
0.684448 0.445770 0.652130
0.764832 0.434540 0.632843
0.834351 0.423096 0.614655
0.000000 0.457672 0.681793
0.036621 0.477234 0.702637
0.078064 0.498016 0.721130
0.258484 0.519806 0.730316
0.454681 0.536743 0.723114
0.611633 0.537384 0.709839
0.719849 0.526520 0.688416
0.798828 0.510284 0.663086
0.865356 0.492218 0.637207
0.000000 0.537750 0.734222
0.050262 0.554932 0.752350
0.128845 0.572327 0.768951
0.272736 0.591156 0.779175
0.459442 0.610901 0.769958
0.641357 0.616730 0.744659
0.753357 0.605652 0.723694
0.831329 0.585663 0.695251
0.895142 0.564331 0.666565
0.011993 0.626495 0.775665
0.107544 0.640625 0.791016
0.200165 0.654053 0.806580
0.302917 0.667755 0.819855
0.447052 0.683350 0.822632
0.651459 0.694366 0.791779
0.781555 0.687714 0.762299
0.860199 0.671509 0.739441
0.923065 0.653412 0.715057
0.081726 0.716339 0.794556
0.157104 0.728699 0.807709
0.239197 0.741302 0.822052
0.334564 0.753601 0.835968
0.462494 0.766357 0.847870
0.632812 0.777740 0.847534
0.795685 0.772705 0.811462
0.886292 0.763794 0.796570
0.956146 0.758331 0.792206
0.139618 0.779327 0.794159
0.199829 0.790527 0.804718
0.267944 0.802155 0.815491
0.354767 0.815338 0.826874
0.480255 0.831329 0.839478
0.647797 0.847992 0.850067
0.794800 0.858002 0.853638
0.908752 0.867767 0.859619
0.995392 0.880219 0.874176
0.183655 0.840515 0.805725
0.238892 0.852966 0.815491
0.304810 0.866882 0.825775
0.390533 0.882538 0.836151
0.507782 0.901520 0.847626
0.658936 0.924988 0.861359
0.797028 0.945862 0.873047
0.910370 0.969788 0.887970
1.000000 1.000000 0.910797
0.000000 0.205017 0.532166
0.031372 0.249512 0.586914
0.062744 0.287567 0.630737
0.181732 0.315735 0.656128
0.344360 0.328949 0.659332
0.481049 0.332397 0.656891
0.593201 0.331573 0.649933
0.683655 0.327728 0.639709
0.760590 0.322327 0.628296
0.000000 0.336334 0.658417
0.031372 0.359375 0.685242
0.062744 0.379608 0.704620
0.228729 0.397980 0.715332
0.401123 0.410309 0.714874
0.538208 0.412628 0.710083
0.644135 0.408661 0.699066
0.728516 0.401581 0.685120
0.800659 0.393524 0.670746
0.000000 0.407074 0.702026
0.031372 0.426300 0.723053
0.066589 0.447174 0.742065
0.212463 0.468109 0.753601
0.408600 0.484314 0.753815
0.562134 0.487885 0.747284
0.675751 0.482544 0.733643
0.761230 0.472717 0.716339
0.832367 0.461456 0.698669
0.000000 0.482147 0.751465
0.035522 0.500549 0.771179
0.076843 0.520203 0.788300
0.217773 0.540710 0.797760
0.419800 0.559814 0.794830
0.589172 0.567017 0.783752
0.708282 0.561493 0.768982
0.793274 0.548370 0.747589
0.861603 0.531708 0.723755
0.000000 0.558014 0.803467
0.047394 0.575043 0.821167
0.097534 0.592102 0.836060
0.240692 0.610046 0.844910
0.423187 0.629791 0.838837
0.611816 0.641937 0.818451
0.738556 0.637604 0.802307
0.823944 0.623596 0.780792
0.890137 0.606598 0.757416
0.004883 0.641998 0.852173
0.068665 0.655914 0.866852
0.165955 0.669067 0.880493
0.275665 0.682800 0.891022
0.414612 0.698730 0.891113
0.610626 0.714417 0.867767
0.762024 0.715820 0.838318
0.850159 0.706482 0.822906
0.917023 0.693756 0.804688
0.049591 0.733612 0.885315
0.136902 0.744965 0.898224
0.224854 0.756042 0.911804
0.318909 0.767059 0.925018
0.429596 0.778656 0.933380
0.592255 0.792297 0.927765
0.769348 0.797546 0.893616
0.874390 0.792480 0.878815
0.949707 0.788818 0.879913
0.104401 0.817139 0.895386
0.177216 0.827789 0.906860
0.256195 0.839600 0.919952
0.346619 0.852295 0.934662
0.459778 0.865540 0.949493
0.613739 0.879303 0.961304
0.767609 0.887970 0.962830
0.891418 0.885162 0.944672
0.979431 0.890747 0.951599
0.150848 0.886841 0.901489
0.214935 0.898743 0.912781
0.288025 0.912170 0.925232
0.375641 0.926483 0.938232
0.487762 0.942017 0.951721
0.636780 0.960144 0.966522
0.781982 0.975739 0.978607
0.901459 0.987854 0.988403
1.000000 1.000000 1.000000
