lut/retro-80s/Who Framed Roger Rabbit (1988) - Standard.cube
# Created by Benjamin (IWLTBAP): https://luts.iwltbap.com
# Copyright: (C) Copyright 2018 Triune Films and IWLTBAP SAS
# Cannot be resold, shared or otherwise redistributed
TITLE "Triune Films 80s Retro LUTs (Rec.709, sRGB, DCI-P3)"
LUT_3D_SIZE 33
0.000671 0.000732 0.000000
0.020782 0.001862 0.000000
0.043396 0.002502 0.000000
0.066925 0.003143 0.000000
0.091797 0.003754 0.000000
0.117035 0.004944 0.000000
0.143463 0.005707 0.000000
0.170349 0.006409 0.000000
0.197815 0.007141 0.000000
0.225220 0.008362 0.000000
0.252075 0.008942 0.000000
0.278778 0.009155 0.000000
0.305176 0.010162 0.000000
0.331390 0.010284 0.000000
0.357483 0.010803 0.000000
0.383728 0.010925 0.000000
0.409973 0.011566 0.000000
0.436218 0.012238 0.000000
0.462280 0.012848 0.000000
0.488251 0.013306 0.000000
0.513977 0.013519 0.000000
0.539612 0.014160 0.000000
0.565247 0.014587 0.000000
0.590851 0.014862 0.000000
0.616577 0.015228 0.000000
0.642365 0.015228 0.000000
0.668182 0.014801 0.000000
0.693878 0.014587 0.000000
0.719482 0.014587 0.000000
0.745026 0.014008 0.000000
0.770386 0.013306 0.000000
0.795563 0.012512 0.000000
0.820740 0.011292 0.000000
0.003784 0.013611 0.002014
0.025208 0.014923 0.002136
0.048920 0.016296 0.002136
0.073730 0.017029 0.002136
0.099213 0.018311 0.001526
0.126251 0.019073 0.000702
0.154175 0.020721 0.000000
0.182648 0.021484 0.000000
0.211426 0.022430 0.000000
0.239868 0.023010 0.000000
0.267792 0.023895 0.000000
0.295349 0.024994 0.000000
0.322662 0.025818 0.000000
0.349640 0.026367 0.000000
0.376282 0.026917 0.000000
0.402588 0.027893 0.000000
0.428650 0.029053 0.000000
0.454559 0.029907 0.000000
0.480316 0.030518 0.000000
0.505951 0.031189 0.000000
0.531342 0.031738 0.000000
0.556671 0.032318 0.000000
0.581970 0.032928 0.000000
0.607269 0.033508 0.000000
0.632629 0.033630 0.000000
0.657959 0.034058 0.000000
0.683289 0.034027 0.000000
0.708557 0.033966 0.000000
0.733795 0.033417 0.000000
0.758850 0.032990 0.000000
0.783752 0.032745 0.000000
0.808655 0.031830 0.000000
0.833435 0.030884 0.000000
0.007629 0.027374 0.005310
0.029022 0.029388 0.005432
0.053619 0.030945 0.004883
0.079163 0.032684 0.004852
0.106506 0.034241 0.004578
0.134857 0.035736 0.003052
0.164307 0.037140 0.001282
0.194366 0.038147 0.000000
0.224274 0.039398 0.000000
0.253876 0.040771 0.000000
0.282593 0.041779 0.000000
0.310944 0.042694 0.000000
0.338745 0.043610 0.000000
0.366119 0.044983 0.000000
0.393280 0.045898 0.000000
0.419830 0.046844 0.000000
0.446136 0.047913 0.000000
0.472198 0.048889 0.000000
0.498047 0.049805 0.000000
0.523834 0.050720 0.000000
0.549255 0.051697 0.000000
0.574341 0.052490 0.000000
0.599365 0.052887 0.000000
0.624390 0.053162 0.000000
0.649353 0.053650 0.000000
0.674377 0.053802 0.000000
0.699158 0.053741 0.000000
0.723907 0.053741 0.000000
0.748566 0.053619 0.000000
0.773132 0.053284 0.000000
0.797638 0.052887 0.000000
0.822174 0.052429 0.000000
0.846588 0.051453 0.000000
0.010437 0.041290 0.008057
0.032806 0.043610 0.008789
0.057098 0.046600 0.008331
0.083252 0.049438 0.007690
0.111694 0.052612 0.006592
0.141785 0.054810 0.004974
0.172913 0.056641 0.002502
0.204224 0.057983 0.000183
0.235199 0.058990 0.000000
0.265625 0.060028 0.000000
0.295319 0.061096 0.000000
0.324219 0.062073 0.000000
0.352539 0.063202 0.000000
0.380249 0.064392 0.000000
0.407562 0.065796 0.000000
0.434448 0.066925 0.000000
0.460968 0.068237 0.000000
0.487274 0.069489 0.000000
0.513428 0.070404 0.000000
0.539307 0.071442 0.000000
0.564850 0.072052 0.000000
0.589996 0.072784 0.000000
0.615112 0.073212 0.000000
0.640198 0.073547 0.000000
0.665314 0.073853 0.000000
0.690186 0.074036 0.000000
0.714691 0.074036 0.000000
0.739044 0.073700 0.000000
0.763275 0.073669 0.000000
0.787445 0.073303 0.000000
0.811646 0.072937 0.000000
0.835724 0.072571 0.000000
0.859863 0.072083 0.000000
0.014587 0.055817 0.010834
0.037079 0.059235 0.011780
0.061035 0.062927 0.011963
0.086578 0.067535 0.011536
0.114990 0.072144 0.009979
0.146790 0.076111 0.007507
0.179565 0.078796 0.005188
0.212341 0.080994 0.002319
0.244690 0.081970 0.000000
0.276306 0.082550 0.000000
0.306824 0.083466 0.000000
0.336365 0.084503 0.000000
0.365112 0.085327 0.000000
0.393250 0.086548 0.000000
0.420715 0.087799 0.000000
0.447754 0.088989 0.000000
0.474365 0.090210 0.000000
0.500702 0.091461 0.000000
0.526672 0.092438 0.000000
0.552521 0.093353 0.000000
0.578094 0.093994 0.000000
0.603455 0.094452 0.000000
0.628723 0.094727 0.000000
0.653992 0.094788 0.000000
0.679321 0.094971 0.000000
0.704193 0.095184 0.000000
0.728607 0.095001 0.000000
0.752930 0.094696 0.000000
0.777191 0.094543 0.000000
0.801331 0.094177 0.000000
0.825470 0.093811 0.000000
0.849426 0.093353 0.000000
0.873230 0.092957 0.000000
0.019318 0.072357 0.014221
0.041748 0.076080 0.015503
0.064697 0.080231 0.016083
0.090057 0.085541 0.016449
0.118317 0.091675 0.014954
0.149963 0.098053 0.012329
0.184265 0.102966 0.008881
0.218567 0.106262 0.006042
0.252350 0.108643 0.001770
0.285309 0.109863 0.000000
0.317169 0.110291 0.000000
0.347809 0.110870 0.000000
0.377319 0.111572 0.000000
0.406036 0.112427 0.000000
0.434052 0.113220 0.000000
0.461334 0.114044 0.000000
0.488037 0.115051 0.000000
0.514191 0.115906 0.000000
0.539856 0.116791 0.000000
0.565460 0.117615 0.000000
0.590729 0.118225 0.000000
0.615845 0.118439 0.000000
0.640808 0.118683 0.000000
0.665802 0.118866 0.000000
0.690674 0.118774 0.000000
0.715515 0.118469 0.000000
0.740265 0.118286 0.000000
0.764923 0.117767 0.000000
0.789551 0.117279 0.000000
0.814148 0.116821 0.000000
0.838562 0.116241 0.000000
0.862518 0.115906 0.000000
0.886200 0.115387 0.000000
0.025452 0.089447 0.018707
0.046173 0.093811 0.019623
0.068634 0.098572 0.020996
0.093323 0.104401 0.021851
0.121429 0.111420 0.020996
0.153137 0.119263 0.018890
0.187378 0.127411 0.015381
0.222900 0.132996 0.011383
0.258087 0.136444 0.007294
0.292053 0.139191 0.002319
0.324890 0.140869 0.000000
0.356812 0.141266 0.000000
0.387512 0.141479 0.000000
0.417267 0.141785 0.000000
0.446106 0.141937 0.000000
0.473969 0.142456 0.000000
0.501038 0.142944 0.000000
0.527527 0.143494 0.000000
0.553467 0.143982 0.000000
0.579010 0.144470 0.000000
0.604187 0.144653 0.000000
0.629150 0.144958 0.000000
0.653931 0.144928 0.000000
0.678589 0.144745 0.000000
0.703064 0.144653 0.000000
0.727386 0.144348 0.000000
0.751678 0.144043 0.000000
0.775818 0.143677 0.000000
0.799896 0.143280 0.000000
0.823883 0.142792 0.000000
0.847839 0.142334 0.000000
0.871796 0.141632 0.000000
0.895905 0.140991 0.000000
0.031677 0.107239 0.022644
0.051239 0.111816 0.023926
0.072723 0.117188 0.025391
0.096680 0.123535 0.026886
0.124237 0.131226 0.027130
0.155762 0.140076 0.025818
0.190308 0.149872 0.022919
0.226166 0.159637 0.018738
0.262207 0.165833 0.014404
0.297241 0.169250 0.010010
0.330841 0.171936 0.004730
0.363098 0.173889 0.000000
0.394714 0.174316 0.000000
0.425476 0.174072 0.000000
0.455383 0.173889 0.000000
0.484283 0.173706 0.000000
0.512207 0.173615 0.000000
0.539307 0.173676 0.000000
0.565826 0.173676 0.000000
0.591705 0.173706 0.000000
0.617249 0.173553 0.000000
0.642365 0.173401 0.000000
0.667175 0.173157 0.000000
0.691803 0.172791 0.000000
0.716156 0.172485 0.000000
0.740295 0.171997 0.000000
0.764282 0.171692 0.000000
0.788116 0.171356 0.000000
0.811890 0.170990 0.000000
0.835541 0.170532 0.000000
0.859131 0.170197 0.000000
0.882721 0.169647 0.000000
0.906372 0.169067 0.000000
0.038300 0.126007 0.027161
0.056702 0.130524 0.028473
0.077118 0.136139 0.030914
0.100189 0.142975 0.032684
0.126678 0.151276 0.033752
0.157928 0.161072 0.033417
0.193115 0.172150 0.031006
0.229614 0.183563 0.027069
0.265869 0.194000 0.022034
0.301422 0.200287 0.017426
0.335602 0.203522 0.013031
0.368317 0.205872 0.007599
0.399902 0.207764 0.001831
0.430847 0.208527 0.000000
0.461426 0.208435 0.000000
0.491241 0.207794 0.000000
0.520233 0.207184 0.000000
0.548462 0.206482 0.000000
0.575775 0.205872 0.000000
0.602539 0.205322 0.000000
0.628632 0.204651 0.000000
0.654358 0.204041 0.000000
0.679626 0.203400 0.000000
0.704468 0.202789 0.000000
0.729004 0.202271 0.000000
0.753265 0.201721 0.000000
0.777283 0.201202 0.000000
0.801086 0.200684 0.000000
0.824768 0.200317 0.000000
0.848297 0.199890 0.000000
0.871796 0.199615 0.000000
0.895081 0.199127 0.000000
0.918427 0.198730 0.000000
0.044952 0.145691 0.032196
0.062317 0.150421 0.033966
0.081909 0.156250 0.036041
0.103760 0.163177 0.038574
0.129425 0.171631 0.039764
0.160187 0.182007 0.040253
0.195221 0.193909 0.039307
0.232635 0.206635 0.035889
0.270020 0.219055 0.030914
0.305756 0.229828 0.025299
0.339783 0.235657 0.020386
0.372864 0.238495 0.016174
0.404663 0.240479 0.011444
0.435516 0.242218 0.005707
0.465729 0.243225 0.000000
0.495728 0.243042 0.000000
0.525482 0.242310 0.000000
0.554565 0.241272 0.000000
0.583038 0.240143 0.000000
0.610748 0.239105 0.000000
0.637817 0.237946 0.000000
0.664276 0.236847 0.000000
0.690186 0.235931 0.000000
0.715668 0.234894 0.000000
0.740692 0.234039 0.000000
0.765350 0.233276 0.000000
0.789673 0.232574 0.000000
0.813751 0.231995 0.000000
0.837585 0.231567 0.000000
0.861267 0.230957 0.000000
0.884766 0.230743 0.000000
0.908081 0.230194 0.000000
0.931366 0.229950 0.000000
0.051331 0.165710 0.037170
0.068024 0.170746 0.039215
0.086853 0.176697 0.041901
0.107819 0.183929 0.044525
0.132568 0.192505 0.046326
0.162567 0.202972 0.047363
0.197296 0.215332 0.046783
0.235413 0.229065 0.044617
0.273987 0.242859 0.040192
0.311005 0.255798 0.034668
0.345062 0.266174 0.028534
0.377319 0.271759 0.023346
0.408936 0.273926 0.019623
0.439728 0.275452 0.014893
0.469727 0.276581 0.009796
0.499237 0.277649 0.003448
0.528687 0.277863 0.000000
0.558228 0.277039 0.000000
0.587494 0.275757 0.000000
0.616211 0.274323 0.000000
0.644348 0.272827 0.000000
0.671844 0.271332 0.000000
0.698669 0.269958 0.000000
0.724945 0.268707 0.000000
0.750702 0.267548 0.000000
0.776001 0.266449 0.000000
0.800873 0.265686 0.000000
0.825378 0.264862 0.000000
0.849670 0.264221 0.000000
0.873566 0.263733 0.000000
0.897369 0.263275 0.000000
0.920898 0.262817 0.000000
0.944336 0.262360 0.000000
0.057831 0.186279 0.042389
0.074188 0.191528 0.044922
0.092133 0.197876 0.047638
0.112488 0.205048 0.050598
0.136353 0.213593 0.052612
0.165771 0.224304 0.054047
0.199921 0.237061 0.054230
0.238007 0.251221 0.052826
0.277679 0.265991 0.049500
0.316010 0.280334 0.044128
0.351318 0.292908 0.037933
0.383331 0.302795 0.031647
0.413635 0.307892 0.026459
0.443909 0.309448 0.022705
0.473450 0.310303 0.018433
0.502686 0.311096 0.013763
0.531769 0.311951 0.008209
0.560791 0.312469 0.001556
0.590027 0.311981 0.000000
0.619354 0.310699 0.000000
0.648346 0.309143 0.000000
0.676758 0.307434 0.000000
0.704681 0.305756 0.000000
0.731934 0.304077 0.000000
0.758667 0.302704 0.000000
0.784760 0.301392 0.000000
0.810394 0.300262 0.000000
0.835602 0.299286 0.000000
0.860382 0.298462 0.000000
0.884888 0.297791 0.000000
0.909088 0.297241 0.000000
0.933014 0.296722 0.000000
0.956787 0.296234 0.000000
0.064087 0.207428 0.047791
0.080017 0.212891 0.050690
0.097687 0.219391 0.053925
0.117401 0.226654 0.056732
0.140991 0.235321 0.059387
0.169342 0.246094 0.060974
0.203033 0.258820 0.061707
0.240845 0.273193 0.060699
0.281097 0.288513 0.057983
0.320709 0.303741 0.053650
0.357300 0.317871 0.047821
0.390472 0.330109 0.041382
0.420319 0.339355 0.034943
0.448578 0.343994 0.029633
0.477356 0.344971 0.026184
0.506073 0.345245 0.022308
0.534760 0.345734 0.017548
0.563507 0.346191 0.012390
0.592316 0.346802 0.006500
0.621338 0.346863 0.000000
0.650696 0.345825 0.000000
0.679871 0.344330 0.000000
0.708618 0.342590 0.000000
0.736847 0.340851 0.000000
0.764557 0.339172 0.000000
0.791656 0.337646 0.000000
0.818176 0.336334 0.000000
0.844147 0.335114 0.000000
0.869659 0.334076 0.000000
0.894897 0.333160 0.000000
0.919708 0.332397 0.000000
0.944214 0.331665 0.000000
0.968506 0.331055 0.000000
0.070343 0.229156 0.053772
0.086121 0.234955 0.056824
0.103943 0.241455 0.059998
0.123291 0.248901 0.063080
0.146088 0.257660 0.065887
0.173859 0.268250 0.067719
0.206787 0.280884 0.068817
0.244324 0.295288 0.068359
0.284668 0.310760 0.066132
0.325195 0.326538 0.062347
0.363098 0.341736 0.057343
0.397522 0.355408 0.051208
0.428192 0.367035 0.045044
0.455627 0.375641 0.038788
0.482178 0.379913 0.033417
0.509827 0.380341 0.029633
0.537842 0.380310 0.025604
0.566132 0.380341 0.021179
0.594727 0.380707 0.016632
0.623444 0.381226 0.011230
0.652466 0.381653 0.005310
0.681702 0.381226 0.000000
0.711090 0.379944 0.000000
0.740112 0.378296 0.000000
0.768707 0.376648 0.000000
0.796783 0.375061 0.000000
0.824341 0.373383 0.000000
0.851257 0.371948 0.000000
0.877686 0.370636 0.000000
0.903625 0.369476 0.000000
0.929230 0.368469 0.000000
0.954437 0.367493 0.000000
0.979370 0.366669 0.000000
0.077026 0.251373 0.059906
0.092773 0.257294 0.063171
0.110229 0.264130 0.066559
0.129517 0.271576 0.069885
0.152252 0.280365 0.072449
0.179382 0.290802 0.074554
0.211609 0.303223 0.075745
0.248627 0.317444 0.075623
0.288757 0.332977 0.074188
0.329773 0.349060 0.070892
0.368744 0.364838 0.066467
0.404266 0.379425 0.060883
0.435791 0.392426 0.054871
0.463959 0.403564 0.049225
0.489594 0.411652 0.043427
0.514740 0.415588 0.037628
0.541504 0.415863 0.033478
0.569000 0.415405 0.029205
0.597015 0.415222 0.024719
0.625397 0.415344 0.019897
0.654266 0.415771 0.015228
0.683350 0.416473 0.010162
0.712738 0.416687 0.003967
0.742218 0.415863 0.000000
0.771545 0.414429 0.000000
0.800476 0.412872 0.000000
0.828949 0.411194 0.000000
0.856903 0.409607 0.000000
0.884338 0.408081 0.000000
0.911194 0.406677 0.000000
0.937653 0.405334 0.000000
0.963623 0.404083 0.000000
0.989319 0.402954 0.000427
0.083710 0.274139 0.066467
0.099548 0.280182 0.069641
0.117096 0.287140 0.073334
0.136597 0.294830 0.076569
0.159119 0.303589 0.079163
0.185974 0.313965 0.081451
0.217407 0.326019 0.082672
0.253937 0.340027 0.083069
0.293762 0.355225 0.081818
0.334808 0.371338 0.079224
0.374481 0.387360 0.075562
0.410919 0.402618 0.070465
0.443207 0.416656 0.064941
0.471985 0.429077 0.059631
0.498169 0.439728 0.054596
0.522369 0.447418 0.048676
0.546539 0.451111 0.042511
0.572540 0.451385 0.037323
0.599640 0.450684 0.032898
0.627441 0.450317 0.027893
0.655945 0.450256 0.023224
0.684967 0.450653 0.018768
0.714264 0.451355 0.013641
0.743805 0.451904 0.008789
0.773560 0.451752 0.002930
0.803192 0.450653 0.000000
0.832520 0.449158 0.000000
0.861420 0.447540 0.000000
0.889801 0.445862 0.000000
0.917694 0.444244 0.000000
0.945007 0.442657 0.000397
0.971924 0.441162 0.001434
0.998413 0.439728 0.002228
0.090454 0.297241 0.073120
0.106720 0.303467 0.076355
0.124512 0.310699 0.080231
0.144379 0.318512 0.083466
0.166901 0.327209 0.086151
0.193451 0.337524 0.088318
0.224487 0.349304 0.089844
0.260498 0.362915 0.090271
0.299805 0.377808 0.089233
0.340729 0.393677 0.087097
0.380585 0.409668 0.083862
0.417633 0.425293 0.079529
0.450623 0.440002 0.074921
0.479980 0.453400 0.069946
0.506531 0.465332 0.065063
0.531036 0.475616 0.060394
0.554138 0.483032 0.054565
0.577515 0.486847 0.047577
0.603088 0.487030 0.041748
0.630035 0.486115 0.036438
0.657837 0.485504 0.031036
0.686432 0.485443 0.025909
0.715698 0.485748 0.021545
0.745270 0.486359 0.016724
0.775116 0.487183 0.012054
0.805206 0.487488 0.006989
0.835175 0.486847 0.002777
0.864929 0.485474 0.000000
0.894257 0.483887 0.000000
0.923126 0.482117 0.000519
0.951416 0.480377 0.001190
0.979248 0.478699 0.002289
1.000000 0.476990 0.003021
0.097595 0.320801 0.080017
0.114319 0.327240 0.083313
0.132538 0.334625 0.087311
0.152740 0.342499 0.090668
0.175507 0.351227 0.093414
0.201904 0.361359 0.095551
0.233002 0.372955 0.096924
0.268341 0.386139 0.097321
0.307068 0.400635 0.096741
0.347443 0.416077 0.094849
0.387146 0.431915 0.091980
0.424530 0.447693 0.088501
0.458008 0.462677 0.084229
0.487976 0.476746 0.079742
0.514801 0.489594 0.075165
0.539276 0.501160 0.070984
0.562653 0.511169 0.066803
0.585144 0.518463 0.060608
0.608093 0.522339 0.052612
0.633331 0.522827 0.045654
0.660248 0.521729 0.039490
0.688141 0.521027 0.033813
0.716949 0.520813 0.028107
0.746399 0.520996 0.023254
0.776459 0.521545 0.018707
0.806702 0.522369 0.014038
0.837097 0.523102 0.009705
0.867493 0.522919 0.005615
0.897675 0.521729 0.000763
0.927460 0.520172 0.000000
0.956757 0.518433 0.001038
0.985565 0.516571 0.001770
1.000000 0.514740 0.002960
0.105560 0.344696 0.087219
0.122559 0.351349 0.090729
0.141266 0.358795 0.094666
0.161682 0.366821 0.098022
0.184814 0.375641 0.100769
0.211487 0.385559 0.102692
0.242493 0.396881 0.103973
0.277435 0.409698 0.104523
0.315308 0.423676 0.104065
0.354889 0.438660 0.102356
0.394348 0.454254 0.100037
0.431763 0.469818 0.096771
0.465515 0.484955 0.093048
0.495819 0.499359 0.089081
0.522888 0.512878 0.084930
0.547394 0.525330 0.080994
0.570770 0.536682 0.077332
0.593414 0.546509 0.073120
0.615540 0.553772 0.066620
0.638336 0.557770 0.057556
0.663391 0.558624 0.049316
0.690430 0.557465 0.042389
0.718536 0.556702 0.035553
0.747589 0.556335 0.029419
0.777435 0.556458 0.024353
0.807831 0.556885 0.019409
0.838470 0.557617 0.014801
0.869293 0.558563 0.010895
0.900085 0.558899 0.006989
0.930664 0.558044 0.002777
0.960938 0.556549 0.000153
0.990723 0.554718 0.000671
1.000000 0.552856 0.001617
0.114105 0.369049 0.094940
0.131622 0.375916 0.098602
0.150543 0.383362 0.102386
0.171448 0.391357 0.105591
0.195007 0.400146 0.108246
0.222015 0.409943 0.109985
0.252747 0.420959 0.111267
0.287048 0.433289 0.111755
0.324371 0.446869 0.111176
0.363342 0.461334 0.109772
0.402344 0.476471 0.107544
0.439392 0.491760 0.104736
0.473175 0.506897 0.101349
0.503693 0.521545 0.097748
0.530823 0.535461 0.094116
0.555511 0.548523 0.090515
0.578796 0.560760 0.086975
0.601410 0.571930 0.083435
0.623718 0.581696 0.079315
0.645630 0.588959 0.072205
0.668427 0.593170 0.062134
0.693451 0.594543 0.052429
0.720703 0.593231 0.044678
0.749023 0.592407 0.037476
0.778442 0.592010 0.030548
0.808594 0.592041 0.024628
0.839355 0.592377 0.019440
0.870361 0.593018 0.014832
0.901550 0.593872 0.010681
0.932800 0.594757 0.007050
0.963867 0.594269 0.003601
0.992157 0.592865 0.000580
1.000000 0.591125 0.000000
0.123352 0.393707 0.102875
0.141357 0.400696 0.106598
0.160767 0.408203 0.110413
0.182220 0.416107 0.113373
0.205994 0.424774 0.115753
0.233032 0.434387 0.117493
0.263489 0.445068 0.118530
0.297485 0.456909 0.118774
0.334167 0.470001 0.118286
0.372437 0.484070 0.117065
0.410736 0.498657 0.114990
0.447174 0.513672 0.112335
0.480865 0.528595 0.109344
0.511475 0.543274 0.106049
0.538696 0.557465 0.102692
0.563568 0.571045 0.099396
0.586853 0.583832 0.095978
0.609161 0.595886 0.092621
0.631317 0.607025 0.089539
0.653442 0.616669 0.085327
0.675415 0.623962 0.077545
0.698395 0.628418 0.066345
0.723572 0.630157 0.055695
0.751007 0.629059 0.046906
0.779633 0.628235 0.038666
0.809326 0.627777 0.031097
0.839874 0.627777 0.024597
0.870941 0.627991 0.018982
0.902374 0.628540 0.014130
0.933990 0.629364 0.009705
0.965607 0.630341 0.006195
0.992157 0.630493 0.003326
1.000000 0.629272 0.000732
0.133148 0.418549 0.110901
0.151672 0.425537 0.114685
0.171570 0.432953 0.118286
0.193451 0.440826 0.121094
0.217560 0.449371 0.123322
0.244568 0.458740 0.124817
0.274963 0.469116 0.125580
0.308502 0.480621 0.125732
0.344482 0.493164 0.125244
0.381927 0.506683 0.124115
0.419373 0.520844 0.122162
0.455261 0.535522 0.119629
0.488708 0.550201 0.116913
0.519165 0.564819 0.113892
0.546478 0.579132 0.110809
0.571472 0.592957 0.107605
0.594727 0.606262 0.104614
0.616974 0.618927 0.101501
0.638763 0.630798 0.098511
0.660767 0.641907 0.095490
0.682922 0.651520 0.091034
0.705078 0.658875 0.082550
0.728333 0.663635 0.070404
0.753662 0.665894 0.058441
0.781403 0.664856 0.048828
0.810333 0.664093 0.039581
0.840363 0.663605 0.031250
0.871216 0.663513 0.024017
0.902710 0.663788 0.017975
0.934509 0.664215 0.012512
0.966553 0.664917 0.008331
0.992157 0.665894 0.004761
1.000000 0.666534 0.001892
0.143768 0.443481 0.119171
0.162445 0.450378 0.122986
0.182678 0.457703 0.126129
0.204773 0.465424 0.128662
0.229279 0.473816 0.130646
0.256592 0.482971 0.131897
0.286804 0.493073 0.132538
0.319733 0.504150 0.132538
0.354980 0.516266 0.132019
0.391724 0.529266 0.130829
0.428284 0.543060 0.129089
0.463593 0.557251 0.126678
0.496765 0.571686 0.124054
0.526825 0.586151 0.121338
0.554199 0.600464 0.118530
0.579132 0.614410 0.115723
0.602417 0.627991 0.112915
0.624512 0.641174 0.110046
0.646210 0.653748 0.107147
0.667908 0.665588 0.104187
0.689972 0.676575 0.101135
0.712280 0.686157 0.096313
0.734680 0.693573 0.087158
0.758179 0.698608 0.074127
0.783844 0.701263 0.061005
0.811798 0.700653 0.049957
0.841095 0.699890 0.040070
0.871429 0.699463 0.031006
0.902740 0.699371 0.023438
0.934479 0.699554 0.016876
0.966705 0.699982 0.010986
0.992157 0.700623 0.006226
1.000000 0.701477 0.002563
0.154388 0.468231 0.127533
0.173431 0.475037 0.130920
0.194000 0.482269 0.133942
0.216522 0.489838 0.136108
0.241272 0.498016 0.137665
0.268616 0.506958 0.138763
0.298645 0.516785 0.139282
0.331146 0.527527 0.139282
0.365845 0.539215 0.138672
0.401611 0.551819 0.137482
0.437408 0.565125 0.135681
0.472046 0.578918 0.133423
0.504547 0.593079 0.130920
0.534271 0.607300 0.128418
0.561493 0.621521 0.125885
0.586548 0.635529 0.123291
0.609802 0.649323 0.120728
0.631958 0.662842 0.118164
0.653564 0.675903 0.115326
0.675018 0.688385 0.112671
0.696747 0.700134 0.109802
0.718964 0.711029 0.106689
0.741455 0.720520 0.101532
0.764160 0.728088 0.091644
0.788025 0.733429 0.077515
0.813934 0.736603 0.063141
0.842224 0.736328 0.051300
0.871796 0.735657 0.040436
0.902557 0.735321 0.030670
0.934113 0.735291 0.022217
0.966339 0.735474 0.014893
0.992157 0.735901 0.008881
1.000000 0.736603 0.003998
0.165253 0.492645 0.135437
0.184662 0.499298 0.138458
0.205536 0.506409 0.141205
0.228180 0.513824 0.143219
0.253143 0.521851 0.144592
0.280457 0.530579 0.145477
0.310242 0.540131 0.145874
0.342407 0.550659 0.145721
0.376312 0.562012 0.144989
0.411255 0.574127 0.143768
0.446106 0.587036 0.142059
0.479980 0.600433 0.139954
0.511749 0.614258 0.137695
0.541321 0.628265 0.135315
0.568542 0.642365 0.132965
0.593628 0.656342 0.130524
0.616943 0.670319 0.128235
0.639130 0.684052 0.125854
0.660706 0.697449 0.123505
0.681976 0.710358 0.120850
0.703461 0.722687 0.118073
0.725342 0.734283 0.115112
0.747803 0.745117 0.112061
0.770538 0.754608 0.106537
0.793488 0.762238 0.095825
0.817749 0.768005 0.080688
0.843994 0.771637 0.065338
0.872528 0.771912 0.052429
0.902557 0.771454 0.040649
0.933624 0.771271 0.030090
0.965546 0.771332 0.020905
0.992157 0.771606 0.012939
1.000000 0.772064 0.006592
0.175842 0.516785 0.143036
0.195465 0.523285 0.145782
0.216461 0.530182 0.148254
0.239288 0.537506 0.150116
0.264221 0.545471 0.151367
0.291382 0.554047 0.152069
0.320831 0.563385 0.152283
0.352417 0.573547 0.152039
0.385681 0.584564 0.151337
0.419830 0.596344 0.150085
0.454041 0.608795 0.148468
0.487244 0.621826 0.146423
0.518677 0.635284 0.144287
0.548035 0.649048 0.142029
0.575256 0.662994 0.139862
0.600342 0.676941 0.137573
0.623688 0.690979 0.135559
0.645966 0.704865 0.133484
0.667542 0.718475 0.131195
0.688782 0.731720 0.128784
0.710052 0.744476 0.126221
0.731720 0.756714 0.123413
0.753845 0.768188 0.120331
0.776459 0.778931 0.117218
0.799377 0.788574 0.110962
0.822601 0.796509 0.099396
0.847321 0.802643 0.083435
0.873932 0.806824 0.067108
0.902863 0.807465 0.053040
0.933258 0.807312 0.040466
0.964661 0.807220 0.029449
0.992157 0.807343 0.019623
1.000000 0.807526 0.011078
0.185211 0.540558 0.150604
0.205078 0.546967 0.153168
0.226410 0.553741 0.155243
0.249359 0.561066 0.156952
0.274231 0.568817 0.158142
0.301300 0.577301 0.158691
0.330444 0.586395 0.158783
0.361603 0.596222 0.158447
0.394318 0.606903 0.157654
0.427948 0.618378 0.156464
0.461517 0.630402 0.154816
0.494141 0.643066 0.152802
0.525208 0.656158 0.150757
0.554443 0.669678 0.148651
0.581635 0.683441 0.146515
0.606659 0.697327 0.144592
0.630188 0.711365 0.142761
0.652527 0.725250 0.140778
0.674164 0.739075 0.138672
0.695435 0.752563 0.136475
0.716492 0.765808 0.134003
