lut/gamut-606/606 - Belmont.cube
TITLE "606 - Belmont"
# Contributor - Eric Floberg. Version 1.0 - 06/29/2022 - Designed for Rec.709 Color Space. Copyright 2022 Gamut, LLC
LUT_3D_SIZE 33
0.0000000000 0.0000000000 0.0000000000
0.0100292187 0.0000000000 0.0007643437
0.0316420000 0.0000000000 0.0015277500
0.0569400000 0.0007150312 0.0022920313
0.0796341250 0.0014785000 0.0046325000
0.1033756250 0.0015770000 0.0061857188
0.1287369375 0.0023660000 0.0077380625
0.1574094062 0.0023660000 0.0092904062
0.1905067500 0.0001972500 0.0102510000
0.2306294375 0.0000000000 0.0116070938
0.2752708125 0.0000000000 0.0126170000
0.3220812813 0.0000000000 0.0134060000
0.3697792500 0.0000000000 0.0134060000
0.4182773750 0.0000000000 0.0126170000
0.4665776250 0.0000000000 0.0113851875
0.5135165000 0.0000000000 0.0102510000
0.5588490000 0.0000000000 0.0094630000
0.6022092187 0.0000000000 0.0083046250
0.6429816875 0.0000000000 0.0075408125
0.6809428438 0.0000000000 0.0067768750
0.7164941250 0.0000000000 0.0060131250
0.7495300312 0.0000000000 0.0052487812
0.7806495000 0.0000000000 0.0047310000
0.8102157500 0.0000000000 0.0047310000
0.8383232500 0.0001972500 0.0057172500
0.8649514375 0.0020945625 0.0076145625
0.8902090625 0.0107440000 0.0125681250
0.9146152500 0.0392886875 0.0212422187
0.9376445000 0.0800810000 0.0324301250
0.9586025000 0.1169536250 0.0469416875
0.9760202500 0.1492601250 0.0633218750
0.9892412812 0.1778532187 0.0803716250
1.0000000000 0.2041850000 0.0979300000
0.0000000000 0.0116318438 0.0015523750
0.0100785000 0.0116318438 0.0007890000
0.0308530000 0.0131349062 0.0015277500
0.0543909063 0.0146133750 0.0030554688
0.0758893750 0.0161903125 0.0046325000
0.0996766250 0.0177427812 0.0055200000
0.1253307188 0.0186549062 0.0077380625
0.1548830937 0.0186549062 0.0092904062
0.1901915625 0.0145390625 0.0100786250
0.2307013438 0.0083786562 0.0116070938
0.2749834688 0.0062104062 0.0118290000
0.3213937500 0.0062104062 0.0126170000
0.3688840313 0.0062104063 0.0121245000
0.4172597812 0.0062104062 0.0113851563
0.4653703437 0.0062104063 0.0105961875
0.5124469687 0.0062104062 0.0094876250
0.5578694375 0.0062104063 0.0086986562
0.6013097813 0.0062104063 0.0075407812
0.6422356563 0.0062104062 0.0067522500
0.6803069375 0.0062104063 0.0055446562
0.7157204062 0.0062104062 0.0044601562
0.7488731250 0.0062104062 0.0036964063
0.7798347500 0.0062104062 0.0031786563
0.8093722500 0.0069737812 0.0031786563
0.8374263438 0.0081570313 0.0034005313
0.8639909062 0.0136273750 0.0060868437
0.8892010938 0.0295763750 0.0110396250
0.9135639688 0.0665149375 0.0196898437
0.9366143750 0.1040181250 0.0308777500
0.9576624062 0.1373960938 0.0462306250
0.9752838437 0.1671060000 0.0622168750
0.9888705625 0.1939092188 0.0799235000
1.0000000000 0.2188367188 0.0979300000
0.0000000000 0.0293745625 0.0053721250
0.0100538750 0.0293499063 0.0046078125
0.0270578750 0.0293745625 0.0023660000
0.0506347188 0.0301380000 0.0023166875
0.0728461875 0.0323807500 0.0045338750
0.0954124375 0.0333668125 0.0061857188
0.1221143125 0.0342041875 0.0077380625
0.1535981563 0.0335885625 0.0086740000
0.1900435625 0.0313951250 0.0100540000
0.2305617188 0.0249635312 0.0108674062
0.2745130625 0.0155250625 0.0116317500
0.3204743125 0.0125924687 0.0118290000
0.3682393750 0.0124198750 0.0110893125
0.4165969375 0.0124198750 0.0103003125
0.4647927500 0.0124198750 0.0095122500
0.5119344062 0.0124198750 0.0087233125
0.5576881875 0.0124198750 0.0075407500
0.6008905625 0.0124198750 0.0067276250
0.6416591875 0.0124198750 0.0052241250
0.6796826875 0.0124198750 0.0036717188
0.7149832500 0.0124198750 0.0029078125
0.7479681250 0.0126910938 0.0021440313
0.7790430625 0.0134058125 0.0016263125
0.8083844375 0.0143910938 0.0011091875
0.8363370000 0.0185807500 0.0018235625
0.8628135000 0.0295961563 0.0043372187
0.8880627500 0.0579987500 0.0094626250
0.9124330000 0.0952719688 0.0174718125
0.9355316875 0.1289696250 0.0301134375
0.9567072188 0.1593260312 0.0448328750
0.9744588750 0.1864511875 0.0616518750
0.9885225625 0.2111685312 0.0799085625
1.0000000000 0.2342585625 0.0983300000
0.0000000000 0.0481630000 0.0077381563
0.0107935313 0.0473396875 0.0084522812
0.0247905000 0.0467810313 0.0076395313
0.0454001562 0.0474629062 0.0046571250
0.0697346875 0.0481630000 0.0038690313
0.0936138750 0.0506717188 0.0060624375
0.1209275000 0.0526163750 0.0077380625
0.1525278750 0.0533303125 0.0086740000
0.1888471875 0.0517998437 0.0094630000
0.2293366562 0.0472723750 0.0101032500
0.2731704375 0.0395428438 0.0103249687
0.3195334687 0.0276745000 0.0103249687
0.3674663750 0.0207248125 0.0095368750
0.4158589062 0.0192704687 0.0094630000
0.4641034375 0.0193443437 0.0083047188
0.5113409688 0.0189257188 0.0075407188
0.5569481250 0.0186302187 0.0059883750
0.6002228125 0.0186302187 0.0045095625
0.6409384063 0.0193443437 0.0029570938
0.6788458125 0.0193443437 0.0021193438
0.7141797187 0.0196402188 0.0008628750
0.7469941562 0.0204045625 0.0005177813
0.7778950312 0.0221292813 0.0000739688
0.8072244375 0.0269597500 0.0002958750
0.8350514687 0.0369452500 0.0009860000
0.8615400313 0.0617356875 0.0027848437
0.8868406562 0.0951774375 0.0077623438
0.9111994062 0.1273437500 0.0159193750
0.9343917188 0.1567973438 0.0278715000
0.9556241875 0.1834861875 0.0433833750
0.9736521875 0.2076524063 0.0611156875
0.9881095937 0.2302129688 0.0799085625
1.0000000000 0.2514901875 0.0986915937
0.0000000000 0.0671775000 0.0115332500
0.0116318437 0.0661293125 0.0116317500
0.0248397500 0.0655913750 0.0123212500
0.0424330313 0.0665115312 0.0100292500
0.0659943750 0.0690491250 0.0069985000
0.0937706562 0.0700866562 0.0047556562
0.1218458750 0.0730863125 0.0062596875
0.1532133438 0.0755536250 0.0078120313
0.1894908750 0.0761460000 0.0086740000
0.2301642187 0.0747946250 0.0087726250
0.2743666250 0.0700911250 0.0087726250
0.3211749688 0.0616825625 0.0087726250
0.3693217500 0.0491405000 0.0087726250
0.4174945000 0.0355809063 0.0075160313
0.4653823125 0.0294730625 0.0067523750
0.5121533750 0.0282898750 0.0051994688
0.5571973750 0.0276003750 0.0037456250
0.6002215937 0.0269100000 0.0021932812
0.6408370000 0.0270086250 0.0009861250
0.6784911875 0.0280191250 0.0000986250
0.7135478750 0.0304586250 0.0000986250
0.7462013125 0.0343274375 0.0000000000
0.7769440000 0.0403778750 0.0000000000
0.8062502813 0.0541507188 0.0000000000
0.8340087500 0.0801462500 0.0002958750
0.8603581250 0.1084738750 0.0019219688
0.8855325000 0.1358736875 0.0061113750
0.9098839062 0.1623901563 0.0143670000
0.9330638750 0.1870441250 0.0263183750
0.9544453750 0.2100462813 0.0419665625
0.9727608125 0.2313539375 0.0599798125
0.9876305938 0.2512941875 0.0794570313
1.0000000000 0.2705778750 0.0990763750
0.0000000000 0.0898445312 0.0147365937
0.0095122500 0.0894250937 0.0154014687
0.0227457187 0.0882487188 0.0155245937
0.0389831562 0.0886425625 0.0146872812
0.0605709375 0.0906470625 0.0116564375
0.0878842187 0.0923382500 0.0078860000
0.1205278125 0.0943216562 0.0049035937
0.1526795000 0.0977237500 0.0062596875
0.1885355312 0.1004914063 0.0078120313
0.2292401562 0.1022474062 0.0085755000
0.2735336562 0.1016269687 0.0081322500
0.3204025313 0.0983080312 0.0074913438
0.3685415625 0.0922266563 0.0067277813
0.4167266875 0.0835352188 0.0052979375
0.4643519375 0.0731328437 0.0037455938
0.5110863437 0.0619545937 0.0021932500
0.5561378750 0.0527309375 0.0010354062
0.5991040000 0.0469397187 0.0001232812
0.6396453750 0.0455163750 0.0001232812
0.6770646563 0.0495060000 0.0000000000
0.7119823438 0.0592941875 0.0000000000
0.7445570313 0.0733813750 0.0000000000
0.7751852812 0.0904443750 0.0000000000
0.8044581562 0.1100734375 0.0000000000
0.8320844375 0.1319082188 0.0001972500
0.8584532500 0.1545221250 0.0012570937
0.8837451250 0.1768087813 0.0046575000
0.9080715625 0.1984605000 0.0120257812
0.9313536875 0.2189881250 0.0246674062
0.9529800625 0.2385030938 0.0404480000
0.9716411875 0.2569202187 0.0593985312
0.9871339375 0.2746287813 0.0798604375
1.0000000000 0.2917961875 0.1002475937
0.0000000000 0.1154713750 0.0184823750
0.0064814688 0.1157451875 0.0192705625
0.0153280000 0.1150073125 0.0192705625
0.0315430000 0.1138432500 0.0193444375
0.0529923750 0.1151498125 0.0171025000
0.0808517500 0.1174300938 0.0139723125
0.1123369375 0.1196691875 0.0101032500
0.1496996875 0.1218731875 0.0063582813
0.1879592500 0.1257674375 0.0062596875
0.2287449687 0.1295761875 0.0064567500
0.2724673125 0.1322470625 0.0059143125
0.3187403750 0.1331110000 0.0052979062
0.3669029375 0.1318786875 0.0037455625
0.4152080625 0.1287704062 0.0021932188
0.4629520625 0.1241970625 0.0010846875
0.5095337500 0.1186380000 0.0001479375
0.5546525625 0.1134763125 0.0001479375
0.5975119063 0.1103370938 0.0000000000
0.6376533750 0.1101984375 0.0000000000
0.6750440313 0.1141658750 0.0000000000
0.7097405000 0.1220388125 0.0000000000
0.7421114063 0.1334926563 0.0000000000
0.7727744375 0.1475723125 0.0000000000
0.8019017188 0.1635621875 0.0000000000
0.8295868125 0.1808930625 0.0001972500
0.8560042500 0.1986958750 0.0009613750
0.8814004375 0.2167833750 0.0038935000
0.9058685313 0.2346024688 0.0109903750
0.9293358125 0.2517403750 0.0224253750
0.9511730000 0.2682003125 0.0389132500
0.9703682500 0.2840695000 0.0586993125
0.9864826875 0.2994684687 0.0799620938
1.0000000000 0.3147041250 0.1017213125
0.0000000000 0.1453337813 0.0211194063
0.0062104062 0.1458642500 0.0217350312
0.0125431562 0.1448868125 0.0225240312
0.0202561562 0.1435564375 0.0226225313
0.0409244375 0.1433447188 0.0224500625
0.0696797500 0.1456836875 0.0188274375
0.1028472812 0.1486559063 0.0149090625
0.1401991563 0.1514130938 0.0096353750
0.1828751875 0.1539808750 0.0045345000
0.2270314688 0.1584363437 0.0029325938
0.2714229062 0.1627190625 0.0020945625
0.3174071562 0.1663240938 0.0013063437
0.3646672187 0.1689389375 0.0009613750
0.4126686250 0.1696105625 0.0001725938
0.4605559062 0.1689984687 0.0000000000
0.5074878750 0.1677780625 0.0000000000
0.5524661250 0.1666015625 0.0000000000
0.5952133750 0.1665750313 0.0000000000
0.6351384062 0.1684273750 0.0000000000
0.6722220000 0.1726592188 0.0000000000
0.7067562812 0.1792163750 0.0000000000
0.7391342500 0.1883609687 0.0000000000
0.7697938750 0.1995139375 0.0000000000
0.7988492500 0.2124351563 0.0000000000
0.8266151875 0.2264435000 0.0000000000
0.8531752188 0.2411272812 0.0009613750
0.8786280312 0.2559375312 0.0035976250
0.9033105000 0.2707125000 0.0095859687
0.9269442500 0.2850224688 0.0208723438
0.9491505937 0.2988112187 0.0379844688
0.9689617500 0.3123390938 0.0581574375
0.9856414688 0.3256334687 0.0804777813
1.0000000000 0.3387227812 0.1032354375
0.0000000000 0.1806735000 0.0228690000
0.0062104062 0.1804616875 0.0234600000
0.0124198750 0.1796039375 0.0241995000
0.0185563437 0.1783126250 0.0249630312
0.0266145000 0.1768636250 0.0250370000
0.0510925937 0.1779733125 0.0227211562
0.0893756250 0.1812555000 0.0181863750
0.1295312500 0.1845407500 0.0121493125
0.1725232500 0.1876635000 0.0059142500
0.2197276875 0.1903829687 0.0006654375
0.2687590625 0.1949011250 0.0001972500
0.3160526250 0.1998380000 0.0000000000
0.3633357500 0.2042323750 0.0000000000
0.4108487813 0.2077635313 0.0000000000
0.4582897500 0.2104946875 0.0000000000
0.5050185312 0.2120799063 0.0000000000
0.5499835000 0.2134405000 0.0000000000
0.5924415938 0.2154047500 0.0000000000
0.6321223125 0.2185972500 0.0000000000
0.6689912188 0.2232561875 0.0000000000
0.7034420000 0.2295106250 0.0000000000
0.7357546875 0.2375178750 0.0000000000
0.7663868750 0.2471511875 0.0000000000
0.7955913750 0.2579862187 0.0000000000
0.8233587500 0.2696827500 0.0000000000
0.8500897500 0.2818833438 0.0009613750
0.8756913125 0.2941845625 0.0028094375
0.9004516562 0.3064104375 0.0088222188
0.9242670000 0.3183335000 0.0201087500
0.9468361250 0.3299570312 0.0372027813
0.9671571250 0.3412400625 0.0581909375
0.9847004062 0.3525042500 0.0817884687
1.0000000000 0.3636127500 0.1054815000
0.0000000000 0.2158590625 0.0236570000
0.0062104063 0.2185720625 0.0236570000
0.0124198750 0.2182919063 0.0244460000
0.0186302187 0.2170424062 0.0251601250
0.0247412500 0.2153082813 0.0260230000
0.0342045313 0.2140884687 0.0264914688
0.0662816250 0.2165581875 0.0214397500
0.1134989063 0.2199473750 0.0146623125
0.1601925000 0.2235505625 0.0070728438
0.2086937500 0.2270150312 0.0006654375
0.2597478750 0.2301111250 0.0000000000
0.3121694063 0.2346128125 0.0000000000
0.3610015938 0.2395788437 0.0000000000
0.4088363437 0.2443831875 0.0000000000
0.4560750313 0.2488595625 0.0000000000
0.5022190000 0.2530128125 0.0000000000
0.5467684375 0.2565501875 0.0000000000
0.5889882187 0.2601296250 0.0000000000
0.6283925625 0.2641830000 0.0000000000
0.6651345938 0.2692635313 0.0000000000
0.6994754062 0.2754417188 0.0000000000
0.7318174063 0.2828736562 0.0000000000
0.7625500312 0.2913306562 0.0000000000
0.7918952812 0.3008224375 0.0000000000
0.8198066250 0.3108074687 0.0000000000
0.8465968750 0.3210551875 0.0007890000
0.8724380312 0.3313688125 0.0028094375
0.8972851875 0.3414815000 0.0086252188
0.9213517813 0.3513772500 0.0199117500
0.9442274062 0.3609840625 0.0372694375
0.9651721563 0.3704524687 0.0592655938
0.9836567500 0.3798051562 0.0838543750
1.0000000000 0.3891564688 0.1085755312
0.0000000000 0.2544604375 0.0231152500
0.0062104062 0.2580131562 0.0236570000
0.0124198750 0.2582785625 0.0238542500
0.0186302187 0.2571627500 0.0246183750
0.0248397500 0.2556247500 0.0259243750
0.0315926250 0.2538366250 0.0276000000
0.0435323750 0.2539812500 0.0251848125
0.0897450312 0.2569845000 0.0177184062
0.1441088125 0.2608231875 0.0086251875
0.1953246563 0.2647067813 0.0014541563
0.2476728125 0.2684325625 0.0000000000
0.3019999688 0.2720942188 0.0000000000
0.3560206250 0.2761374375 0.0000000000
0.4056251250 0.2811720625 0.0000000000
0.4532645000 0.2862465000 0.0000000000
0.4993205937 0.2913799687 0.0000000000
0.5434446875 0.2965043750 0.0000000000
0.5851685625 0.3015639375 0.0000000000
0.6242880000 0.3065683125 0.0000000000
0.6607660625 0.3120520625 0.0000000000
0.6950700625 0.3182238125 0.0000000000
0.7274558125 0.3252389375 0.0000000000
0.7582930625 0.3329922500 0.0000000000
0.7877968750 0.3414044375 0.0000000000
0.8158657500 0.3500043750 0.0000000000
0.8428518437 0.3587203438 0.0007890000
0.8688161875 0.3673861250 0.0028094375
0.8938745938 0.3757761875 0.0086252188
0.9181769375 0.3839016875 0.0204535000
0.9413570937 0.3917504375 0.0386491562
0.9628580000 0.3994576875 0.0615036250
0.9823153125 0.4072013437 0.0868697500
1.0000000000 0.4148705625 0.1122540000
0.0000000000 0.2948979063 0.0220800000
0.0062104062 0.2987110938 0.0223512187
0.0124198750 0.2989606875 0.0230906250
0.0186302187 0.2981670000 0.0238542500
0.0248397500 0.2966114063 0.0251355000
0.0311981250 0.2949324688 0.0266887187
0.0387862812 0.2936017813 0.0274768750
0.0593578750 0.2955362188 0.0213412187
0.1218700938 0.2991808125 0.0116806562
0.1794695312 0.3030618438 0.0029818438
0.2337015312 0.3069422813 0.0007643438
0.2886707500 0.3108001563 0.0000000000
0.3445101875 0.3144899063 0.0000000000
0.3991418750 0.3184277812 0.0000000000
0.4487165625 0.3234570937 0.0000000000
0.4952079375 0.3287466250 0.0000000000
0.5395328125 0.3343470000 0.0000000000
0.5810254062 0.3399983438 0.0000000000
0.6198006875 0.3457854062 0.0000000000
0.6561931250 0.3517980937 0.0000000000
0.6904111875 0.3581476875 0.0000000000
0.7229299063 0.3650384688 0.0000000000
0.7539068750 0.3722984375 0.0000000000
0.7835027813 0.3798763438 0.0000000000
0.8117484688 0.3874647813 0.0000000000
0.8388715625 0.3949196562 0.0009613750
0.8650646562 0.4021224688 0.0033267500
0.8903028125 0.4090107188 0.0095365000
0.9147521250 0.4155669375 0.0222035312
0.9383199062 0.4219115625 0.0415203750
0.9604423438 0.4281296562 0.0651171563
0.9809018438 0.4343300000 0.0910503125
1.0000000000 0.4406255000 0.1172621875
0.0000000000 0.3378823750 0.0212920000
0.0062104063 0.3397035312 0.0220553750
0.0124198750 0.3397826250 0.0228196875
0.0186302187 0.3390995625 0.0235831250
0.0248397500 0.3378313750 0.0251355000
0.0310501875 0.3362219062 0.0266887187
0.0379006875 0.3346478125 0.0280931250
0.0495058750 0.3341707187 0.0269348125
0.0942688750 0.3371137500 0.0167572500
0.1599998438 0.3409811250 0.0057417187
0.2182350625 0.3449070625 0.0015277500
0.2743748750 0.3489390625 0.0004931250
0.3305707500 0.3527853750 0.0000000000
0.3867108750 0.3565465312 0.0000000000
0.4405355625 0.3606314375 0.0000000000
0.4891656875 0.3654768438 0.0000000000
0.5342388750 0.3709028750 0.0000000000
0.5762552188 0.3766645937 0.0000000000
0.6152575625 0.3827161250 0.0000000000
0.6516808125 0.3889813750 0.0000000000
0.6859326250 0.3955566250 0.0000000000
0.7184588438 0.4023694688 0.0000000000
0.7495264375 0.4093199375 0.0000000000
0.7791963438 0.4163307813 0.0000000000
0.8076323750 0.4230841250 0.0000000000
0.8349076562 0.4295236875 0.0009613750
0.8611928750 0.4354871250 0.0042385000
0.8866096562 0.4411334063 0.0117299062
0.9113006250 0.4463720000 0.0255300000
0.9351492812 0.4513723438 0.0458186875
0.9578787500 0.4562720000 0.0703570000
0.9793721562 0.4611983438 0.0965235000
0.9998825000 0.4661862500 0.1229842500
0.0000000000 0.3760279375 0.0222283437
0.0062104062 0.3800742812 0.0230163438
0.0124198750 0.3811488438 0.0245440937
0.0186302187 0.3805430625 0.0257768438
0.0248397500 0.3794775938 0.0268607187
0.0310501875 0.3778900938 0.0284132188
0.0379006875 0.3760461250 0.0304340625
0.0464500312 0.3744292188 0.0320110625
0.0683480000 0.3755065000 0.0259495000
0.1376327187 0.3789160000 0.0138245312
0.2018232812 0.3825576563 0.0045092813
0.2602088125 0.3865023750 0.0019962188
0.3170609375 0.3904243750 0.0007890000
0.3732606250 0.3941652813 0.0004684687
0.4283036875 0.3979165312 0.0000000000
0.4801300312 0.4019502813 0.0000000000
0.5272101250 0.4067330937 0.0000000000
0.5703420938 0.4120150000 0.0000000000
0.6100345312 0.4177152500 0.0000000000
0.6469578125 0.4239270000 0.0000000000
0.6814520625 0.4304232813 0.0000000000
0.7141250000 0.4371339375 0.0000000000
0.7452461563 0.4439370313 0.0000000000
0.7749991250 0.4505360938 0.0000000000
0.8035150000 0.4566893125 0.0001972500
0.8309046562 0.4623198438 0.0016018437
0.8573439687 0.4673937500 0.0059387812
0.8829728750 0.4719752812 0.0151307187
0.9078740625 0.4761394688 0.0307526875
0.9319510625 0.4800416875 0.0521753750
0.9551841875 0.4837923438 0.0773428125
0.9775285938 0.4875724687 0.1034461875
0.9991601875 0.4913633750 0.1295105625
0.0000000000 0.4155521250 0.0262201250
0.0062104063 0.4199458437 0.0282162812
0.0124198750 0.4213490000 0.0297686875
0.0186302187 0.4210058750 0.0313210625
0.0248397500 0.4200200625 0.0324301875
0.0310501875 0.4186756875 0.0344260938
0.0379006875 0.4169970625 0.0366192500
0.0453692188 0.4152758125 0.0383195625
0.0614609375 0.4143646875 0.0374573125
0.1164750938 0.4165530937 0.0275014375
0.1855026250 0.4197762500 0.0139478125
0.2469606250 0.4234094063 0.0061852500
0.3047083125 0.4270301875 0.0032530625
0.3608793437 0.4306823750 0.0019961875
0.4158640625 0.4341091250 0.0012322500
0.4686966875 0.4377044375 0.0004438125
0.5179043125 0.4416311875 0.0000493125
0.5628422500 0.4461784375 0.0000000000
0.6038996875 0.4512890625 0.0000000000
0.6417355937 0.4569386875 0.0000000000
0.6769013125 0.4631535625 0.0000000000
0.7099270938 0.4696489062 0.0000000000
0.7411821875 0.4761526250 0.0000000000
0.7710883750 0.4824180000 0.0000000000
0.7996496875 0.4881702500 0.0006408125
0.8270593750 0.4932330312 0.0025381563
0.8536044375 0.4976431875 0.0080831250
0.8793052500 0.5014452500 0.0199115000
0.9043541875 0.5047978125 0.0375185625
0.9287050937 0.5077773750 0.0604310625
0.9523371875 0.5105518125 0.0858088125
0.9753239688 0.5134094375 0.1116911875
0.9977426875 0.5162602500 0.1372243125
0.0000000000 0.4547185625 0.0356831250
0.0062104062 0.4587129688 0.0379930000
0.0124198750 0.4598966250 0.0395408125
0.0186302187 0.4596500937 0.0410468125
0.0248397500 0.4588069687 0.0421507812
0.0310501875 0.4576071250 0.0440059063
0.0379006875 0.4561315938 0.0456540000
0.0452136875 0.4545036875 0.0477392187
0.0589298125 0.4531097500 0.0489484688
0.0994824687 0.4532844375 0.0443402500
0.1706386875 0.4556938125 0.0321096563
0.2353870937 0.4587657813 0.0187039375
0.2940873438 0.4620141563 0.0104981250
0.3501636875 0.4652981562 0.0066783750
0.4046150312 0.4685180625 0.0039671563
0.4572965625 0.4717453125 0.0024147813
0.5073329375 0.4751901250 0.0012322813
0.5538411563 0.4789739688 0.0004191562
0.5965408125 0.4834525937 0.0000739688
0.6357392500 0.4885001562 0.0000000000
0.6719947813 0.4941787812 0.0000000000
0.7056750625 0.5001675000 0.0000000000
0.7373605313 0.5063097500 0.0000000000
0.7673470937 0.5121870000 0.0000000000
0.7959941562 0.5175217188 0.0009860000
0.8235078437 0.5222287812 0.0042630938
0.8500520938 0.5261849375 0.0114837188
0.8758725938 0.5294904375 0.0252341562
0.9009609687 0.5322493750 0.0455921875
0.9254728125 0.5345412812 0.0700204063
0.9493506875 0.5366436250 0.0956110625
0.9726668750 0.5386234062 0.1209831875
0.9955620625 0.5406480000 0.1455940937
0.0000000000 0.4922835000 0.0492325000
0.0062104063 0.4948895625 0.0512207812
0.0124198750 0.4957184375 0.0528593125
0.0186302187 0.4954600000 0.0538298437
0.0248397500 0.4947252500 0.0550907500
0.0310501875 0.4936249062 0.0566306562
0.0379006875 0.4923267500 0.0580479375
0.0452136875 0.4908496250 0.0598271250
0.0578050000 0.4893527500 0.0614155000
0.0891792500 0.4883695000 0.0608807812
0.1599556250 0.4895778125 0.0530861875
0.2264365312 0.4920958438 0.0403368750
0.2858998750 0.4949612500 0.0273040000
0.3416663437 0.4979079687 0.0178413125
0.3953361875 0.5009351875 0.0116806875
0.4472992188 0.5039984687 0.0074421875
0.4971050000 0.5071675000 0.0047315000
0.5442432500 0.5105313437 0.0027846563
0.5882013750 0.5144183125 0.0012323125
0.6288850000 0.5188485625 0.0003945000
0.6664481250 0.5238426250 0.0000986250
0.7011849375 0.5292652500 0.0000000000
0.7335232500 0.5348110000 0.0000000000
0.7638658750 0.5402005313 0.0002219062
0.7926422500 0.5451035000 0.0011832500
0.8201892187 0.5494579063 0.0055935312
0.8468225000 0.5531046250 0.0148841250
0.8726522187 0.5561155937 0.0312910313
0.8978003750 0.5584643750 0.0539477500
0.9223758750 0.5603315312 0.0798696875
0.9462703125 0.5618985000 0.1060473750
0.9697417500 0.5632744375 0.1308356562
0.9928015000 0.5645290000 0.1547585000
0.0000000000 0.5254520000 0.0644343125
0.0062104063 0.5284500625 0.0674160938
0.0124198750 0.5295185312 0.0690286250
0.0186302187 0.5293122812 0.0698205937
0.0248397500 0.5286672500 0.0708647187
0.0310501875 0.5276830625 0.0720994687
0.0379006875 0.5264683125 0.0734307500
0.0457691562 0.5250682187 0.0753272188
0.0590959062 0.5236810312 0.0767900000
0.0887421562 0.5224508125 0.0774120937
0.1565503750 0.5223050000 0.0740652813
0.2226574375 0.5239621875 0.0648073750
0.2818869063 0.5263907500 0.0522748750
0.3367553125 0.5290665625 0.0391810937
0.3891243125 0.5318770313 0.0281669688
0.4397274375 0.5348037500 0.0201580000
0.4886193125 0.5377716563 0.0136028750
0.5354025625 0.5409246250 0.0082060625
0.5797318437 0.5443732500 0.0047561563
0.6213718437 0.5482381250 0.0027846875
0.6601439375 0.5525750938 0.0012323437
0.6960474062 0.5573029062 0.0003698437
0.7293590625 0.5622290937 0.0001232812
0.7603531250 0.5669888438 0.0002219062
0.7894503438 0.5713916562 0.0019712500
0.8171688750 0.5752944063 0.0065549062
0.8438610000 0.5786169688 0.0177672187
0.8697179688 0.5813742500 0.0365404062
0.8949036250 0.5834774063 0.0612246563
0.9195098750 0.5851050937 0.0888164375
0.9433861250 0.5862912813 0.1156395000
0.9668129062 0.5872477812 0.1407151875
0.9898360937 0.5881262812 0.1645641562
0.0000000000 0.5582316875 0.0825776875
0.0062104062 0.5608885938 0.0857257812
0.0124198750 0.5618894375 0.0872838125
0.0186302187 0.5618821250 0.0884115000
0.0248397500 0.5613136250 0.0892722500
0.0313953750 0.5604388125 0.0903049375
0.0383938125 0.5594156250 0.0915769375
0.0476316250 0.5581550937 0.0931580625
0.0636589375 0.5568061250 0.0944909375
0.0990050937 0.5554861875 0.0955938125
0.1628478750 0.5547370000 0.0944082500
0.2257414688 0.5552888125 0.0887534375
0.2830203125 0.5570334375 0.0788373750
0.3361710000 0.5592573750 0.0665012500
0.3865885000 0.5618013125 0.0535781250
0.4352787188 0.5644938750 0.0411075625
0.4824971250 0.5673231250 0.0305082500
