lut/gamut-606/606 - Avondale.cube
TITLE "606 - Avondale"
# Contributor - Eric Floberg. Version 1.0 - 06/29/2022 - Designed for Rec.709 Color Space. Copyright 2022 Gamut, LLC
LUT_3D_SIZE 33
0.0000000000 0.0000000000 0.0000000000
0.0177920000 0.0000000000 0.0007890000
0.0371620000 0.0007890000 0.0007890000
0.0565816562 0.0007890000 0.0007890000
0.0790182500 0.0007890000 0.0007890000
0.1030583750 0.0014538750 0.0001232812
0.1310105625 0.0022180625 0.0000000000
0.1594817500 0.0023660000 0.0000000000
0.1875492500 0.0023660000 0.0000000000
0.2149526875 0.0031540000 0.0000000000
0.2432903125 0.0031540000 0.0000000000
0.2712603750 0.0031540000 0.0000000000
0.2996296250 0.0031540000 0.0000000000
0.3276219687 0.0026861250 0.0000000000
0.3550780000 0.0015770000 0.0000000000
0.3823625312 0.0007890000 0.0000000000
0.4099260000 0.0007890000 0.0000000000
0.4375862812 0.0000000000 0.0000000000
0.4634968125 0.0000000000 0.0000000000
0.4892225000 0.0000000000 0.0000000000
0.5151932500 0.0000000000 0.0000000000
0.5417853437 0.0000000000 0.0000000000
0.5688449375 0.0000000000 0.0000000000
0.5961533750 0.0000000000 0.0000000000
0.6225670000 0.0001972500 0.0001972500
0.6480756562 0.0007890000 0.0007890000
0.6732537500 0.0007890000 0.0007890000
0.6993572500 0.0007890000 0.0007890000
0.7274360000 0.0007890000 0.0007890000
0.7572162813 0.0007890000 0.0007890000
0.7885191250 0.0007890000 0.0007890000
0.8202365938 0.0008136250 0.0007890000
0.8523270000 0.0015770000 0.0007890000
0.0000000000 0.0170532812 0.0007890000
0.0170532812 0.0178166563 0.0015523750
0.0372359062 0.0178166563 0.0008136250
0.0582814687 0.0185563125 0.0007890000
0.0809306250 0.0193690000 0.0000986250
0.1054775312 0.0193936562 0.0000000000
0.1313458750 0.0193936563 0.0000000000
0.1597481875 0.0193936562 0.0000000000
0.1877377813 0.0193936562 0.0000000000
0.2151613438 0.0194182812 0.0000000000
0.2437028125 0.0194182812 0.0000000000
0.2718991562 0.0194182812 0.0000000000
0.3002385000 0.0194182812 0.0000000000
0.3285013125 0.0181618125 0.0000000000
0.3557415313 0.0173980313 0.0000000000
0.3831316563 0.0162889375 0.0000000000
0.4104666250 0.0166587812 0.0000000000
0.4378115313 0.0151305625 0.0000000000
0.4642962188 0.0136028437 0.0000000000
0.4903008750 0.0128390313 0.0000000000
0.5165784688 0.0120750625 0.0000000000
0.5432008750 0.0116071875 0.0000000000
0.5701440937 0.0118534375 0.0000000000
0.5972457812 0.0123952188 0.0000000000
0.6233581875 0.0131595625 0.0001972500
0.6486331875 0.0131842187 0.0007890000
0.6737711563 0.0123952188 0.0007890000
0.7000326563 0.0123952188 0.0007890000
0.7282608125 0.0123952188 0.0007890000
0.7581882188 0.0131842187 0.0007890000
0.7893500312 0.0139969062 0.0007890000
0.8212535938 0.0155739063 0.0007890000
0.8530724375 0.0178412813 0.0007890000
0.0000000000 0.0356333125 0.0007890000
0.0170286250 0.0356579687 0.0015770000
0.0356826250 0.0364223125 0.0023166875
0.0581944687 0.0379746875 0.0008136250
0.0831078750 0.0387882500 0.0000000000
0.1063154062 0.0395763125 0.0000000000
0.1335445000 0.0403047500 0.0000000000
0.1607030625 0.0403047500 0.0000000000
0.1890706250 0.0395763125 0.0000000000
0.2177092187 0.0395270000 0.0000000000
0.2460565000 0.0389852500 0.0000000000
0.2748037500 0.0382704688 0.0000000000
0.3022185000 0.0375560625 0.0000000000
0.3300042813 0.0364715625 0.0000000000
0.3578035000 0.0356826250 0.0000000000
0.3853480313 0.0348945625 0.0000000000
0.4133836250 0.0345000625 0.0000000000
0.4400872188 0.0329477188 0.0000000000
0.4665116875 0.0306556875 0.0000000000
0.4928565000 0.0298425000 0.0000000000
0.5194891250 0.0286348750 0.0000000000
0.5462561875 0.0285855625 0.0000000000
0.5728633750 0.0293745625 0.0000000000
0.5994245625 0.0293745625 0.0000000000
0.6252251250 0.0294238750 0.0001972500
0.6502692500 0.0294238750 0.0007890000
0.6755699375 0.0286348750 0.0007890000
0.7018901875 0.0278468125 0.0007890000
0.7301146250 0.0286348750 0.0007890000
0.7599560312 0.0294977500 0.0007890000
0.7910648125 0.0310008750 0.0007890000
0.8227695000 0.0333421875 0.0007890000
0.8541737500 0.0349438750 0.0007890000
0.0000000000 0.0552570938 0.0015770000
0.0170286250 0.0552570938 0.0015770000
0.0371373437 0.0564057812 0.0023660000
0.0565162187 0.0576245625 0.0037951562
0.0792187813 0.0599513437 0.0023166563
0.1068152812 0.0610768437 0.0000493125
0.1355943750 0.0617635000 0.0000000000
0.1641811250 0.0617635000 0.0000000000
0.1932734688 0.0617635000 0.0000000000
0.2229375937 0.0617635000 0.0000000000
0.2517376562 0.0607748438 0.0000000000
0.2806489688 0.0600521250 0.0000000000
0.3085888750 0.0594519688 0.0000000000
0.3366238750 0.0578790625 0.0000000000
0.3645766250 0.0566612813 0.0000000000
0.3920451562 0.0558225937 0.0000000000
0.4194773438 0.0548757813 0.0000000000
0.4456337812 0.0530284375 0.0000000000
0.4716929062 0.0510651875 0.0000000000
0.4979635000 0.0500072187 0.0000000000
0.5247124687 0.0493243437 0.0000000000
0.5513075625 0.0499333438 0.0000000000
0.5783674688 0.0500072187 0.0000000000
0.6043963750 0.0500072187 0.0000000000
0.6295751250 0.0498392188 0.0007890000
0.6542259688 0.0485593750 0.0007890000
0.6793656250 0.0478855937 0.0007890000
0.7056692187 0.0473150625 0.0007890000
0.7338233750 0.0474753125 0.0007890000
0.7636949687 0.0487726562 0.0007890000
0.7944104063 0.0501630000 0.0007890000
0.8255131875 0.0521294687 0.0007890000
0.8562695312 0.0546206563 0.0007890000
0.0006903750 0.0762847500 0.0015770000
0.0178166563 0.0762847500 0.0015770000
0.0379007500 0.0767803750 0.0023166875
0.0576055313 0.0786353750 0.0031786563
0.0790182500 0.0804566250 0.0053228750
0.1033360625 0.0827630000 0.0038690000
0.1344719375 0.0837015625 0.0001971875
0.1668431250 0.0841890000 0.0000000000
0.1981995000 0.0841890000 0.0000000000
0.2288099375 0.0841890000 0.0000000000
0.2594399375 0.0834184375 0.0000000000
0.2885016563 0.0829702500 0.0000000000
0.3175312500 0.0820531250 0.0000000000
0.3457496250 0.0808505937 0.0000000000
0.3739070625 0.0793008750 0.0000000000
0.4011969062 0.0783478125 0.0000000000
0.4283281250 0.0773858750 0.0000000000
0.4546907500 0.0759158437 0.0000000000
0.4809888750 0.0744223750 0.0000000000
0.5075015938 0.0736227500 0.0000000000
0.5339168750 0.0735503750 0.0000000000
0.5606685937 0.0734495000 0.0000000000
0.5868762500 0.0731817500 0.0000000000
0.6121253125 0.0724518438 0.0002219062
0.6366177500 0.0713686250 0.0007890000
0.6610067187 0.0705352500 0.0007890000
0.6857545625 0.0700212500 0.0007890000
0.7119643750 0.0696677500 0.0007890000
0.7399975000 0.0701845000 0.0007890000
0.7693781875 0.0712725312 0.0007890000
0.7994186875 0.0727297500 0.0007890000
0.8296533750 0.0747267188 0.0007890000
0.8597157500 0.0757858750 0.0007890000
0.0022427187 0.0982361563 0.0022427187
0.0192951562 0.0981680313 0.0022427187
0.0387142813 0.0984996250 0.0030308750
0.0599142187 0.0997441563 0.0038690313
0.0804272500 0.1019424688 0.0054213750
0.1032439063 0.1041372187 0.0076395938
0.1301122500 0.1063574688 0.0046571875
0.1660437500 0.1077228125 0.0002711563
0.2015668750 0.1078710625 0.0000000000
0.2345878750 0.1078084063 0.0000000000
0.2666099375 0.1075595313 0.0000000000
0.2970518125 0.1068315625 0.0000000000
0.3268515938 0.1058695625 0.0000000000
0.3557998438 0.1047660312 0.0000000000
0.3845055000 0.1036513125 0.0000000000
0.4118660000 0.1027263750 0.0000000000
0.4390645313 0.1019666250 0.0000000000
0.4659440313 0.1008114687 0.0000000000
0.4925069062 0.1000391250 0.0000000000
0.5190287812 0.0992603438 0.0000000000
0.5451521250 0.0986923437 0.0000000000
0.5712908125 0.0982933750 0.0000000000
0.5969179375 0.0978924063 0.0000000000
0.6218475000 0.0976702187 0.0006657187
0.6461165937 0.0965106562 0.0007890000
0.6701696875 0.0957777500 0.0007890000
0.6949018750 0.0954558750 0.0007890000
0.7209500938 0.0955185313 0.0007890000
0.7484224063 0.0962528437 0.0007890000
0.7770581562 0.0970900625 0.0007890000
0.8061839063 0.0982484375 0.0007890000
0.8354926250 0.0994305000 0.0007890000
0.8645615000 0.1005999688 0.0007890000
0.0014292500 0.1205437500 0.0023660000
0.0192458750 0.1202239062 0.0023660000
0.0394285000 0.1207846875 0.0031047500
0.0621690625 0.1214990938 0.0038690313
0.0847699375 0.1236127500 0.0054213750
0.1051595312 0.1263367187 0.0071216563
0.1299654375 0.1290463125 0.0091673125
0.1633925938 0.1314014375 0.0034005312
0.2028469375 0.1323113750 0.0000985625
0.2397026562 0.1327106250 0.0000000000
0.2742054375 0.1324098125 0.0000000000
0.3063102188 0.1318507812 0.0000000000
0.3371237500 0.1310651250 0.0000000000
0.3669185625 0.1303451562 0.0000000000
0.3957499375 0.1292606250 0.0000000000
0.4237380312 0.1285117188 0.0000000000
0.4510029375 0.1278980000 0.0000000000
0.4778780000 0.1272813437 0.0000000000
0.5044218125 0.1266613750 0.0000000000
0.5307395000 0.1260388750 0.0000000000
0.5567111250 0.1254133125 0.0000000000
0.5823810938 0.1252115625 0.0000000000
0.6078310000 0.1250483125 0.0002465625
0.6326263750 0.1246723437 0.0007890000
0.6568656875 0.1239290000 0.0007890000
0.6810221875 0.1235395000 0.0007890000
0.7055526250 0.1234729375 0.0007890000
0.7311303125 0.1238454687 0.0007890000
0.7580756875 0.1242241875 0.0007890000
0.7857977500 0.1251097500 0.0007890000
0.8140162500 0.1257371250 0.0007890000
0.8425264375 0.1264359687 0.0007890000
0.8708587500 0.1273609375 0.0007890000
0.0079840625 0.1455015000 0.0037704063
0.0244209375 0.1457108750 0.0037704063
0.0423455937 0.1454830000 0.0038936875
0.0633700937 0.1460213125 0.0046571250
0.0873133750 0.1476355937 0.0054213750
0.1104164063 0.1508098438 0.0069738750
0.1338139688 0.1545028438 0.0107196562
0.1638385625 0.1572753750 0.0100786250
0.2017630625 0.1590170625 0.0026369375
0.2423135000 0.1596580625 0.0000493125
0.2802685313 0.1594310000 0.0000000000
0.3149291563 0.1589075313 0.0000000000
0.3471770625 0.1582890937 0.0000000000
0.3777659063 0.1575010312 0.0000000000
0.4071029687 0.1566069687 0.0000000000
0.4355007188 0.1559898750 0.0000000000
0.4627990625 0.1556813438 0.0000000000
0.4898343438 0.1551760312 0.0000000000
0.5162780938 0.1547790937 0.0000000000
0.5424250000 0.1542625000 0.0000000000
0.5681393125 0.1540038125 0.0000000000
0.5935742187 0.1537439063 0.0000000000
0.6188143125 0.1536824375 0.0007890000
0.6434907500 0.1534225312 0.0007890000
0.6676833438 0.1532973437 0.0007890000
0.6917909688 0.1531007187 0.0007890000
0.7160004062 0.1531007188 0.0007890000
0.7412901250 0.1533608438 0.0007890000
0.7674297187 0.1536527188 0.0007890000
0.7944362500 0.1542250937 0.0007890000
0.8220178125 0.1549306250 0.0007890000
0.8498662188 0.1554446250 0.0007890000
0.8775165313 0.1564523750 0.0007890000
0.0092657500 0.1713120000 0.0031540000
0.0255300313 0.1709630312 0.0031540000
0.0432350625 0.1712965625 0.0031540000
0.0648508125 0.1717519375 0.0033512500
0.0913066250 0.1738266250 0.0048296250
0.1177138125 0.1764603750 0.0069738750
0.1408988750 0.1799645625 0.0093643125
0.1653567500 0.1829005625 0.0124200000
0.1991732500 0.1854322500 0.0086740000
0.2392052500 0.1868413437 0.0018728125
0.2793003750 0.1871146250 0.0005917500
0.3174294375 0.1870712500 0.0000000000
0.3525190000 0.1866751250 0.0000000000
0.3850197187 0.1862018437 0.0000000000
0.4159513750 0.1857270625 0.0000000000
0.4449006562 0.1854185000 0.0000000000
0.4730505000 0.1853615000 0.0000000000
0.5002094062 0.1850502500 0.0000000000
0.5269371250 0.1848430625 0.0000000000
0.5530427813 0.1844934375 0.0000000000
0.5788167500 0.1842925000 0.0000000000
0.6040452188 0.1842075938 0.0002712187
0.6290225625 0.1839207500 0.0007890000
0.6535892188 0.1839207500 0.0007890000
0.6776290000 0.1836480000 0.0007890000
0.7014516250 0.1836020625 0.0007890000
0.7255496875 0.1836480000 0.0007890000
0.7503294375 0.1836808125 0.0007890000
0.7760182500 0.1841043750 0.0007890000
0.8025282500 0.1845260938 0.0007890000
0.8295800625 0.1849605625 0.0007890000
0.8569071563 0.1855874687 0.0007890000
0.8841550000 0.1862680000 0.0007890000
0.0135288437 0.1994262187 0.0039430000
0.0297931250 0.1995119688 0.0037457500
0.0473346875 0.1994262187 0.0038936875
0.0681403437 0.2000748125 0.0039430000
0.0916413437 0.2009480625 0.0046325000
0.1190586875 0.2029137500 0.0062842188
0.1463014375 0.2056730000 0.0086002187
0.1716526875 0.2091666562 0.0122720312
0.1989134062 0.2127002188 0.0137258437
0.2343480938 0.2147170312 0.0081076250
0.2737525937 0.2157909062 0.0018974688
0.3136568750 0.2165833750 0.0005670937
0.3514285625 0.2168836250 0.0000000000
0.3871169375 0.2169723750 0.0000000000
0.4199119062 0.2167397188 0.0000000000
0.4508166563 0.2165602188 0.0000000000
0.4801500625 0.2164722188 0.0000000000
0.5081089063 0.2162982500 0.0000000000
0.5352592500 0.2160742812 0.0000000000
0.5615116562 0.2155883438 0.0000000000
0.5872930625 0.2152324063 0.0000000000
0.6126777812 0.2149841875 0.0007890000
0.6376482188 0.2148641875 0.0007890000
0.6619302188 0.2148101875 0.0007890000
0.6858842500 0.2146829688 0.0007890000
0.7096537813 0.2145357500 0.0007890000
0.7335297500 0.2145341250 0.0007890000
0.7580912813 0.2146286875 0.0007890000
0.7834282188 0.2149083125 0.0007890000
0.8095181875 0.2153690000 0.0007890000
0.8361246875 0.2157358438 0.0007890000
0.8630308437 0.2162654687 0.0007890000
0.8898451875 0.2168465938 0.0007890000
0.0149830000 0.2269117500 0.0039430000
0.0299411875 0.2266916250 0.0039430000
0.0460634375 0.2266157500 0.0034005625
0.0650613750 0.2269339063 0.0034005625
0.0879685000 0.2275253750 0.0034005625
0.1176062187 0.2292858750 0.0048542813
0.1506136875 0.2322214375 0.0078365625
0.1799918125 0.2358112500 0.0114838125
0.2056710000 0.2389932500 0.0147857500
0.2329325938 0.2415272187 0.0135783437
0.2682815625 0.2434474375 0.0068018125
0.3075840937 0.2448935313 0.0018975000
0.3464555625 0.2460725000 0.0007890000
0.3837918438 0.2468573438 0.0000739688
0.4191076250 0.2473141875 0.0000000000
0.4521354375 0.2474827813 0.0000000000
0.4830265625 0.2475312500 0.0000000000
0.5121160000 0.2473340313 0.0000000000
0.5399055000 0.2470805000 0.0000000000
0.5668464063 0.2467760312 0.0000000000
0.5928746250 0.2464705625 0.0000000000
0.6184710000 0.2462180000 0.0007890000
0.6433866250 0.2460619375 0.0007890000
0.6678666562 0.2460619375 0.0007890000
0.6919605000 0.2459065000 0.0007890000
0.7156351250 0.2457840000 0.0007890000
0.7395645625 0.2458040000 0.0007890000
0.7640840625 0.2458790000 0.0007890000
0.7892561875 0.2461847500 0.0007890000
0.8150677500 0.2464008438 0.0007890000
0.8413490625 0.2468053125 0.0007890000
0.8680931250 0.2472598125 0.0007890000
0.8946047500 0.2477646250 0.0007890000
0.0134060000 0.2524170625 0.0026368750
0.0286350313 0.2522666250 0.0023906250
0.0458757813 0.2523532813 0.0018482188
0.0660894375 0.2527715625 0.0018482188
0.0909011563 0.2537359687 0.0023660000
0.1221229062 0.2554075000 0.0033019375
0.1564399375 0.2580977500 0.0057664062
0.1871731875 0.2610721563 0.0093889062
0.2126817500 0.2638504375 0.0119768438
0.2372458750 0.2665437188 0.0128882187
0.2662193750 0.2691649687 0.0109660625
0.3019112812 0.2716268125 0.0055200000
0.3401712500 0.2737022500 0.0024152812
0.3777777812 0.2753670938 0.0008382500
0.4139900000 0.2765696250 0.0007890000
0.4485582500 0.2774333750 0.0000986250
0.4808871875 0.2778676563 0.0000000000
0.5113667500 0.2780363125 0.0000000000
0.5403368750 0.2780035625 0.0000000000
0.5681485000 0.2778191875 0.0000000000
0.5949470625 0.2776562500 0.0000000000
0.6209375000 0.2774273125 0.0005424375
0.6462729063 0.2773445000 0.0007890000
0.6710187500 0.2772513750 0.0007890000
0.6952480625 0.2772015000 0.0007890000
0.7192402500 0.2772015000 0.0007890000
0.7433405937 0.2771282812 0.0007890000
0.7680107188 0.2772222813 0.0007890000
0.7932100000 0.2773540937 0.0007890000
0.8189504687 0.2776325312 0.0007890000
0.8451174688 0.2780206562 0.0007890000
0.8715886875 0.2783392813 0.0007890000
0.8981218750 0.2787728437 0.0007890000
0.0198133750 0.2805435000 0.0031540000
0.0355845313 0.2802420313 0.0023660000
0.0525353750 0.2804913750 0.0023660000
0.0726682500 0.2808227187 0.0020701250
0.0961118750 0.2815100000 0.0023660000
0.1245343750 0.2826146250 0.0030308750
0.1569496875 0.2844600625 0.0040907500
0.1889212813 0.2866449375 0.0071710313
0.2172928750 0.2891508750 0.0103496250
0.2428853750 0.2917749063 0.0126170000
0.2692730625 0.2948838750 0.0131101250
0.2990451875 0.2977860937 0.0106948438
0.3337340000 0.3003697500 0.0068015000
0.3704768438 0.3026928750 0.0032032812
0.4064692500 0.3046859375 0.0016263125
0.4413898438 0.3062753437 0.0008628750
0.4749000000 0.3073176250 0.0007890000
0.5065699062 0.3079379375 0.0004931250
0.5367460000 0.3082691875 0.0004931250
0.5655430000 0.3083128750 0.0004931250
0.5932778750 0.3083860000 0.0000000000
0.6200935000 0.3082663750 0.0000000000
0.6460396875 0.3082198750 0.0007890000
0.6712813125 0.3081733750 0.0007890000
0.6959036250 0.3081443750 0.0007890000
0.7203437500 0.3081480000 0.0007890000
0.7449215625 0.3081733750 0.0007890000
0.7697660937 0.3083661250 0.0007890000
0.7950767500 0.3084997500 0.0007890000
0.8209340937 0.3088077500 0.0007890000
0.8472081875 0.3090496250 0.0007890000
0.8737436250 0.3093996250 0.0007890000
0.9003598750 0.3098676250 0.0007890000
0.0241254688 0.3078522188 0.0023660000
0.0391579062 0.3076862500 0.0023660000
0.0550697500 0.3076552188 0.0018975312
0.0731104375 0.3076901250 0.0015770000
0.0945515625 0.3079908750 0.0017989063
0.1211963750 0.3085531875 0.0018975312
0.1535851250 0.3098885313 0.0026861250
0.1881355625 0.3118870625 0.0048789375
0.2207210625 0.3143984687 0.0086002812
0.2492930313 0.3170308438 0.0117055937
0.2753967187 0.3201170937 0.0138738750
0.3016674687 0.3231351562 0.0133566875
0.3307661875 0.3258243125 0.0114591875
0.3638592812 0.3284728438 0.0075654688
0.3988130625 0.3309213437 0.0044601875
0.4335597812 0.3331544375 0.0028338750
0.4672554063 0.3349998125 0.0020454687
0.4996009688 0.3362852188 0.0012568750
0.5305687812 0.3370586875 0.0012568750
0.5601947500 0.3375595625 0.0009367500
0.5887766250 0.3378915937 0.0007890000
0.6164118438 0.3380808438 0.0007890000
0.6430444375 0.3382758750 0.0010352500
0.6687821563 0.3383671563 0.0012568750
0.6940222188 0.3384617188 0.0012568750
0.7191197500 0.3386979375 0.0010845000
0.7440890000 0.3387761250 0.0007890000
0.7693664375 0.3390288125 0.0007890000
0.7950353125 0.3393131875 0.0007890000
0.8210836875 0.3396357500 0.0007890000
0.8475380625 0.3401065312 0.0007890000
0.8743134688 0.3404216250 0.0007890000
0.9010984063 0.3408974062 0.0007890000
0.0216367500 0.3323083125 0.0011337500
0.0363481250 0.3321389375 0.0003451875
0.0524855000 0.3320227500 0.0003451875
0.0707644062 0.3322488125 0.0003451875
0.0938778125 0.3324986875 0.0003451875
0.1226175000 0.3331390938 0.0007890000
0.1563605625 0.3344888125 0.0009860000
0.1923755313 0.3365885000 0.0025383750
0.2265801250 0.3392049375 0.0068506875
0.2564966875 0.3418529688 0.0107197500
0.2823421875 0.3447315625 0.0131594375
0.3066753125 0.3475076250 0.0141940000
0.3320086875 0.3501058750 0.0137999375
0.3605887187 0.3528312500 0.0117796875
0.3926277500 0.3555815000 0.0083292500
0.4263055000 0.3582492500 0.0059884375
0.4596350000 0.3607106250 0.0040903750
0.4919297187 0.3626320000 0.0028832188
0.5231366875 0.3641526250 0.0028092500
0.5533389375 0.3652299688 0.0020208125
0.5825404375 0.3660359375 0.0020208125
0.6106060625 0.3666692812 0.0015770000
0.6378968750 0.3671219375 0.0012322500
0.6643013125 0.3676334063 0.0017989062
0.6901660625 0.3680523125 0.0015770000
0.7158699375 0.3684657813 0.0015770000
0.7413245625 0.3689059375 0.0015770000
0.7670434375 0.3693056875 0.0012322500
0.7931118125 0.3697603750 0.0011337500
0.8195728437 0.3703392187 0.0007890000
0.8463082500 0.3707801250 0.0007890000
0.8733436562 0.3713486250 0.0007890000
0.9004516250 0.3718686875 0.0007890000
0.0242245000 0.3573580312 0.0000000000
0.0400340312 0.3572570938 0.0000000000
0.0576392500 0.3573515938 0.0000000000
0.0787535625 0.3575252187 0.0000000000
0.1039569688 0.3578928750 0.0000000000
0.1338042500 0.3586392188 0.0000000000
0.1674948438 0.3599920625 0.0007890000
0.2023087187 0.3621743438 0.0026120312
0.2354946562 0.3646813438 0.0065055000
0.2645419063 0.3671630938 0.0105964687
0.2895240313 0.3696437813 0.0135780625
0.3125196250 0.3719749063 0.0147117813
0.3358741562 0.3743074687 0.0154016250
0.3612877812 0.3769736250 0.0145639063
0.3897431875 0.3797634687 0.0126421250
0.4206824688 0.3824549375 0.0103007812
0.4528934688 0.3853421250 0.0079594375
0.4845796250 0.3878146563 0.0064070937
0.5155815313 0.3897920938 0.0052241250
0.5458780000 0.3915264687 0.0044602500
0.5753006875 0.3929371250 0.0036962812
0.6036976563 0.3939856250 0.0033019375
0.6314774062 0.3950366250 0.0027846250
0.6584444375 0.3958443125 0.0019961563
0.6848272188 0.3966701875 0.0025630000
0.7109558125 0.3974549063 0.0023660000
0.7370224375 0.3981467813 0.0019961563
0.7632252187 0.3989244375 0.0015770000
0.7897038438 0.3996582188 0.0015770000
0.8164665000 0.4004405313 0.0015770000
0.8436162500 0.4012443438 0.0007890000
0.8709044375 0.4019749687 0.0007890000
0.8982599688 0.4027022500 0.0007890000
0.0415830000 0.3856340000 0.0003945000
0.0581731875 0.3856785000 0.0003945000
0.0768421875 0.3855425000 0.0000000000
0.0988549375 0.3856251875 0.0000000000
0.1238263750 0.3857947500 0.0000000000
0.1524284687 0.3863823438 0.0003945000
0.1830718125 0.3875420625 0.0011830000
0.2145511875 0.3893566875 0.0033761250
0.2447160000 0.3912800000 0.0072945000
0.2718736250 0.3931932500 0.0113851875
0.2959985000 0.3950121250 0.0143422500
0.3185650313 0.3968937188 0.0161655000
0.3409508750 0.3990003750 0.0173485000
0.3644948750 0.4014503125 0.0173485000
0.3900300625 0.4040006875 0.0165107500
0.4179971875 0.4067476875 0.0149578750
0.4477605000 0.4094650000 0.0126175000
0.4783394375 0.4121172187 0.0106947813
0.5086383750 0.4145220625 0.0087237500
0.5385573437 0.4166555937 0.0075653750
0.5678326250 0.4185320000 0.0064071250
0.5964905625 0.4201593750 0.0055200000
0.6243805625 0.4216035000 0.0044849375
0.6516947187 0.4230384375 0.0037208750
0.6784902500 0.4242935000 0.0033512500
0.7050303750 0.4254395313 0.0033265938
0.7314696250 0.4266229375 0.0027600000
0.7580986875 0.4277916250 0.0026368750
0.7848965000 0.4289400000 0.0023660000
0.8120375312 0.4300966875 0.0015770000
0.8393700000 0.4310763125 0.0015770000
0.8670444375 0.4322019375 0.0007890000
0.8946900000 0.4331705000 0.0007890000
0.0648672187 0.4140224688 0.0015770000
0.0814072500 0.4138154375 0.0011583750
0.1000440312 0.4136885625 0.0011583750
0.1206263438 0.4134909375 0.0007890000
0.1438765312 0.4137230937 0.0007890000
0.1692054375 0.4141683125 0.0011583750
0.1964524375 0.4150853125 0.0022180625
0.2243483750 0.4163467188 0.0043860313
0.2516916250 0.4178377812 0.0080827500
0.2775232500 0.4191253750 0.0113851875
0.3015045000 0.4204655000 0.0144901875
0.3241426563 0.4220466250 0.0170777813
0.3463574375 0.4239012812 0.0189995000
0.3689291563 0.4259095000 0.0196652187
0.3926657500 0.4282910313 0.0196652187
0.4181078125 0.4307950312 0.0188269687
0.4452410313 0.4333275000 0.0172745625
0.4736888125 0.4359220000 0.0153523750
0.5028259063 0.4384144688 0.0133808750
0.5320603750 0.4409052813 0.0114590937
0.5608787500 0.4430765625 0.0099063437
0.5892947813 0.4451595938 0.0083540000
0.6172052812 0.4470931250 0.0075899688
0.6446495625 0.4488991562 0.0060375937
0.6716156875 0.4506104062 0.0052734375
0.6984653750 0.4523675625 0.0043123750
0.7251898750 0.4540224375 0.0035238438
0.7520469063 0.4556688750 0.0035238438
0.7792121875 0.4572852812 0.0031540000
0.8064789062 0.4588600000 0.0026615000
0.8341170625 0.4603272500 0.0018975312
0.8618539687 0.4617179375 0.0015770000
0.8897695937 0.4631660000 0.0007890000
0.0832751875 0.4407790000 0.0023660000
0.0995061875 0.4406377188 0.0015770000
0.1171715625 0.4404081250 0.0015770000
0.1363379063 0.4402488125 0.0015770000
0.1576805000 0.4403166250 0.0015770000
0.1808542500 0.4407200937 0.0015770000
0.2054935625 0.4414218125 0.0030062500
0.2311513125 0.4424207813 0.0051750312
0.2569162500 0.4434212500 0.0077380000
0.2821146875 0.4445221563 0.0113851875
0.3062752500 0.4456235000 0.0146871875
0.3293054687 0.4468034063 0.0175949063
0.3515617500 0.4483996250 0.0197636875
0.3736442812 0.4501503438 0.0209714687
0.3963503125 0.4522285000 0.0216367500
0.4198720312 0.4543810000 0.0216367500
0.4448406875 0.4567404375 0.0207988750
