lut/gamut-606/606 - Avondale.cube
TITLE "606 - Avondale"
# Contributor - Eric Floberg. Version 1.0 - 06/29/2022 - Designed for Rec.709 Color Space. Copyright 2022 Gamut, LLC
LUT_3D_SIZE 5
0.0000000000 0.0000000000 0.0000000000
0.1875492500 0.0023660000 0.0000000000
0.4099260000 0.0007890000 0.0000000000
0.6225670000 0.0001972500 0.0001972500
0.8523270000 0.0015770000 0.0007890000
0.0092657500 0.1713120000 0.0031540000
0.1991732500 0.1854322500 0.0086740000
0.4730505000 0.1853615000 0.0000000000
0.6776290000 0.1836480000 0.0007890000
0.8841550000 0.1862680000 0.0007890000
0.0415830000 0.3856340000 0.0003945000
0.2447160000 0.3912800000 0.0072945000
0.4477605000 0.4094650000 0.0126175000
0.6784902500 0.4242935000 0.0033512500
0.8946900000 0.4331705000 0.0007890000
0.1238410000 0.5792230000 0.0015770000
0.2786625000 0.5804520000 0.0053227500
0.4545317500 0.5872477500 0.0240515000
0.6318135000 0.6051027500 0.0246430000
0.8456312500 0.6432652500 0.0130112500
0.1265510000 0.7682040000 0.0000000000
0.2830930000 0.7677670000 0.0000000000
0.4775085000 0.7736275000 0.0106455000
0.6339685000 0.7825065000 0.0277972500
0.8153240000 0.8091110000 0.0432640000
0.0000000000 0.0047310000 0.1782385000
0.1927172500 0.0092657500 0.1818452500
0.4299962500 0.0013800000 0.1799157500
0.6316110000 0.0007890000 0.1659365000
0.8530222500 0.0007890000 0.1479085000
0.0114345000 0.1942217500 0.1940867500
0.2316517500 0.2151705000 0.2016027500
0.4882105000 0.2035222500 0.1785030000
0.6916227500 0.1913215000 0.1595600000
0.8919710000 0.1826517500 0.1421410000
0.0272057500 0.4215807500 0.1995602500
0.2404022500 0.4368532500 0.2074245000
0.4731580000 0.4512855000 0.2224855000
0.6916010000 0.4494567500 0.1848577500
0.9056832500 0.4420455000 0.1487307500
0.0901227500 0.6252680000 0.2079242500
0.2729102500 0.6257877500 0.2061755000
0.4780905000 0.6309497500 0.2185015000
0.6536262500 0.6404405000 0.2241875000
0.8588950000 0.6575787500 0.1833402500
0.0953892500 0.8135897500 0.2041247500
0.2717050000 0.8113935000 0.1965025000
0.4846455000 0.8076170000 0.1885417500
0.6503047500 0.8105350000 0.1998167500
0.8243900000 0.8231940000 0.2149177500
0.0000000000 0.0031540000 0.3473125000
0.1882855000 0.0098570000 0.3556067500
0.4111170000 0.0043370000 0.3741225000
0.6271280000 0.0007890000 0.3772950000
0.8503025000 0.0007890000 0.3689610000
0.0254315000 0.2089752500 0.3934837500
0.2202575000 0.2240435000 0.4035422500
0.4798855000 0.2327032500 0.4068645000
0.6954745000 0.2175992500 0.3962665000
0.8979447500 0.1944535000 0.3719605000
0.0439895000 0.4401585000 0.4104030000
0.2102450000 0.4609712500 0.4182215000
0.5015975000 0.4924385000 0.4402980000
0.7148595000 0.4804005000 0.4163382500
0.9253155000 0.4543970000 0.3718965000
0.0650822500 0.6498017500 0.4148480000
0.2323040000 0.6608277500 0.4172092500
0.5001860000 0.6759475000 0.4331320000
0.6863535000 0.6842032500 0.4504770000
0.8885460000 0.6844195000 0.4080705000
0.0683940000 0.8419550000 0.4119190000
0.2313250000 0.8499697500 0.4139277500
0.4972645000 0.8556645000 0.4181490000
0.6866155000 0.8584850000 0.4246930000
0.8565215000 0.8656750000 0.4528275000
0.0072942500 0.0063090000 0.5080340000
0.1910707500 0.0124200000 0.5180032500
0.3964480000 0.0090685000 0.5353712500
0.6119360000 0.0078860000 0.5542652500
0.8338645000 0.0080830000 0.5579075000
0.0268115000 0.2155217500 0.5696112500
0.2122235000 0.2306725000 0.5804217500
0.4675755000 0.2463562500 0.5803225000
0.6771952500 0.2389362500 0.5889447500
0.8875160000 0.2211485000 0.5812295000
0.0550925000 0.4483060000 0.6032105000
0.2200400000 0.4661682500 0.6084752500
0.5048162500 0.4982955000 0.6246960000
0.7250565000 0.5029665000 0.6218807500
0.9317895000 0.4743032500 0.5944942500
0.0715792500 0.6549750000 0.6107787500
0.2219090000 0.6695372500 0.6161022500
0.4857717500 0.7001320000 0.6284300000
0.7119692500 0.7112462500 0.6520162500
0.9159985000 0.6999645000 0.6182950000
0.0821827500 0.8560112500 0.6137602500
0.2194710000 0.8663655000 0.6160640000
0.4645070000 0.8829550000 0.6258562500
0.7068020000 0.8889932500 0.6394460000
0.8866930000 0.8987655000 0.6707612500
0.0260230000 0.0141940000 0.6887020000
0.2002730000 0.0163627500 0.7052740000
0.3948970000 0.0193200000 0.7185235000
0.5970435000 0.0266147500 0.7443102500
0.8139870000 0.0212920000 0.7670640000
0.0364715000 0.2267382500 0.7581390000
0.2119847500 0.2386972500 0.7693757500
0.4542192500 0.2561785000 0.7745180000
0.6561927500 0.2595957500 0.7889467500
0.8635272500 0.2444025000 0.8075810000
0.0746630000 0.4694045000 0.8016315000
0.2315112500 0.4781975000 0.8081682500
0.4763115000 0.4948245000 0.8260135000
0.6953662500 0.5091802500 0.8360505000
0.9062945000 0.5113770000 0.8536510000
0.0829965000 0.6630452500 0.8336682500
0.2247475000 0.6741202500 0.8386377500
0.4673715000 0.6968952500 0.8530470000
0.7111570000 0.7134875000 0.8652857500
0.9253377500 0.7196085000 0.8755525000
0.0991260000 0.8650260000 0.8601010000
0.2267765000 0.8735182500 0.8660815000
0.4268675000 0.8927915000 0.8819030000
0.6929637500 0.9098915000 0.9000392500
0.9294360000 0.9193730000 0.9072420000
