lut/gamut-606/606 - North Park.cube
TITLE "606 - North Park"
# Contributor - Eric Floberg. Version 1.0 - 06/29/2022 - Designed for Rec.709 Color Space. Copyright 2022 Gamut, LLC
LUT_3D_SIZE 33
0.0134060000 0.0212920000 0.0252340000
0.0250122187 0.0205030000 0.0267626875
0.0397241875 0.0205030000 0.0283396875
0.0582382812 0.0212920000 0.0298920312
0.0782510000 0.0235585000 0.0307540000
0.1048800625 0.0244460000 0.0322087187
0.1369027500 0.0238049375 0.0331200000
0.1673501875 0.0222525937 0.0331200000
0.1964087500 0.0207002500 0.0345000000
0.2238200938 0.0199359062 0.0346970000
0.2508150625 0.0183835625 0.0346970000
0.2778505000 0.0168312187 0.0346970000
0.3037058750 0.0152785000 0.0346970000
0.3287140937 0.0137261250 0.0346970000
0.3546336250 0.0117299375 0.0339090000
0.3799887187 0.0102510000 0.0339090000
0.4061490000 0.0090685000 0.0343030000
0.4330782812 0.0075161563 0.0350668437
0.4597356250 0.0059638125 0.0354860000
0.4866781250 0.0047310000 0.0354860000
0.5131960000 0.0036471250 0.0346970000
0.5392325313 0.0023660000 0.0339090000
0.5649440000 0.0013307500 0.0328737500
0.5895973125 0.0000000000 0.0313210938
0.6139417500 0.0000000000 0.0297687500
0.6388122188 0.0000000000 0.0280440313
0.6650966875 0.0000000000 0.0249383125
0.6934751250 0.0001232812 0.0210454375
0.7227976250 0.0018727500 0.0179398750
0.7533800625 0.0074666563 0.0148351562
0.7851516250 0.0160667500 0.0109414375
0.8178044375 0.0253818750 0.0078860000
0.8507020000 0.0331200000 0.0086740000
0.0141940000 0.0313458438 0.0275507188
0.0250122187 0.0313458438 0.0283150625
0.0412437187 0.0321348437 0.0283890000
0.0600941250 0.0328489687 0.0298920312
0.0813703437 0.0329228750 0.0299660000
0.1051022188 0.0321841250 0.0306555000
0.1337207500 0.0307540937 0.0314443750
0.1640358437 0.0299905313 0.0315676562
0.1928321875 0.0284381563 0.0315922812
0.2210620938 0.0274767813 0.0315922812
0.2501925625 0.0266641250 0.0310498438
0.2781145312 0.0253327188 0.0287584688
0.3050316250 0.0238050000 0.0284875625
0.3314062187 0.0222526563 0.0280190938
0.3574076563 0.0206756563 0.0269351875
0.3835140625 0.0187037188 0.0269351875
0.4099882500 0.0175705000 0.0277232188
0.4369317500 0.0160176562 0.0284875625
0.4638360000 0.0144899375 0.0285122187
0.4909220000 0.0129375938 0.0285122188
0.5176545000 0.0121490000 0.0274277187
0.5436862188 0.0108921562 0.0266639687
0.5691898438 0.0098322500 0.0258996563
0.5941566250 0.0090685937 0.0243473125
0.6189070000 0.0083045000 0.0229922187
0.6437149375 0.0079105000 0.0220061875
0.6692333437 0.0094382500 0.0204290000
0.6965053750 0.0110892500 0.0187288750
0.7254356875 0.0151308125 0.0157218125
0.7557542188 0.0221785938 0.0132088125
0.7870484062 0.0300152500 0.0093397500
0.8192373438 0.0385393438 0.0063582500
0.8520711563 0.0459453437 0.0086740000
0.0118782500 0.0443568750 0.0298674375
0.0234845313 0.0443322500 0.0298920625
0.0366686875 0.0436204375 0.0291277500
0.0594514375 0.0457365625 0.0284382500
0.0815338750 0.0458034375 0.0276986250
0.1058913750 0.0457096875 0.0283890000
0.1328081875 0.0430606875 0.0270583125
0.1623285000 0.0407692812 0.0269598125
0.1918980000 0.0384922500 0.0263680625
0.2215652812 0.0375070000 0.0262201250
0.2503548750 0.0367180000 0.0256284375
0.2794479687 0.0366686875 0.0245938750
0.3070054375 0.0361263125 0.0238048750
0.3338061875 0.0348940938 0.0232876875
0.3605700000 0.0325783750 0.0222278750
0.3872421250 0.0302616563 0.0217599375
0.4144432500 0.0283887500 0.0222278750
0.4420404063 0.0260971562 0.0222278750
0.4692925000 0.0248890000 0.0222771250
0.4962528750 0.0237311563 0.0214891250
0.5226323125 0.0232627500 0.0214891250
0.5486835000 0.0229425625 0.0214398125
0.5737843750 0.0224746875 0.0206508750
0.5986319062 0.0224253750 0.0203796562
0.6231456875 0.0223761250 0.0196156250
0.6479456875 0.0225485000 0.0188519687
0.6735577500 0.0241008750 0.0172996250
0.7006476875 0.0266886563 0.0157465000
0.7292033125 0.0313951250 0.0133074375
0.7588731250 0.0383902813 0.0102017812
0.7896126250 0.0458784375 0.0070477500
0.8214502187 0.0526950000 0.0055692812
0.8538560625 0.0588345000 0.0086740000
0.0125431250 0.0580080000 0.0306801250
0.0241749062 0.0580080000 0.0314444063
0.0374083750 0.0591009375 0.0300152500
0.0517689375 0.0607715000 0.0313951563
0.0745521875 0.0630716250 0.0292262812
0.1014721563 0.0635867187 0.0269351250
0.1296635625 0.0635623125 0.0254559063
0.1597644687 0.0619688437 0.0245938437
0.1907455937 0.0591611250 0.0245198750
0.2215248125 0.0567455312 0.0238048437
0.2514887188 0.0553935938 0.0230168437
0.2812436563 0.0542045938 0.0222278438
0.3099230937 0.0536467188 0.0209467187
0.3370833437 0.0520411562 0.0193940625
0.3645366562 0.0500027187 0.0190738437
0.3918811250 0.0473512188 0.0190738437
0.4194887500 0.0452560313 0.0190738437
0.4471976875 0.0431796875 0.0190738437
0.4748533750 0.0417090937 0.0182848437
0.5017770000 0.0408752187 0.0182848438
0.5281923125 0.0401819375 0.0182848438
0.5539770312 0.0401079688 0.0174968438
0.5792813437 0.0401079688 0.0174968438
0.6041763438 0.0401079688 0.0167078437
0.6288039687 0.0402992187 0.0165105937
0.6537651250 0.0409668437 0.0157465625
0.6792979375 0.0425893750 0.0141940937
0.7061481250 0.0455823750 0.0126417187
0.7342825938 0.0504089375 0.0102018125
0.7633139063 0.0562968750 0.0071709687
0.7934384688 0.0628008750 0.0048049687
0.8247809063 0.0687635000 0.0055939375
0.8565180625 0.0734121250 0.0094630000
0.0133073750 0.0736755000 0.0330215000
0.0234598750 0.0731113750 0.0330215000
0.0352888125 0.0750591250 0.0293248750
0.0503831563 0.0765904063 0.0300152813
0.0684182500 0.0780308750 0.0337118750
0.0923037500 0.0816192500 0.0300645625
0.1247361875 0.0825686250 0.0254805000
0.1585973750 0.0821743750 0.0230413750
0.1916095000 0.0807775000 0.0215876250
0.2237665625 0.0789513125 0.0214891250
0.2554970000 0.0770302500 0.0207001250
0.2854622187 0.0763222500 0.0192955000
0.3144147500 0.0746643750 0.0183341250
0.3426259687 0.0727224687 0.0162886562
0.3708161250 0.0703710000 0.0159682500
0.3990404375 0.0680930937 0.0155496250
0.4273412500 0.0659250000 0.0155742500
0.4552766875 0.0636997813 0.0151801250
0.4829118125 0.0623343125 0.0151801250
0.5099564688 0.0614160000 0.0151801250
0.5363921250 0.0614160000 0.0144897500
0.5620785312 0.0613327500 0.0143911250
0.5874476875 0.0613327500 0.0137016250
0.6122817188 0.0615780000 0.0133812187
0.6369358750 0.0619200000 0.0128141250
0.6617384375 0.0631226250 0.0121246250
0.6870816875 0.0649204375 0.0110891875
0.7132504375 0.0677469687 0.0088466250
0.7407658750 0.0720167500 0.0065060000
0.7693087813 0.0770055625 0.0040661563
0.7988660625 0.0818060625 0.0033019375
0.8294087812 0.0863180938 0.0056185625
0.8600181250 0.0902061250 0.0109413750
0.0134060000 0.0899279062 0.0339090000
0.0206015625 0.0899133437 0.0339090000
0.0322579687 0.0927271875 0.0293248750
0.0502643750 0.0944269375 0.0298920312
0.0691666562 0.0963136563 0.0330461563
0.0888375313 0.0979716875 0.0381471875
0.1144755625 0.1016533437 0.0316662188
0.1539303125 0.1024621250 0.0239774687
0.1928181875 0.1021362500 0.0201085000
0.2278860938 0.1013729688 0.0191724062
0.2597007813 0.1004708125 0.0183834062
0.2904835312 0.0996956563 0.0169543437
0.3203695625 0.0982710938 0.0149086562
0.3498518125 0.0961088438 0.0131839375
0.3795106875 0.0937413750 0.0121985313
0.4086270000 0.0916736562 0.0120754063
0.4376258438 0.0897769375 0.0120754062
0.4659702187 0.0878941875 0.0114096875
0.4937316562 0.0865745625 0.0114096875
0.5206827500 0.0858692812 0.0112864062
0.5469224062 0.0854175937 0.0106206875
0.5728111250 0.0854175937 0.0106206875
0.5980519687 0.0854175937 0.0102513125
0.6228648750 0.0858692812 0.0097094063
0.6472240625 0.0862405313 0.0088466875
0.6717346250 0.0872292188 0.0080829375
0.6964698750 0.0891378125 0.0065305937
0.7221574375 0.0917477500 0.0049775625
0.7488541562 0.0950963750 0.0033019063
0.7764090938 0.0990792500 0.0024891250
0.8052011875 0.1028994062 0.0032525625
0.8346145625 0.1062666875 0.0070724375
0.8639456875 0.1092142812 0.0124938750
0.0119767500 0.1117722500 0.0346970000
0.0189505312 0.1117722500 0.0340567500
0.0282903750 0.1132563750 0.0301138750
0.0487726562 0.1149990000 0.0285367500
0.0729087500 0.1160323125 0.0321840000
0.0901011875 0.1185198437 0.0363233125
0.1133114375 0.1213994375 0.0391333125
0.1484155000 0.1247188750 0.0302862500
0.1923865000 0.1256002500 0.0218340625
0.2309675312 0.1252464688 0.0177925313
0.2636836875 0.1250875625 0.0168065625
0.2948775000 0.1245621250 0.0160422188
0.3263002500 0.1234084375 0.0125681250
0.3573929375 0.1216798750 0.0102515937
0.3886422500 0.1196565000 0.0091669375
0.4192386563 0.1176719687 0.0085510625
0.4488853125 0.1158936250 0.0081816875
0.4777897500 0.1144613437 0.0081816875
0.5055820625 0.1133065000 0.0078365000
0.5327799063 0.1126130938 0.0075406250
0.5590080625 0.1120457500 0.0073926875
0.5847400625 0.1120457500 0.0067524375
0.6098885625 0.1120457500 0.0063581250
0.6343766250 0.1124000000 0.0055937812
0.6586766875 0.1128392500 0.0048298750
0.6824830000 0.1139562188 0.0040660938
0.7063922500 0.1153867500 0.0026616875
0.7312895312 0.1174604687 0.0018726875
0.7569158125 0.1202126875 0.0018235625
0.7837587812 0.1230843437 0.0024398750
0.8114954375 0.1256779375 0.0047311250
0.8397991250 0.1281662812 0.0092658750
0.8678655000 0.1308949375 0.0148350625
0.0096353750 0.1369253750 0.0296945625
0.0187535000 0.1369842500 0.0275265625
0.0323314687 0.1365960937 0.0272062188
0.0499232187 0.1362055625 0.0276986250
0.0731817500 0.1377707187 0.0301138438
0.0949108438 0.1398625938 0.0344999062
0.1136507188 0.1442675625 0.0399213125
0.1433945937 0.1477610625 0.0384676250
0.1857696250 0.1506021250 0.0281174687
0.2287606875 0.1507673125 0.0207001250
0.2637054375 0.1507916875 0.0182848437
0.2967251875 0.1505350000 0.0161408438
0.3300400312 0.1497858437 0.0130360000
0.3635066250 0.1485750312 0.0093146562
0.3967063125 0.1469779687 0.0074421875
0.4287018438 0.1452978125 0.0060622187
0.4593770938 0.1439415625 0.0052980937
0.4886890625 0.1427004063 0.0050761875
0.5167593437 0.1417797500 0.0042879688
0.5441219375 0.1411562188 0.0042879688
0.5705509375 0.1406644687 0.0034989688
0.5962654687 0.1404841562 0.0032280938
0.6211749375 0.1402669687 0.0027109688
0.6454425938 0.1405623438 0.0019219688
0.6689614063 0.1411217188 0.0017495938
0.6921364062 0.1418055313 0.0017495938
0.7155290000 0.1429628125 0.0015770000
0.7394754375 0.1446056562 0.0015770000
0.7643950625 0.1463271875 0.0022919063
0.7904674687 0.1482324687 0.0039182500
0.8172025000 0.1501605938 0.0076888438
0.8442725937 0.1524492500 0.0123705937
0.8713275938 0.1545500312 0.0177920312
0.0108427500 0.1610512500 0.0270090000
0.0201332500 0.1606299688 0.0268366250
0.0326764375 0.1604395000 0.0268120000
0.0500800625 0.1603077500 0.0269351250
0.0753717500 0.1612653750 0.0291771250
0.1009249062 0.1637245625 0.0323565625
0.1212151875 0.1676220625 0.0382456875
0.1414695938 0.1713040313 0.0442058750
0.1768822500 0.1746312500 0.0372602500
0.2203540625 0.1766421250 0.0277232188
0.2593695000 0.1772608125 0.0227703125
0.2946842813 0.1771900312 0.0190738437
0.3301572500 0.1770781250 0.0159682500
0.3659938750 0.1762820000 0.0108179375
0.4013635000 0.1751070625 0.0068016875
0.4350099063 0.1740338750 0.0055200000
0.4668032500 0.1729105000 0.0043370000
0.4968178750 0.1718863438 0.0029818750
0.5255386875 0.1709735625 0.0022178125
0.5532110937 0.1702891562 0.0017742500
0.5799057500 0.1697506250 0.0011832500
0.6054899062 0.1694302500 0.0009860000
0.6300843750 0.1691957500 0.0009860000
0.6538761562 0.1692601563 0.0007890000
0.6769417500 0.1695502500 0.0007890000
0.6995802813 0.1701826250 0.0013800000
0.7225023750 0.1709791875 0.0017249375
0.7461123438 0.1719534688 0.0022918750
0.7704177500 0.1730895000 0.0039428750
0.7955433125 0.1743202500 0.0069245625
0.8213986875 0.1759375625 0.0113853125
0.8476323125 0.1778732188 0.0160670625
0.8737265000 0.1798317500 0.0208975000
0.0116070938 0.1857678750 0.0260230000
0.0208975937 0.1854354062 0.0254559063
0.0332435312 0.1852788750 0.0260230000
0.0513543750 0.1857070937 0.0261709375
0.0752214062 0.1861945000 0.0269351250
0.1022035000 0.1883861250 0.0299412187
0.1271634062 0.1912309062 0.0346970937
0.1473988125 0.1945842500 0.0417320312
0.1714534688 0.1986957187 0.0457057187
0.2088450625 0.2019657500 0.0357076250
0.2503555312 0.2033579688 0.0284875625
0.2888618125 0.2039856250 0.0243719688
0.3263082500 0.2043786250 0.0205029063
0.3641706563 0.2041677500 0.0158451250
0.4010076250 0.2035695312 0.0106206875
0.4361873438 0.2026175625 0.0071710625
0.4694858437 0.2017017812 0.0049035937
0.5004865312 0.2008351875 0.0029818750
0.5300512500 0.2000106563 0.0015770000
0.5582459063 0.1992890312 0.0010352500
0.5851750937 0.1986447813 0.0007890000
0.6111120937 0.1981831562 0.0007890000
0.6356501562 0.1979846563 0.0007890000
0.6592203125 0.1979846563 0.0013553750
0.6821441875 0.1981831562 0.0017742500
0.7047342500 0.1982844375 0.0023164687
0.7272168437 0.1988709063 0.0030803125
0.7503916875 0.1994061563 0.0051997500
0.7743019688 0.2002036250 0.0077380938
0.7990343125 0.2012812500 0.0113852813
0.8242453437 0.2025154688 0.0160424375
0.8497063125 0.2040384062 0.0207004687
0.8751410000 0.2057278437 0.0253575625
0.0139477500 0.2103215625 0.0252340000
0.0232382500 0.2101425625 0.0252340000
0.0355841875 0.2103215625 0.0246922500
0.0510410313 0.2104466875 0.0252340000
0.0723890625 0.2111382500 0.0253819375
0.1004554375 0.2125975625 0.0276001563
0.1311227500 0.2152824375 0.0321346250
0.1557592812 0.2185580625 0.0389853125
0.1771131875 0.2222206875 0.0453266250
0.2035498750 0.2261029375 0.0433771875
0.2404445000 0.2286083750 0.0349435625
0.2804221875 0.2300476875 0.0303105000
0.3189526875 0.2306631250 0.0267132500
0.3576997500 0.2310569063 0.0225979063
0.3958699375 0.2307588125 0.0179399375
0.4323325000 0.2302872500 0.0124938750
0.4668041875 0.2295713125 0.0087234375
0.4992456875 0.2289081250 0.0056184062
0.5298893750 0.2282835625 0.0033020000
0.5589975625 0.2275186250 0.0023410625
0.5865942500 0.2269671875 0.0021194375
0.6127654063 0.2265753125 0.0021194375
0.6377255000 0.2263475000 0.0021194375
0.6615433438 0.2261764375 0.0026611875
0.6843513125 0.2261764375 0.0036471875
0.7068580625 0.2262129688 0.0049532188
0.7294966250 0.2264347500 0.0072943750
0.7524607187 0.2269410937 0.0097585000
0.7762256250 0.2274875000 0.0134055000
0.8005770313 0.2283356563 0.0168313438
0.8251956250 0.2294956875 0.0207004375
0.8500758125 0.2308218750 0.0253575625
0.8749510000 0.2322945625 0.0292266250
0.0139231250 0.2347011250 0.0252340000
0.0240022813 0.2345430000 0.0244706250
0.0361265937 0.2349117813 0.0244460000
0.0521158438 0.2351020313 0.0244460000
0.0746334063 0.2357240000 0.0251355000
0.1040281562 0.2370603750 0.0266887187
0.1371690625 0.2395185625 0.0303105625
0.1654845937 0.2422045000 0.0372603437
0.1874532500 0.2453298125 0.0442504687
0.2088257500 0.2487760313 0.0461361250
0.2362865937 0.2522135313 0.0403612500
0.2719606562 0.2544232500 0.0357319063
0.3102802813 0.2557471875 0.0326271875
0.3489172500 0.2563165625 0.0295224688
0.3873705000 0.2565068750 0.0249137188
0.4244087187 0.2565068750 0.0207743125
0.4597588750 0.2561804062 0.0163875937
0.4934102500 0.2559034375 0.0125185312
0.5252335000 0.2555846875 0.0089946563
0.5553903750 0.2550300000 0.0064809375
0.5838541250 0.2546455000 0.0051998125
0.6106676250 0.2542017500 0.0047066875
0.6359292500 0.2539527500 0.0054956875
0.6600948437 0.2538026562 0.0065055938
0.6831584063 0.2538026562 0.0082552812
0.7059192500 0.2538991250 0.0103007813
0.7285189687 0.2540761250 0.0134055000
0.7515927813 0.2545203437 0.0157222187
0.7752438437 0.2550002500 0.0188270625
0.7992689063 0.2558266875 0.0222774062
0.8235918437 0.2568599688 0.0261465000
0.8481910938 0.2580260938 0.0300149688
0.8727957187 0.2593241563 0.0338840313
0.0195175000 0.2601653750 0.0252340000
0.0303603750 0.2600568437 0.0252340000
0.0437930625 0.2603435000 0.0249877500
0.0614166562 0.2605313437 0.0249385000
0.0841946250 0.2613930000 0.0252340000
0.1129029375 0.2625772188 0.0266887187
0.1446591250 0.2644158750 0.0298180625
0.1738327188 0.2663411875 0.0358799375
0.1971632500 0.2684767500 0.0433438750
0.2175428438 0.2713047188 0.0473980000
0.2398956250 0.2745285000 0.0457743125
0.2681831562 0.2776303438 0.0409204375
0.3027333750 0.2792328750 0.0380486250
0.3397290937 0.2802880937 0.0352394062
0.3771331875 0.2808953750 0.0318388125
0.4141225938 0.2813247812 0.0280193438
0.4498118750 0.2816123750 0.0241503750
0.4839188750 0.2818182500 0.0202813125
0.5163901250 0.2818075000 0.0167574375
0.5472200938 0.2815946875 0.0136520938
0.5764878750 0.2814387500 0.0116315000
0.6040215625 0.2812905625 0.0111383750
0.6299107500 0.2810690000 0.0119273750
0.6545114062 0.2810540938 0.0129372812
0.6780368750 0.2811316250 0.0152786250
0.7010914062 0.2813935625 0.0172992188
0.7239836875 0.2817363750 0.0196159375
0.7471369063 0.2821506250 0.0219322812
0.7706778750 0.2827855000 0.0249388750
0.7947624063 0.2836303125 0.0276495937
0.8191486875 0.2845468125 0.0312474375
0.8436895000 0.2857135625 0.0346726875
0.8682181250 0.2868665000 0.0385417500
0.0308775000 0.2857266875 0.0257024687
0.0424940313 0.2854692187 0.0252340000
0.0562506563 0.2855662500 0.0252340000
0.0737410313 0.2859411875 0.0252340000
0.0950823750 0.2862860000 0.0252340000
0.1216130000 0.2871086250 0.0258997188
0.1514117812 0.2884456563 0.0284134375
0.1806489062 0.2898582500 0.0335391875
0.2062034688 0.2914771250 0.0410975312
0.2273380313 0.2937512812 0.0471980313
0.2481509063 0.2965737500 0.0481625625
0.2709505938 0.2995452500 0.0448950938
0.2989365625 0.3015615313 0.0417108125
0.3320286250 0.3029538125 0.0394290000
0.3671204062 0.3041005625 0.0367917500
0.4025612500 0.3049576250 0.0336870312
0.4373730000 0.3058779688 0.0305818125
0.4713078750 0.3064847813 0.0267870938
0.5039482500 0.3070388437 0.0232627500
0.5352174375 0.3073818125 0.0204785625
0.5649881562 0.3074478125 0.0192216875
0.5930711875 0.3075834375 0.0189011562
0.6195670313 0.3077189688 0.0196901563
0.6447130313 0.3079371250 0.0207000625
0.6687794375 0.3082787813 0.0220551562
0.6922910000 0.3087276875 0.0238297813
0.7156360938 0.3092658437 0.0256780312
0.7390927187 0.3098392812 0.0276742188
0.7628450937 0.3106192812 0.0299904688
0.7871845938 0.3115545625 0.0326271875
0.8116920312 0.3125572187 0.0357319688
0.8364863125 0.3136630313 0.0388611563
0.8613859062 0.3148121875 0.0423418125
0.0428231250 0.3089607500 0.0264668125
0.0550503125 0.3088415625 0.0260230000
0.0691335000 0.3088339375 0.0260230000
0.0853904062 0.3088835000 0.0260230000
0.1055156250 0.3090675000 0.0260230000
0.1302569375 0.3095390313 0.0260230000
0.1591560000 0.3103002500 0.0280933125
0.1878725000 0.3115286250 0.0321591875
0.2140598750 0.3130009375 0.0395741875
0.2362211250 0.3148899687 0.0467921875
0.2561620625 0.3173276250 0.0493697500
0.2760115000 0.3200383438 0.0477699375
0.2987284375 0.3224620625 0.0441868125
0.3266397500 0.3243516875 0.0417350937
0.3580687500 0.3259683125 0.0394290000
0.3908099063 0.3273930000 0.0371122812
0.4238037500 0.3287838125 0.0347463125
0.4565735625 0.3301046875 0.0313456562
0.4888990625 0.3311476250 0.0285856875
0.5201165937 0.3319304375 0.0265648750
0.5502165000 0.3324286875 0.0257768750
0.5787281875 0.3330350625 0.0254316875
0.6058772500 0.3336130000 0.0260231250
0.6315043750 0.3341537187 0.0267867813
0.6562361875 0.3348607500 0.0275508750
0.6803090625 0.3356145625 0.0291032500
0.7041724375 0.3364341250 0.0306558125
0.7279628750 0.3373473125 0.0322081563
0.7522116250 0.3383050625 0.0342041875
0.7768255000 0.3394234375 0.0368907500
0.8017001875 0.3405765000 0.0396234375
0.8269767188 0.3416860312 0.0426742812
0.8522021250 0.3429821875 0.0459496250
0.0563425312 0.3306276250 0.0263928437
0.0693883125 0.3305212500 0.0260476563
0.0837340937 0.3306276250 0.0260230000
0.0994894062 0.3304183750 0.0256038438
0.1189225625 0.3304463750 0.0260230000
0.1424150312 0.3306976250 0.0260230000
0.1694163750 0.3312709688 0.0276741562
0.1965218750 0.3324190313 0.0313952813
0.2217766563 0.3338693125 0.0388126250
0.2434233437 0.3355600000 0.0457023125
0.2623633125 0.3376115937 0.0494552500
0.2806765000 0.3399756563 0.0491337500
0.3004890625 0.3424262188 0.0463803125
0.3238007187 0.3448052500 0.0427725625
0.3509480313 0.3467967500 0.0405569375
0.3801622812 0.3487312812 0.0382213750
0.4106638750 0.3505555938 0.0359046562
0.4417107188 0.3522663437 0.0339582500
0.4728368750 0.3538753125 0.0319621562
0.5035614687 0.3551193125 0.0308037813
0.5335360625 0.3563360625 0.0304339375
0.5624221875 0.3573751563 0.0304339375
0.5899287813 0.3584417813 0.0304339375
0.6162024375 0.3594710313 0.0310256875
0.6414373438 0.3605437500 0.0317893125
0.6659927187 0.3617928437 0.0325533750
0.6902452187 0.3629944375 0.0341057187
0.7146455937 0.3641999375 0.0356580625
0.7392620000 0.3655838438 0.0376792812
0.7642726875 0.3669387500 0.0399921875
0.7896109687 0.3683736563 0.0426506563
0.8153189688 0.3698458125 0.0459261250
0.8412209688 0.3713512812 0.0490244687
0.0709845000 0.3515595000 0.0248400000
0.0839622812 0.3512562500 0.0248400000
0.0984101875 0.3511575000 0.0244455000
0.1148477500 0.3511510000 0.0240515000
0.1337853750 0.3511510000 0.0243470000
0.1559166563 0.3513892500 0.0248400000
0.1804091875 0.3520408750 0.0265158125
0.2048400000 0.3532003750 0.0298426562
0.2279635000 0.3546727500 0.0360772500
0.2485540000 0.3561329375 0.0433217500
0.2666228750 0.3577581250 0.0478564375
0.2840060625 0.3597061563 0.0486395000
0.3021658750 0.3619226250 0.0467116250
0.3226997500 0.3643768750 0.0437926875
0.3461213125 0.3667227500 0.0401136875
0.3718131875 0.3689106875 0.0382213750
0.3991910000 0.3711255000 0.0366685000
0.4279328750 0.3732799688 0.0347216562
0.4574691250 0.3752371250 0.0339582500
0.4871922188 0.3770458750 0.0335145000
0.5166601250 0.3787341250 0.0335145000
0.5452844688 0.3804199688 0.0335145000
0.5730103125 0.3820060000 0.0339085000
0.5995740938 0.3836293438 0.0339085000
0.6252637500 0.3851990000 0.0346975000
0.6502311250 0.3868061875 0.0352638750
0.6749631250 0.3885114375 0.0368164375
0.6997261250 0.3902785937 0.0379747812
0.7247783750 0.3920900000 0.0400157500
0.7501544063 0.3939231875 0.0422770937
0.7760280000 0.3958850625 0.0455479375
0.8022544062 0.3978269687 0.0483540938
0.8285390000 0.3997970000 0.0516835000
0.0851276562 0.3719520625 0.0221297813
0.0984259375 0.3716723125 0.0221297813
0.1127263750 0.3715270938 0.0213900937
0.1287841250 0.3714846563 0.0213407813
0.1469095625 0.3716541562 0.0220311563
0.1674624063 0.3718778437 0.0227946563
0.1895985312 0.3727535625 0.0243470313
0.2114114687 0.3738625625 0.0273048125
0.2322805000 0.3752372500 0.0325782813
0.2516923750 0.3764651875 0.0390068750
0.2693385000 0.3777570000 0.0441336563
0.2862337812 0.3793453750 0.0466907187
0.3036154062 0.3811993125 0.0461110625
0.3225054063 0.3835081563 0.0435121875
0.3432615625 0.3858179063 0.0401136875
0.3659740312 0.3882208125 0.0374328437
0.3904191875 0.3906944688 0.0358800000
0.4163580000 0.3929354688 0.0354860000
0.4438477187 0.3952403125 0.0350668437
0.4721209063 0.3975238750 0.0350668437
0.5005790000 0.3998106250 0.0353623437
0.5286865938 0.4020010313 0.0358553750
0.5561945625 0.4040946250 0.0358553750
0.5828364375 0.4062395937 0.0358553750
0.6086410937 0.4083862188 0.0364712500
0.6339478750 0.4105524063 0.0368164375
0.6588747187 0.4128447188 0.0382213750
0.6840014063 0.4151662500 0.0396735313
0.7093870313 0.4176578438 0.0415407187
0.7352165625 0.4201808437 0.0444838750
0.7614430313 0.4228110000 0.0473515625
0.7881266563 0.4255060937 0.0507452187
0.8148657500 0.4281642500 0.0542524062
0.0981152500 0.3917663125 0.0186793125
0.1110305312 0.3916800000 0.0182606875
0.1249368750 0.3914533125 0.0182360625
0.1403276250 0.3915373125 0.0182360625
0.1575225000 0.3916658125 0.0190240625
0.1764477812 0.3920445938 0.0198130625
0.1963235625 0.3927864375 0.0212423125
0.2159610000 0.3939623750 0.0238543437
0.2353624375 0.3952965000 0.0283393750
0.2538072812 0.3965691875 0.0335638125
0.2713083750 0.3976571250 0.0392285000
0.2878833438 0.3989233750 0.0430988437
0.3049192500 0.4003868750 0.0440931250
0.3226949687 0.4022086875 0.0424886875
0.3418126875 0.4043425000 0.0405569375
0.3621835000 0.4066728750 0.0381474063
0.3841756875 0.4090986250 0.0362247500
