lut/gamut-606/606 - Belmont.cube
TITLE "606 - Belmont"
# Contributor - Eric Floberg. Version 1.0 - 06/29/2022 - Designed for Rec.709 Color Space. Copyright 2022 Gamut, LLC
LUT_3D_SIZE 5
0.0000000000 0.0000000000 0.0000000000
0.1905067500 0.0001972500 0.0102510000
0.5588490000 0.0000000000 0.0094630000
0.8383232500 0.0001972500 0.0057172500
1.0000000000 0.2041850000 0.0979300000
0.0000000000 0.1806735000 0.0228690000
0.1725232500 0.1876635000 0.0059142500
0.5499835000 0.2134405000 0.0000000000
0.8233587500 0.2696827500 0.0000000000
1.0000000000 0.3636127500 0.1054815000
0.0000000000 0.4922835000 0.0492325000
0.0578050000 0.4893527500 0.0614155000
0.4971050000 0.5071675000 0.0047315000
0.7926422500 0.5451035000 0.0011832500
0.9928015000 0.5645290000 0.1547585000
0.0283887500 0.7317800000 0.2165172500
0.2195730000 0.7293677500 0.2228317500
0.4898095000 0.7283705000 0.2206722500
0.7469422500 0.7439660000 0.1226157500
0.9728225000 0.7398812500 0.1958110000
0.4111370000 0.9177220000 0.4547220000
0.4805680000 0.9161870000 0.4560012500
0.5987985000 0.9161270000 0.4776890000
0.7379385000 0.9205192500 0.4890782500
0.9140750000 0.9260880000 0.4724870000
0.0023655000 0.0147857500 0.2194242500
0.2404180000 0.0000000000 0.2242312500
0.6042605000 0.0000000000 0.2149510000
0.8532437500 0.0007890000 0.2178397500
1.0000000000 0.2055845000 0.2867622500
0.0000000000 0.2108980000 0.2097280000
0.2280300000 0.2253757500 0.2214105000
0.5750562500 0.2178357500 0.2267285000
0.8258612500 0.2739215000 0.2455252500
1.0000000000 0.3790375000 0.3059385000
0.0033512500 0.5155957500 0.2759582500
0.1890955000 0.5150132500 0.2668095000
0.5230582500 0.5221397500 0.2403815000
0.7925262500 0.5538197500 0.2615507500
0.9880050000 0.5715807500 0.3354212500
0.1425460000 0.7391467500 0.3594342500
0.3026972500 0.7374372500 0.3612462500
0.5133975000 0.7337390000 0.3655790000
0.7495762500 0.7477157500 0.3212787500
0.9681667500 0.7448942500 0.3627235000
0.4330762500 0.9183680000 0.5306417500
0.5001425000 0.9172250000 0.5311435000
0.6089877500 0.9169550000 0.5452760000
0.7413000000 0.9208557500 0.5490592500
0.9159232500 0.9263702500 0.5238642500
0.1352915000 0.0350915000 0.5531265000
0.3497687500 0.0000000000 0.5481245000
0.6371285000 0.0000000000 0.5430625000
0.8758260000 0.0000000000 0.5307982500
1.0000000000 0.0758780000 0.5010485000
0.1143610000 0.2849322500 0.5383037500
0.3417555000 0.2770190000 0.5371607500
0.6199382500 0.2161587500 0.5337570000
0.8541427500 0.2367130000 0.5232257500
0.9999865000 0.3292995000 0.5078420000
0.0778280000 0.5395935000 0.5054930000
0.3180767500 0.5463570000 0.5127687500
0.5716935000 0.5590775000 0.5248535000
0.8003710000 0.5630117500 0.5284277500
0.9815015000 0.5852630000 0.5483945000
0.3102515000 0.7484652500 0.5506715000
0.4248280000 0.7500840000 0.5562627500
0.5728645000 0.7496525000 0.5573767500
0.7598150000 0.7586557500 0.5492467500
0.9565575000 0.7620390000 0.5759220000
0.4901945000 0.9191030000 0.6536825000
0.5522170000 0.9186455000 0.6522935000
0.6422110000 0.9188930000 0.6562465000
0.7650487500 0.9202342500 0.6694955000
0.9209905000 0.9270970000 0.6352605000
0.3827615000 0.1917372500 0.7772035000
0.4956942500 0.1766647500 0.7750012500
0.6714252500 0.1210427500 0.7717720000
0.8651825000 0.0580357500 0.7711502500
1.0000000000 0.1846047500 0.7274290000
0.3764195000 0.3857140000 0.7665137500
0.4842177500 0.3773855000 0.7663315000
0.6534780000 0.3497680000 0.7654160000
0.8470552500 0.3187635000 0.7645857500
1.0000000000 0.3708635000 0.7274302500
0.3528177500 0.5926332500 0.7518667500
0.4646167500 0.5973892500 0.7547400000
0.6258332500 0.5982892500 0.7580420000
0.8129657500 0.5770305000 0.7580720000
0.9907465000 0.5920607500 0.7358255000
0.3597367500 0.7607200000 0.7364785000
0.4594957500 0.7628417500 0.7397992500
0.6087502500 0.7655525000 0.7428470000
0.7827442500 0.7779905000 0.7595027500
0.9471410000 0.7803887500 0.7644137500
0.4829962500 0.9242067500 0.7764847500
0.5559860000 0.9236185000 0.7790817500
0.6709800000 0.9232382500 0.7909865000
0.7948125000 0.9235882500 0.8048625000
0.9259392500 0.9292590000 0.7994500000
0.5178080000 0.4806130000 0.9423830000
0.5836527500 0.4760102500 0.9423250000
0.6807285000 0.4621850000 0.9426585000
0.8162910000 0.4326810000 0.9442960000
0.9935330000 0.3885730000 0.9465210000
0.5326480000 0.5748257500 0.9387962500
0.5957867500 0.5709155000 0.9389712500
0.6865627500 0.5590420000 0.9397362500
0.8141675000 0.5318282500 0.9415260000
0.9865662500 0.4924862500 0.9441510000
0.5569585000 0.6950890000 0.9343265000
0.6230430000 0.6975660000 0.9344140000
0.7039655000 0.6899775000 0.9352945000
0.8150312500 0.6697105000 0.9372557500
0.9715340000 0.6401455000 0.9399985000
0.5490802500 0.8029960000 0.9317385000
0.6157782500 0.8052137500 0.9319147500
0.7095870000 0.8110412500 0.9324597500
0.8196462500 0.8129902500 0.9338930000
0.9519825000 0.7970935000 0.9368977500
0.5396810000 0.9305880000 0.9315020000
0.6060697500 0.9307727500 0.9317090000
0.6990530000 0.9312965000 0.9324450000
0.8119517500 0.9327685000 0.9342530000
0.9367000000 0.9370800000 0.9390950000
