lut/gamut-606/606 - Ravenswood.cube
TITLE "606 - Ravenswood"
# Contributor - Eric Floberg. Version 1.0 - 06/29/2022 - Designed for Rec.709 Color Space. Copyright 2022 Gamut, LLC
LUT_3D_SIZE 5
0.0094630000 0.0094630000 0.0110400000
0.1904155000 0.0100545000 0.0096600000
0.5668340000 0.0000000000 0.0000000000
0.8273975000 0.0110402500 0.0000000000
1.0000000000 0.2137050000 0.0000000000
0.0000000000 0.2309102500 0.0001972500
0.2189590000 0.2325305000 0.0000000000
0.5725800000 0.2364207500 0.0000000000
0.8167050000 0.2861285000 0.0000000000
0.9999932500 0.3621942500 0.0000000000
0.0000000000 0.5645525000 0.0000000000
0.0810492500 0.5577085000 0.0000000000
0.5595070000 0.5572330000 0.0000000000
0.7983075000 0.5529955000 0.0000000000
0.9893265000 0.5589255000 0.0000000000
0.0011832500 0.7703332500 0.0305487500
0.2046397500 0.7656322500 0.0380720000
0.5225565000 0.7596987500 0.0436992500
0.7714877500 0.7646947500 0.0289802500
0.9859030000 0.7493272500 0.0496027500
0.2415180000 0.9607500000 0.3217480000
0.3482692500 0.9587740000 0.3220025000
0.5236525000 0.9583980000 0.3418595000
0.7251432500 0.9613582500 0.3489430000
0.9562380000 0.9624170000 0.3412270000
0.0000000000 0.0134060000 0.2116055000
0.2200790000 0.0000000000 0.2128917500
0.6091345000 0.0000000000 0.1946515000
0.8354950000 0.0041397500 0.1853237500
1.0000000000 0.2155165000 0.1766667500
0.0000000000 0.2282920000 0.2343442500
0.2285387500 0.2275212500 0.2235355000
0.5830122500 0.2213592500 0.2052200000
0.8175560000 0.2807340000 0.1833900000
0.9993022500 0.3662880000 0.1798310000
0.0000000000 0.5727575000 0.2283595000
0.1133375000 0.5651085000 0.2125130000
0.5604267500 0.5556182500 0.1932545000
0.7931135000 0.5522677500 0.1849452500
0.9859985000 0.5611097500 0.2081802500
0.0104485000 0.7738317500 0.2784977500
0.2394205000 0.7692727500 0.2796842500
0.5243987500 0.7601802500 0.2793862500
0.7683735000 0.7642835000 0.2699552500
0.9816532500 0.7504827500 0.2869627500
0.2634815000 0.9613507500 0.4257592500
0.3640915000 0.9597097500 0.4259377500
0.5311415000 0.9588732500 0.4390640000
0.7286427500 0.9609835000 0.4463640000
0.9564797500 0.9622200000 0.4403842500
0.0000000000 0.0000000000 0.5607660000
0.2944122500 0.0000000000 0.5575097500
0.6256685000 0.0000000000 0.5505660000
0.8683772500 0.0000000000 0.5239535000
1.0000000000 0.0783395000 0.4691530000
0.0000000000 0.2338967500 0.5575330000
0.2989017500 0.2397405000 0.5523900000
0.6133315000 0.2163022500 0.5432870000
0.8418862500 0.2554105000 0.5168715000
0.9990805000 0.3389332500 0.4840875000
0.0011830000 0.5708105000 0.5475880000
0.2393122500 0.5705345000 0.5463230000
0.5685275000 0.5632515000 0.5341585000
0.7856572500 0.5618535000 0.5182600000
0.9779735000 0.5719815000 0.5109845000
0.1651832500 0.7817055000 0.5525775000
0.3419892500 0.7784115000 0.5500245000
0.5429250000 0.7668597500 0.5346025000
0.7638847500 0.7651527500 0.5299387500
0.9719245000 0.7546470000 0.5279322500
0.3189485000 0.9625445000 0.5856495000
0.4013215000 0.9616125000 0.5813942500
0.5462310000 0.9605520000 0.5823785000
0.7358287500 0.9604035000 0.5890427500
0.9582560000 0.9621070000 0.5869480000
0.2359172500 0.0000000000 0.7836545000
0.4075600000 0.0000000000 0.7812355000
0.6424480000 0.0000000000 0.7761885000
0.8485315000 0.0128140000 0.7733745000
1.0000000000 0.1694285000 0.7321232500
0.2662120000 0.2672357500 0.7769860000
0.4185807500 0.2688242500 0.7756185000
0.6297885000 0.2868172500 0.7713940000
0.8289450000 0.3204190000 0.7671105000
1.0000000000 0.3778495000 0.7338905000
0.2516750000 0.5656882500 0.7684110000
0.4065090000 0.5734185000 0.7683540000
0.6060507500 0.5876282500 0.7647060000
0.7964007500 0.5882907500 0.7625442500
0.9926797500 0.5948117500 0.7419215000
0.2678585000 0.7755217500 0.7727575000
0.3951592500 0.7763842500 0.7728422500
0.5780012500 0.7767270000 0.7699697500
0.7689022500 0.7716422500 0.7579595000
0.9647562500 0.7667635000 0.7444412500
0.2626462500 0.9693637500 0.7707010000
0.3763542500 0.9679220000 0.7709567500
0.5604987500 0.9652420000 0.7754120000
0.7475202500 0.9616972500 0.7719165000
0.9587667500 0.9622340000 0.7719537500
0.3737900000 0.1939470000 0.9760920000
0.4759035000 0.1808012500 0.9754892500
0.6357185000 0.1536140000 0.9743445000
0.8074300000 0.2436302500 0.9711650000
0.9988990000 0.2740370000 0.9705300000
0.3847592500 0.3396687500 0.9734412500
0.4800590000 0.3473117500 0.9727320000
0.6269317500 0.3738667500 0.9708302500
0.7966817500 0.4159655000 0.9678170000
0.9967802500 0.4227627500 0.9678240000
0.3989160000 0.5953415000 0.9668640000
0.4924580000 0.6035150000 0.9662605000
0.6260395000 0.6109625000 0.9651785000
0.7899092500 0.6169347500 0.9636512500
0.9837405000 0.6104070000 0.9642075000
0.3831792500 0.7612817500 0.9666392500
0.4751722500 0.7658167500 0.9661760000
0.6207640000 0.7778547500 0.9646930000
0.7936967500 0.7920737500 0.9626152500
0.9706135000 0.7910522500 0.9628482500
0.2996360000 0.9504350000 0.9687410000
0.4045032500 0.9514385000 0.9684330000
0.5772355000 0.9542135000 0.9678030000
0.7706147500 0.9581210000 0.9670040000
0.9592210000 0.9621630000 0.9661340000
