lut/gamut-606/606 - Montrose.cube
TITLE "606 - Montrose"
# Contributor - Eric Floberg. Version 1.0 - 06/29/2022 - Designed for Rec.709 Color Space. Copyright 2022 Gamut, LLC
LUT_3D_SIZE 5
0.0315430000 0.0315430000 0.0315430000
0.0470627500 0.0470627500 0.0470627500
0.1488895000 0.1488895000 0.1488895000
0.3750900000 0.3750900000 0.3750900000
0.6523610000 0.6523610000 0.6523610000
0.2135992500 0.2135992500 0.2135992500
0.2336210000 0.2336210000 0.2336210000
0.3584377500 0.3584377500 0.3584377500
0.5063345000 0.5063345000 0.5063345000
0.7346537500 0.7346537500 0.7346537500
0.5904120000 0.5904120000 0.5904120000
0.6209665000 0.6209665000 0.6209665000
0.6392520000 0.6392520000 0.6392520000
0.7401365000 0.7401365000 0.7401365000
0.8393355000 0.8393355000 0.8393355000
0.8369755000 0.8369755000 0.8369755000
0.8426862500 0.8426862500 0.8426862500
0.8512562500 0.8512562500 0.8512562500
0.8612935000 0.8612935000 0.8612935000
0.9063387500 0.9063387500 0.9063387500
0.9471560000 0.9471560000 0.9471560000
0.9479622500 0.9479622500 0.9479622500
0.9513525000 0.9513525000 0.9513525000
0.9545912500 0.9545912500 0.9545912500
0.9569770000 0.9569770000 0.9569770000
0.0384430000 0.0384430000 0.0384430000
0.0575702500 0.0575702500 0.0575702500
0.1538327500 0.1538327500 0.1538327500
0.3604725000 0.3604725000 0.3604725000
0.6200357500 0.6200357500 0.6200357500
0.1258565000 0.1258565000 0.1258565000
0.1746435000 0.1746435000 0.1746435000
0.3045927500 0.3045927500 0.3045927500
0.4755250000 0.4755250000 0.4755250000
0.7128337500 0.7128337500 0.7128337500
0.5446385000 0.5446385000 0.5446385000
0.5787957500 0.5787957500 0.5787957500
0.6137040000 0.6137040000 0.6137040000
0.7247195000 0.7247195000 0.7247195000
0.8336887500 0.8336887500 0.8336887500
0.8306975000 0.8306975000 0.8306975000
0.8370767500 0.8370767500 0.8370767500
0.8487032500 0.8487032500 0.8487032500
0.8591567500 0.8591567500 0.8591567500
0.9060485000 0.9060485000 0.9060485000
0.9467375000 0.9467375000 0.9467375000
0.9476887500 0.9476887500 0.9476887500
0.9512380000 0.9512380000 0.9512380000
0.9546482500 0.9546482500 0.9546482500
0.9569770000 0.9569770000 0.9569770000
0.0823760000 0.0823760000 0.0823760000
0.1174927500 0.1174927500 0.1174927500
0.2160030000 0.2160030000 0.2160030000
0.3778352500 0.3778352500 0.3778352500
0.6086480000 0.6086480000 0.6086480000
0.2053207500 0.2053207500 0.2053207500
0.2509417500 0.2509417500 0.2509417500
0.3306580000 0.3306580000 0.3306580000
0.4608475000 0.4608475000 0.4608475000
0.6744620000 0.6744620000 0.6744620000
0.4551320000 0.4551320000 0.4551320000
0.4908167500 0.4908167500 0.4908167500
0.5649285000 0.5649285000 0.5649285000
0.6743990000 0.6743990000 0.6743990000
0.8072745000 0.8072745000 0.8072745000
0.8092675000 0.8092675000 0.8092675000
0.8170775000 0.8170775000 0.8170775000
0.8363785000 0.8363785000 0.8363785000
0.8543667500 0.8543667500 0.8543667500
0.9042190000 0.9042190000 0.9042190000
0.9447010000 0.9447010000 0.9447010000
0.9459655000 0.9459655000 0.9459655000
0.9501045000 0.9501045000 0.9501045000
0.9547630000 0.9547630000 0.9547630000
0.9570340000 0.9570340000 0.9570340000
0.2405772500 0.2405772500 0.2405772500
0.2778355000 0.2778355000 0.2778355000
0.3772037500 0.3772037500 0.3772037500
0.4863890000 0.4863890000 0.4863890000
0.6470840000 0.6470840000 0.6470840000
0.3595395000 0.3595395000 0.3595395000
0.3867537500 0.3867537500 0.3867537500
0.4589635000 0.4589635000 0.4589635000
0.5508237500 0.5508237500 0.5508237500
0.7026925000 0.7026925000 0.7026925000
0.4974322500 0.4974322500 0.4974322500
0.5420065000 0.5420065000 0.5420065000
0.6314762500 0.6314762500 0.6314762500
0.7044560000 0.7044560000 0.7044560000
0.7986270000 0.7986270000 0.7986270000
0.7713590000 0.7713590000 0.7713590000
0.7813267500 0.7813267500 0.7813267500
0.8061107500 0.8061107500 0.8061107500
0.8426662500 0.8426662500 0.8426662500
0.8870515000 0.8870515000 0.8870515000
0.9385627500 0.9385627500 0.9385627500
0.9402827500 0.9402827500 0.9402827500
0.9456907500 0.9456907500 0.9456907500
0.9536567500 0.9536567500 0.9536567500
0.9571480000 0.9571480000 0.9571480000
0.5890440000 0.5890440000 0.5890440000
0.6133472500 0.6133472500 0.6133472500
0.6837915000 0.6837915000 0.6837915000
0.7724470000 0.7724470000 0.7724470000
0.8214750000 0.8214750000 0.8214750000
0.6496105000 0.6496105000 0.6496105000
0.6712110000 0.6712110000 0.6712110000
0.7271765000 0.7271765000 0.7271765000
0.7941397500 0.7941397500 0.7941397500
0.8333105000 0.8333105000 0.8333105000
0.7463235000 0.7463235000 0.7463235000
0.7647325000 0.7647325000 0.7647325000
0.7967205000 0.7967205000 0.7967205000
0.8326070000 0.8326070000 0.8326070000
0.8609340000 0.8609340000 0.8609340000
0.8225822500 0.8225822500 0.8225822500
0.8256502500 0.8256502500 0.8256502500
0.8419927500 0.8419927500 0.8419927500
0.8786675000 0.8786675000 0.8786675000
0.9069957500 0.9069957500 0.9069957500
0.9351770000 0.9351770000 0.9351770000
0.9363197500 0.9363197500 0.9363197500
0.9400275000 0.9400275000 0.9400275000
0.9470330000 0.9470330000 0.9470330000
0.9570340000 0.9570340000 0.9570340000
