lut/gamut-606/606 - Ravenswood.cube
TITLE "606 - Ravenswood"
# Contributor - Eric Floberg. Version 1.0 - 06/29/2022 - Designed for Rec.709 Color Space. Copyright 2022 Gamut, LLC
LUT_3D_SIZE 33
0.0094630000 0.0094630000 0.0110400000
0.0210701875 0.0094630000 0.0110153437
0.0410219375 0.0086740000 0.0109906875
0.0602395312 0.0079598750 0.0110400000
0.0807192500 0.0101525000 0.0117303750
0.1011925625 0.0117057187 0.0110400000
0.1262295000 0.0126170000 0.0110400000
0.1553811562 0.0126170000 0.0102510000
0.1904155000 0.0100545000 0.0096600000
0.2340105000 0.0040413438 0.0086740000
0.2806713750 0.0002465625 0.0068018125
0.3292358125 0.0000000000 0.0050022187
0.3783850000 0.0000000000 0.0034498750
0.4278915313 0.0000000000 0.0011091250
0.4763080625 0.0000000000 0.0000000000
0.5228557500 0.0000000000 0.0000000000
0.5668340000 0.0000000000 0.0000000000
0.6083952812 0.0000000000 0.0000000000
0.6470810625 0.0000000000 0.0000000000
0.6828435313 0.0000000000 0.0000000000
0.7161746250 0.0000000000 0.0000000000
0.7468256875 0.0000000000 0.0000000000
0.7754966250 0.0002465625 0.0000000000
0.8022302188 0.0022424375 0.0000000000
0.8273975000 0.0110402500 0.0000000000
0.8515072812 0.0408325000 0.0000000000
0.8749967500 0.0751390625 0.0000000000
0.8980085625 0.1055908125 0.0000000000
0.9207297500 0.1318163750 0.0000000000
0.9428525000 0.1551616250 0.0000000000
0.9638783750 0.1762008125 0.0000000000
0.9829561250 0.1954877812 0.0000000000
1.0000000000 0.2137050000 0.0000000000
0.0048049375 0.0234105625 0.0110153437
0.0218089375 0.0234105625 0.0094876250
0.0403540000 0.0226225625 0.0102263750
0.0595366250 0.0241255938 0.0102510000
0.0787694688 0.0248890625 0.0102756563
0.1001788125 0.0264422813 0.0102756562
0.1259129375 0.0272058125 0.0096107500
0.1563177813 0.0267379375 0.0094876250
0.1936736250 0.0245938125 0.0086986562
0.2369636250 0.0195420000 0.0073435313
0.2827202812 0.0112614062 0.0065552500
0.3305726875 0.0067032187 0.0050022187
0.3793015625 0.0062104063 0.0034498750
0.4283592813 0.0062104062 0.0011091250
0.4764147813 0.0062104063 0.0000000000
0.5224770937 0.0062104062 0.0000000000
0.5666365000 0.0062104063 0.0000000000
0.6080568750 0.0062104063 0.0000000000
0.6467072188 0.0062104062 0.0000000000
0.6824950312 0.0062104063 0.0000000000
0.7155884688 0.0065059063 0.0000000000
0.7463198437 0.0069737812 0.0000000000
0.7748752500 0.0082555937 0.0000000000
0.8015015000 0.0144159062 0.0000000000
0.8266697500 0.0342164687 0.0000000000
0.8508259375 0.0675601563 0.0000000000
0.8741266563 0.0981566563 0.0000000000
0.8971961563 0.1253023437 0.0000000000
0.9199120000 0.1494516875 0.0000000000
0.9421673437 0.1712421875 0.0000000000
0.9631695312 0.1912143125 0.0000000000
0.9824523438 0.2095507500 0.0000000000
0.9999991563 0.2271795625 0.0000000000
0.0031540000 0.0404526250 0.0094630000
0.0209962812 0.0396748750 0.0094630000
0.0396748750 0.0396748750 0.0087233125
0.0589330625 0.0396748750 0.0087233125
0.0788028750 0.0404040625 0.0087233125
0.1007348125 0.0411473437 0.0087233125
0.1272751250 0.0420273125 0.0087233125
0.1596479062 0.0427285625 0.0086740000
0.1972222500 0.0408365625 0.0086740000
0.2394399063 0.0365699062 0.0078860000
0.2846200000 0.0284380000 0.0065552500
0.3324140313 0.0176937500 0.0050022187
0.3809150000 0.0134058125 0.0029573750
0.4298233437 0.0126910938 0.0003697812
0.4771655625 0.0124198750 0.0000000000
0.5232153750 0.0124198750 0.0000000000
0.5671666250 0.0124198750 0.0000000000
0.6083156250 0.0124198750 0.0000000000
0.6468041250 0.0127650625 0.0000000000
0.6823420000 0.0131595625 0.0000000000
0.7153677500 0.0139475625 0.0000000000
0.7458166250 0.0160177500 0.0000000000
0.7742534375 0.0207491875 0.0000000000
0.8007320313 0.0352857813 0.0000000000
0.8258363125 0.0651560000 0.0000000000
0.8499192187 0.0947918750 0.0000000000
0.8732798125 0.1217476875 0.0000000000
0.8962877500 0.1461477188 0.0000000000
0.9190118125 0.1682017500 0.0000000000
0.9413627500 0.1885330000 0.0000000000
0.9624852500 0.2072573125 0.0000000000
0.9821233437 0.2246658750 0.0000000000
0.9999730000 0.2415206875 0.0000000000
0.0046571250 0.0589118437 0.0101771250
0.0209962812 0.0572242500 0.0109660312
0.0373837500 0.0577331875 0.0101771250
0.0577547812 0.0577547812 0.0093890312
0.0803900000 0.0582193750 0.0086986562
0.1035325625 0.0593771563 0.0093890312
0.1306640625 0.0611215937 0.0094630000
0.1630227500 0.0622754687 0.0093890312
0.2004063437 0.0619154688 0.0087972812
0.2421185625 0.0593083125 0.0078860000
0.2872584687 0.0536440312 0.0065552500
0.3345833125 0.0443035000 0.0044850938
0.3829725625 0.0323561875 0.0014542500
0.4312234375 0.0232631562 0.0000739688
0.4782542187 0.0209714062 0.0000000000
0.5240746875 0.0207744062 0.0000000000
0.5676613750 0.0200593750 0.0000000000
0.6086551875 0.0200593750 0.0000000000
0.6467691563 0.0211931250 0.0000000000
0.6822142500 0.0229181875 0.0000000000
0.7149199687 0.0261709375 0.0000000000
0.7452104375 0.0326767188 0.0000000000
0.7735114687 0.0492462500 0.0000000000
0.7997733125 0.0743796250 0.0000000000
0.8248333750 0.1004330625 0.0000000000
0.8489420625 0.1251132812 0.0000000000
0.8723716562 0.1482421562 0.0000000000
0.8954078437 0.1695765938 0.0000000000
0.9181706563 0.1893670313 0.0000000000
0.9405135625 0.2078594687 0.0000000000
0.9618235312 0.2251710625 0.0000000000
0.9816971250 0.2415952188 0.0000000000
0.9999974687 0.2573619062 0.0000000000
0.0025631250 0.0808643750 0.0125185000
0.0181616875 0.0799962812 0.0125185000
0.0344013125 0.0803900000 0.0132088750
0.0559277813 0.0812878125 0.0124938437
0.0808643750 0.0825450000 0.0109413750
0.1093022187 0.0833920937 0.0094876250
0.1381338125 0.0851806875 0.0094630000
0.1709871875 0.0868885625 0.0094630000
0.2078168750 0.0871510000 0.0087726250
0.2494503750 0.0863398125 0.0073189062
0.2942265625 0.0837248750 0.0050761875
0.3410180000 0.0788753438 0.0022177188
0.3884897500 0.0715787500 0.0003943750
0.4359645938 0.0620573125 0.0000000000
0.4821915000 0.0516559375 0.0000000000
0.5270834375 0.0431893750 0.0000000000
0.5697110000 0.0373588750 0.0000000000
0.6100429687 0.0354858750 0.0000000000
0.6477292500 0.0391038125 0.0000000000
0.6826243438 0.0480492187 0.0000000000
0.7150847500 0.0617035000 0.0000000000
0.7450177188 0.0781807812 0.0000000000
0.7728955625 0.0970676250 0.0000000000
0.7991534687 0.1174526250 0.0000000000
0.8240561250 0.1378307500 0.0000000000
0.8481203438 0.1579643750 0.0000000000
0.8715485625 0.1772303125 0.0000000000
0.8944840938 0.1956176875 0.0000000000
0.9172491250 0.2130390000 0.0000000000
0.9396662500 0.2295893750 0.0000000000
0.9610744375 0.2453682500 0.0000000000
0.9811755625 0.2603745937 0.0000000000
0.9999696250 0.2749230000 0.0000000000
0.0001232812 0.1097932187 0.0134060000
0.0091915937 0.1100276250 0.0134060000
0.0261708438 0.1090925625 0.0141940000
0.0493274687 0.1098185312 0.0134060000
0.0781897500 0.1111934063 0.0119275000
0.1088937812 0.1131094687 0.0103742812
0.1430701875 0.1135730000 0.0088219375
0.1774884063 0.1148741250 0.0073927187
0.2149161562 0.1159806250 0.0059636562
0.2554435625 0.1165775313 0.0044111875
0.2991411250 0.1159445625 0.0020699688
0.3452522813 0.1142903125 0.0003943438
0.3918858750 0.1112320313 0.0000000000
0.4386215312 0.1068700625 0.0000000000
0.4842256875 0.1016431250 0.0000000000
0.5282745000 0.0966216250 0.0000000000
0.5705409062 0.0932520000 0.0000000000
0.6105564688 0.0926710000 0.0000000000
0.6478034375 0.0963491250 0.0000000000
0.6822751875 0.1039184688 0.0000000000
0.7142178125 0.1149985938 0.0000000000
0.7439927188 0.1284062500 0.0000000000
0.7718431250 0.1433418438 0.0000000000
0.7979108750 0.1591283438 0.0000000000
0.8228750937 0.1752707187 0.0000000000
0.8468586250 0.1917235000 0.0000000000
0.8702727812 0.2077665625 0.0000000000
0.8933058125 0.2236016875 0.0000000000
0.9160075625 0.2388945937 0.0000000000
0.9384523125 0.2536000313 0.0000000000
0.9601704062 0.2676611250 0.0000000000
0.9806312500 0.2812015000 0.0000000000
0.9999772188 0.2945591250 0.0000000000
0.0000000000 0.1447750000 0.0099066250
0.0063335313 0.1452684375 0.0106700000
0.0139974375 0.1445749375 0.0106946250
0.0328461250 0.1440591250 0.0106946250
0.0666399375 0.1451465625 0.0098573125
0.1033706250 0.1465082500 0.0076637500
0.1405911250 0.1477823125 0.0059636250
0.1807635000 0.1483147812 0.0037702188
0.2213060000 0.1498275000 0.0014296250
0.2626830000 0.1511003438 0.0010846875
0.3054303750 0.1516441875 0.0002956875
0.3496419063 0.1513977812 0.0000000000
0.3952323125 0.1503950000 0.0000000000
0.4411986563 0.1491753750 0.0000000000
0.4861401875 0.1471957500 0.0000000000
0.5296521250 0.1454856250 0.0000000000
0.5714320000 0.1449788125 0.0000000000
0.6107877187 0.1461218437 0.0000000000
0.6474742500 0.1498428125 0.0000000000
0.6814307500 0.1559212813 0.0000000000
0.7130536250 0.1645215000 0.0000000000
0.7425229688 0.1749070000 0.0000000000
0.7701616875 0.1866441250 0.0000000000
0.7961938125 0.1992443437 0.0000000000
0.8211408125 0.2125050625 0.0000000000
0.8451321250 0.2259577500 0.0000000000
0.8685837500 0.2395847500 0.0000000000
0.8916311250 0.2530813438 0.0000000000
0.9145403750 0.2663278750 0.0000000000
0.9370272500 0.2791741250 0.0000000000
0.9589698125 0.2916963750 0.0000000000
0.9800435000 0.3039657500 0.0000000000
0.9999780625 0.3159088125 0.0000000000
0.0000000000 0.1847889375 0.0038441563
0.0062104062 0.1859579688 0.0030805937
0.0123705625 0.1849948437 0.0038441563
0.0200837812 0.1832392500 0.0046329375
0.0416892187 0.1832690000 0.0038441563
0.0874160000 0.1847075000 0.0022176875
0.1329211563 0.1866308125 0.0012817187
0.1775504063 0.1881867500 0.0003449688
0.2231561875 0.1887444375 0.0001725938
0.2681328438 0.1898698125 0.0000000000
0.3118381250 0.1907483437 0.0000000000
0.3557223125 0.1910421563 0.0000000000
0.3998649688 0.1910241250 0.0000000000
0.4439356875 0.1907361563 0.0000000000
0.4878894687 0.1905427813 0.0000000000
0.5308193750 0.1906500313 0.0000000000
0.5719978437 0.1915129063 0.0000000000
0.6106498437 0.1937561562 0.0000000000
0.6466796250 0.1975225313 0.0000000000
0.6802310000 0.2030353750 0.0000000000
0.7115121875 0.2101318437 0.0000000000
0.7406890000 0.2185949688 0.0000000000
0.7681930000 0.2281366563 0.0000000000
0.7942133125 0.2384879375 0.0000000000
0.8190163750 0.2493138125 0.0000000000
0.8430894375 0.2606176250 0.0000000000
0.8666221875 0.2721521250 0.0000000000
0.8898236875 0.2837682188 0.0000000000
0.9126841875 0.2951087813 0.0000000000
0.9353725938 0.3063178438 0.0000000000
0.9576368125 0.3172500938 0.0000000000
0.9792038750 0.3279370313 0.0000000000
0.9999789062 0.3384647187 0.0000000000
0.0000000000 0.2309102500 0.0001972500
0.0062104062 0.2310317500 0.0001972500
0.0124198750 0.2297586875 0.0001972500
0.0186302187 0.2279922813 0.0003942500
0.0270091250 0.2264510000 0.0002957500
0.0555162813 0.2276875625 0.0001232812
0.1150884375 0.2293683125 0.0000000000
0.1685288437 0.2311510938 0.0000000000
0.2189590000 0.2325305000 0.0000000000
0.2682132500 0.2326607187 0.0000000000
0.3165534375 0.2332730000 0.0000000000
0.3615481563 0.2337327500 0.0000000000
0.4055000000 0.2339125000 0.0000000000
0.4487966250 0.2340075000 0.0000000000
0.4911624375 0.2342870000 0.0000000000
0.5325770938 0.2349001875 0.0000000000
0.5725800000 0.2364207500 0.0000000000
0.6103734375 0.2388297812 0.0000000000
0.6457876250 0.2425905625 0.0000000000
0.6787751250 0.2474779375 0.0000000000
0.7096345000 0.2535138750 0.0000000000
0.7385782188 0.2605595937 0.0000000000
0.7658418750 0.2684415625 0.0000000000
0.7918433437 0.2770258438 0.0000000000
0.8167050000 0.2861285000 0.0000000000
0.8409034687 0.2956075938 0.0000000000
0.8644826250 0.3053011250 0.0000000000
0.8876362500 0.3150610938 0.0000000000
0.9107096250 0.3247978750 0.0000000000
0.9336118437 0.3343425938 0.0000000000
0.9561826250 0.3437441250 0.0000000000
0.9783947187 0.3530117187 0.0000000000
0.9999932500 0.3621942500 0.0000000000
0.0000000000 0.2744529688 0.0000000000
0.0062104063 0.2780763750 0.0000000000
0.0124198750 0.2779277500 0.0000000000
0.0186302187 0.2762242812 0.0000000000
0.0255301250 0.2740610000 0.0000000000
0.0362852500 0.2731547500 0.0000000000
0.0838003125 0.2743272812 0.0000000000
0.1501634063 0.2757812813 0.0000000000
0.2080131562 0.2773477812 0.0000000000
0.2625281250 0.2786353750 0.0000000000
0.3147935937 0.2789001563 0.0000000000
0.3645682187 0.2788590625 0.0000000000
0.4099150938 0.2787979375 0.0000000000
0.4531836250 0.2787201563 0.0000000000
0.4949319688 0.2788179688 0.0000000000
0.5351734688 0.2794653437 0.0000000000
0.5735210000 0.2807150625 0.0000000000
0.6101297813 0.2829221250 0.0000000000
0.6446405625 0.2861633750 0.0000000000
0.6770339375 0.2903206875 0.0000000000
0.7074254062 0.2953854062 0.0000000000
0.7361069687 0.3012624063 0.0000000000
0.7632711250 0.3077765625 0.0000000000
0.7891894687 0.3148895000 0.0000000000
0.8141143438 0.3224747813 0.0000000000
0.8383384687 0.3303912500 0.0000000000
0.8619705937 0.3384992500 0.0000000000
0.8852859063 0.3466928437 0.0000000000
0.9084808750 0.3548531875 0.0000000000
0.9315449687 0.3629025938 0.0000000000
0.9544842500 0.3708750937 0.0000000000
0.9773075625 0.3787814375 0.0000000000
0.9998842813 0.3865994687 0.0000000000
0.0000000000 0.3202264375 0.0000000000
0.0062104062 0.3252406250 0.0000000000
0.0124198750 0.3256406250 0.0000000000
0.0186302187 0.3240231250 0.0000000000
0.0248397500 0.3216466250 0.0000000000
0.0325040625 0.3192714063 0.0000000000
0.0501821875 0.3195238125 0.0000000000
0.1206074063 0.3209908125 0.0000000000
0.1905614375 0.3225468750 0.0000000000
0.2511323125 0.3239924687 0.0000000000
0.3079095625 0.3252070000 0.0000000000
0.3617926563 0.3256177500 0.0000000000
0.4112336875 0.3248211875 0.0000000000
0.4560180000 0.3243652188 0.0000000000
0.4979884375 0.3241703750 0.0000000000
0.5376534063 0.3243104688 0.0000000000
0.5751279375 0.3250490000 0.0000000000
0.6103004062 0.3265444062 0.0000000000
0.6437240625 0.3288906250 0.0000000000
0.6752881875 0.3321155625 0.0000000000
0.7051086875 0.3360783125 0.0000000000
0.7334549062 0.3408563750 0.0000000000
0.7604268125 0.3461913750 0.0000000000
0.7862640625 0.3520219062 0.0000000000
0.8112630000 0.3582261875 0.0000000000
0.8355099062 0.3647336250 0.0000000000
0.8592665625 0.3714470625 0.0000000000
0.8826921562 0.3781834062 0.0000000000
0.9060131250 0.3849226250 0.0000000000
0.9292905000 0.3916239687 0.0000000000
0.9525855000 0.3981871250 0.0000000000
0.9759100625 0.4048097813 0.0000000000
0.9992835000 0.4114596250 0.0000000000
0.0000000000 0.3667331250 0.0000000000
0.0062104062 0.3715268750 0.0000000000
0.0124198750 0.3719171875 0.0000000000
0.0186302187 0.3705591563 0.0000000000
0.0248397500 0.3684897813 0.0000000000
0.0319867812 0.3659807812 0.0000000000
0.0427476875 0.3647583125 0.0000000000
0.0814465000 0.3658801250 0.0000000000
0.1654949375 0.3671515312 0.0000000000
0.2349495625 0.3684456875 0.0000000000
0.2963880625 0.3696713125 0.0000000000
0.3535354687 0.3704540937 0.0000000000
0.4068899687 0.3705871562 0.0000000000
0.4552939062 0.3696627188 0.0000000000
0.4987257187 0.3689519688 0.0000000000
0.5388204062 0.3686835312 0.0000000000
0.5759676563 0.3688347188 0.0000000000
0.6106526250 0.3695457813 0.0000000000
0.6431612500 0.3709418437 0.0000000000
0.6739156875 0.3730548125 0.0000000000
0.7030872812 0.3759373125 0.0000000000
0.7309570312 0.3795148437 0.0000000000
0.7576568750 0.3836434375 0.0000000000
0.7833509688 0.3882195625 0.0000000000
0.8082592813 0.3931862187 0.0000000000
0.8325726562 0.3983921875 0.0000000000
0.8564309062 0.4038329687 0.0000000000
0.8800190000 0.4092816875 0.0000000000
0.9034092187 0.4147051562 0.0000000000
0.9268999375 0.4201572188 0.0000000000
0.9504760937 0.4255135312 0.0000000000
0.9742889688 0.4309505625 0.0000000000
0.9982244375 0.4364089688 0.0000000000
0.0000000000 0.4139022500 0.0000000000
0.0062104063 0.4162907812 0.0000000000
0.0124198750 0.4164756875 0.0000000000
0.0186302187 0.4152834375 0.0000000000
0.0248397500 0.4133567500 0.0000000000
0.0317159063 0.4110546562 0.0000000000
0.0403943750 0.4088383125 0.0000000000
0.0617305000 0.4086528125 0.0000000000
0.1357777500 0.4097191250 0.0000000000
0.2144222500 0.4107578125 0.0000000000
0.2815485000 0.4118606875 0.0000000000
0.3423481250 0.4126784063 0.0000000000
0.3984267500 0.4131845000 0.0000000000
0.4499810312 0.4130756562 0.0000000000
0.4963624375 0.4123205625 0.0000000000
0.5379915625 0.4117407500 0.0000000000
0.5757746250 0.4113577500 0.0000000000
0.6105755938 0.4114413125 0.0000000000
0.6427643750 0.4119630625 0.0000000000
0.6729995937 0.4131061563 0.0000000000
0.7015756250 0.4148442500 0.0000000000
0.7288831875 0.4172069375 0.0000000000
0.7552073750 0.4201458125 0.0000000000
0.7806882187 0.4235405313 0.0000000000
0.8054198750 0.4272577500 0.0000000000
0.8296838750 0.4312523125 0.0000000000
0.8535739375 0.4354288750 0.0000000000
0.8772696875 0.4397363125 0.0000000000
0.9008147500 0.4440253750 0.0000000000
0.9245165625 0.4483137812 0.0000000000
0.9483005625 0.4525406250 0.0000000000
0.9724368125 0.4569099063 0.0000000000
0.9966622500 0.4613501250 0.0000000000
0.0000000000 0.4539051250 0.0000000000
0.0062104062 0.4581615313 0.0000000000
0.0124198750 0.4592552813 0.0000000000
0.0186302187 0.4584065000 0.0000000000
0.0248397500 0.4566311562 0.0000000000
0.0317159062 0.4543342813 0.0000000000
0.0394999063 0.4517925625 0.0000000000
0.0555435000 0.4500195312 0.0000000000
0.1054653125 0.4503815313 0.0000000000
0.1916932188 0.4510915625 0.0000000000
0.2656803437 0.4518806250 0.0000000000
0.3301275000 0.4526405937 0.0000000000
0.3887739062 0.4531757500 0.0000000000
0.4423228125 0.4533827500 0.0000000000
0.4910223125 0.4531657188 0.0000000000
0.5347203750 0.4525409375 0.0000000000
0.5740694375 0.4520148750 0.0000000000
0.6095983437 0.4516033750 0.0000000000
0.6421369688 0.4515005938 0.0000000000
0.6722081875 0.4517611250 0.0000000000
0.7004163437 0.4524605312 0.0000000000
0.7273680937 0.4537547813 0.0000000000
0.7531984375 0.4554558437 0.0000000000
0.7783345937 0.4577007812 0.0000000000
0.8028940000 0.4603028750 0.0000000000
0.8269995625 0.4631496250 0.0000000000
0.8508807500 0.4662645000 0.0000000000
0.8745991875 0.4694206875 0.0000000000
0.8982540625 0.4726903750 0.0000000000
0.9220575625 0.4759677813 0.0000000000
0.9461066250 0.4793061875 0.0000000000
0.9703856562 0.4826669062 0.0000000000
0.9948968125 0.4861820313 0.0000000000
0.0000000000 0.4932857500 0.0000000000
0.0062104063 0.4976157500 0.0000000000
0.0124198750 0.4988918750 0.0000000000
0.0186302187 0.4983085938 0.0000000000
0.0248397500 0.4968566875 0.0000000000
0.0317159063 0.4947290625 0.0000000000
0.0393299375 0.4923726875 0.0000000000
0.0526414688 0.4900240000 0.0000000000
0.0859026875 0.4890614375 0.0000000000
0.1715722188 0.4891930313 0.0000000000
0.2505411875 0.4895486250 0.0000000000
0.3184324375 0.4899483750 0.0000000000
0.3790781875 0.4902926875 0.0000000000
0.4341723750 0.4906241875 0.0000000000
0.4842214375 0.4906897500 0.0000000000
0.5296736562 0.4904909687 0.0000000000
0.5704880000 0.4900326875 0.0000000000
0.6073730625 0.4894653750 0.0000000000
0.6406883125 0.4889040625 0.0000000000
0.6711467187 0.4885665938 0.0000000000
0.6994763125 0.4885006250 0.0000000000
0.7261857188 0.4888885312 0.0000000000
0.7517668750 0.4895805000 0.0000000000
0.7765751250 0.4907180625 0.0000000000
0.8008118125 0.4922434375 0.0000000000
0.8247685938 0.4940708437 0.0000000000
0.8484918750 0.4961180625 0.0000000000
0.8721801875 0.4983452812 0.0000000000
0.8958578125 0.5006752500 0.0000000000
0.9197690937 0.5030463750 0.0000000000
0.9438574375 0.5054801250 0.0000000000
0.9684040938 0.5080566875 0.0000000000
0.9929997500 0.5107338750 0.0000000000
0.0000000000 0.5303407500 0.0000000000
0.0062104062 0.5339549688 0.0000000000
0.0124198750 0.5351141250 0.0000000000
0.0186302187 0.5346820000 0.0000000000
0.0248397500 0.5333044375 0.0000000000
0.0317159063 0.5314747500 0.0000000000
0.0393299375 0.5292520000 0.0000000000
0.0517012812 0.5269155313 0.0000000000
0.0813114062 0.5248496563 0.0000000000
0.1573979688 0.5242808125 0.0000000000
0.2377774687 0.5242306875 0.0000000000
0.3080806250 0.5243085000 0.0000000000
0.3702840000 0.5245766875 0.0000000000
0.4262104688 0.5248912187 0.0000000000
0.4770448750 0.5251359062 0.0000000000
0.5234049375 0.5252553125 0.0000000000
0.5654645000 0.5250457187 0.0000000000
0.6036203437 0.5246531875 0.0000000000
0.6381231875 0.5240724375 0.0000000000
0.6695125937 0.5234351562 0.0000000000
0.6982777187 0.5228019687 0.0000000000
0.7251918438 0.5223859375 0.0000000000
0.7507109062 0.5223190313 0.0000000000
0.7753240313 0.5225452500 0.0000000000
0.7993275000 0.5231419687 0.0000000000
0.8230478125 0.5240219063 0.0000000000
0.8466059062 0.5251535000 0.0000000000
0.8701681250 0.5264991562 0.0000000000
0.8938465625 0.5279597500 0.0000000000
0.9177122187 0.5295394375 0.0000000000
0.9418931875 0.5312233438 0.0000000000
0.9664469063 0.5330566250 0.0000000000
0.9910790000 0.5349885625 0.0000000000
0.0000000000 0.5645525000 0.0000000000
0.0062104063 0.5668293750 0.0000000000
0.0124198750 0.5675867500 0.0000000000
0.0186302187 0.5671527500 0.0000000000
0.0248397500 0.5659608750 0.0000000000
0.0317159062 0.5642553125 0.0000000000
0.0393299375 0.5622474375 0.0000000000
0.0521818750 0.5599764063 0.0000000000
0.0810492500 0.5577085000 0.0000000000
0.1485368125 0.5563584062 0.0000000000
0.2286126250 0.5559009375 0.0000000000
0.3000862500 0.5558447813 0.0000000000
0.3630753750 0.5560407500 0.0000000000
0.4192795313 0.5563645313 0.0000000000
0.4701495625 0.5567533125 0.0000000000
0.5167265000 0.5570638125 0.0000000000
0.5595070000 0.5572330000 0.0000000000
0.5985714063 0.5571482500 0.0000000000
0.6342617500 0.5567586250 0.0000000000
0.6667445625 0.5560800313 0.0000000000
0.6964355000 0.5551806250 0.0000000000
0.7239030312 0.5543650937 0.0000000000
0.7497047500 0.5536356250 0.0000000000
0.7743546562 0.5531718437 0.0000000000
0.7983075000 0.5529955000 0.0000000000
0.8218656875 0.5530099687 0.0000000000
0.8452965000 0.5533815625 0.0000000000
0.8686888125 0.5539180313 0.0000000000
0.8922662500 0.5546646250 0.0000000000
0.9160924688 0.5555116563 0.0000000000
0.9402455000 0.5565413750 0.0000000000
0.9647158750 0.5576814375 0.0000000000
0.9893265000 0.5589255000 0.0000000000
0.0000000000 0.5943537812 0.0000000000
0.0062104063 0.5968410000 0.0000000000
0.0124198750 0.5976069375 0.0000000000
0.0186302187 0.5972553750 0.0000000000
0.0248397500 0.5961897500 0.0000000000
0.0317159062 0.5946148437 0.0000000000
0.0396941563 0.5927200938 0.0000000000
0.0536108437 0.5905907500 0.0000000000
0.0830688750 0.5883376875 0.0000000000
0.1467819062 0.5865145312 0.0000000000
0.2245637187 0.5856538750 0.0000000000
0.2954975313 0.5853362187 0.0000000000
0.3581912187 0.5853782500 0.0000000000
0.4138566875 0.5856290000 0.0000000000
0.4642234375 0.5860248437 0.0000000000
0.5104008437 0.5865025000 0.0000000000
0.5530984375 0.5868713125 0.0000000000
0.5926268750 0.5870522188 0.0000000000
0.6291499375 0.5869770625 0.0000000000
0.6627133125 0.5864871562 0.0000000000
0.6935260313 0.5857157813 0.0000000000
0.7219145937 0.5847295937 0.0000000000
0.7483863125 0.5836428125 0.0000000000
0.7733913750 0.5826470313 0.0000000000
0.7974870938 0.5818351875 0.0000000000
0.8210775000 0.5812315313 0.0000000000
0.8444215312 0.5808913125 0.0000000000
0.8678208125 0.5807874375 0.0000000000
0.8912740312 0.5808152187 0.0000000000
0.9150147500 0.5810743750 0.0000000000
0.9390227187 0.5814684375 0.0000000000
0.9633646250 0.5819644687 0.0000000000
0.9878197500 0.5825662500 0.0000000000
0.0000000000 0.6230446875 0.0000000000
0.0062104062 0.6251587812 0.0000000000
0.0124198750 0.6258776875 0.0000000000
0.0186302187 0.6256166563 0.0000000000
0.0248397500 0.6246476250 0.0000000000
0.0317159063 0.6232477500 0.0000000000
0.0410617500 0.6216157500 0.0000000000
0.0563485313 0.6196048125 0.0000000000
0.0887053125 0.6173874375 0.0000000000
0.1529291875 0.6153656563 0.0000000000
0.2264411250 0.6139893125 0.0000000000
0.2950187500 0.6133706250 0.0000000000
0.3560874375 0.6130813750 0.0000000000
0.4103808125 0.6132003125 0.0000000000
0.4595648125 0.6135298125 0.0000000000
0.5048191875 0.6139408438 0.0000000000
0.5469080625 0.6144520000 0.0000000000
