lut/gamut-606/606 - Montrose.cube
TITLE "606 - Montrose"
# Contributor - Eric Floberg. Version 1.0 - 06/29/2022 - Designed for Rec.709 Color Space. Copyright 2022 Gamut, LLC
LUT_3D_SIZE 33
0.0315430000 0.0315430000 0.0315430000
0.0323073438 0.0323073438 0.0323073438
0.0330707500 0.0330707500 0.0330707500
0.0338350313 0.0338350313 0.0338350313
0.0353873750 0.0353873750 0.0353873750
0.0376054375 0.0376054375 0.0376054375
0.0399213125 0.0399213125 0.0399213125
0.0429347812 0.0429347812 0.0429347812
0.0470627500 0.0470627500 0.0470627500
0.0533739063 0.0533739063 0.0533739063
0.0603292500 0.0603292500 0.0603292500
0.0688530937 0.0688530937 0.0688530937
0.0793015000 0.0793015000 0.0793015000
0.0925707500 0.0925707500 0.0925707500
0.1085577500 0.1085577500 0.1085577500
0.1275573125 0.1275573125 0.1275573125
0.1488895000 0.1488895000 0.1488895000
0.1727880313 0.1727880313 0.1727880313
0.1992166875 0.1992166875 0.1992166875
0.2271714062 0.2271714062 0.2271714062
0.2564446250 0.2564446250 0.2564446250
0.2862062812 0.2862062812 0.2862062812
0.3158355000 0.3158355000 0.3158355000
0.3455587813 0.3455587813 0.3455587813
0.3750900000 0.3750900000 0.3750900000
0.4049235625 0.4049235625 0.4049235625
0.4354905625 0.4354905625 0.4354905625
0.4673884375 0.4673884375 0.4673884375
0.5010443750 0.5010443750 0.5010443750
0.5366903125 0.5366903125 0.5366903125
0.5742461875 0.5742461875 0.5742461875
0.6131312187 0.6131312187 0.6131312187
0.6523610000 0.6523610000 0.6523610000
0.0338597188 0.0338597188 0.0338597188
0.0346477188 0.0346477188 0.0346477188
0.0361754688 0.0361754688 0.0361754688
0.0377040938 0.0377040938 0.0377040938
0.0392564375 0.0392564375 0.0392564375
0.0414441562 0.0414441562 0.0414441562
0.0443664062 0.0443664062 0.0443664062
0.0484369375 0.0484369375 0.0484369375
0.0533692500 0.0533692500 0.0533692500
0.0593400937 0.0593400937 0.0593400937
0.0670569062 0.0670569062 0.0670569062
0.0761240000 0.0761240000 0.0761240000
0.0871210938 0.0871210938 0.0871210938
0.1012092187 0.1012092187 0.1012092187
0.1178927812 0.1178927812 0.1178927812
0.1372002187 0.1372002187 0.1372002187
0.1590482187 0.1590482187 0.1590482187
0.1832338750 0.1832338750 0.1832338750
0.2094933438 0.2094933438 0.2094933438
0.2374575312 0.2374575312 0.2374575312
0.2663266250 0.2663266250 0.2663266250
0.2955414375 0.2955414375 0.2955414375
0.3246858125 0.3246858125 0.3246858125
0.3536511562 0.3536511562 0.3536511562
0.3826316250 0.3826316250 0.3826316250
0.4119620000 0.4119620000 0.4119620000
0.4422279687 0.4422279687 0.4422279687
0.4737707812 0.4737707812 0.4737707812
0.5071580313 0.5071580313 0.5071580313
0.5425794687 0.5425794687 0.5425794687
0.5799272500 0.5799272500 0.5799272500
0.6187008437 0.6187008437 0.6187008437
0.6579095625 0.6579095625 0.6579095625
0.0384921250 0.0384921250 0.0384921250
0.0392318125 0.0392318125 0.0392318125
0.0392811250 0.0392811250 0.0392811250
0.0422261875 0.0422261875 0.0422261875
0.0450925625 0.0450925625 0.0450925625
0.0484312187 0.0484312187 0.0484312187
0.0511746875 0.0511746875 0.0511746875
0.0553904062 0.0553904062 0.0553904062
0.0612161875 0.0612161875 0.0612161875
0.0677223750 0.0677223750 0.0677223750
0.0754403125 0.0754403125 0.0754403125
0.0852327813 0.0852327813 0.0852327813
0.0975106875 0.0975106875 0.0975106875
0.1123545000 0.1123545000 0.1123545000
0.1297527500 0.1297527500 0.1297527500
0.1494820625 0.1494820625 0.1494820625
0.1718597500 0.1718597500 0.1718597500
0.1960136250 0.1960136250 0.1960136250
0.2219851250 0.2219851250 0.2219851250
0.2495664062 0.2495664062 0.2495664062
0.2780040000 0.2780040000 0.2780040000
0.3065391875 0.3065391875 0.3065391875
0.3349141250 0.3349141250 0.3349141250
0.3631584063 0.3631584063 0.3631584063
0.3915313750 0.3915313750 0.3915313750
0.4203781875 0.4203781875 0.4203781875
0.4502431875 0.4502431875 0.4502431875
0.4814710625 0.4814710625 0.4814710625
0.5144825000 0.5144825000 0.5144825000
0.5496020938 0.5496020938 0.5496020938
0.5866931875 0.5866931875 0.5866931875
0.6252286563 0.6252286563 0.6252286563
0.6642141250 0.6642141250 0.6642141250
0.0471197500 0.0471197500 0.0471197500
0.0491148437 0.0491148437 0.0491148437
0.0491380000 0.0491380000 0.0491380000
0.0498220625 0.0498220625 0.0498220625
0.0535194375 0.0535194375 0.0535194375
0.0577914375 0.0577914375 0.0577914375
0.0628358750 0.0628358750 0.0628358750
0.0682305625 0.0682305625 0.0682305625
0.0736910937 0.0736910937 0.0736910937
0.0806394375 0.0806394375 0.0806394375
0.0894688125 0.0894688125 0.0894688125
0.1004580625 0.1004580625 0.1004580625
0.1135646250 0.1135646250 0.1135646250
0.1291958438 0.1291958438 0.1291958438
0.1471256563 0.1471256563 0.1471256563
0.1673815000 0.1673815000 0.1673815000
0.1896319375 0.1896319375 0.1896319375
0.2135570000 0.2135570000 0.2135570000
0.2392708125 0.2392708125 0.2392708125
0.2661486250 0.2661486250 0.2661486250
0.2936887812 0.2936887812 0.2936887812
0.3210548750 0.3210548750 0.3210548750
0.3482906875 0.3482906875 0.3482906875
0.3754939062 0.3754939062 0.3754939062
0.4029504688 0.4029504688 0.4029504688
0.4311729063 0.4311729063 0.4311729063
0.4604735000 0.4604735000 0.4604735000
0.4912835938 0.4912835938 0.4912835938
0.5238806875 0.5238806875 0.5238806875
0.5586438125 0.5586438125 0.5586438125
0.5952859375 0.5952859375 0.5952859375
0.6334383125 0.6334383125 0.6334383125
0.6720376562 0.6720376562 0.6720376562
0.0622461250 0.0622461250 0.0622461250
0.0649901250 0.0649901250 0.0649901250
0.0665503750 0.0665503750 0.0665503750
0.0675929063 0.0675929063 0.0675929063
0.0691247500 0.0691247500 0.0691247500
0.0749632188 0.0749632188 0.0749632188
0.0806206250 0.0806206250 0.0806206250
0.0878653750 0.0878653750 0.0878653750
0.0962413750 0.0962413750 0.0962413750
0.1046339063 0.1046339063 0.1046339063
0.1140473125 0.1140473125 0.1140473125
0.1257016875 0.1257016875 0.1257016875
0.1396627500 0.1396627500 0.1396627500
0.1556962500 0.1556962500 0.1556962500
0.1736326875 0.1736326875 0.1736326875
0.1934940000 0.1934940000 0.1934940000
0.2150350000 0.2150350000 0.2150350000
0.2382418125 0.2382418125 0.2382418125
0.2628656875 0.2628656875 0.2628656875
0.2884571875 0.2884571875 0.2884571875
0.3143328750 0.3143328750 0.3143328750
0.3401391875 0.3401391875 0.3401391875
0.3657029375 0.3657029375 0.3657029375
0.3915375313 0.3915375313 0.3915375313
0.4178672500 0.4178672500 0.4178672500
0.4451036875 0.4451036875 0.4451036875
0.4736378125 0.4736378125 0.4736378125
0.5038294688 0.5038294688 0.5038294688
0.5359886250 0.5359886250 0.5359886250
0.5701950625 0.5701950625 0.5701950625
0.6062470000 0.6062470000 0.6062470000
0.6437180625 0.6437180625 0.6437180625
0.6816263750 0.6816263750 0.6816263750
0.0861617812 0.0861617812 0.0861617812
0.0902697813 0.0902697813 0.0902697813
0.0934465000 0.0934465000 0.0934465000
0.0946373125 0.0946373125 0.0946373125
0.0957997187 0.0957997187 0.0957997187
0.0975411563 0.0975411563 0.0975411563
0.1044185000 0.1044185000 0.1044185000
0.1127006563 0.1127006563 0.1127006563
0.1219375000 0.1219375000 0.1219375000
0.1333675000 0.1333675000 0.1333675000
0.1465424063 0.1465424063 0.1465424063
0.1589154687 0.1589154687 0.1589154687
0.1727485000 0.1727485000 0.1727485000
0.1884067812 0.1884067812 0.1884067812
0.2056877500 0.2056877500 0.2056877500
0.2247614688 0.2247614688 0.2247614688
0.2452910313 0.2452910313 0.2452910313
0.2674682500 0.2674682500 0.2674682500
0.2907231250 0.2907231250 0.2907231250
0.3145270625 0.3145270625 0.3145270625
0.3384235000 0.3384235000 0.3384235000
0.3623197812 0.3623197812 0.3623197812
0.3862176563 0.3862176563 0.3862176563
0.4105491562 0.4105491562 0.4105491562
0.4356941250 0.4356941250 0.4356941250
0.4619746563 0.4619746563 0.4619746563
0.4897402188 0.4897402188 0.4897402188
0.5192220938 0.5192220938 0.5192220938
0.5507625000 0.5507625000 0.5507625000
0.5843386250 0.5843386250 0.5843386250
0.6195951875 0.6195951875 0.6195951875
0.6560507813 0.6560507813 0.6560507813
0.6929097188 0.6929097188 0.6929097188
0.1195683750 0.1195683750 0.1195683750
0.1253318750 0.1253318750 0.1253318750
0.1300581250 0.1300581250 0.1300581250
0.1320780312 0.1320780312 0.1320780312
0.1324986875 0.1324986875 0.1324986875
0.1330381563 0.1330381563 0.1330381563
0.1346398125 0.1346398125 0.1346398125
0.1413228438 0.1413228438 0.1413228438
0.1541696875 0.1541696875 0.1541696875
0.1666036563 0.1666036563 0.1666036563
0.1804453125 0.1804453125 0.1804453125
0.1962767813 0.1962767813 0.1962767813
0.2121648750 0.2121648750 0.2121648750
0.2276573438 0.2276573438 0.2276573438
0.2440296875 0.2440296875 0.2440296875
0.2617751875 0.2617751875 0.2617751875
0.2809943125 0.2809943125 0.2809943125
0.3013073438 0.3013073438 0.3013073438
0.3223756250 0.3223756250 0.3223756250
0.3439554687 0.3439554687 0.3439554687
0.3655753750 0.3655753750 0.3655753750
0.3873976250 0.3873976250 0.3873976250
0.4095589375 0.4095589375 0.4095589375
0.4324158750 0.4324158750 0.4324158750
0.4563753750 0.4563753750 0.4563753750
0.4816947500 0.4816947500 0.4816947500
0.5086345625 0.5086345625 0.5086345625
0.5374636250 0.5374636250 0.5374636250
0.5683344375 0.5683344375 0.5683344375
0.6010135938 0.6010135938 0.6010135938
0.6351543125 0.6351543125 0.6351543125
0.6702952187 0.6702952187 0.6702952187
0.7057638125 0.7057638125 0.7057638125
0.1621608750 0.1621608750 0.1621608750
0.1687923125 0.1687923125 0.1687923125
0.1730862500 0.1730862500 0.1730862500
0.1768480625 0.1768480625 0.1768480625
0.1771910000 0.1771910000 0.1771910000
0.1775441875 0.1775441875 0.1775441875
0.1785101250 0.1785101250 0.1785101250
0.1804690625 0.1804690625 0.1804690625
0.1872654063 0.1872654063 0.1872654063
0.2037333125 0.2037333125 0.2037333125
0.2182155937 0.2182155937 0.2182155937
0.2339088750 0.2339088750 0.2339088750
0.2509558438 0.2509558438 0.2509558438
0.2685551875 0.2685551875 0.2685551875
0.2853511250 0.2853511250 0.2853511250
0.3020862500 0.3020862500 0.3020862500
0.3195767812 0.3195767812 0.3195767812
0.3377859687 0.3377859687 0.3377859687
0.3565894375 0.3565894375 0.3565894375
0.3757800313 0.3757800313 0.3757800313
0.3951773438 0.3951773438 0.3951773438
0.4150871562 0.4150871562 0.4150871562
0.4356020625 0.4356020625 0.4356020625
0.4571415313 0.4571415313 0.4571415313
0.4799157188 0.4799157188 0.4799157188
0.5043287187 0.5043287187 0.5043287187
0.5305256250 0.5305256250 0.5305256250
0.5585612187 0.5585612187 0.5585612187
0.5884917813 0.5884917813 0.5884917813
0.6200374375 0.6200374375 0.6200374375
0.6527754375 0.6527754375 0.6527754375
0.6861635000 0.6861635000 0.6861635000
0.7197666562 0.7197666562 0.7197666562
0.2135992500 0.2135992500 0.2135992500
0.2187638438 0.2187638438 0.2187638438
0.2227286250 0.2227286250 0.2227286250
0.2271224687 0.2271224687 0.2271224687
0.2295651250 0.2295651250 0.2295651250
0.2299430313 0.2299430313 0.2299430313
0.2304645625 0.2304645625 0.2304645625
0.2315373438 0.2315373438 0.2315373438
0.2336210000 0.2336210000 0.2336210000
0.2400189375 0.2400189375 0.2400189375
0.2583586250 0.2583586250 0.2583586250
0.2743330000 0.2743330000 0.2743330000
0.2904175000 0.2904175000 0.2904175000
0.3074361875 0.3074361875 0.3074361875
0.3247617500 0.3247617500 0.3247617500
0.3420264375 0.3420264375 0.3420264375
0.3584377500 0.3584377500 0.3584377500
0.3749992500 0.3749992500 0.3749992500
0.3918898125 0.3918898125 0.3918898125
0.4091472500 0.4091472500 0.4091472500
0.4268236250 0.4268236250 0.4268236250
0.4450697812 0.4450697812 0.4450697812
0.4642318750 0.4642318750 0.4642318750
0.4845500625 0.4845500625 0.4845500625
0.5063345000 0.5063345000 0.5063345000
0.5298704375 0.5298704375 0.5298704375
0.5551963750 0.5551963750 0.5551963750
0.5823668125 0.5823668125 0.5823668125
0.6111173750 0.6111173750 0.6111173750
0.6411398750 0.6411398750 0.6411398750
0.6719835000 0.6719835000 0.6719835000
0.7032829063 0.7032829063 0.7032829063
0.7346537500 0.7346537500 0.7346537500
0.2624485625 0.2624485625 0.2624485625
0.2714142188 0.2714142188 0.2714142188
0.2765300625 0.2765300625 0.2765300625
0.2809099688 0.2809099688 0.2809099688
0.2845728125 0.2845728125 0.2845728125
0.2853786875 0.2853786875 0.2853786875
0.2854186250 0.2854186250 0.2854186250
0.2857889375 0.2857889375 0.2857889375
0.2870782500 0.2870782500 0.2870782500
0.2900155313 0.2900155313 0.2900155313
0.2976549375 0.2976549375 0.2976549375
0.3147766562 0.3147766562 0.3147766562
0.3302915312 0.3302915312 0.3302915312
0.3458512500 0.3458512500 0.3458512500
0.3619823750 0.3619823750 0.3619823750
0.3784546250 0.3784546250 0.3784546250
0.3948385937 0.3948385937 0.3948385937
0.4109314687 0.4109314687 0.4109314687
0.4269097813 0.4269097813 0.4269097813
0.4430825938 0.4430825938 0.4430825938
0.4596465313 0.4596465313 0.4596465313
0.4768353125 0.4768353125 0.4768353125
0.4949508125 0.4949508125 0.4949508125
0.5143554062 0.5143554062 0.5143554062
0.5352692187 0.5352692187 0.5352692187
0.5579265937 0.5579265937 0.5579265937
0.5823349688 0.5823349688 0.5823349688
0.6083275625 0.6083275625 0.6083275625
0.6356135938 0.6356135938 0.6356135938
0.6637554063 0.6637554063 0.6637554063
0.6923537813 0.6923537813 0.6923537813
0.7211680000 0.7211680000 0.7211680000
0.7499906250 0.7499906250 0.7499906250
0.3133985000 0.3133985000 0.3133985000
0.3228290938 0.3228290938 0.3228290938
0.3286183125 0.3286183125 0.3286183125
0.3328000937 0.3328000937 0.3328000937
0.3364672500 0.3364672500 0.3364672500
0.3383847500 0.3383847500 0.3383847500
0.3388620000 0.3388620000 0.3388620000
0.3394028437 0.3394028437 0.3394028437
0.3403460000 0.3403460000 0.3403460000
0.3423632187 0.3423632187 0.3423632187
0.3463626875 0.3463626875 0.3463626875
0.3548445625 0.3548445625 0.3548445625
0.3693708750 0.3693708750 0.3693708750
0.3836029687 0.3836029687 0.3836029687
0.3982761875 0.3982761875 0.3982761875
0.4136397813 0.4136397813 0.4136397813
0.4293431250 0.4293431250 0.4293431250
0.4451792813 0.4451792813 0.4451792813
0.4609800625 0.4609800625 0.4609800625
0.4767901562 0.4767901562 0.4767901562
0.4929336875 0.4929336875 0.4929336875
0.5096530000 0.5096530000 0.5096530000
0.5272849375 0.5272849375 0.5272849375
0.5460772188 0.5460772188 0.5460772188
0.5663031875 0.5663031875 0.5663031875
0.5880326563 0.5880326563 0.5880326563
0.6112877500 0.6112877500 0.6112877500
0.6357772500 0.6357772500 0.6357772500
0.6611918750 0.6611918750 0.6611918750
0.6870521562 0.6870521562 0.6870521562
0.7131208125 0.7131208125 0.7131208125
0.7392060000 0.7392060000 0.7392060000
0.7652047500 0.7652047500 0.7652047500
0.3635519687 0.3635519687 0.3635519687
0.3718122500 0.3718122500 0.3718122500
0.3774586250 0.3774586250 0.3774586250
0.3815774687 0.3815774687 0.3815774687
0.3851864375 0.3851864375 0.3851864375
0.3879130312 0.3879130312 0.3879130312
0.3893270625 0.3893270625 0.3893270625
0.3901932500 0.3901932500 0.3901932500
0.3910315000 0.3910315000 0.3910315000
0.3924405625 0.3924405625 0.3924405625
0.3951154063 0.3951154063 0.3951154063
0.4000633750 0.4000633750 0.4000633750
0.4085502187 0.4085502187 0.4085502187
0.4207627812 0.4207627812 0.4207627812
0.4339497187 0.4339497187 0.4339497187
0.4481211563 0.4481211563 0.4481211563
0.4631589063 0.4631589063 0.4631589063
0.4785827188 0.4785827188 0.4785827188
0.4942436562 0.4942436562 0.4942436562
0.5100405625 0.5100405625 0.5100405625
0.5262158125 0.5262158125 0.5262158125
0.5429420938 0.5429420938 0.5429420938
0.5604761875 0.5604761875 0.5604761875
0.5789649375 0.5789649375 0.5789649375
0.5985553750 0.5985553750 0.5985553750
0.6193820625 0.6193820625 0.6193820625
0.6412357500 0.6412357500 0.6412357500
0.6639517812 0.6639517812 0.6639517812
0.6871187187 0.6871187187 0.6871187187
0.7104473125 0.7104473125 0.7104473125
0.7336622500 0.7336622500 0.7336622500
0.7567878750 0.7567878750 0.7567878750
0.7797626562 0.7797626562 0.7797626562
0.4119337500 0.4119337500 0.4119337500
0.4186364688 0.4186364688 0.4186364688
0.4241091875 0.4241091875 0.4241091875
0.4283836875 0.4283836875 0.4283836875
0.4319726250 0.4319726250 0.4319726250
0.4349555313 0.4349555313 0.4349555313
0.4370930625 0.4370930625 0.4370930625
0.4384172813 0.4384172813 0.4384172813
0.4394166250 0.4394166250 0.4394166250
0.4405729063 0.4405729063 0.4405729063
0.4423461875 0.4423461875 0.4423461875
0.4455602188 0.4455602188 0.4455602188
0.4509747500 0.4509747500 0.4509747500
0.4592010000 0.4592010000 0.4592010000
0.4700650000 0.4700650000 0.4700650000
0.4827657813 0.4827657813 0.4827657813
0.4967258750 0.4967258750 0.4967258750
0.5116822187 0.5116822187 0.5116822187
0.5270975000 0.5270975000 0.5270975000
0.5429119687 0.5429119687 0.5429119687
0.5591575000 0.5591575000 0.5591575000
0.5760175000 0.5760175000 0.5760175000
0.5936069375 0.5936069375 0.5936069375
0.6119385312 0.6119385312 0.6119385312
0.6310447500 0.6310447500 0.6310447500
0.6507937187 0.6507937187 0.6507937187
0.6711243750 0.6711243750 0.6711243750
0.6918446250 0.6918446250 0.6918446250
0.7126000000 0.7126000000 0.7126000000
0.7332099063 0.7332099063 0.7332099063
0.7534968125 0.7534968125 0.7534968125
0.7735677812 0.7735677812 0.7735677812
0.7934071250 0.7934071250 0.7934071250
0.4574579062 0.4574579062 0.4574579062
0.4641144375 0.4641144375 0.4641144375
0.4697510625 0.4697510625 0.4697510625
0.4742120625 0.4742120625 0.4742120625
0.4778576563 0.4778576563 0.4778576563
0.4809895937 0.4809895937 0.4809895937
0.4835184375 0.4835184375 0.4835184375
0.4854078438 0.4854078438 0.4854078438
0.4867068438 0.4867068438 0.4867068438
0.4877817812 0.4877817812 0.4877817812
0.4890224063 0.4890224063 0.4890224063
0.4911094688 0.4911094688 0.4911094688
0.4945835938 0.4945835938 0.4945835938
0.5001082500 0.5001082500 0.5001082500
0.5079731563 0.5079731563 0.5079731563
0.5183578125 0.5183578125 0.5183578125
0.5307695000 0.5307695000 0.5307695000
0.5447705312 0.5447705312 0.5447705312
0.5597287500 0.5597287500 0.5597287500
0.5753357812 0.5753357812 0.5753357812
0.5915138438 0.5915138438 0.5915138438
0.6082855312 0.6082855312 0.6082855312
0.6257150938 0.6257150938 0.6257150938
0.6437052500 0.6437052500 0.6437052500
0.6621890625 0.6621890625 0.6621890625
0.6808765000 0.6808765000 0.6808765000
0.6996572500 0.6996572500 0.6996572500
0.7183293437 0.7183293437 0.7183293437
0.7366913125 0.7366913125 0.7366913125
0.7546514062 0.7546514062 0.7546514062
0.7721065625 0.7721065625 0.7721065625
0.7892177188 0.7892177188 0.7892177188
0.8061687500 0.8061687500 0.8061687500
0.5022871875 0.5022871875 0.5022871875
0.5090188750 0.5090188750 0.5090188750
0.5147141250 0.5147141250 0.5147141250
0.5192470000 0.5192470000 0.5192470000
0.5229019375 0.5229019375 0.5229019375
0.5261377188 0.5261377188 0.5261377188
0.5290180000 0.5290180000 0.5290180000
0.5313307188 0.5313307188 0.5313307188
0.5329752500 0.5329752500 0.5329752500
0.5342436875 0.5342436875 0.5342436875
0.5353386250 0.5353386250 0.5353386250
0.5367629687 0.5367629687 0.5367629687
0.5389543750 0.5389543750 0.5389543750
0.5424974062 0.5424974062 0.5424974062
0.5478715625 0.5478715625 0.5478715625
0.5555913125 0.5555913125 0.5555913125
0.5657856250 0.5657856250 0.5657856250
0.5781865625 0.5781865625 0.5781865625
0.5921638750 0.5921638750 0.5921638750
0.6072330938 0.6072330938 0.6072330938
0.6230046250 0.6230046250 0.6230046250
0.6392958125 0.6392958125 0.6392958125
0.6561986875 0.6561986875 0.6561986875
0.6734559687 0.6734559687 0.6734559687
0.6909438125 0.6909438125 0.6909438125
0.7084401875 0.7084401875 0.7084401875
0.7256114375 0.7256114375 0.7256114375
0.7423735625 0.7423735625 0.7423735625
0.7585550625 0.7585550625 0.7585550625
0.7740979062 0.7740979062 0.7740979062
0.7890723750 0.7890723750 0.7890723750
0.8036345938 0.8036345938 0.8036345938
0.8179979375 0.8179979375 0.8179979375
0.5467698437 0.5467698437 0.5467698437
0.5533789063 0.5533789063 0.5533789063
0.5589789063 0.5589789063 0.5589789063
0.5633110000 0.5633110000 0.5633110000
0.5668704063 0.5668704063 0.5668704063
0.5701152500 0.5701152500 0.5701152500
0.5732170313 0.5732170313 0.5732170313
0.5758811250 0.5758811250 0.5758811250
0.5779406875 0.5779406875 0.5779406875
0.5794486875 0.5794486875 0.5794486875
0.5806510625 0.5806510625 0.5806510625
0.5818552812 0.5818552812 0.5818552812
0.5834153438 0.5834153438 0.5834153438
0.5856596250 0.5856596250 0.5856596250
0.5891913125 0.5891913125 0.5891913125
0.5944451250 0.5944451250 0.5944451250
0.6020661250 0.6020661250 0.6020661250
0.6121650312 0.6121650312 0.6121650312
0.6244078750 0.6244078750 0.6244078750
0.6382900625 0.6382900625 0.6382900625
0.6531612500 0.6531612500 0.6531612500
0.6687058750 0.6687058750 0.6687058750
0.6846202500 0.6846202500 0.6846202500
0.7007570938 0.7007570938 0.7007570938
0.7168886562 0.7168886562 0.7168886562
0.7329233125 0.7329233125 0.7329233125
0.7484841562 0.7484841562 0.7484841562
0.7634762187 0.7634762187 0.7634762187
0.7777049062 0.7777049062 0.7777049062
0.7912564063 0.7912564063 0.7912564063
0.8041702500 0.8041702500 0.8041702500
0.8166908438 0.8166908438 0.8166908438
0.8290042187 0.8290042187 0.8290042187
0.5904120000 0.5904120000 0.5904120000
0.5966915938 0.5966915938 0.5966915938
0.6020087500 0.6020087500 0.6020087500
0.6060815313 0.6060815313 0.6060815313
0.6094051250 0.6094051250 0.6094051250
0.6125223438 0.6125223438 0.6125223438
0.6156635625 0.6156635625 0.6156635625
0.6185651563 0.6185651563 0.6185651563
0.6209665000 0.6209665000 0.6209665000
0.6227528438 0.6227528438 0.6227528438
0.6241448750 0.6241448750 0.6241448750
0.6253421563 0.6253421563 0.6253421563
0.6266596250 0.6266596250 0.6266596250
0.6283074063 0.6283074063 0.6283074063
0.6305741875 0.6305741875 0.6305741875
0.6340690625 0.6340690625 0.6340690625
0.6392520000 0.6392520000 0.6392520000
0.6467096562 0.6467096562 0.6467096562
0.6565413750 0.6565413750 0.6565413750
0.6684707813 0.6684707813 0.6684707813
0.6818783750 0.6818783750 0.6818783750
0.6961410625 0.6961410625 0.6961410625
0.7108233125 0.7108233125 0.7108233125
0.7255342500 0.7255342500 0.7255342500
0.7401365000 0.7401365000 0.7401365000
0.7544704062 0.7544704062 0.7544704062
0.7683475625 0.7683475625 0.7683475625
0.7815882500 0.7815882500 0.7815882500
0.7941638750 0.7941638750 0.7941638750
0.8060865000 0.8060865000 0.8060865000
0.8174296250 0.8174296250 0.8174296250
0.8284561250 0.8284561250 0.8284561250
0.8393355000 0.8393355000 0.8393355000
0.6325288750 0.6325288750 0.6325288750
0.6383781875 0.6383781875 0.6383781875
0.6432348750 0.6432348750 0.6432348750
0.6469406250 0.6469406250 0.6469406250
0.6499443125 0.6499443125 0.6499443125
0.6527927500 0.6527927500 0.6527927500
0.6557611562 0.6557611562 0.6557611562
0.6587188438 0.6587188438 0.6587188438
0.6613403750 0.6613403750 0.6613403750
0.6634007500 0.6634007500 0.6634007500
0.6649760937 0.6649760937 0.6649760937
0.6662776563 0.6662776563 0.6662776563
0.6675269062 0.6675269062 0.6675269062
0.6688923438 0.6688923438 0.6688923438
0.6706133125 0.6706133125 0.6706133125
0.6729134375 0.6729134375 0.6729134375
0.6763456250 0.6763456250 0.6763456250
0.6813760937 0.6813760937 0.6813760937
0.6884678437 0.6884678437 0.6884678437
0.6978089375 0.6978089375 0.6978089375
0.7090032813 0.7090032813 0.7090032813
0.7215265000 0.7215265000 0.7215265000
0.7346017500 0.7346017500 0.7346017500
0.7477691562 0.7477691562 0.7477691562
0.7607301250 0.7607301250 0.7607301250
0.7733101562 0.7733101562 0.7733101562
0.7854987187 0.7854987187 0.7854987187
0.7971803750 0.7971803750 0.7971803750
0.8082508750 0.8082508750 0.8082508750
0.8188485313 0.8188485313 0.8188485313
0.8290947813 0.8290947813 0.8290947813
0.8391299063 0.8391299063 0.8391299063
0.8489681875 0.8489681875 0.8489681875
0.6724718125 0.6724718125 0.6724718125
0.6776059375 0.6776059375 0.6776059375
0.6819023750 0.6819023750 0.6819023750
0.6851233437 0.6851233437 0.6851233437
0.6877327500 0.6877327500 0.6877327500
0.6902349375 0.6902349375 0.6902349375
0.6929455000 0.6929455000 0.6929455000
0.6957662813 0.6957662813 0.6957662813
0.6984594375 0.6984594375 0.6984594375
0.7006630000 0.7006630000 0.7006630000
0.7024205000 0.7024205000 0.7024205000
0.7038160312 0.7038160312 0.7038160312
0.7050438125 0.7050438125 0.7050438125
0.7063144375 0.7063144375 0.7063144375
0.7077112500 0.7077112500 0.7077112500
0.7094908750 0.7094908750 0.7094908750
0.7117348125 0.7117348125 0.7117348125
