lut/gamut-606/606 - North Park.cube
TITLE "606 - North Park"
# Contributor - Eric Floberg. Version 1.0 - 06/29/2022 - Designed for Rec.709 Color Space. Copyright 2022 Gamut, LLC
LUT_3D_SIZE 5
0.0134060000 0.0212920000 0.0252340000
0.1964087500 0.0207002500 0.0345000000
0.4061490000 0.0090685000 0.0343030000
0.6139417500 0.0000000000 0.0297687500
0.8507020000 0.0331200000 0.0086740000
0.0108427500 0.1610512500 0.0270090000
0.1768822500 0.1746312500 0.0372602500
0.4668032500 0.1729105000 0.0043370000
0.6769417500 0.1695502500 0.0007890000
0.8737265000 0.1798317500 0.0208975000
0.0709845000 0.3515595000 0.0248400000
0.2279635000 0.3546727500 0.0360772500
0.3991910000 0.3711255000 0.0366685000
0.6252637500 0.3851990000 0.0346975000
0.8285390000 0.3997970000 0.0516835000
0.1300497500 0.4971962500 0.0000000000
0.2414057500 0.5007487500 0.0055202500
0.3790377500 0.5089390000 0.0413765000
0.5273782500 0.5350330000 0.0396260000
0.7366802500 0.6066170000 0.0742785000
0.0205030000 0.6677160000 0.0000000000
0.2029825000 0.6732330000 0.0021687500
0.4139450000 0.6916485000 0.0496410000
0.5474675000 0.7125565000 0.0961067500
0.7197870000 0.7810130000 0.1296660000
0.0000000000 0.0550887500 0.2238297500
0.1814677500 0.0254312500 0.2005092500
0.3999232500 0.0177430000 0.2167770000
0.6006985000 0.0110400000 0.2125275000
0.8407000000 0.0197140000 0.1823812500
0.0000000000 0.1839352500 0.2006410000
0.1977017500 0.2038655000 0.2159187500
0.4688947500 0.1950155000 0.2005220000
0.6769222500 0.1800445000 0.1720617500
0.8720087500 0.1770957500 0.1687417500
0.0360772500 0.3767350000 0.2431740000
0.1960992500 0.4020547500 0.2170930000
0.3966572500 0.4213740000 0.2291765000
0.6245565000 0.4156907500 0.1871730000
0.8383977500 0.4148435000 0.1823442500
0.0470647500 0.5508260000 0.2117692500
0.1991605000 0.5571602500 0.1922387500
0.3967570000 0.5684012500 0.2171167500
0.5582907500 0.5908290000 0.2380620000
0.7647937500 0.6405945000 0.2213537500
0.0051257500 0.7050622500 0.2178090000
0.1742312500 0.7377240000 0.2130415000
0.4309942500 0.7642802500 0.2340630000
0.5794630000 0.7768007500 0.2740850000
0.7307250000 0.8079635000 0.3054757500
0.0000000000 0.0812430000 0.3692855000
0.1154795000 0.0547345000 0.3385580000
0.3840165000 0.0003945000 0.3702830000
0.5877692500 0.0000000000 0.3953450000
0.8235925000 0.0264175000 0.3864760000
0.0000000000 0.2100767500 0.3637875000
0.1211495000 0.2357675000 0.3709070000
0.4432012500 0.2036312500 0.4184662500
0.6488247500 0.1971717500 0.4164647500
0.8495287500 0.1903635000 0.3973632500
0.0000000000 0.4073940000 0.4186545000
0.0598885000 0.4284862500 0.4311617500
0.4166850000 0.4518185000 0.4698775000
0.6367027500 0.4583302500 0.4361562500
0.8590355000 0.4379020000 0.4043810000
0.0013800000 0.5683985000 0.4555230000
0.0970535000 0.5833797500 0.4614435000
0.4210027500 0.6399585000 0.4807702500
0.6045222500 0.6745152500 0.5457442500
0.8111715000 0.6920397500 0.4724112500
0.0063085000 0.7275015000 0.4857535000
0.1577132500 0.7856212500 0.5211030000
0.4389010000 0.8497845000 0.5173445000
0.6085020000 0.8606290000 0.5335380000
0.7582080000 0.8714755000 0.5885010000
0.0007885000 0.1185825000 0.5048700000
0.0996352500 0.0893765000 0.4536787500
0.3391827500 0.0319375000 0.5046562500
0.5699937500 0.0000000000 0.5298597500
0.7966462500 0.0000000000 0.5748060000
0.0000000000 0.2310725000 0.5100730000
0.0656155000 0.2558902500 0.5205515000
0.3661952500 0.2444040000 0.5619670000
0.6232250000 0.1925417500 0.5931952500
0.8304447500 0.1736135000 0.6244735000
0.0000000000 0.4276165000 0.6025357500
0.0383905000 0.4456212500 0.6066670000
0.3597930000 0.4700795000 0.6372737500
0.6312915000 0.4849202500 0.6821445000
0.8524100000 0.4599127500 0.6653512500
0.0000000000 0.5958430000 0.6314732500
0.0210945000 0.6153182500 0.6447085000
0.3343160000 0.6782950000 0.7016975000
0.6308052500 0.7220007500 0.7488775000
0.8453952500 0.7185267500 0.7004382500
0.0000000000 0.7718560000 0.6729850000
0.0438900000 0.8269492500 0.7128755000
0.3500307500 0.8859587500 0.7525367500
0.6236770000 0.9059647500 0.7563477500
0.7808915000 0.9206677500 0.7874217500
0.2326090000 0.0610560000 0.8104220000
0.1095205000 0.1193377500 0.6268687500
0.2467205000 0.0583120000 0.6851365000
0.4839617500 0.0450985000 0.7230417500
0.7516830000 0.0015770000 0.7746240000
0.0000000000 0.2635585000 0.6924102500
0.0354857500 0.2804375000 0.6989047500
0.2622100000 0.2961167500 0.7152925000
0.4900337500 0.2546457500 0.7951320000
0.7589037500 0.2067760000 0.8372410000
0.0000000000 0.4580750000 0.8042250000
0.0203062500 0.4687167500 0.8077640000
0.2452465000 0.4924860000 0.8210755000
0.5061360000 0.5079860000 0.8879160000
0.7688675000 0.5182810000 0.9420745000
0.0000000000 0.6196960000 0.8761992500
0.0108430000 0.6315595000 0.8776112500
0.1980280000 0.6931860000 0.9000722500
0.5402005000 0.7489702500 0.9362300000
0.7989990000 0.7615600000 0.9666177500
0.0000000000 0.8139520000 0.9027710000
0.0029570000 0.8592050000 0.9316342500
0.1366080000 0.9222140000 0.9679985000
0.5171610000 0.9536060000 0.9807250000
0.8253590000 0.9740670000 0.9799050000
