lut/adanmq/Adanmq_Kodak_Vision3_200T_5213.cube
TITLE "Adanmq_Kodak Vision3 200T 5213"
LUT_3D_SIZE 5
DOMAIN_MIN 0.000000 0.000000 0.000000
DOMAIN_MAX 0.903226 0.903226 0.903226
0.0214 0.0220 0.0218
0.1476 0.0220 0.0219
0.2671 0.0221 0.0220
0.4089 0.0222 0.0220
0.5984 0.0221 0.0219
0.0213 0.1762 0.0218
0.1846 0.2012 0.0221
0.3798 0.2259 0.0224
0.5435 0.2399 0.0227
0.7040 0.2471 0.0227
0.0213 0.3440 0.0218
0.2143 0.3812 0.0223
0.4232 0.4064 0.0227
0.6245 0.4333 0.0230
0.7865 0.4602 0.0233
0.0213 0.5275 0.0216
0.2161 0.5330 0.0218
0.4409 0.5798 0.0227
0.6451 0.5893 0.0230
0.8358 0.6181 0.0235
0.0213 0.7210 0.0215
0.2245 0.7073 0.0215
0.4383 0.7744 0.0226
0.6543 0.7742 0.0230
0.8430 0.7794 0.0236
0.0214 0.0216 0.1588
0.1722 0.0219 0.1890
0.3391 0.0221 0.2118
0.4871 0.0222 0.2315
0.6268 0.0222 0.2307
0.0214 0.1666 0.1765
0.1968 0.2125 0.2236
0.3967 0.2325 0.2467
0.5656 0.2552 0.2662
0.6760 0.2546 0.2535
0.0213 0.3431 0.1960
0.2165 0.3766 0.2400
0.4356 0.4376 0.2849
0.6287 0.4759 0.3085
0.8039 0.4888 0.3483
0.0213 0.5257 0.2042
0.2240 0.5125 0.2226
0.4593 0.5875 0.3026
0.6710 0.6052 0.3371
0.8374 0.6594 0.3907
0.0213 0.7113 0.2159
0.2326 0.6979 0.2183
0.4663 0.7104 0.2340
0.6723 0.7730 0.3362
0.8673 0.7817 0.3858
0.0214 0.0214 0.2680
0.1781 0.0219 0.3390
0.3800 0.0223 0.3626
0.5438 0.0225 0.4066
0.7088 0.0225 0.4171
0.0214 0.1675 0.3348
0.2118 0.2200 0.3944
0.4156 0.2524 0.4198
0.5905 0.2765 0.4293
0.7281 0.2876 0.4406
0.0214 0.3431 0.3656
0.2273 0.4115 0.4251
0.4513 0.4784 0.4726
0.6427 0.4827 0.4834
0.8097 0.5040 0.5061
0.0214 0.5256 0.3816
0.2422 0.5588 0.4159
0.4537 0.6066 0.4653
0.6680 0.6668 0.5145
0.8442 0.7102 0.5475
0.0214 0.7286 0.3740
0.2467 0.7122 0.4117
0.4825 0.7059 0.4303
0.6853 0.7913 0.5363
0.8917 0.8177 0.5916
0.0213 0.0213 0.4522
0.1999 0.0216 0.4789
0.3825 0.0225 0.5427
0.5752 0.0226 0.5311
0.7031 0.0226 0.5802
0.0213 0.1802 0.4866
0.2067 0.2109 0.5201
0.4206 0.2695 0.5855
0.6073 0.2919 0.5739
0.7370 0.2995 0.5878
0.0214 0.3571 0.5488
0.2385 0.4126 0.5849
0.4639 0.4794 0.6410
0.6604 0.4998 0.6599
0.8175 0.5279 0.6681
0.0215 0.5333 0.5630
0.2565 0.5699 0.5998
0.4777 0.6407 0.6577
0.6859 0.6961 0.6971
0.8520 0.7012 0.7147
0.0214 0.7254 0.5756
0.2502 0.7179 0.5879
0.4995 0.7686 0.6393
0.6966 0.8114 0.6806
0.8806 0.8756 0.7470
0.0213 0.0212 0.6529
0.1877 0.0212 0.6446
0.3651 0.0225 0.7316
0.5644 0.0227 0.7144
0.7537 0.0227 0.7067
0.0212 0.1883 0.6467
0.1729 0.1885 0.6399
0.4040 0.2456 0.7322
0.5716 0.3002 0.7246
0.7493 0.3032 0.7103
0.0213 0.3770 0.7307
0.2075 0.4002 0.7029
0.4351 0.4544 0.7497
0.6542 0.5028 0.7993
0.8263 0.5418 0.7942
0.0215 0.5517 0.7548
0.2671 0.5771 0.7576
0.4902 0.6358 0.7984
0.6936 0.6851 0.8399
0.8666 0.7113 0.8627
0.0215 0.7378 0.7728
0.3106 0.7400 0.7754
0.5006 0.7752 0.8125
0.7164 0.8337 0.8587
0.8961 0.8873 0.8935
