lut/adanmq/Adanmq_Kodak_T-Maxx_100.cube
TITLE "Adanmq_Kodak T-Maxx 100"
LUT_3D_SIZE 5
DOMAIN_MIN 0.000000 0.000000 0.000000
DOMAIN_MAX 0.903226 0.903226 0.903226
0.0223 0.0223 0.0223
0.0505 0.0505 0.0505
0.0764 0.0764 0.0764
0.0999 0.0999 0.0999
0.1204 0.1204 0.1204
0.1089 0.1089 0.1089
0.1398 0.1398 0.1398
0.1652 0.1652 0.1652
0.2018 0.2018 0.2018
0.2492 0.2492 0.2492
0.1808 0.1808 0.1808
0.2263 0.2263 0.2263
0.2671 0.2671 0.2671
0.3229 0.3229 0.3229
0.4163 0.4163 0.4163
0.2846 0.2846 0.2846
0.3288 0.3288 0.3288
0.4221 0.4221 0.4221
0.5016 0.5016 0.5016
0.5907 0.5907 0.5907
0.4208 0.4208 0.4208
0.4699 0.4699 0.4699
0.5966 0.5966 0.5966
0.6920 0.6920 0.6920
0.8028 0.8028 0.8028
0.0391 0.0391 0.0391
0.0820 0.0820 0.0820
0.1037 0.1037 0.1037
0.1145 0.1145 0.1145
0.1316 0.1316 0.1316
0.1221 0.1221 0.1221
0.1571 0.1571 0.1571
0.1827 0.1827 0.1827
0.2257 0.2257 0.2257
0.2874 0.2874 0.2874
0.1921 0.1921 0.1921
0.2311 0.2311 0.2311
0.2963 0.2963 0.2963
0.3565 0.3565 0.3565
0.4376 0.4376 0.4376
0.2978 0.2978 0.2978
0.3330 0.3330 0.3330
0.4382 0.4382 0.4382
0.5200 0.5200 0.5200
0.6273 0.6273 0.6273
0.4394 0.4394 0.4394
0.4950 0.4950 0.4950
0.5763 0.5763 0.5763
0.7068 0.7068 0.7068
0.8104 0.8104 0.8104
0.0558 0.0558 0.0558
0.1182 0.1182 0.1182
0.1758 0.1758 0.1758
0.1725 0.1725 0.1725
0.1888 0.1888 0.1888
0.1420 0.1420 0.1420
0.1924 0.1924 0.1924
0.2404 0.2404 0.2404
0.2855 0.2855 0.2855
0.3314 0.3314 0.3314
0.2037 0.2037 0.2037
0.2699 0.2699 0.2699
0.3489 0.3489 0.3489
0.3899 0.3899 0.3899
0.4777 0.4777 0.4777
0.3192 0.3192 0.3192
0.3705 0.3705 0.3705
0.4692 0.4692 0.4692
0.5567 0.5567 0.5567
0.6463 0.6463 0.6463
0.4802 0.4802 0.4802
0.5324 0.5324 0.5324
0.6104 0.6104 0.6104
0.7448 0.7448 0.7448
0.8211 0.8211 0.8211
0.0698 0.0698 0.0698
0.1324 0.1324 0.1324
0.2570 0.2570 0.2570
0.3201 0.3201 0.3201
0.2724 0.2724 0.2724
0.1955 0.1955 0.1955
0.2630 0.2630 0.2630
0.3302 0.3302 0.3302
0.4141 0.4141 0.4141
0.4279 0.4279 0.4279
0.2483 0.2483 0.2483
0.3387 0.3387 0.3387
0.4282 0.4282 0.4282
0.4933 0.4933 0.4933
0.5546 0.5546 0.5546
0.3458 0.3458 0.3458
0.4335 0.4335 0.4335
0.5353 0.5353 0.5353
0.6242 0.6242 0.6242
0.6937 0.6937 0.6937
0.5113 0.5113 0.5113
0.5781 0.5781 0.5781
0.6646 0.6646 0.6646
0.7764 0.7764 0.7764
0.8652 0.8652 0.8652
0.0964 0.0964 0.0964
0.1556 0.1556 0.1556
0.3045 0.3045 0.3045
0.3913 0.3913 0.3913
0.4579 0.4579 0.4579
0.2672 0.2672 0.2672
0.3378 0.3378 0.3378
0.4010 0.4010 0.4010
0.5434 0.5434 0.5434
0.6309 0.6309 0.6309
0.3427 0.3427 0.3427
0.4657 0.4657 0.4657
0.5414 0.5414 0.5414
0.5875 0.5875 0.5875
0.6849 0.6849 0.6849
0.4172 0.4172 0.4172
0.5396 0.5396 0.5396
0.6362 0.6362 0.6362
0.7178 0.7178 0.7178
0.7837 0.7837 0.7837
0.5532 0.5532 0.5532
0.6335 0.6335 0.6335
0.7532 0.7532 0.7532
0.8364 0.8364 0.8364
0.8971 0.8971 0.8971
