lut/adanmq/Adanmq_Fuji_Neopan.cube
TITLE "Adanmq_Fuji Neopan"
LUT_3D_SIZE 8
DOMAIN_MIN 0.000000 0.000000 0.000000
DOMAIN_MAX 0.903226 0.903226 0.903226
0.0224 0.0224 0.0224
0.0482 0.0482 0.0482
0.0822 0.0822 0.0822
0.1118 0.1118 0.1118
0.1532 0.1532 0.1532
0.2064 0.2064 0.2064
0.2653 0.2653 0.2653
0.3233 0.3233 0.3233
0.0984 0.0984 0.0984
0.1216 0.1216 0.1216
0.1473 0.1473 0.1473
0.1764 0.1764 0.1764
0.2245 0.2245 0.2245
0.2805 0.2805 0.2805
0.3378 0.3378 0.3378
0.4087 0.4087 0.4087
0.1116 0.1116 0.1116
0.1572 0.1572 0.1572
0.2036 0.2036 0.2036
0.2392 0.2392 0.2392
0.2895 0.2895 0.2895
0.3495 0.3495 0.3495
0.4039 0.4039 0.4039
0.4561 0.4561 0.4561
0.1688 0.1688 0.1688
0.2065 0.2065 0.2065
0.2614 0.2614 0.2614
0.2923 0.2923 0.2923
0.3445 0.3445 0.3445
0.4164 0.4164 0.4164
0.4775 0.4775 0.4775
0.5417 0.5417 0.5417
0.2395 0.2395 0.2395
0.2674 0.2674 0.2674
0.3277 0.3277 0.3277
0.3653 0.3653 0.3653
0.4069 0.4069 0.4069
0.4699 0.4699 0.4699
0.5354 0.5354 0.5354
0.6028 0.6028 0.6028
0.3160 0.3160 0.3160
0.3402 0.3402 0.3402
0.3951 0.3951 0.3951
0.4519 0.4519 0.4519
0.4874 0.4874 0.4874
0.5355 0.5355 0.5355
0.5913 0.5913 0.5913
0.6535 0.6535 0.6535
0.3993 0.3993 0.3993
0.4240 0.4240 0.4240
0.4619 0.4619 0.4619
0.5386 0.5386 0.5386
0.5766 0.5766 0.5766
0.6149 0.6149 0.6149
0.6573 0.6573 0.6573
0.7050 0.7050 0.7050
0.4879 0.4879 0.4879
0.5155 0.5155 0.5155
0.5451 0.5451 0.5451
0.6135 0.6135 0.6135
0.6693 0.6693 0.6693
0.6963 0.6963 0.6963
0.7361 0.7361 0.7361
0.7744 0.7744 0.7744
0.0339 0.0339 0.0339
0.0783 0.0783 0.0783
0.1258 0.1258 0.1258
0.1689 0.1689 0.1689
0.1967 0.1967 0.1967
0.2398 0.2398 0.2398
0.2899 0.2899 0.2899
0.3423 0.3423 0.3423
0.1080 0.1080 0.1080
0.1664 0.1664 0.1664
0.1920 0.1920 0.1920
0.2182 0.2182 0.2182
0.2669 0.2669 0.2669
0.3239 0.3239 0.3239
0.3808 0.3808 0.3808
0.4448 0.4448 0.4448
0.1436 0.1436 0.1436
0.2028 0.2028 0.2028
0.2566 0.2566 0.2566
0.2820 0.2820 0.2820
0.3145 0.3145 0.3145
0.3633 0.3633 0.3633
0.4205 0.4205 0.4205
0.5093 0.5093 0.5093
0.1899 0.1899 0.1899
0.2196 0.2196 0.2196
0.2833 0.2833 0.2833
0.3319 0.3319 0.3319
0.3787 0.3787 0.3787
0.4296 0.4296 0.4296
0.4759 0.4759 0.4759
0.5320 0.5320 0.5320
0.2532 0.2532 0.2532
0.2778 0.2778 0.2778
0.3380 0.3380 0.3380
0.3933 0.3933 0.3933
0.4320 0.4320 0.4320
0.4878 0.4878 0.4878
0.5443 0.5443 0.5443
0.5991 0.5991 0.5991
0.3240 0.3240 0.3240
0.3489 0.3489 0.3489
0.3911 0.3911 0.3911
0.4695 0.4695 0.4695
0.5088 0.5088 0.5088
0.5471 0.5471 0.5471
0.6040 0.6040 0.6040
0.6605 0.6605 0.6605
0.4055 0.4055 0.4055
0.4317 0.4317 0.4317
0.4613 0.4613 0.4613
0.5258 0.5258 0.5258
0.5906 0.5906 0.5906
0.6193 0.6193 0.6193
0.6587 0.6587 0.6587
0.7168 0.7168 0.7168
0.4964 0.4964 0.4964
0.5248 0.5248 0.5248
0.5542 0.5542 0.5542
0.5945 0.5945 0.5945
0.6670 0.6670 0.6670
0.7019 0.7019 0.7019
0.7300 0.7300 0.7300
0.7763 0.7763 0.7763
0.0674 0.0674 0.0674
0.1263 0.1263 0.1263
0.1861 0.1861 0.1861
0.2329 0.2329 0.2329
0.2761 0.2761 0.2761
0.3035 0.3035 0.3035
0.3408 0.3408 0.3408
0.3782 0.3782 0.3782
0.1364 0.1364 0.1364
0.2025 0.2025 0.2025
0.2486 0.2486 0.2486
0.2926 0.2926 0.2926
0.3358 0.3358 0.3358
0.3806 0.3806 0.3806
0.4303 0.4303 0.4303
0.4772 0.4772 0.4772
0.1799 0.1799 0.1799
0.2528 0.2528 0.2528
0.3147 0.3147 0.3147
0.3366 0.3366 0.3366
0.3565 0.3565 0.3565
0.4078 0.4078 0.4078
0.4777 0.4777 0.4777
0.5519 0.5519 0.5519
0.2253 0.2253 0.2253
0.2654 0.2654 0.2654
0.3498 0.3498 0.3498
0.4149 0.4149 0.4149
0.4345 0.4345 0.4345
0.4672 0.4672 0.4672
0.5101 0.5101 0.5101
0.5615 0.5615 0.5615
0.2940 0.2940 0.2940
0.3157 0.3157 0.3157
0.3536 0.3536 0.3536
0.4285 0.4285 0.4285
0.4947 0.4947 0.4947
0.5370 0.5370 0.5370
0.5742 0.5742 0.5742
0.6141 0.6141 0.6141
0.3676 0.3676 0.3676
0.3753 0.3753 0.3753
0.4038 0.4038 0.4038
0.4732 0.4732 0.4732
0.5370 0.5370 0.5370
0.5764 0.5764 0.5764
0.6218 0.6218 0.6218
0.6734 0.6734 0.6734
0.4392 0.4392 0.4392
0.4485 0.4485 0.4485
0.4782 0.4782 0.4782
0.5282 0.5282 0.5282
0.6068 0.6068 0.6068
0.6447 0.6447 0.6447
0.6704 0.6704 0.6704
0.7246 0.7246 0.7246
0.5174 0.5174 0.5174
0.5364 0.5364 0.5364
0.5669 0.5669 0.5669
0.6010 0.6010 0.6010
0.6610 0.6610 0.6610
0.7196 0.7196 0.7196
0.7431 0.7431 0.7431
0.7823 0.7823 0.7823
0.1089 0.1089 0.1089
0.1630 0.1630 0.1630
0.2439 0.2439 0.2439
0.2925 0.2925 0.2925
0.3183 0.3183 0.3183
0.3677 0.3677 0.3677
0.3942 0.3942 0.3942
0.4167 0.4167 0.4167
0.1891 0.1891 0.1891
0.2364 0.2364 0.2364
0.2962 0.2962 0.2962
0.3496 0.3496 0.3496
0.3793 0.3793 0.3793
0.4342 0.4342 0.4342
0.4808 0.4808 0.4808
0.5108 0.5108 0.5108
0.2260 0.2260 0.2260
0.2914 0.2914 0.2914
0.3486 0.3486 0.3486
0.3887 0.3887 0.3887
0.4121 0.4121 0.4121
0.4550 0.4550 0.4550
0.5163 0.5163 0.5163
0.5787 0.5787 0.5787
0.2733 0.2733 0.2733
0.3111 0.3111 0.3111
0.4030 0.4030 0.4030
0.4656 0.4656 0.4656
0.4716 0.4716 0.4716
0.4929 0.4929 0.4929
0.5403 0.5403 0.5403
0.6076 0.6076 0.6076
0.3235 0.3235 0.3235
0.3604 0.3604 0.3604
0.4105 0.4105 0.4105
0.5083 0.5083 0.5083
0.5530 0.5530 0.5530
0.5726 0.5726 0.5726
0.6004 0.6004 0.6004
0.6386 0.6386 0.6386
0.3933 0.3933 0.3933
0.4253 0.4253 0.4253
0.4533 0.4533 0.4533
0.4941 0.4941 0.4941
0.5754 0.5754 0.5754
0.6353 0.6353 0.6353
0.6756 0.6756 0.6756
0.7072 0.7072 0.7072
0.4838 0.4838 0.4838
0.4968 0.4968 0.4968
0.5078 0.5078 0.5078
0.5355 0.5355 0.5355
0.6020 0.6020 0.6020
0.6639 0.6639 0.6639
0.7073 0.7073 0.7073
0.7543 0.7543 0.7543
0.5735 0.5735 0.5735
0.5761 0.5761 0.5761
0.5873 0.5873 0.5873
0.6200 0.6200 0.6200
0.6652 0.6652 0.6652
0.7282 0.7282 0.7282
0.7656 0.7656 0.7656
0.7947 0.7947 0.7947
0.1512 0.1512 0.1512
0.1909 0.1909 0.1909
0.2842 0.2842 0.2842
0.3518 0.3518 0.3518
0.3839 0.3839 0.3839
0.3949 0.3949 0.3949
0.4296 0.4296 0.4296
0.4547 0.4547 0.4547
0.2423 0.2423 0.2423
0.2753 0.2753 0.2753
0.3265 0.3265 0.3265
0.4019 0.4019 0.4019
0.4348 0.4348 0.4348
0.4543 0.4543 0.4543
0.5067 0.5067 0.5067
0.5445 0.5445 0.5445
0.2855 0.2855 0.2855
0.3415 0.3415 0.3415
0.3872 0.3872 0.3872
0.4431 0.4431 0.4431
0.4840 0.4840 0.4840
0.5106 0.5106 0.5106
0.5597 0.5597 0.5597
0.6137 0.6137 0.6137
0.3273 0.3273 0.3273
0.3796 0.3796 0.3796
0.4435 0.4435 0.4435
0.4949 0.4949 0.4949
0.5260 0.5260 0.5260
0.5420 0.5420 0.5420
0.5754 0.5754 0.5754
0.6311 0.6311 0.6311
0.3785 0.3785 0.3785
0.4172 0.4172 0.4172
0.4705 0.4705 0.4705
0.5504 0.5504 0.5504
0.5948 0.5948 0.5948
0.5989 0.5989 0.5989
0.6151 0.6151 0.6151
0.6566 0.6566 0.6566
0.4291 0.4291 0.4291
0.4562 0.4562 0.4562
0.5057 0.5057 0.5057
0.5558 0.5558 0.5558
0.6394 0.6394 0.6394
0.6670 0.6670 0.6670
0.6905 0.6905 0.6905
0.7154 0.7154 0.7154
0.4968 0.4968 0.4968
0.5249 0.5249 0.5249
0.5695 0.5695 0.5695
0.5875 0.5875 0.5875
0.6322 0.6322 0.6322
0.6995 0.6995 0.6995
0.7536 0.7536 0.7536
0.7958 0.7958 0.7958
0.5887 0.5887 0.5887
0.6157 0.6157 0.6157
0.6326 0.6326 0.6326
0.6446 0.6446 0.6446
0.6708 0.6708 0.6708
0.7279 0.7279 0.7279
0.7858 0.7858 0.7858
0.8318 0.8318 0.8318
0.1900 0.1900 0.1900
0.2254 0.2254 0.2254
0.3033 0.3033 0.3033
0.3853 0.3853 0.3853
0.4263 0.4263 0.4263
0.4508 0.4508 0.4508
0.4545 0.4545 0.4545
0.4769 0.4769 0.4769
0.2889 0.2889 0.2889
0.3219 0.3219 0.3219
0.3562 0.3562 0.3562
0.4380 0.4380 0.4380
0.4950 0.4950 0.4950
0.5160 0.5160 0.5160
0.5217 0.5217 0.5217
0.5676 0.5676 0.5676
0.3500 0.3500 0.3500
0.3960 0.3960 0.3960
0.4310 0.4310 0.4310
0.4735 0.4735 0.4735
0.5315 0.5315 0.5315
0.5623 0.5623 0.5623
0.5826 0.5826 0.5826
0.6299 0.6299 0.6299
0.3854 0.3854 0.3854
0.4377 0.4377 0.4377
0.4743 0.4743 0.4743
0.5235 0.5235 0.5235
0.5707 0.5707 0.5707
0.6051 0.6051 0.6051
0.6236 0.6236 0.6236
0.6708 0.6708 0.6708
0.4298 0.4298 0.4298
0.4762 0.4762 0.4762
0.5247 0.5247 0.5247
0.5742 0.5742 0.5742
0.6140 0.6140 0.6140
0.6386 0.6386 0.6386
0.6547 0.6547 0.6547
0.6850 0.6850 0.6850
0.4788 0.4788 0.4788
0.5158 0.5158 0.5158
0.5523 0.5523 0.5523
0.6042 0.6042 0.6042
0.6638 0.6638 0.6638
0.6971 0.6971 0.6971
0.7061 0.7061 0.7061
0.7255 0.7255 0.7255
0.5447 0.5447 0.5447
0.5586 0.5586 0.5586
0.5898 0.5898 0.5898
0.6362 0.6362 0.6362
0.6837 0.6837 0.6837
0.7475 0.7475 0.7475
0.7723 0.7723 0.7723
0.7989 0.7989 0.7989
0.6101 0.6101 0.6101
0.6289 0.6289 0.6289
0.6591 0.6591 0.6591
0.7011 0.7011 0.7011
0.7129 0.7129 0.7129
0.7523 0.7523 0.7523
0.8163 0.8163 0.8163
0.8639 0.8639 0.8639
0.2225 0.2225 0.2225
0.2574 0.2574 0.2574
0.3081 0.3081 0.3081
0.4015 0.4015 0.4015
0.4420 0.4420 0.4420
0.4718 0.4718 0.4718
0.4941 0.4941 0.4941
0.5007 0.5007 0.5007
0.3248 0.3248 0.3248
0.3597 0.3597 0.3597
0.3912 0.3912 0.3912
0.4566 0.4566 0.4566
0.5277 0.5277 0.5277
0.5614 0.5614 0.5614
0.5804 0.5804 0.5804
0.5922 0.5922 0.5922
0.4054 0.4054 0.4054
0.4486 0.4486 0.4486
0.4723 0.4723 0.4723
0.4895 0.4895 0.4895
0.5455 0.5455 0.5455
0.6005 0.6005 0.6005
0.6257 0.6257 0.6257
0.6409 0.6409 0.6409
0.4472 0.4472 0.4472
0.4989 0.4989 0.4989
0.5333 0.5333 0.5333
0.5559 0.5559 0.5559
0.5924 0.5924 0.5924
0.6465 0.6465 0.6465
0.6764 0.6764 0.6764
0.7006 0.7006 0.7006
0.4790 0.4790 0.4790
0.5326 0.5326 0.5326
0.5650 0.5650 0.5650
0.5917 0.5917 0.5917
0.6335 0.6335 0.6335
0.6733 0.6733 0.6733
0.7076 0.7076 0.7076
0.7304 0.7304 0.7304
0.5256 0.5256 0.5256
0.5663 0.5663 0.5663
0.6070 0.6070 0.6070
0.6445 0.6445 0.6445
0.6781 0.6781 0.6781
0.7082 0.7082 0.7082
0.7300 0.7300 0.7300
0.7575 0.7575 0.7575
0.5790 0.5790 0.5790
0.6121 0.6121 0.6121
0.6401 0.6401 0.6401
0.6728 0.6728 0.6728
0.7173 0.7173 0.7173
0.7638 0.7638 0.7638
0.7887 0.7887 0.7887
0.8090 0.8090 0.8090
0.6614 0.6614 0.6614
0.6761 0.6761 0.6761
0.6854 0.6854 0.6854
0.7145 0.7145 0.7145
0.7535 0.7535 0.7535
0.7930 0.7930 0.7930
0.8493 0.8493 0.8493
0.8754 0.8754 0.8754
0.2496 0.2496 0.2496
0.2841 0.2841 0.2841
0.3213 0.3213 0.3213
0.3995 0.3995 0.3995
0.4526 0.4526 0.4526
0.4804 0.4804 0.4804
0.5073 0.5073 0.5073
0.5296 0.5296 0.5296
0.3519 0.3519 0.3519
0.3867 0.3867 0.3867
0.4220 0.4220 0.4220
0.4707 0.4707 0.4707
0.5408 0.5408 0.5408
0.5745 0.5745 0.5745
0.6009 0.6009 0.6009
0.6224 0.6224 0.6224
0.4500 0.4500 0.4500
0.4892 0.4892 0.4892
0.5186 0.5186 0.5186
0.5217 0.5217 0.5217
0.5526 0.5526 0.5526
0.6299 0.6299 0.6299
0.6739 0.6739 0.6739
0.6985 0.6985 0.6985
0.5008 0.5008 0.5008
0.5520 0.5520 0.5520
0.5907 0.5907 0.5907
0.5888 0.5888 0.5888
0.5954 0.5954 0.5954
0.6418 0.6418 0.6418
0.7002 0.7002 0.7002
0.7288 0.7288 0.7288
0.5234 0.5234 0.5234
0.5826 0.5826 0.5826
0.6294 0.6294 0.6294
0.6417 0.6417 0.6417
0.6598 0.6598 0.6598
0.6911 0.6911 0.6911
0.7457 0.7457 0.7457
0.7789 0.7789 0.7789
0.5703 0.5703 0.5703
0.6107 0.6107 0.6107
0.6595 0.6595 0.6595
0.6777 0.6777 0.6777
0.6976 0.6976 0.6976
0.7308 0.7308 0.7308
0.7633 0.7633 0.7633
0.7987 0.7987 0.7987
0.6231 0.6231 0.6231
0.6551 0.6551 0.6551
0.6896 0.6896 0.6896
0.7213 0.7213 0.7213
0.7505 0.7505 0.7505
0.7794 0.7794 0.7794
0.7992 0.7992 0.7992
0.8228 0.8228 0.8228
0.6795 0.6795 0.6795
0.7101 0.7101 0.7101
0.7371 0.7371 0.7371
0.7608 0.7608 0.7608
0.7876 0.7876 0.7876
0.8195 0.8195 0.8195
0.8606 0.8606 0.8606
0.8874 0.8874 0.8874
