lut/adanmq/Adanmq_Ilford_Delta_400.cube
TITLE "Adanmq_Ilford Delta 400"
LUT_3D_SIZE 5
DOMAIN_MIN 0.000000 0.000000 0.000000
DOMAIN_MAX 0.903226 0.903226 0.903226
0.0223 0.0223 0.0223
0.0524 0.0524 0.0524
0.0950 0.0950 0.0950
0.1414 0.1414 0.1414
0.2031 0.2031 0.2031
0.0967 0.0967 0.0967
0.1463 0.1463 0.1463
0.1935 0.1935 0.1935
0.2523 0.2523 0.2523
0.3330 0.3330 0.3330
0.1889 0.1889 0.1889
0.2421 0.2421 0.2421
0.2957 0.2957 0.2957
0.3829 0.3829 0.3829
0.4921 0.4921 0.4921
0.2991 0.2991 0.2991
0.3489 0.3489 0.3489
0.4570 0.4570 0.4570
0.5392 0.5392 0.5392
0.6333 0.6333 0.6333
0.4375 0.4375 0.4375
0.4844 0.4844 0.4844
0.6331 0.6331 0.6331
0.7046 0.7046 0.7046
0.7779 0.7779 0.7779
0.0453 0.0453 0.0453
0.1212 0.1212 0.1212
0.1577 0.1577 0.1577
0.1903 0.1903 0.1903
0.2457 0.2457 0.2457
0.1215 0.1215 0.1215
0.1942 0.1942 0.1942
0.2299 0.2299 0.2299
0.3018 0.3018 0.3018
0.4105 0.4105 0.4105
0.2158 0.2158 0.2158
0.2631 0.2631 0.2631
0.3526 0.3526 0.3526
0.4309 0.4309 0.4309
0.5169 0.5169 0.5169
0.3236 0.3236 0.3236
0.3547 0.3547 0.3547
0.4832 0.4832 0.4832
0.5583 0.5583 0.5583
0.6614 0.6614 0.6614
0.4549 0.4549 0.4549
0.5097 0.5097 0.5097
0.5963 0.5963 0.5963
0.7123 0.7123 0.7123
0.7848 0.7848 0.7848
0.0831 0.0831 0.0831
0.1962 0.1962 0.1962
0.2815 0.2815 0.2815
0.2993 0.2993 0.2993
0.3360 0.3360 0.3360
0.1816 0.1816 0.1816
0.2655 0.2655 0.2655
0.3388 0.3388 0.3388
0.4039 0.4039 0.4039
0.4779 0.4779 0.4779
0.2536 0.2536 0.2536
0.3364 0.3364 0.3364
0.4213 0.4213 0.4213
0.4840 0.4840 0.4840
0.5746 0.5746 0.5746
0.3628 0.3628 0.3628
0.4257 0.4257 0.4257
0.5288 0.5288 0.5288
0.6155 0.6155 0.6155
0.6974 0.6974 0.6974
0.5297 0.5297 0.5297
0.5655 0.5655 0.5655
0.6268 0.6268 0.6268
0.7438 0.7438 0.7438
0.8033 0.8033 0.8033
0.1246 0.1246 0.1246
0.2123 0.2123 0.2123
0.3852 0.3852 0.3852
0.4429 0.4429 0.4429
0.4229 0.4229 0.4229
0.2709 0.2709 0.2709
0.3571 0.3571 0.3571
0.4497 0.4497 0.4497
0.5424 0.5424 0.5424
0.5683 0.5683 0.5683
0.3321 0.3321 0.3321
0.4444 0.4444 0.4444
0.5236 0.5236 0.5236
0.5885 0.5885 0.5885
0.6417 0.6417 0.6417
0.4157 0.4157 0.4157
0.5151 0.5151 0.5151
0.6032 0.6032 0.6032
0.6691 0.6691 0.6691
0.7275 0.7275 0.7275
0.5675 0.5675 0.5675
0.6229 0.6229 0.6229
0.6843 0.6843 0.6843
0.7791 0.7791 0.7791
0.8517 0.8517 0.8517
0.1827 0.1827 0.1827
0.2542 0.2542 0.2542
0.4227 0.4227 0.4227
0.4911 0.4911 0.4911
0.5395 0.5395 0.5395
0.3730 0.3730 0.3730
0.4513 0.4513 0.4513
0.5052 0.5052 0.5052
0.6422 0.6422 0.6422
0.6981 0.6981 0.6981
0.4576 0.4576 0.4576
0.5751 0.5751 0.5751
0.6215 0.6215 0.6215
0.6617 0.6617 0.6617
0.7457 0.7457 0.7457
0.5098 0.5098 0.5098
0.6194 0.6194 0.6194
0.6937 0.6937 0.6937
0.7446 0.7446 0.7446
0.7935 0.7935 0.7935
0.6125 0.6125 0.6125
0.6723 0.6723 0.6723
0.7607 0.7607 0.7607
0.8289 0.8289 0.8289
0.8895 0.8895 0.8895
