lut/adanmq/Adanmq_Fujicolor_Pro_160s.cube
TITLE "Adanmq_Fujicolor Pro 160s"
LUT_3D_SIZE 5
DOMAIN_MIN 0.000000 0.000000 0.000000
DOMAIN_MAX 0.903226 0.903226 0.903226
0.0214 0.0226 0.0222
0.1343 0.0227 0.0223
0.2348 0.0229 0.0223
0.3847 0.0229 0.0222
0.5953 0.0226 0.0218
0.0215 0.1769 0.0221
0.2093 0.2098 0.0223
0.3715 0.2354 0.0224
0.5544 0.2419 0.0226
0.7335 0.2362 0.0224
0.0215 0.3945 0.0220
0.2950 0.4519 0.0223
0.4907 0.5026 0.0227
0.6587 0.5126 0.0228
0.8136 0.5011 0.0228
0.0215 0.6361 0.0217
0.3321 0.6587 0.0218
0.5360 0.7239 0.0225
0.6990 0.7276 0.0228
0.8488 0.7262 0.0229
0.0216 0.8559 0.0213
0.3532 0.8459 0.0212
0.5299 0.9179 0.0222
0.7089 0.9044 0.0225
0.8544 0.9039 0.0230
0.0215 0.0224 0.1667
0.1352 0.0225 0.1946
0.2302 0.0226 0.2040
0.3755 0.0226 0.1933
0.5841 0.0223 0.1733
0.0215 0.1469 0.1451
0.1824 0.1828 0.1729
0.3421 0.1960 0.1801
0.5169 0.2195 0.1899
0.6708 0.2023 0.1736
0.0215 0.3500 0.1455
0.2856 0.4065 0.1832
0.4511 0.4501 0.2042
0.6259 0.4764 0.2089
0.8072 0.4836 0.2316
0.0216 0.6060 0.1500
0.3386 0.6271 0.1655
0.5355 0.6855 0.2250
0.7107 0.6988 0.2469
0.8409 0.7163 0.2812
0.0216 0.8421 0.1538
0.3619 0.8338 0.1431
0.5836 0.8349 0.1454
0.7134 0.8789 0.2391
0.8741 0.8689 0.2842
0.0214 0.0221 0.3203
0.1103 0.0224 0.3994
0.2264 0.0225 0.4426
0.3575 0.0223 0.4556
0.5764 0.0220 0.4206
0.0215 0.1284 0.2997
0.1720 0.1585 0.3496
0.3108 0.1839 0.3862
0.4558 0.2023 0.4031
0.6448 0.1941 0.4046
0.0215 0.2831 0.2816
0.2528 0.3575 0.3369
0.4160 0.4093 0.3846
0.6132 0.4270 0.3835
0.7849 0.4354 0.4058
0.0216 0.5484 0.2918
0.3301 0.5932 0.3235
0.5085 0.6327 0.3754
0.6777 0.6730 0.4270
0.8222 0.6913 0.4403
0.0217 0.7772 0.2866
0.3725 0.8012 0.3224
0.5921 0.8046 0.3322
0.7440 0.8567 0.4690
0.8919 0.8577 0.5193
0.0214 0.0216 0.5375
0.1606 0.0217 0.5768
0.1809 0.0224 0.6907
0.3512 0.0222 0.6741
0.5408 0.0219 0.6995
0.0214 0.1275 0.5290
0.1710 0.1346 0.5637
0.2636 0.1736 0.6310
0.4080 0.1959 0.6509
0.5951 0.1931 0.6696
0.0215 0.2476 0.4911
0.2256 0.3005 0.5484
0.3867 0.3721 0.6042
0.5883 0.3996 0.6296
0.7386 0.4105 0.6357
0.0216 0.4639 0.4811
0.3164 0.5349 0.5342
0.4900 0.6095 0.5954
0.6590 0.6457 0.6370
0.8200 0.6475 0.6415
0.0216 0.7362 0.5020
0.3929 0.7613 0.5229
0.5716 0.7983 0.5727
0.7350 0.8285 0.6211
0.8697 0.8650 0.6993
0.0213 0.0210 0.7611
0.1776 0.0207 0.7577
0.1507 0.0221 0.8859
0.3212 0.0220 0.8713
0.5337 0.0218 0.8554
0.0213 0.1183 0.7559
0.1563 0.1014 0.7553
0.2810 0.1316 0.8137
0.3388 0.2074 0.8611
0.5486 0.1961 0.8426
0.0214 0.2468 0.7426
0.1911 0.2690 0.7590
0.3361 0.3141 0.7820
0.5146 0.3662 0.8253
0.6820 0.4060 0.8409
0.0215 0.4334 0.7184
0.2775 0.4692 0.7447
0.4386 0.5421 0.7826
0.6249 0.6013 0.8185
0.8068 0.6256 0.8391
0.0216 0.6889 0.7195
0.3467 0.7020 0.7351
0.5482 0.7603 0.7871
0.7208 0.8149 0.8296
0.8674 0.8539 0.8600
