lut/adanmq/Adanmq_Fuji_Provia_100.cube
TITLE "Adanmq_Fuji Provia 100"
LUT_3D_SIZE 8
DOMAIN_MIN 0.000000 0.000000 0.000000
DOMAIN_MAX 0.903226 0.903226 0.903226
0.0214 0.0223 0.0220
0.1306 0.0223 0.0219
0.2257 0.0223 0.0219
0.3447 0.0225 0.0219
0.4585 0.0227 0.0220
0.5700 0.0227 0.0219
0.6875 0.0227 0.0218
0.8113 0.0227 0.0215
0.0215 0.1263 0.0218
0.1328 0.1227 0.0218
0.2259 0.1260 0.0219
0.3381 0.1393 0.0220
0.4563 0.1584 0.0221
0.5703 0.1647 0.0222
0.6839 0.1680 0.0221
0.8041 0.1685 0.0219
0.0214 0.1724 0.0216
0.1323 0.1905 0.0219
0.2409 0.2262 0.0221
0.3502 0.2573 0.0222
0.4712 0.2811 0.0224
0.5888 0.2952 0.0226
0.6969 0.3061 0.0227
0.8051 0.3136 0.0227
0.0214 0.2486 0.0216
0.1447 0.2677 0.0218
0.2540 0.3300 0.0222
0.3627 0.3609 0.0225
0.4849 0.3897 0.0226
0.6099 0.4136 0.0229
0.7156 0.4342 0.0231
0.8129 0.4508 0.0232
0.0214 0.3659 0.0215
0.1527 0.3718 0.0215
0.2644 0.4342 0.0222
0.3813 0.4634 0.0225
0.4954 0.4866 0.0227
0.6176 0.5070 0.0229
0.7311 0.5330 0.0232
0.8327 0.5651 0.0236
0.0214 0.4823 0.0213
0.1579 0.4808 0.0213
0.2730 0.5311 0.0219
0.3865 0.5829 0.0225
0.5084 0.5926 0.0227
0.6225 0.6074 0.0229
0.7331 0.6201 0.0232
0.8407 0.6507 0.0236
0.0214 0.6021 0.0212
0.1639 0.5995 0.0211
0.2896 0.6193 0.0214
0.3911 0.6948 0.0224
0.5105 0.7077 0.0227
0.6287 0.7091 0.0229
0.7328 0.7139 0.0233
0.8423 0.7226 0.0235
0.0215 0.7253 0.0211
0.1727 0.7233 0.0211
0.3073 0.7241 0.0211
0.4095 0.7843 0.0219
0.5088 0.8228 0.0226
0.6313 0.8099 0.0228
0.7358 0.8093 0.0232
0.8391 0.8081 0.0236
0.0214 0.0221 0.1065
0.1385 0.0222 0.1052
0.2396 0.0224 0.0996
0.3521 0.0225 0.0984
0.4660 0.0226 0.1022
0.5810 0.0226 0.1032
0.6959 0.0227 0.1000
0.8145 0.0227 0.0865
0.0215 0.1097 0.0940
0.1550 0.1290 0.1107
0.2525 0.1353 0.1169
0.3572 0.1451 0.1208
0.4720 0.1567 0.1213
0.5821 0.1636 0.1190
0.6881 0.1674 0.1140
0.8051 0.1666 0.0989
0.0215 0.1770 0.0862
0.1590 0.2116 0.1129
0.2592 0.2463 0.1322
0.3706 0.2692 0.1447
0.4903 0.2849 0.1508
0.6043 0.3000 0.1614
0.7050 0.3085 0.1647
0.8056 0.3088 0.1460
0.0215 0.2538 0.0913
0.1558 0.2715 0.1104
0.2654 0.3316 0.1508
0.3830 0.3724 0.1712
0.4988 0.4010 0.1720
0.6189 0.4249 0.1831
0.7251 0.4435 0.2003
0.8196 0.4559 0.2117
0.0214 0.3654 0.0884
0.1554 0.3698 0.0946
0.2770 0.4212 0.1368
0.4019 0.4663 0.1744
0.5146 0.4924 0.1874
0.6280 0.5243 0.2018
0.7366 0.5491 0.2173
0.8333 0.5757 0.2415
0.0214 0.4814 0.0833
0.1606 0.4809 0.0827
0.2887 0.5048 0.1017
0.4081 0.5729 0.1608
0.5287 0.5911 0.1771
0.6378 0.6082 0.1964
0.7427 0.6330 0.2170
0.8441 0.6597 0.2453
0.0215 0.6004 0.0768
0.1678 0.5985 0.0747
0.3021 0.6007 0.0757
0.4184 0.6539 0.1239
0.5241 0.7020 0.1738
0.6401 0.6992 0.1866
0.7480 0.7053 0.2093
0.8497 0.7250 0.2294
0.0215 0.7236 0.0713
0.1779 0.7218 0.0689
0.3150 0.7198 0.0656
0.4423 0.7363 0.0815
0.5279 0.7972 0.1588
0.6353 0.7998 0.1906
0.7533 0.7866 0.2027
0.8576 0.7932 0.2204
0.0214 0.0219 0.1412
0.1228 0.0222 0.1726
0.2296 0.0225 0.1822
0.3619 0.0227 0.1955
0.4863 0.0227 0.2016
0.5982 0.0227 0.1949
0.7117 0.0226 0.1847
0.8240 0.0226 0.1771
0.0215 0.0912 0.1452
0.1498 0.1260 0.1996
0.2581 0.1407 0.2168
0.3798 0.1551 0.2172
0.4978 0.1666 0.2190
0.6023 0.1675 0.2168
0.7089 0.1683 0.2062
0.8207 0.1636 0.1880
0.0215 0.1631 0.1519
0.1708 0.2226 0.2113
0.2662 0.2590 0.2388
0.3873 0.2701 0.2476
0.5010 0.2780 0.2441
0.6130 0.2912 0.2506
0.7170 0.3045 0.2494
0.8162 0.3036 0.2267
0.0215 0.2504 0.1613
0.1843 0.2874 0.1984
0.2696 0.3511 0.2371
0.3948 0.3926 0.2625
0.5126 0.4022 0.2542
0.6262 0.4202 0.2631
0.7393 0.4443 0.2892
0.8369 0.4538 0.2942
0.0215 0.3600 0.1616
0.1741 0.3780 0.1895
0.2816 0.4113 0.2228
0.4089 0.4779 0.2850
0.5367 0.5146 0.2939
0.6405 0.5397 0.2873
0.7442 0.5646 0.3026
0.8473 0.5875 0.3294
0.0215 0.4767 0.1626
0.1737 0.4862 0.1917
0.2958 0.4975 0.2060
0.4180 0.5600 0.2662
0.5513 0.6029 0.3031
0.6616 0.6197 0.3066
0.7491 0.6532 0.3239
0.8482 0.6887 0.3473
0.0215 0.5968 0.1700
0.1774 0.6006 0.1942
0.3098 0.6029 0.1977
0.4379 0.6307 0.2185
0.5477 0.6999 0.2765
0.6662 0.7084 0.2871
0.7634 0.7150 0.3117
0.8531 0.7536 0.3541
0.0215 0.7207 0.1806
0.1862 0.7210 0.1932
0.3234 0.7197 0.1910
0.4616 0.7200 0.1872
0.5693 0.7639 0.2250
0.6579 0.8029 0.2765
0.7690 0.7883 0.2930
0.8721 0.7972 0.3284
0.0214 0.0220 0.2039
0.1246 0.0222 0.2376
0.2092 0.0227 0.2835
0.3452 0.0229 0.2953
0.4863 0.0229 0.3163
0.6050 0.0229 0.3182
0.7143 0.0229 0.3025
0.8317 0.0226 0.2845
0.0215 0.0956 0.2116
0.1248 0.1118 0.2524
0.2224 0.1401 0.3038
0.3597 0.1617 0.3161
0.4966 0.1733 0.3256
0.6166 0.1819 0.3284
0.7184 0.1811 0.3168
0.8298 0.1680 0.2940
0.0215 0.1553 0.2201
0.1443 0.2034 0.2798
0.2494 0.2537 0.3433
0.3816 0.2699 0.3575
0.4954 0.2747 0.3463
0.6143 0.2872 0.3479
0.7242 0.3028 0.3509
0.8244 0.3084 0.3387
0.0215 0.2375 0.2366
0.1808 0.2805 0.2816
0.2687 0.3617 0.3454
0.3879 0.3953 0.3687
0.5078 0.3941 0.3602
0.6236 0.4030 0.3575
0.7322 0.4262 0.3742
0.8349 0.4404 0.3755
0.0215 0.3498 0.2514
0.1957 0.3826 0.2806
0.2890 0.4243 0.3107
0.3930 0.4926 0.3596
0.5183 0.5259 0.3797
0.6378 0.5353 0.3710
0.7412 0.5555 0.3814
0.8501 0.5819 0.4146
0.0216 0.4667 0.2506
0.2100 0.4903 0.2746
0.3072 0.5161 0.3003
0.4151 0.5475 0.3349
0.5304 0.6139 0.3981
0.6560 0.6399 0.4013
0.7517 0.6609 0.3908
0.8556 0.7032 0.4292
0.0216 0.5880 0.2415
0.2140 0.5979 0.2692
0.3189 0.6147 0.3017
0.4424 0.6201 0.3088
0.5494 0.6806 0.3749
0.6742 0.7221 0.4208
0.7854 0.7290 0.4256
0.8689 0.7761 0.4549
0.0216 0.7131 0.2397
0.2146 0.7178 0.2765
0.3310 0.7238 0.3055
0.4662 0.7227 0.3022
0.5875 0.7453 0.3202
0.6758 0.8078 0.3932
0.7894 0.8092 0.4089
0.8872 0.8117 0.4441
0.0215 0.0220 0.2978
0.1432 0.0220 0.3146
0.2130 0.0227 0.3902
0.3327 0.0231 0.4009
0.4665 0.0232 0.4020
0.5928 0.0231 0.4268
0.7017 0.0232 0.4323
0.8176 0.0231 0.4167
0.0214 0.1053 0.3075
0.1238 0.1068 0.3324
0.2083 0.1336 0.3964
0.3420 0.1743 0.4201
0.4815 0.1889 0.4248
0.6055 0.1892 0.4363
0.7103 0.1956 0.4333
0.8197 0.1890 0.4137
0.0215 0.1656 0.3265
0.1301 0.1985 0.3605
0.2201 0.2397 0.4190
0.3529 0.2721 0.4493
0.4850 0.2918 0.4555
0.6118 0.3038 0.4565
0.7298 0.3178 0.4552
0.8343 0.3200 0.4439
0.0215 0.2408 0.3373
0.1608 0.2730 0.3697
0.2485 0.3419 0.4320
0.3739 0.3868 0.4737
0.4993 0.3996 0.4819
0.6164 0.4060 0.4729
0.7268 0.4191 0.4752
0.8363 0.4332 0.4778
0.0216 0.3432 0.3461
0.1870 0.3720 0.3750
0.2812 0.4254 0.4173
0.3890 0.4936 0.4688
0.5102 0.5258 0.4956
0.6324 0.5275 0.4876
0.7393 0.5364 0.4818
0.8403 0.5570 0.4978
0.0216 0.4583 0.3532
0.2198 0.4833 0.3746
0.3215 0.5312 0.4113
0.4171 0.5632 0.4317
0.5155 0.6287 0.4856
0.6330 0.6483 0.4989
0.7438 0.6573 0.4863
0.8482 0.6865 0.5095
0.0216 0.5827 0.3551
0.2392 0.5907 0.3609
0.3500 0.6356 0.4016
0.4438 0.6452 0.4094
0.5495 0.6744 0.4455
0.6506 0.7335 0.5131
0.7680 0.7559 0.5272
0.8649 0.7970 0.5334
0.0216 0.7103 0.3504
0.2443 0.7120 0.3532
0.3557 0.7294 0.3866
0.4623 0.7352 0.4029
0.5935 0.7328 0.4060
0.6895 0.7842 0.4872
0.7962 0.8284 0.5698
0.9026 0.8472 0.5886
0.0215 0.0219 0.3953
0.1606 0.0218 0.3935
0.2389 0.0225 0.4626
0.3312 0.0233 0.5107
0.4585 0.0234 0.4919
0.5836 0.0235 0.4843
0.6920 0.0234 0.5230
0.8004 0.0235 0.5402
0.0214 0.1105 0.3960
0.1452 0.1082 0.4045
0.2271 0.1227 0.4694
0.3352 0.1782 0.5207
0.4724 0.2067 0.5103
0.5962 0.2074 0.5014
0.6982 0.2005 0.5258
0.8024 0.2126 0.5347
0.0214 0.1844 0.4353
0.1324 0.2025 0.4423
0.2177 0.2319 0.4893
0.3373 0.2683 0.5354
0.4912 0.3086 0.5541
0.6251 0.3243 0.5472
0.7193 0.3213 0.5436
0.8251 0.3312 0.5414
0.0215 0.2559 0.4546
0.1497 0.2774 0.4683
0.2405 0.3248 0.5141
0.3561 0.3689 0.5469
0.4904 0.4033 0.5714
0.6228 0.4223 0.5767
0.7288 0.4314 0.5744
0.8407 0.4474 0.5745
0.0216 0.3497 0.4579
0.1789 0.3721 0.4798
0.2672 0.4200 0.5173
0.3812 0.4718 0.5510
0.5057 0.5164 0.5976
0.6312 0.5303 0.6089
0.7383 0.5377 0.6007
0.8387 0.5505 0.6045
0.0216 0.4514 0.4570
0.2197 0.4752 0.4783
0.3071 0.5241 0.5167
0.4141 0.5695 0.5503
0.5162 0.6240 0.5980
0.6363 0.6494 0.6204
0.7484 0.6567 0.6168
0.8482 0.6715 0.6200
0.0216 0.5739 0.4616
0.2487 0.5851 0.4738
0.3480 0.6268 0.5066
0.4435 0.6644 0.5342
0.5438 0.6981 0.5626
0.6438 0.7517 0.6102
0.7537 0.7742 0.6299
0.8545 0.7946 0.6362
0.0216 0.7076 0.4706
0.2513 0.7118 0.4757
0.3706 0.7271 0.4895
0.4619 0.7575 0.5156
0.5781 0.7642 0.5270
0.6899 0.7908 0.5655
0.7766 0.8524 0.6601
0.8810 0.8812 0.6806
0.0214 0.0217 0.4971
0.1600 0.0217 0.4897
0.2677 0.0219 0.5127
0.3373 0.0232 0.6025
0.4552 0.0235 0.5946
0.5805 0.0236 0.5679
0.6988 0.0236 0.5592
0.8032 0.0237 0.6161
0.0214 0.1068 0.4889
0.1546 0.1039 0.4832
0.2605 0.1050 0.5066
0.3413 0.1652 0.5937
0.4596 0.2130 0.5968
0.5842 0.2209 0.5672
0.6985 0.2193 0.5579
0.8039 0.2223 0.6110
0.0214 0.2044 0.5195
0.1458 0.2134 0.5060
0.2347 0.2210 0.5315
0.3362 0.2509 0.6037
0.4787 0.3026 0.6338
0.6245 0.3389 0.6214
0.7245 0.3362 0.5983
0.8166 0.3285 0.6184
0.0215 0.2763 0.5647
0.1551 0.2921 0.5541
0.2407 0.3237 0.5638
0.3467 0.3587 0.6062
0.4781 0.3937 0.6354
0.6334 0.4331 0.6561
0.7509 0.4479 0.6438
0.8374 0.4457 0.6388
0.0215 0.3606 0.5703
0.1788 0.3763 0.5698
0.2714 0.4140 0.5983
0.3793 0.4563 0.6287
0.4985 0.4960 0.6518
0.6282 0.5280 0.6790
0.7496 0.5487 0.6878
0.8461 0.5586 0.6889
0.0216 0.4592 0.5721
0.2188 0.4735 0.5801
0.2997 0.5144 0.6096
0.4080 0.5601 0.6343
0.5213 0.6029 0.6709
0.6377 0.6381 0.7161
0.7541 0.6554 0.7326
0.8542 0.6723 0.7368
0.0217 0.5701 0.5774
0.2573 0.5803 0.5854
0.3369 0.6171 0.6117
0.4370 0.6602 0.6424
0.5486 0.7026 0.6795
0.6484 0.7492 0.7220
0.7600 0.7763 0.7468
0.8671 0.7918 0.7611
0.0217 0.6993 0.5837
0.2571 0.7058 0.5922
0.3658 0.7239 0.6114
0.4665 0.7552 0.6395
0.5756 0.7841 0.6692
0.6838 0.8177 0.7010
0.7730 0.8764 0.7475
0.8771 0.9001 0.7811
0.0214 0.0215 0.6028
0.1530 0.0215 0.5952
0.2764 0.0215 0.5897
0.3550 0.0227 0.6664
0.4518 0.0236 0.6975
0.5753 0.0237 0.6713
0.6965 0.0237 0.6454
0.8135 0.0237 0.6418
0.0214 0.0992 0.5931
0.1492 0.0967 0.5850
0.2727 0.0940 0.5778
0.3677 0.1323 0.6284
0.4538 0.2115 0.6866
0.5734 0.2244 0.6627
0.6928 0.2263 0.6361
0.8101 0.2273 0.6323
0.0214 0.2171 0.5956
0.1452 0.2194 0.5786
0.2596 0.2174 0.5778
0.3595 0.2240 0.6272
0.4656 0.2838 0.7022
0.5953 0.3389 0.6903
0.7060 0.3511 0.6519
0.8122 0.3475 0.6382
0.0215 0.2992 0.6543
0.1583 0.3132 0.6234
0.2523 0.3301 0.6026
0.3481 0.3395 0.6316
0.4695 0.3722 0.6968
0.6172 0.4177 0.7250
0.7486 0.4580 0.7162
0.8416 0.4558 0.6930
0.0215 0.3739 0.6777
0.1741 0.3891 0.6602
0.2814 0.4147 0.6464
0.3715 0.4485 0.6592
0.4895 0.4815 0.6957
0.6168 0.5138 0.7186
0.7524 0.5533 0.7434
0.8606 0.5725 0.7368
0.0216 0.4706 0.6844
0.2141 0.4788 0.6738
0.3026 0.5053 0.6744
0.4102 0.5460 0.7030
0.5277 0.5850 0.7286
0.6419 0.6220 0.7530
0.7547 0.6523 0.7879
0.8572 0.6764 0.8044
0.0216 0.5823 0.6918
0.2434 0.5866 0.6881
0.3330 0.6097 0.6972
0.4329 0.6489 0.7244
0.5553 0.6883 0.7459
0.6656 0.7303 0.7851
0.7673 0.7682 0.8395
0.8758 0.7875 0.8619
0.0216 0.6999 0.7048
0.2415 0.7040 0.7047
0.3526 0.7195 0.7165
0.4591 0.7530 0.7451
0.5749 0.7820 0.7698
0.6888 0.8169 0.8056
0.7813 0.8721 0.8501
0.8889 0.9013 0.8799
