lut/adanmq/Adanmq_Kodak_Portra_400.cube
TITLE "Adanmq_Kodak Portra 400"
LUT_3D_SIZE 8
DOMAIN_MIN 0.000000 0.000000 0.000000
DOMAIN_MAX 0.903226 0.903226 0.903226
0.0214 0.0221 0.0218
0.1003 0.0220 0.0218
0.1494 0.0222 0.0219
0.2237 0.0224 0.0219
0.3132 0.0225 0.0220
0.4161 0.0226 0.0219
0.5331 0.0225 0.0218
0.6598 0.0223 0.0216
0.0214 0.1017 0.0217
0.0978 0.1010 0.0217
0.1520 0.1006 0.0218
0.2300 0.1049 0.0219
0.3245 0.1111 0.0221
0.4283 0.1166 0.0221
0.5419 0.1196 0.0220
0.6671 0.1190 0.0218
0.0214 0.1434 0.0216
0.0987 0.1484 0.0217
0.1601 0.1559 0.0219
0.2405 0.1658 0.0220
0.3460 0.1715 0.0221
0.4604 0.1769 0.0222
0.5710 0.1780 0.0223
0.6872 0.1731 0.0223
0.0214 0.2292 0.0215
0.1052 0.2342 0.0216
0.1755 0.2473 0.0220
0.2601 0.2535 0.0222
0.3626 0.2626 0.0223
0.4890 0.2703 0.0223
0.6078 0.2768 0.0224
0.7150 0.2755 0.0225
0.0213 0.3375 0.0214
0.1122 0.3414 0.0214
0.1861 0.3614 0.0219
0.2830 0.3687 0.0221
0.3840 0.3762 0.0223
0.5048 0.3836 0.0224
0.6314 0.3944 0.0225
0.7494 0.4040 0.0225
0.0213 0.4630 0.0212
0.1122 0.4666 0.0211
0.2011 0.4841 0.0215
0.2903 0.5008 0.0220
0.4071 0.5097 0.0221
0.5224 0.5174 0.0224
0.6423 0.5246 0.0225
0.7658 0.5423 0.0226
0.0213 0.5989 0.0210
0.1087 0.6042 0.0209
0.2227 0.6149 0.0210
0.2997 0.6364 0.0218
0.4186 0.6496 0.0220
0.5426 0.6566 0.0222
0.6538 0.6631 0.0225
0.7733 0.6746 0.0227
0.0213 0.7389 0.0208
0.1090 0.7440 0.0207
0.2408 0.7495 0.0206
0.3291 0.7674 0.0213
0.4264 0.7857 0.0219
0.5573 0.7897 0.0220
0.6672 0.7953 0.0224
0.7753 0.8051 0.0228
0.0214 0.0219 0.1004
0.0988 0.0219 0.1023
0.1535 0.0222 0.1069
0.2279 0.0224 0.1129
0.3186 0.0225 0.1194
0.4183 0.0226 0.1217
0.5314 0.0225 0.1194
0.6563 0.0223 0.1033
0.0214 0.0947 0.0899
0.1017 0.1021 0.0958
0.1670 0.1016 0.0985
0.2368 0.1021 0.1016
0.3350 0.1146 0.1121
0.4368 0.1315 0.1212
0.5413 0.1383 0.1225
0.6639 0.1294 0.1083
0.0214 0.1435 0.0788
0.1073 0.1651 0.0931
0.1767 0.1816 0.1015
0.2491 0.1805 0.0982
0.3542 0.1816 0.1056
0.4714 0.1868 0.1190
0.5769 0.1934 0.1325
0.6830 0.1996 0.1308
0.0214 0.2279 0.0793
0.1165 0.2322 0.0920
0.1969 0.2593 0.1165
0.2803 0.2735 0.1228
0.3755 0.2812 0.1234
0.4952 0.2860 0.1264
0.6108 0.2862 0.1339
0.7149 0.2821 0.1486
0.0213 0.3384 0.0810
0.1157 0.3413 0.0827
0.2131 0.3662 0.1029
0.3130 0.3872 0.1317
0.4141 0.3929 0.1415
0.5223 0.3998 0.1460
0.6378 0.4071 0.1487
0.7448 0.4115 0.1593
0.0213 0.4666 0.0764
0.1112 0.4717 0.0700
0.2267 0.4875 0.0742
0.3227 0.5156 0.1181
0.4369 0.5228 0.1342
0.5489 0.5291 0.1469
0.6582 0.5368 0.1608
0.7699 0.5498 0.1761
0.0213 0.6040 0.0641
0.1083 0.6099 0.0568
0.2379 0.6179 0.0509
0.3402 0.6374 0.0870
0.4385 0.6558 0.1292
0.5611 0.6605 0.1399
0.6752 0.6663 0.1627
0.7824 0.6770 0.1808
0.0213 0.7435 0.0506
0.1120 0.7479 0.0447
0.2478 0.7520 0.0384
0.3714 0.7598 0.0504
0.4523 0.7823 0.1162
0.5651 0.7899 0.1443
0.6892 0.7921 0.1610
0.7960 0.8016 0.1820
0.0214 0.0218 0.1523
0.0907 0.0219 0.1736
0.1502 0.0222 0.1904
0.2231 0.0224 0.2062
0.3241 0.0225 0.2252
0.4287 0.0225 0.2308
0.5419 0.0224 0.2268
0.6638 0.0222 0.2143
0.0214 0.0861 0.1445
0.0998 0.1000 0.1758
0.1770 0.1080 0.1913
0.2404 0.1119 0.1934
0.3360 0.1250 0.2068
0.4480 0.1443 0.2266
0.5597 0.1513 0.2336
0.6759 0.1387 0.2190
0.0214 0.1446 0.1333
0.1124 0.1785 0.1680
0.1957 0.2099 0.1951
0.2739 0.1947 0.1859
0.3623 0.1838 0.1808
0.4815 0.1975 0.1989
0.5929 0.2261 0.2242
0.6940 0.2308 0.2287
0.0214 0.2326 0.1317
0.1286 0.2499 0.1539
0.2069 0.2971 0.1874
0.2954 0.3112 0.1926
0.3904 0.3011 0.1826
0.5058 0.3009 0.1918
0.6305 0.3124 0.2170
0.7349 0.3176 0.2355
0.0214 0.3443 0.1294
0.1295 0.3550 0.1572
0.2245 0.3753 0.1771
0.3224 0.4147 0.2105
0.4381 0.4317 0.2199
0.5401 0.4326 0.2182
0.6461 0.4369 0.2269
0.7588 0.4446 0.2485
0.0214 0.4753 0.1327
0.1213 0.4817 0.1627
0.2351 0.4923 0.1668
0.3444 0.5286 0.2033
0.4746 0.5570 0.2411
0.5879 0.5599 0.2500
0.6732 0.5615 0.2558
0.7737 0.5736 0.2710
0.0214 0.6139 0.1448
0.1155 0.6179 0.1655
0.2443 0.6244 0.1618
0.3693 0.6410 0.1719
0.4784 0.6751 0.2237
0.6000 0.6787 0.2389
0.7024 0.6790 0.2614
0.7933 0.6942 0.3003
0.0213 0.7509 0.1556
0.1187 0.7523 0.1636
0.2557 0.7556 0.1588
0.3958 0.7602 0.1560
0.5065 0.7813 0.1914
0.5963 0.7974 0.2345
0.7116 0.7966 0.2571
0.8183 0.8089 0.3054
0.0214 0.0217 0.2385
0.0945 0.0218 0.2650
0.1365 0.0223 0.3136
0.2247 0.0225 0.3371
0.3210 0.0225 0.3584
0.4344 0.0226 0.3841
0.5496 0.0226 0.3821
0.6758 0.0223 0.3626
0.0214 0.0864 0.2330
0.1014 0.0934 0.2576
0.1631 0.1173 0.2981
0.2452 0.1342 0.3182
0.3305 0.1458 0.3374
0.4460 0.1628 0.3666
0.5637 0.1696 0.3827
0.6859 0.1549 0.3699
0.0214 0.1521 0.2224
0.1147 0.1729 0.2515
0.1959 0.2120 0.3051
0.2992 0.2223 0.3204
0.3758 0.2083 0.3079
0.4794 0.2171 0.3170
0.5988 0.2479 0.3508
0.7089 0.2668 0.3796
0.0214 0.2429 0.2199
0.1346 0.2640 0.2470
0.2112 0.3164 0.2984
0.3235 0.3463 0.3270
0.4183 0.3226 0.3081
0.5149 0.3012 0.2926
0.6301 0.3130 0.3139
0.7393 0.3419 0.3549
0.0215 0.3553 0.2203
0.1493 0.3768 0.2434
0.2315 0.4051 0.2699
0.3244 0.4461 0.3091
0.4386 0.4543 0.3188
0.5486 0.4437 0.3103
0.6534 0.4425 0.3171
0.7712 0.4656 0.3570
0.0215 0.4874 0.2163
0.1604 0.5031 0.2406
0.2490 0.5166 0.2624
0.3488 0.5349 0.2872
0.4634 0.5709 0.3374
0.5985 0.5941 0.3638
0.6908 0.5956 0.3601
0.7843 0.6052 0.3759
0.0215 0.6287 0.2179
0.1600 0.6324 0.2439
0.2561 0.6349 0.2650
0.3796 0.6376 0.2680
0.4904 0.6721 0.3294
0.6252 0.7051 0.3884
0.7399 0.7144 0.4056
0.8129 0.7230 0.4182
0.0215 0.7669 0.2289
0.1544 0.7632 0.2575
0.2670 0.7601 0.2732
0.4064 0.7630 0.2746
0.5346 0.7794 0.3016
0.6295 0.8115 0.3715
0.7447 0.8166 0.3902
0.8423 0.8205 0.4370
0.0214 0.0217 0.3543
0.1136 0.0217 0.3708
0.1306 0.0223 0.4534
0.2154 0.0228 0.4932
0.3228 0.0228 0.5022
0.4289 0.0226 0.5182
0.5448 0.0227 0.5406
0.6712 0.0226 0.5315
0.0214 0.0966 0.3563
0.1094 0.0962 0.3738
0.1564 0.1158 0.4229
0.2361 0.1568 0.4647
0.3367 0.1700 0.4775
0.4362 0.1668 0.4953
0.5523 0.1764 0.5235
0.6786 0.1741 0.5257
0.0214 0.1670 0.3503
0.1158 0.1802 0.3738
0.1797 0.2040 0.4130
0.2834 0.2397 0.4493
0.3880 0.2540 0.4592
0.4783 0.2599 0.4678
0.5915 0.2881 0.4929
0.7126 0.3057 0.5197
0.0215 0.2582 0.3440
0.1346 0.2750 0.3719
0.2041 0.3093 0.4127
0.3227 0.3510 0.4548
0.4431 0.3555 0.4607
0.5324 0.3310 0.4410
0.6297 0.3309 0.4433
0.7438 0.3629 0.4790
0.0215 0.3734 0.3422
0.1576 0.3908 0.3697
0.2346 0.4229 0.4062
0.3325 0.4623 0.4444
0.4608 0.4823 0.4623
0.5706 0.4645 0.4482
0.6623 0.4420 0.4312
0.7674 0.4555 0.4579
0.0215 0.5031 0.3442
0.1766 0.5174 0.3624
0.2700 0.5453 0.3965
0.3610 0.5639 0.4185
0.4672 0.5962 0.4555
0.5897 0.6037 0.4676
0.6906 0.5936 0.4602
0.7865 0.5957 0.4705
0.0215 0.6396 0.3485
0.1888 0.6461 0.3579
0.2974 0.6670 0.3943
0.3952 0.6636 0.3983
0.5037 0.6779 0.4297
0.6134 0.7127 0.4910
0.7364 0.7383 0.5281
0.8205 0.7453 0.5215
0.0215 0.7743 0.3568
0.1929 0.7754 0.3652
0.3069 0.7773 0.3882
0.4172 0.7729 0.3945
0.5497 0.7747 0.4063
0.6514 0.8049 0.4865
0.7641 0.8357 0.5690
0.8693 0.8497 0.5953
0.0213 0.0216 0.4889
0.1215 0.0216 0.4942
0.1592 0.0222 0.5677
0.2008 0.0229 0.6367
0.3170 0.0231 0.6368
0.4325 0.0231 0.6319
0.5431 0.0229 0.6553
0.6649 0.0229 0.6686
0.0213 0.1083 0.4937
0.1124 0.1064 0.5038
0.1787 0.1126 0.5459
0.2259 0.1652 0.6066
0.3298 0.2000 0.6196
0.4406 0.2000 0.6160
0.5467 0.1806 0.6359
0.6695 0.1971 0.6584
0.0214 0.1970 0.5010
0.1168 0.2082 0.5173
0.1808 0.2173 0.5462
0.2651 0.2468 0.5759
0.3875 0.2998 0.5985
0.4938 0.3182 0.6007
0.5773 0.3048 0.6162
0.6966 0.3283 0.6349
0.0214 0.2849 0.4949
0.1403 0.3006 0.5173
0.2018 0.3190 0.5449
0.2963 0.3499 0.5713
0.4300 0.3828 0.5934
0.5502 0.3924 0.5965
0.6344 0.3877 0.5943
0.7400 0.4310 0.6100
0.0215 0.3963 0.4889
0.1630 0.4115 0.5159
0.2317 0.4355 0.5453
0.3282 0.4662 0.5705
0.4672 0.4981 0.5996
0.5955 0.5015 0.6045
0.6814 0.4764 0.5844
0.7717 0.4744 0.5863
0.0215 0.5192 0.4857
0.1915 0.5343 0.5086
0.2720 0.5575 0.5403
0.3713 0.5830 0.5669
0.4813 0.6134 0.5953
0.6098 0.6292 0.6074
0.7100 0.6106 0.5924
0.7965 0.5940 0.5844
0.0215 0.6508 0.4909
0.2068 0.6553 0.5001
0.3098 0.6726 0.5311
0.4216 0.6911 0.5587
0.5178 0.7048 0.5740
0.6174 0.7366 0.6006
0.7248 0.7420 0.6125
0.8179 0.7369 0.6126
0.0215 0.7796 0.4981
0.2038 0.7790 0.5053
0.3344 0.7869 0.5263
0.4544 0.8035 0.5548
0.5592 0.7957 0.5525
0.6627 0.8110 0.5777
0.7513 0.8461 0.6530
0.8613 0.8665 0.6802
0.0213 0.0216 0.6282
0.1119 0.0216 0.6308
0.2019 0.0219 0.6610
0.2058 0.0229 0.7519
0.3073 0.0233 0.7563
0.4292 0.0235 0.7415
0.5507 0.0236 0.7346
0.6732 0.0234 0.7647
0.0213 0.1163 0.6316
0.1059 0.1188 0.6345
0.2108 0.1222 0.6516
0.2395 0.1667 0.7205
0.3139 0.2164 0.7465
0.4328 0.2353 0.7340
0.5518 0.2371 0.7266
0.6768 0.2275 0.7567
0.0213 0.2346 0.6435
0.1098 0.2448 0.6464
0.1972 0.2440 0.6626
0.2720 0.2517 0.6917
0.3718 0.3083 0.7166
0.4886 0.3645 0.7195
0.5859 0.3587 0.7160
0.6908 0.3302 0.7355
0.0214 0.3302 0.6514
0.1462 0.3506 0.6598
0.2101 0.3594 0.6697
0.2871 0.3686 0.6855
0.4037 0.3989 0.7003
0.5509 0.4573 0.7171
0.6512 0.4751 0.7142
0.7293 0.4639 0.7232
0.0215 0.4295 0.6389
0.1693 0.4486 0.6556
0.2424 0.4638 0.6734
0.3226 0.4778 0.6856
0.4397 0.5053 0.7006
0.5797 0.5308 0.7182
0.6947 0.5404 0.7192
0.7795 0.5407 0.7158
0.0215 0.5449 0.6320
0.1987 0.5582 0.6481
0.2758 0.5775 0.6753
0.3644 0.5961 0.6864
0.4781 0.6179 0.7046
0.6120 0.6384 0.7292
0.7268 0.6359 0.7289
0.8142 0.6214 0.7167
0.0216 0.6623 0.6323
0.2337 0.6710 0.6417
0.3209 0.6852 0.6667
0.4200 0.7024 0.6891
0.5302 0.7212 0.7059
0.6261 0.7452 0.7234
0.7342 0.7530 0.7276
0.8411 0.7458 0.7256
0.0216 0.7901 0.6375
0.2365 0.7907 0.6435
0.3510 0.7923 0.6588
0.4606 0.8056 0.6859
0.5802 0.8184 0.7052
0.6727 0.8325 0.7128
0.7494 0.8630 0.7303
0.8558 0.8706 0.7466
0.0213 0.0217 0.7635
0.1009 0.0218 0.7643
0.2220 0.0219 0.7682
0.2429 0.0228 0.8394
0.3008 0.0235 0.8710
0.4247 0.0237 0.8545
0.5503 0.0240 0.8374
0.6779 0.0242 0.8329
0.0213 0.1281 0.7644
0.0970 0.1357 0.7649
0.2221 0.1472 0.7666
0.2878 0.1777 0.8070
0.3107 0.2294 0.8593
0.4240 0.2511 0.8481
0.5496 0.2694 0.8310
0.6781 0.2842 0.8260
0.0213 0.2675 0.7694
0.0974 0.2815 0.7676
0.2155 0.2928 0.7714
0.3103 0.2865 0.7892
0.3677 0.3091 0.8249
0.4611 0.3786 0.8349
0.5707 0.4110 0.8233
0.6858 0.4154 0.8182
0.0214 0.3815 0.7883
0.1367 0.4070 0.7844
0.2208 0.4220 0.7812
0.3018 0.4054 0.7854
0.3986 0.4030 0.8016
0.5280 0.4604 0.8170
0.6419 0.5272 0.8215
0.7299 0.5146 0.8181
0.0215 0.4689 0.7810
0.1704 0.4982 0.7902
0.2706 0.5246 0.7921
0.3259 0.5197 0.7885
0.4244 0.5242 0.7969
0.5465 0.5466 0.8042
0.6854 0.6041 0.8260
0.7864 0.6257 0.8253
0.0215 0.5761 0.7671
0.2001 0.5898 0.7765
0.2958 0.6142 0.7949
0.3725 0.6182 0.7999
0.4709 0.6263 0.8038
0.5872 0.6445 0.8151
0.7079 0.6623 0.8329
0.8178 0.6769 0.8343
0.0215 0.6877 0.7664
0.2318 0.6943 0.7705
0.3369 0.7075 0.7875
0.4181 0.7185 0.8051
0.5190 0.7313 0.8101
0.6264 0.7470 0.8278
0.7342 0.7555 0.8497
0.8518 0.7580 0.8540
0.0216 0.7982 0.7704
0.2509 0.8035 0.7742
0.3798 0.8100 0.7834
0.4738 0.8187 0.8024
0.5742 0.8289 0.8210
0.6760 0.8419 0.8381
0.7552 0.8653 0.8516
0.8671 0.8766 0.8624
