lut/adanmq/Adanmq_Fujifilm_Superia_Xtra_400.cube
TITLE "Adanmq_Fujifilm Superia Xtra 400"
LUT_3D_SIZE 8
DOMAIN_MIN 0.000000 0.000000 0.000000
DOMAIN_MAX 0.903226 0.903226 0.903226
0.0214 0.0223 0.0221
0.1158 0.0223 0.0220
0.1789 0.0225 0.0221
0.2681 0.0227 0.0221
0.3789 0.0228 0.0221
0.5073 0.0228 0.0221
0.6436 0.0228 0.0219
0.7809 0.0226 0.0216
0.0214 0.1237 0.0220
0.1190 0.1252 0.0219
0.1939 0.1320 0.0220
0.2907 0.1391 0.0221
0.4033 0.1465 0.0222
0.5271 0.1523 0.0223
0.6517 0.1537 0.0221
0.7793 0.1496 0.0218
0.0214 0.1803 0.0220
0.1403 0.1919 0.0220
0.2254 0.2126 0.0222
0.3290 0.2310 0.0223
0.4540 0.2411 0.0224
0.5771 0.2484 0.0225
0.6877 0.2477 0.0225
0.8014 0.2433 0.0224
0.0214 0.2727 0.0219
0.1578 0.2847 0.0220
0.2586 0.3186 0.0223
0.3691 0.3397 0.0225
0.4920 0.3568 0.0226
0.6211 0.3716 0.0226
0.7278 0.3785 0.0226
0.8207 0.3668 0.0226
0.0215 0.3805 0.0217
0.1743 0.3870 0.0217
0.2870 0.4390 0.0222
0.4127 0.4655 0.0225
0.5302 0.4864 0.0226
0.6491 0.5011 0.0227
0.7609 0.5164 0.0228
0.8549 0.5156 0.0228
0.0215 0.5012 0.0215
0.1887 0.5031 0.0214
0.3132 0.5513 0.0218
0.4396 0.6028 0.0224
0.5671 0.6190 0.0225
0.6765 0.6373 0.0227
0.7798 0.6468 0.0228
0.8761 0.6576 0.0229
0.0215 0.6326 0.0212
0.2043 0.6361 0.0211
0.3414 0.6599 0.0213
0.4568 0.7308 0.0222
0.5851 0.7539 0.0224
0.7004 0.7664 0.0225
0.7949 0.7796 0.0229
0.8880 0.7843 0.0229
0.0215 0.7697 0.0210
0.2224 0.7743 0.0209
0.3683 0.7820 0.0208
0.4821 0.8396 0.0216
0.5921 0.8868 0.0223
0.7144 0.8906 0.0224
0.8032 0.8988 0.0228
0.8885 0.9043 0.0231
0.0214 0.0222 0.1207
0.1126 0.0222 0.1207
0.1820 0.0225 0.1230
0.2707 0.0226 0.1251
0.3839 0.0227 0.1261
0.5138 0.0228 0.1242
0.6515 0.0227 0.1205
0.7879 0.0226 0.1040
0.0214 0.1134 0.1101
0.1130 0.1170 0.1094
0.1985 0.1232 0.1136
0.2930 0.1331 0.1190
0.4053 0.1438 0.1234
0.5221 0.1561 0.1249
0.6440 0.1613 0.1227
0.7779 0.1520 0.1057
0.0214 0.1733 0.1051
0.1328 0.1932 0.1120
0.2184 0.2142 0.1176
0.3221 0.2283 0.1189
0.4480 0.2378 0.1252
0.5730 0.2458 0.1347
0.6797 0.2516 0.1430
0.7876 0.2502 0.1325
0.0215 0.2643 0.1072
0.1625 0.2723 0.1181
0.2640 0.3107 0.1408
0.3706 0.3370 0.1467
0.4879 0.3580 0.1462
0.6141 0.3711 0.1476
0.7210 0.3738 0.1527
0.8169 0.3669 0.1634
0.0215 0.3745 0.1069
0.1779 0.3772 0.1076
0.2997 0.4175 0.1294
0.4255 0.4573 0.1567
0.5454 0.4818 0.1661
0.6558 0.5047 0.1706
0.7594 0.5175 0.1720
0.8468 0.5140 0.1792
0.0215 0.5003 0.0996
0.1932 0.5029 0.0926
0.3277 0.5255 0.0974
0.4513 0.5857 0.1430
0.5821 0.6111 0.1606
0.6934 0.6322 0.1742
0.7874 0.6475 0.1862
0.8750 0.6571 0.1986
0.0215 0.6355 0.0854
0.2115 0.6399 0.0773
0.3560 0.6484 0.0703
0.4792 0.6962 0.1094
0.5939 0.7459 0.1583
0.7152 0.7587 0.1704
0.8122 0.7683 0.1912
0.8889 0.7755 0.2038
0.0215 0.7738 0.0701
0.2317 0.7783 0.0627
0.3802 0.7835 0.0536
0.5150 0.8042 0.0654
0.6096 0.8671 0.1426
0.7196 0.8856 0.1758
0.8264 0.8831 0.1921
0.9032 0.8862 0.2064
0.0214 0.0221 0.1738
0.1055 0.0223 0.1972
0.1770 0.0226 0.2119
0.2685 0.0227 0.2188
0.3873 0.0228 0.2298
0.5212 0.0228 0.2260
0.6614 0.0227 0.2145
0.7959 0.0225 0.2012
0.0214 0.1053 0.1672
0.1093 0.1146 0.1917
0.1939 0.1197 0.2011
0.2860 0.1356 0.2064
0.3990 0.1498 0.2154
0.5213 0.1597 0.2193
0.6489 0.1620 0.2129
0.7875 0.1514 0.1997
0.0215 0.1620 0.1575
0.1247 0.1904 0.1818
0.2031 0.2103 0.1925
0.3162 0.2177 0.1959
0.4383 0.2308 0.2027
0.5623 0.2434 0.2120
0.6686 0.2571 0.2176
0.7781 0.2558 0.2141
0.0215 0.2502 0.1592
0.1592 0.2674 0.1764
0.2357 0.3084 0.1955
0.3402 0.3339 0.2023
0.4683 0.3499 0.2030
0.5971 0.3620 0.2127
0.7172 0.3716 0.2281
0.8179 0.3742 0.2403
0.0215 0.3557 0.1572
0.1810 0.3718 0.1812
0.2960 0.4014 0.2009
0.4034 0.4552 0.2307
0.5243 0.4791 0.2338
0.6358 0.4967 0.2318
0.7433 0.5112 0.2394
0.8448 0.5146 0.2574
0.0215 0.4801 0.1554
0.2008 0.4986 0.1849
0.3360 0.5149 0.1895
0.4579 0.5730 0.2265
0.5852 0.6122 0.2578
0.7004 0.6286 0.2641
0.7833 0.6492 0.2747
0.8660 0.6614 0.2905
0.0215 0.6212 0.1636
0.2210 0.6403 0.1853
0.3664 0.6490 0.1802
0.4979 0.6748 0.1905
0.6039 0.7332 0.2452
0.7249 0.7501 0.2610
0.8224 0.7633 0.2876
0.8890 0.7827 0.3250
0.0215 0.7683 0.1717
0.2434 0.7815 0.1795
0.3931 0.7875 0.1718
0.5366 0.7942 0.1661
0.6440 0.8332 0.2070
0.7275 0.8712 0.2634
0.8333 0.8717 0.2892
0.9153 0.8791 0.3302
0.0214 0.0220 0.2560
0.1082 0.0222 0.2866
0.1598 0.0227 0.3371
0.2595 0.0228 0.3553
0.3786 0.0228 0.3677
0.5069 0.0229 0.3912
0.6448 0.0228 0.3791
0.7921 0.0225 0.3418
0.0214 0.1032 0.2538
0.1135 0.1127 0.2796
0.1778 0.1310 0.3148
0.2698 0.1472 0.3343
0.3837 0.1624 0.3468
0.5112 0.1734 0.3703
0.6434 0.1726 0.3703
0.7878 0.1559 0.3403
0.0215 0.1587 0.2409
0.1283 0.1823 0.2687
0.1986 0.2067 0.3020
0.3055 0.2160 0.3137
0.4211 0.2328 0.3198
0.5428 0.2480 0.3319
0.6600 0.2572 0.3435
0.7748 0.2581 0.3464
0.0215 0.2363 0.2363
0.1554 0.2619 0.2605
0.2228 0.3043 0.2931
0.3262 0.3275 0.3116
0.4587 0.3395 0.3154
0.5866 0.3515 0.3183
0.6993 0.3618 0.3318
0.8023 0.3707 0.3517
0.0215 0.3382 0.2371
0.1815 0.3648 0.2565
0.2735 0.3978 0.2772
0.3588 0.4444 0.3100
0.4832 0.4692 0.3250
0.6144 0.4832 0.3245
0.7269 0.4934 0.3342
0.8386 0.5067 0.3587
0.0215 0.4633 0.2322
0.2089 0.4843 0.2514
0.3231 0.5139 0.2733
0.4388 0.5528 0.3024
0.5461 0.6055 0.3512
0.6691 0.6243 0.3610
0.7631 0.6339 0.3572
0.8533 0.6490 0.3755
0.0215 0.5962 0.2267
0.2313 0.6172 0.2525
0.3670 0.6463 0.2773
0.5061 0.6620 0.2838
0.6101 0.7191 0.3496
0.7226 0.7525 0.3962
0.8274 0.7594 0.4052
0.8885 0.7765 0.4267
0.0216 0.7347 0.2297
0.2497 0.7612 0.2625
0.4004 0.7860 0.2839
0.5432 0.7934 0.2836
0.6637 0.8178 0.3108
0.7397 0.8641 0.3924
0.8414 0.8679 0.4095
0.9244 0.8731 0.4592
0.0214 0.0219 0.3637
0.1197 0.0219 0.3830
0.1506 0.0226 0.4722
0.2369 0.0230 0.5158
0.3529 0.0230 0.5235
0.4862 0.0229 0.5349
0.6118 0.0229 0.5591
0.7487 0.0227 0.5394
0.0214 0.1042 0.3679
0.1156 0.1064 0.3888
0.1703 0.1274 0.4390
0.2479 0.1613 0.4891
0.3606 0.1711 0.5046
0.4926 0.1731 0.5120
0.6174 0.1793 0.5398
0.7573 0.1694 0.5243
0.0214 0.1589 0.3581
0.1244 0.1783 0.3849
0.1909 0.2043 0.4221
0.2807 0.2266 0.4526
0.3899 0.2437 0.4721
0.5161 0.2609 0.4849
0.6429 0.2730 0.5070
0.7724 0.2691 0.5052
0.0215 0.2271 0.3438
0.1458 0.2528 0.3731
0.2180 0.2929 0.4126
0.3213 0.3232 0.4399
0.4457 0.3367 0.4513
0.5656 0.3485 0.4547
0.6765 0.3586 0.4654
0.7909 0.3659 0.4856
0.0215 0.3164 0.3351
0.1753 0.3484 0.3637
0.2608 0.3930 0.3959
0.3487 0.4380 0.4313
0.4697 0.4602 0.4502
0.6029 0.4729 0.4546
0.7191 0.4819 0.4577
0.8214 0.4915 0.4800
0.0215 0.4440 0.3382
0.2091 0.4703 0.3559
0.3101 0.5118 0.3825
0.4078 0.5468 0.4101
0.4998 0.5883 0.4525
0.6267 0.6096 0.4709
0.7451 0.6197 0.4720
0.8439 0.6280 0.4883
0.0216 0.5933 0.3450
0.2372 0.6037 0.3505
0.3529 0.6391 0.3786
0.4793 0.6625 0.3948
0.5912 0.6957 0.4364
0.6852 0.7415 0.5026
0.7958 0.7577 0.5242
0.8728 0.7671 0.5232
0.0216 0.7320 0.3471
0.2487 0.7371 0.3525
0.3901 0.7654 0.3795
0.5308 0.7913 0.3971
0.6695 0.8042 0.4118
0.7566 0.8456 0.5046
0.8441 0.8703 0.5827
0.9278 0.8758 0.6016
0.0213 0.0216 0.4934
0.1180 0.0215 0.4982
0.1670 0.0222 0.5805
0.2168 0.0231 0.6608
0.3269 0.0231 0.6645
0.4465 0.0230 0.6609
0.5864 0.0229 0.6833
0.7199 0.0228 0.7009
0.0213 0.1032 0.4968
0.1081 0.0997 0.5080
0.1819 0.1081 0.5552
0.2338 0.1625 0.6298
0.3337 0.1885 0.6553
0.4563 0.1860 0.6510
0.5946 0.1773 0.6650
0.7246 0.1832 0.6913
0.0214 0.1644 0.4950
0.1113 0.1805 0.5156
0.1830 0.2003 0.5532
0.2603 0.2246 0.5897
0.3637 0.2576 0.6286
0.4879 0.2749 0.6419
0.6183 0.2795 0.6492
0.7465 0.2851 0.6663
0.0214 0.2229 0.4765
0.1369 0.2447 0.5011
0.2070 0.2824 0.5436
0.2963 0.3161 0.5745
0.4125 0.3409 0.5971
0.5333 0.3566 0.6148
0.6519 0.3683 0.6237
0.7743 0.3790 0.6435
0.0215 0.3062 0.4628
0.1632 0.3321 0.4903
0.2410 0.3763 0.5284
0.3365 0.4216 0.5617
0.4638 0.4567 0.5856
0.5927 0.4713 0.5995
0.7028 0.4789 0.6042
0.8046 0.4837 0.6189
0.0215 0.4119 0.4509
0.1974 0.4406 0.4762
0.2940 0.4939 0.5124
0.3941 0.5401 0.5447
0.4939 0.5816 0.5823
0.6138 0.6001 0.6006
0.7362 0.6086 0.6041
0.8373 0.6137 0.6151
0.0215 0.5549 0.4571
0.2328 0.5803 0.4716
0.3474 0.6242 0.5030
0.4620 0.6612 0.5339
0.5615 0.6902 0.5634
0.6461 0.7259 0.6021
0.7593 0.7433 0.6236
0.8566 0.7518 0.6336
0.0216 0.7177 0.4731
0.2506 0.7324 0.4828
0.3851 0.7514 0.5026
0.5085 0.7862 0.5350
0.6367 0.8033 0.5475
0.7406 0.8286 0.5863
0.8116 0.8675 0.6735
0.9011 0.8802 0.6925
0.0213 0.0213 0.6271
0.1002 0.0212 0.6276
0.1923 0.0215 0.6614
0.2116 0.0229 0.7756
0.3086 0.0231 0.7876
0.4229 0.0231 0.7764
0.5477 0.0230 0.7724
0.7041 0.0229 0.8062
0.0213 0.0915 0.6277
0.0907 0.0854 0.6290
0.1956 0.0814 0.6480
0.2365 0.1442 0.7379
0.3114 0.1971 0.7806
0.4242 0.2028 0.7727
0.5507 0.1976 0.7664
0.7078 0.1877 0.8002
0.0213 0.1742 0.6312
0.0878 0.1825 0.6363
0.1808 0.1867 0.6602
0.2595 0.2060 0.7024
0.3502 0.2550 0.7491
0.4655 0.2930 0.7731
0.5880 0.2967 0.7674
0.7280 0.2855 0.7818
0.0214 0.2288 0.6247
0.1173 0.2444 0.6365
0.1918 0.2780 0.6625
0.2745 0.3073 0.6927
0.3761 0.3321 0.7185
0.5045 0.3633 0.7528
0.6316 0.3833 0.7628
0.7578 0.3843 0.7733
0.0214 0.3029 0.6028
0.1472 0.3233 0.6207
0.2296 0.3606 0.6519
0.3169 0.4019 0.6829
0.4270 0.4396 0.7058
0.5566 0.4668 0.7289
0.6771 0.4819 0.7458
0.7887 0.4889 0.7576
0.0215 0.4057 0.5891
0.1788 0.4218 0.6055
0.2709 0.4687 0.6417
0.3647 0.5142 0.6685
0.4790 0.5589 0.6981
0.6082 0.5929 0.7246
0.7306 0.6042 0.7367
0.8289 0.6086 0.7477
0.0215 0.5287 0.5809
0.2162 0.5417 0.5919
0.3251 0.5917 0.6282
0.4371 0.6416 0.6615
0.5478 0.6811 0.6913
0.6414 0.7168 0.7218
0.7519 0.7331 0.7378
0.8606 0.7418 0.7498
0.0215 0.6710 0.5883
0.2366 0.6924 0.6013
0.3747 0.7298 0.6288
0.4974 0.7712 0.6645
0.6181 0.8025 0.6928
0.7149 0.8278 0.7153
0.7850 0.8603 0.7460
0.8814 0.8734 0.7690
0.0212 0.0210 0.7560
0.0799 0.0209 0.7548
0.1953 0.0208 0.7574
0.2300 0.0222 0.8542
0.2946 0.0231 0.9056
0.4119 0.0231 0.8929
0.5325 0.0230 0.8789
0.6658 0.0230 0.8761
0.0212 0.0742 0.7544
0.0698 0.0674 0.7530
0.1864 0.0588 0.7533
0.2581 0.0993 0.8099
0.2994 0.1934 0.8926
0.4092 0.2062 0.8880
0.5306 0.2044 0.8732
0.6652 0.1997 0.8698
0.0212 0.1805 0.7553
0.0589 0.1795 0.7532
0.1693 0.1721 0.7589
0.2699 0.1745 0.7873
0.3422 0.2387 0.8497
0.4398 0.3043 0.8824
0.5519 0.3213 0.8726
0.6786 0.3180 0.8650
0.0213 0.2431 0.7647
0.0809 0.2562 0.7644
0.1653 0.2761 0.7705
0.2617 0.2866 0.7857
0.3620 0.3108 0.8177
0.4866 0.3524 0.8540
0.6140 0.3980 0.8758
0.7341 0.4041 0.8726
0.0214 0.3098 0.7444
0.1205 0.3278 0.7576
0.2076 0.3523 0.7713
0.2854 0.3911 0.7848
0.3905 0.4221 0.8069
0.5073 0.4483 0.8260
0.6443 0.4822 0.8553
0.7703 0.5054 0.8643
0.0214 0.3996 0.7255
0.1527 0.4147 0.7358
0.2484 0.4489 0.7612
0.3435 0.4919 0.7832
0.4541 0.5334 0.8033
0.5718 0.5696 0.8224
0.6973 0.5962 0.8437
0.8072 0.6110 0.8572
0.0215 0.5262 0.7198
0.1842 0.5319 0.7256
0.2950 0.5628 0.7486
0.4000 0.6107 0.7783
0.5127 0.6512 0.7993
0.6309 0.6925 0.8262
0.7511 0.7264 0.8530
0.8625 0.7380 0.8652
0.0215 0.6647 0.7194
0.2159 0.6720 0.7262
0.3457 0.6942 0.7443
0.4634 0.7389 0.7769
0.5827 0.7792 0.8067
0.6991 0.8156 0.8322
0.7853 0.8539 0.8560
0.8828 0.8713 0.8706
