lut/adanmq/Adanmq_Fuji_Vivid_8543.cube
TITLE "Adanmq_Fuji Vivid 8543"
LUT_3D_SIZE 8
DOMAIN_MIN 0.000000 0.000000 0.000000
DOMAIN_MAX 0.903226 0.903226 0.903226
0.0214 0.0220 0.0218
0.1079 0.0219 0.0218
0.1776 0.0220 0.0219
0.2403 0.0221 0.0219
0.3046 0.0221 0.0219
0.3838 0.0221 0.0219
0.4893 0.0220 0.0217
0.6170 0.0218 0.0216
0.0214 0.1222 0.0218
0.1227 0.1230 0.0218
0.2365 0.1295 0.0219
0.3440 0.1390 0.0219
0.4314 0.1442 0.0220
0.5094 0.1451 0.0220
0.5918 0.1424 0.0219
0.6918 0.1347 0.0217
0.0214 0.2171 0.0217
0.1474 0.2342 0.0218
0.2817 0.2546 0.0219
0.4069 0.2692 0.0220
0.5233 0.2802 0.0221
0.6230 0.2850 0.0221
0.7142 0.2874 0.0222
0.8142 0.2898 0.0222
0.0214 0.3253 0.0215
0.1671 0.3412 0.0216
0.3152 0.3711 0.0219
0.4378 0.3856 0.0220
0.5531 0.3995 0.0221
0.6658 0.4118 0.0221
0.7631 0.4212 0.0222
0.8575 0.4263 0.0223
0.0214 0.4414 0.0214
0.1778 0.4461 0.0214
0.3309 0.4829 0.0218
0.4645 0.4960 0.0219
0.5760 0.5068 0.0220
0.6866 0.5169 0.0221
0.7934 0.5327 0.0222
0.8946 0.5470 0.0224
0.0214 0.5576 0.0211
0.1877 0.5538 0.0211
0.3358 0.5833 0.0214
0.4729 0.6136 0.0218
0.5925 0.6161 0.0219
0.7026 0.6214 0.0220
0.8094 0.6289 0.0221
0.9156 0.6508 0.0224
0.0215 0.6735 0.0210
0.1989 0.6678 0.0209
0.3421 0.6764 0.0211
0.4710 0.7260 0.0217
0.5917 0.7332 0.0218
0.7089 0.7307 0.0219
0.8173 0.7297 0.0221
0.9276 0.7386 0.0223
0.0215 0.7903 0.0209
0.2098 0.7852 0.0208
0.3533 0.7820 0.0208
0.4746 0.8234 0.0214
0.5852 0.8520 0.0219
0.7057 0.8436 0.0220
0.8184 0.8397 0.0222
0.9284 0.8381 0.0224
0.0214 0.0218 0.1133
0.1110 0.0218 0.1164
0.1856 0.0219 0.1176
0.2562 0.0219 0.1195
0.3318 0.0219 0.1261
0.4147 0.0219 0.1307
0.5051 0.0219 0.1280
0.6192 0.0218 0.1135
0.0214 0.1090 0.1092
0.1238 0.1133 0.1178
0.2389 0.1198 0.1248
0.3452 0.1302 0.1308
0.4318 0.1373 0.1358
0.5059 0.1369 0.1382
0.5750 0.1338 0.1358
0.6730 0.1264 0.1218
0.0214 0.2083 0.1096
0.1416 0.2278 0.1207
0.2716 0.2493 0.1319
0.3962 0.2635 0.1398
0.5150 0.2779 0.1475
0.6211 0.2861 0.1544
0.7013 0.2843 0.1589
0.7685 0.2735 0.1494
0.0214 0.3197 0.1058
0.1645 0.3319 0.1136
0.3081 0.3677 0.1380
0.4335 0.3880 0.1484
0.5451 0.4071 0.1541
0.6588 0.4228 0.1619
0.7610 0.4300 0.1722
0.8529 0.4291 0.1816
0.0214 0.4376 0.0947
0.1804 0.4387 0.0927
0.3269 0.4720 0.1206
0.4671 0.5004 0.1469
0.5810 0.5148 0.1532
0.6857 0.5345 0.1635
0.7887 0.5495 0.1770
0.8861 0.5594 0.1970
0.0214 0.5539 0.0802
0.1924 0.5499 0.0746
0.3351 0.5630 0.0858
0.4712 0.6103 0.1331
0.5985 0.6202 0.1440
0.7064 0.6289 0.1562
0.8090 0.6449 0.1738
0.9114 0.6620 0.1994
0.0215 0.6687 0.0673
0.2038 0.6633 0.0630
0.3472 0.6602 0.0616
0.4757 0.6970 0.0999
0.5944 0.7321 0.1401
0.7121 0.7288 0.1523
0.8226 0.7315 0.1721
0.9277 0.7460 0.1930
0.0215 0.7858 0.0591
0.2148 0.7813 0.0568
0.3590 0.7771 0.0556
0.4897 0.7880 0.0709
0.5932 0.8343 0.1323
0.7058 0.8393 0.1660
0.8258 0.8324 0.1864
0.9377 0.8363 0.1995
0.0214 0.0215 0.1651
0.1050 0.0216 0.1819
0.1822 0.0218 0.1830
0.2715 0.0218 0.1997
0.3743 0.0217 0.2131
0.4739 0.0217 0.2313
0.5742 0.0217 0.2452
0.6660 0.0216 0.2347
0.0214 0.0918 0.1857
0.1247 0.1051 0.2131
0.2379 0.1178 0.2276
0.3393 0.1248 0.2325
0.4383 0.1283 0.2373
0.5283 0.1286 0.2473
0.6182 0.1276 0.2551
0.7056 0.1228 0.2423
0.0214 0.1932 0.2039
0.1373 0.2255 0.2303
0.2663 0.2536 0.2515
0.3930 0.2636 0.2604
0.5074 0.2715 0.2676
0.6139 0.2813 0.2764
0.6947 0.2792 0.2780
0.7654 0.2658 0.2667
0.0214 0.3090 0.2073
0.1514 0.3342 0.2252
0.2817 0.3760 0.2534
0.4086 0.3997 0.2702
0.5278 0.4110 0.2769
0.6443 0.4266 0.2882
0.7586 0.4394 0.3021
0.8498 0.4338 0.3075
0.0214 0.4311 0.2034
0.1703 0.4417 0.2109
0.3106 0.4669 0.2316
0.4383 0.5119 0.2741
0.5589 0.5308 0.2855
0.6675 0.5514 0.2953
0.7761 0.5713 0.3134
0.8840 0.5813 0.3363
0.0214 0.5505 0.1953
0.1905 0.5513 0.1962
0.3371 0.5556 0.1992
0.4588 0.6036 0.2513
0.5881 0.6342 0.2857
0.7044 0.6439 0.2948
0.7976 0.6696 0.3211
0.8976 0.6942 0.3534
0.0214 0.6667 0.1873
0.2063 0.6619 0.1867
0.3531 0.6587 0.1851
0.4781 0.6797 0.2088
0.5870 0.7365 0.2714
0.7154 0.7429 0.2863
0.8198 0.7487 0.3181
0.9131 0.7772 0.3670
0.0215 0.7832 0.1823
0.2198 0.7784 0.1830
0.3649 0.7757 0.1839
0.4985 0.7765 0.1898
0.6061 0.8139 0.2365
0.7106 0.8471 0.2902
0.8290 0.8420 0.3233
0.9332 0.8524 0.3700
0.0214 0.0214 0.2082
0.1042 0.0215 0.2382
0.1657 0.0217 0.2484
0.2734 0.0217 0.2606
0.3903 0.0216 0.3110
0.4957 0.0216 0.3252
0.6034 0.0216 0.3432
0.7245 0.0216 0.3615
0.0214 0.0794 0.2503
0.1205 0.0915 0.2840
0.2184 0.1120 0.3113
0.3267 0.1189 0.3164
0.4331 0.1218 0.3386
0.5380 0.1230 0.3465
0.6302 0.1230 0.3581
0.7413 0.1231 0.3699
0.0214 0.1776 0.2973
0.1335 0.2090 0.3268
0.2615 0.2500 0.3662
0.3894 0.2658 0.3809
0.4982 0.2670 0.3849
0.6040 0.2714 0.3919
0.6951 0.2753 0.3985
0.7814 0.2727 0.4013
0.0214 0.2897 0.3105
0.1443 0.3270 0.3377
0.2744 0.3809 0.3784
0.4057 0.4090 0.4006
0.5263 0.4144 0.4071
0.6367 0.4183 0.4141
0.7426 0.4298 0.4269
0.8347 0.4273 0.4301
0.0214 0.4165 0.3151
0.1549 0.4451 0.3349
0.2866 0.4807 0.3610
0.4100 0.5260 0.3973
0.5315 0.5443 0.4139
0.6500 0.5549 0.4229
0.7594 0.5695 0.4377
0.8752 0.5846 0.4609
0.0214 0.5436 0.3127
0.1677 0.5574 0.3227
0.3143 0.5744 0.3359
0.4373 0.6008 0.3650
0.5497 0.6453 0.4148
0.6756 0.6674 0.4348
0.7830 0.6913 0.4525
0.8898 0.7158 0.4831
0.0214 0.6645 0.3053
0.1829 0.6650 0.3086
0.3451 0.6704 0.3164
0.4775 0.6730 0.3256
0.5775 0.7226 0.3928
0.6993 0.7569 0.4428
0.8212 0.7695 0.4670
0.9119 0.8042 0.5102
0.0214 0.7845 0.2996
0.2000 0.7801 0.3050
0.3635 0.7795 0.3143
0.4978 0.7795 0.3221
0.6109 0.8014 0.3565
0.7016 0.8546 0.4364
0.8291 0.8602 0.4688
0.9312 0.8676 0.5243
0.0213 0.0211 0.2752
0.1132 0.0211 0.2955
0.1605 0.0215 0.3401
0.2605 0.0216 0.3361
0.3842 0.0215 0.3594
0.4955 0.0215 0.4197
0.5967 0.0214 0.4357
0.7207 0.0215 0.4494
0.0213 0.0695 0.3113
0.1152 0.0745 0.3419
0.2069 0.0986 0.4004
0.3067 0.1126 0.3981
0.4247 0.1152 0.4124
0.5339 0.1168 0.4498
0.6250 0.1137 0.4516
0.7329 0.1139 0.4609
0.0213 0.1647 0.3836
0.1230 0.1881 0.4050
0.2416 0.2272 0.4516
0.3660 0.2499 0.4745
0.4807 0.2544 0.4789
0.5848 0.2617 0.4921
0.6862 0.2676 0.4969
0.7815 0.2705 0.5045
0.0214 0.2751 0.4140
0.1343 0.3060 0.4350
0.2611 0.3573 0.4752
0.3991 0.4021 0.5168
0.5230 0.4132 0.5291
0.6284 0.4112 0.5312
0.7306 0.4172 0.5416
0.8314 0.4227 0.5488
0.0214 0.3936 0.4221
0.1478 0.4271 0.4443
0.2765 0.4766 0.4818
0.4050 0.5265 0.5217
0.5312 0.5496 0.5423
0.6465 0.5514 0.5468
0.7522 0.5550 0.5552
0.8581 0.5679 0.5731
0.0214 0.5235 0.4255
0.1617 0.5472 0.4423
0.2963 0.5874 0.4754
0.4157 0.6162 0.4992
0.5291 0.6596 0.5354
0.6480 0.6754 0.5538
0.7644 0.6871 0.5684
0.8727 0.7019 0.5900
0.0214 0.6549 0.4260
0.1686 0.6596 0.4300
0.3165 0.6909 0.4601
0.4467 0.6980 0.4724
0.5618 0.7208 0.5039
0.6653 0.7680 0.5646
0.7894 0.7946 0.5998
0.8976 0.8230 0.6221
0.0214 0.7794 0.4227
0.1740 0.7776 0.4233
0.3332 0.7881 0.4421
0.4802 0.7938 0.4599
0.6106 0.7947 0.4743
0.7057 0.8385 0.5560
0.8148 0.8723 0.6369
0.9308 0.8911 0.6729
0.0213 0.0208 0.3720
0.1101 0.0208 0.3736
0.1783 0.0211 0.4228
0.2506 0.0215 0.4491
0.3707 0.0214 0.4416
0.4895 0.0213 0.4586
0.5939 0.0213 0.5241
0.7066 0.0214 0.5528
0.0213 0.0573 0.3836
0.1032 0.0561 0.3988
0.2077 0.0759 0.4745
0.2919 0.1068 0.5002
0.3989 0.1091 0.4843
0.5165 0.1067 0.4990
0.6193 0.1063 0.5462
0.7162 0.1071 0.5575
0.0213 0.1552 0.4622
0.1037 0.1677 0.4683
0.2200 0.2018 0.5235
0.3461 0.2332 0.5672
0.4609 0.2422 0.5712
0.5730 0.2502 0.5742
0.6667 0.2538 0.5880
0.7656 0.2573 0.5886
0.0213 0.2633 0.5145
0.1196 0.2838 0.5211
0.2417 0.3296 0.5597
0.3724 0.3702 0.5965
0.4988 0.3905 0.6201
0.6125 0.3934 0.6238
0.7127 0.4027 0.6344
0.8184 0.4158 0.6397
0.0214 0.3811 0.5317
0.1360 0.4064 0.5450
0.2584 0.4519 0.5755
0.3888 0.4978 0.6121
0.5236 0.5389 0.6556
0.6441 0.5463 0.6661
0.7461 0.5448 0.6678
0.8518 0.5534 0.6814
0.0214 0.5022 0.5365
0.1595 0.5251 0.5508
0.2806 0.5728 0.5862
0.4074 0.6135 0.6206
0.5251 0.6562 0.6556
0.6481 0.6757 0.6753
0.7599 0.6768 0.6816
0.8647 0.6831 0.6970
0.0214 0.6323 0.5390
0.1747 0.6433 0.5477
0.3039 0.6815 0.5816
0.4316 0.7132 0.6157
0.5403 0.7372 0.6355
0.6475 0.7806 0.6702
0.7618 0.7961 0.6931
0.8748 0.8107 0.7171
0.0214 0.7685 0.5455
0.1758 0.7715 0.5504
0.3128 0.7849 0.5690
0.4500 0.8154 0.6083
0.5765 0.8165 0.6201
0.6897 0.8381 0.6535
0.7833 0.8827 0.7295
0.8996 0.9076 0.7592
0.0213 0.0206 0.4847
0.0931 0.0205 0.4819
0.1949 0.0206 0.5005
0.2503 0.0213 0.5590
0.3609 0.0213 0.5607
0.4814 0.0212 0.5551
0.5979 0.0211 0.5705
0.7101 0.0213 0.6417
0.0213 0.0408 0.4833
0.0843 0.0355 0.4836
0.1996 0.0388 0.5179
0.2841 0.0850 0.5878
0.3725 0.0997 0.5778
0.4872 0.0932 0.5665
0.6025 0.0889 0.5814
0.7151 0.1008 0.6446
0.0213 0.1471 0.5355
0.0795 0.1492 0.5255
0.1936 0.1648 0.5672
0.3285 0.2079 0.6490
0.4417 0.2334 0.6660
0.5491 0.2416 0.6547
0.6497 0.2383 0.6486
0.7535 0.2411 0.6747
0.0213 0.2564 0.6111
0.0965 0.2625 0.5983
0.2069 0.2927 0.6146
0.3394 0.3349 0.6638
0.4701 0.3604 0.6953
0.5912 0.3718 0.7097
0.6998 0.3830 0.7081
0.7996 0.3958 0.7163
0.0213 0.3690 0.6381
0.1188 0.3846 0.6347
0.2387 0.4229 0.6585
0.3659 0.4645 0.6906
0.4933 0.4989 0.7214
0.6195 0.5194 0.7481
0.7324 0.5243 0.7527
0.8383 0.5386 0.7638
0.0214 0.4917 0.6491
0.1460 0.5055 0.6540
0.2595 0.5464 0.6772
0.3853 0.5861 0.7042
0.5091 0.6242 0.7384
0.6403 0.6615 0.7830
0.7574 0.6672 0.7931
0.8606 0.6699 0.7993
0.0214 0.6179 0.6563
0.1783 0.6241 0.6609
0.2891 0.6589 0.6848
0.4113 0.6992 0.7212
0.5318 0.7332 0.7515
0.6432 0.7736 0.7828
0.7605 0.7901 0.8004
0.8715 0.7945 0.8140
0.0214 0.7484 0.6608
0.1849 0.7547 0.6691
0.3096 0.7711 0.6891
0.4302 0.8024 0.7259
0.5575 0.8279 0.7579
0.6664 0.8497 0.7751
0.7660 0.8898 0.8017
0.8786 0.9025 0.8252
0.0212 0.0203 0.6054
0.0731 0.0202 0.6039
0.1892 0.0201 0.6051
0.2601 0.0208 0.6564
0.3528 0.0212 0.6838
0.4731 0.0211 0.6801
0.5923 0.0210 0.6777
0.7104 0.0210 0.6928
0.0212 0.0234 0.6037
0.0624 0.0204 0.6027
0.1783 0.0193 0.6050
0.2765 0.0387 0.6484
0.3580 0.0866 0.6864
0.4706 0.0841 0.6804
0.5883 0.0783 0.6777
0.7067 0.0789 0.6926
0.0212 0.1366 0.6199
0.0498 0.1317 0.6096
0.1637 0.1297 0.6210
0.2947 0.1538 0.6841
0.4187 0.2104 0.7509
0.5115 0.2257 0.7356
0.6105 0.2190 0.7129
0.7185 0.2127 0.7134
0.0212 0.2504 0.6996
0.0651 0.2481 0.6728
0.1657 0.2568 0.6637
0.2952 0.2835 0.7069
0.4447 0.3296 0.7758
0.5715 0.3565 0.8019
0.6804 0.3757 0.7988
0.7797 0.3747 0.7865
0.0213 0.3645 0.7449
0.0955 0.3709 0.7305
0.2012 0.3807 0.7222
0.3171 0.4167 0.7416
0.4523 0.4538 0.7813
0.5819 0.4780 0.8076
0.7063 0.4983 0.8257
0.8188 0.5175 0.8263
0.0214 0.4779 0.7595
0.1262 0.4877 0.7545
0.2314 0.5096 0.7585
0.3573 0.5500 0.7844
0.4845 0.5859 0.8097
0.6088 0.6168 0.8356
0.7323 0.6391 0.8608
0.8424 0.6484 0.8643
0.0214 0.6094 0.7709
0.1548 0.6126 0.7709
0.2676 0.6322 0.7809
0.3806 0.6683 0.8041
0.5053 0.7013 0.8275
0.6287 0.7377 0.8568
0.7544 0.7730 0.8949
0.8696 0.7794 0.9041
0.0214 0.7436 0.7853
0.1796 0.7459 0.7886
0.3043 0.7558 0.7992
0.4094 0.7806 0.8216
0.5259 0.8087 0.8498
0.6531 0.8391 0.8746
0.7656 0.8798 0.8982
0.8822 0.8949 0.9098
