lut/adanmq/Adanmq_Fuji_Velvia_100.cube
TITLE "Adanmq_Fuji Velvia 100"
LUT_3D_SIZE 5
DOMAIN_MIN 0.000000 0.000000 0.000000
DOMAIN_MAX 0.903226 0.903226 0.903226
0.0215 0.0231 0.0227
0.2002 0.0231 0.0227
0.4240 0.0235 0.0230
0.6426 0.0240 0.0232
0.8711 0.0242 0.0231
0.0215 0.1733 0.0226
0.1785 0.2037 0.0229
0.4001 0.2348 0.0233
0.6205 0.2581 0.0238
0.8332 0.2727 0.0240
0.0215 0.3430 0.0225
0.2199 0.4048 0.0233
0.4291 0.4560 0.0240
0.6631 0.4901 0.0244
0.8494 0.5043 0.0248
0.0215 0.5630 0.0224
0.2642 0.5965 0.0228
0.4631 0.6832 0.0242
0.6769 0.6987 0.0249
0.8801 0.7169 0.0253
0.0215 0.8030 0.0223
0.2913 0.8017 0.0223
0.4749 0.8867 0.0241
0.6837 0.8656 0.0245
0.8644 0.8510 0.0254
0.0215 0.0228 0.1756
0.2080 0.0231 0.1965
0.4448 0.0234 0.2091
0.6581 0.0237 0.2277
0.8828 0.0241 0.2581
0.0215 0.1642 0.1701
0.1987 0.2113 0.2122
0.4101 0.2247 0.2318
0.6319 0.2617 0.2543
0.8444 0.2874 0.2574
0.0215 0.3271 0.1825
0.2349 0.3733 0.2399
0.4406 0.4499 0.2820
0.6550 0.4814 0.2974
0.8446 0.5177 0.3490
0.0215 0.5545 0.2111
0.2770 0.5812 0.2544
0.4941 0.6778 0.3369
0.6980 0.6980 0.3828
0.8715 0.7415 0.4225
0.0215 0.7996 0.2500
0.3030 0.7938 0.2517
0.5339 0.7967 0.2583
0.6982 0.8503 0.3751
0.8889 0.8376 0.4194
0.0215 0.0228 0.2714
0.2019 0.0232 0.3332
0.4275 0.0235 0.3398
0.6338 0.0236 0.3665
0.8593 0.0235 0.3676
0.0215 0.1642 0.2858
0.1818 0.1989 0.3451
0.4117 0.2390 0.3811
0.6519 0.2741 0.3931
0.8519 0.2868 0.3784
0.0216 0.3024 0.2994
0.2280 0.3745 0.3684
0.4271 0.4434 0.4250
0.6490 0.4564 0.4277
0.8401 0.4830 0.4500
0.0217 0.5313 0.3287
0.2792 0.5767 0.3614
0.4746 0.6468 0.4402
0.6809 0.6944 0.4879
0.8697 0.7338 0.5089
0.0217 0.7668 0.3153
0.3293 0.7837 0.4010
0.5430 0.7826 0.4362
0.7098 0.8518 0.5381
0.9103 0.8524 0.5927
0.0215 0.0225 0.4164
0.2720 0.0226 0.4372
0.4122 0.0236 0.5131
0.6167 0.0236 0.4885
0.8139 0.0237 0.5525
0.0215 0.1939 0.4366
0.2160 0.2008 0.4767
0.4217 0.2534 0.5592
0.6552 0.2928 0.5460
0.8254 0.2966 0.5438
0.0216 0.3058 0.4724
0.2271 0.3524 0.5344
0.4300 0.4238 0.5903
0.6447 0.4586 0.6141
0.8350 0.4728 0.6067
0.0216 0.4868 0.4750
0.2856 0.5540 0.5336
0.4783 0.6381 0.6115
0.6739 0.6879 0.6660
0.8681 0.7016 0.6754
0.0217 0.7485 0.5127
0.3610 0.7660 0.5401
0.5199 0.8078 0.5919
0.7221 0.8447 0.6588
0.9034 0.9070 0.7412
0.0215 0.0220 0.5991
0.2890 0.0218 0.5889
0.4001 0.0234 0.6930
0.6034 0.0235 0.6636
0.8201 0.0235 0.6464
0.0215 0.2048 0.5907
0.2741 0.1927 0.5819
0.4222 0.2157 0.6847
0.6140 0.3063 0.6701
0.8206 0.3036 0.6384
0.0215 0.3327 0.6864
0.2572 0.3590 0.6515
0.4237 0.3911 0.6837
0.6481 0.4405 0.7294
0.8432 0.4838 0.7324
0.0216 0.5030 0.7014
0.2792 0.5283 0.7023
0.4832 0.5989 0.7521
0.6824 0.6565 0.7966
0.8697 0.6935 0.8357
0.0216 0.7208 0.7024
0.3384 0.7377 0.7259
0.5290 0.7929 0.7900
0.7335 0.8542 0.8568
0.9247 0.9224 0.9132
