lut/adanmq/Adanmq_Kodak_T-Maxx_100.cube
TITLE "Adanmq_Kodak T-Maxx 100"
LUT_3D_SIZE 8
DOMAIN_MIN 0.000000 0.000000 0.000000
DOMAIN_MAX 0.903226 0.903226 0.903226
0.0223 0.0223 0.0223
0.0396 0.0396 0.0396
0.0544 0.0544 0.0544
0.0693 0.0693 0.0693
0.0833 0.0833 0.0833
0.0968 0.0968 0.0968
0.1086 0.1086 0.1086
0.1204 0.1204 0.1204
0.0813 0.0813 0.0813
0.0987 0.0987 0.0987
0.1112 0.1112 0.1112
0.1242 0.1242 0.1242
0.1397 0.1397 0.1397
0.1556 0.1556 0.1556
0.1745 0.1745 0.1745
0.1975 0.1975 0.1975
0.1179 0.1179 0.1179
0.1381 0.1381 0.1381
0.1534 0.1534 0.1534
0.1689 0.1689 0.1689
0.1877 0.1877 0.1877
0.2118 0.2118 0.2118
0.2374 0.2374 0.2374
0.2698 0.2698 0.2698
0.1576 0.1576 0.1576
0.1789 0.1789 0.1789
0.2019 0.2019 0.2019
0.2217 0.2217 0.2217
0.2455 0.2455 0.2455
0.2765 0.2765 0.2765
0.3177 0.3177 0.3177
0.3660 0.3660 0.3660
0.2069 0.2069 0.2069
0.2261 0.2261 0.2261
0.2650 0.2650 0.2650
0.2904 0.2904 0.2904
0.3227 0.3227 0.3227
0.3561 0.3561 0.3561
0.4013 0.4013 0.4013
0.4663 0.4663 0.4663
0.2677 0.2677 0.2677
0.2857 0.2857 0.2857
0.3288 0.3288 0.3288
0.3799 0.3799 0.3799
0.4162 0.4162 0.4162
0.4621 0.4621 0.4621
0.5042 0.5042 0.5042
0.5639 0.5639 0.5639
0.3382 0.3382 0.3382
0.3601 0.3601 0.3601
0.3953 0.3953 0.3953
0.4711 0.4711 0.4711
0.5202 0.5202 0.5202
0.5688 0.5688 0.5688
0.6276 0.6276 0.6276
0.6821 0.6821 0.6821
0.4208 0.4208 0.4208
0.4480 0.4480 0.4480
0.4786 0.4786 0.4786
0.5525 0.5525 0.5525
0.6274 0.6274 0.6274
0.6783 0.6783 0.6783
0.7396 0.7396 0.7396
0.8028 0.8028 0.8028
0.0308 0.0308 0.0308
0.0515 0.0515 0.0515
0.0678 0.0678 0.0678
0.0825 0.0825 0.0825
0.0920 0.0920 0.0920
0.1038 0.1038 0.1038
0.1154 0.1154 0.1154
0.1254 0.1254 0.1254
0.0879 0.0879 0.0879
0.1080 0.1080 0.1080
0.1187 0.1187 0.1187
0.1324 0.1324 0.1324
0.1501 0.1501 0.1501
0.1706 0.1706 0.1706
0.1907 0.1907 0.1907
0.2103 0.2103 0.2103
0.1251 0.1251 0.1251
0.1480 0.1480 0.1480
0.1682 0.1682 0.1682
0.1839 0.1839 0.1839
0.2018 0.2018 0.2018
0.2238 0.2238 0.2238
0.2535 0.2535 0.2535
0.2947 0.2947 0.2947
0.1621 0.1621 0.1621
0.1780 0.1780 0.1780
0.2096 0.2096 0.2096
0.2344 0.2344 0.2344
0.2638 0.2638 0.2638
0.2960 0.2960 0.2960
0.3341 0.3341 0.3341
0.3802 0.3802 0.3802
0.2094 0.2094 0.2094
0.2250 0.2250 0.2250
0.2644 0.2644 0.2644
0.2985 0.2985 0.2985
0.3354 0.3354 0.3354
0.3786 0.3786 0.3786
0.4250 0.4250 0.4250
0.4822 0.4822 0.4822
0.2695 0.2695 0.2695
0.2883 0.2883 0.2883
0.3212 0.3212 0.3212
0.3828 0.3828 0.3828
0.4221 0.4221 0.4221
0.4733 0.4733 0.4733
0.5201 0.5201 0.5201
0.5798 0.5798 0.5798
0.3427 0.3427 0.3427
0.3674 0.3674 0.3674
0.3961 0.3961 0.3961
0.4573 0.4573 0.4573
0.5271 0.5271 0.5271
0.5781 0.5781 0.5781
0.6317 0.6317 0.6317
0.6847 0.6847 0.6847
0.4300 0.4300 0.4300
0.4589 0.4589 0.4589
0.4912 0.4912 0.4912
0.5377 0.5377 0.5377
0.6282 0.6282 0.6282
0.6936 0.6936 0.6936
0.7472 0.7472 0.7472
0.8017 0.8017 0.8017
0.0420 0.0420 0.0420
0.0694 0.0694 0.0694
0.0927 0.0927 0.0927
0.1005 0.1005 0.1005
0.1160 0.1160 0.1160
0.1203 0.1203 0.1203
0.1272 0.1272 0.1272
0.1360 0.1360 0.1360
0.0966 0.0966 0.0966
0.1160 0.1160 0.1160
0.1289 0.1289 0.1289
0.1477 0.1477 0.1477
0.1700 0.1700 0.1700
0.1870 0.1870 0.1870
0.2035 0.2035 0.2035
0.2227 0.2227 0.2227
0.1324 0.1324 0.1324
0.1569 0.1569 0.1569
0.1763 0.1763 0.1763
0.1913 0.1913 0.1913
0.2106 0.2106 0.2106
0.2371 0.2371 0.2371
0.2706 0.2706 0.2706
0.3128 0.3128 0.3128
0.1689 0.1689 0.1689
0.1902 0.1902 0.1902
0.2312 0.2312 0.2312
0.2600 0.2600 0.2600
0.2793 0.2793 0.2793
0.3109 0.3109 0.3109
0.3464 0.3464 0.3464
0.3939 0.3939 0.3939
0.2221 0.2221 0.2221
0.2361 0.2361 0.2361
0.2673 0.2673 0.2673
0.3220 0.3220 0.3220
0.3544 0.3544 0.3544
0.3914 0.3914 0.3914
0.4372 0.4372 0.4372
0.4916 0.4916 0.4916
0.2868 0.2868 0.2868
0.2989 0.2989 0.2989
0.3257 0.3257 0.3257
0.3923 0.3923 0.3923
0.4398 0.4398 0.4398
0.4842 0.4842 0.4842
0.5424 0.5424 0.5424
0.6043 0.6043 0.6043
0.3595 0.3595 0.3595
0.3795 0.3795 0.3795
0.4103 0.4103 0.4103
0.4618 0.4618 0.4618
0.5365 0.5365 0.5365
0.5793 0.5793 0.5793
0.6441 0.6441 0.6441
0.7129 0.7129 0.7129
0.4449 0.4449 0.4449
0.4731 0.4731 0.4731
0.5092 0.5092 0.5092
0.5512 0.5512 0.5512
0.6203 0.6203 0.6203
0.6917 0.6917 0.6917
0.7505 0.7505 0.7505
0.8137 0.8137 0.8137
0.0522 0.0522 0.0522
0.0784 0.0784 0.0784
0.1208 0.1208 0.1208
0.1425 0.1425 0.1425
0.1380 0.1380 0.1380
0.1577 0.1577 0.1577
0.1634 0.1634 0.1634
0.1635 0.1635 0.1635
0.1107 0.1107 0.1107
0.1325 0.1325 0.1325
0.1595 0.1595 0.1595
0.1865 0.1865 0.1865
0.1989 0.1989 0.1989
0.2259 0.2259 0.2259
0.2412 0.2412 0.2412
0.2495 0.2495 0.2495
0.1420 0.1420 0.1420
0.1718 0.1718 0.1718
0.1916 0.1916 0.1916
0.2118 0.2118 0.2118
0.2358 0.2358 0.2358
0.2647 0.2647 0.2647
0.2968 0.2968 0.2968
0.3319 0.3319 0.3319
0.1762 0.1762 0.1762
0.2073 0.2073 0.2073
0.2472 0.2472 0.2472
0.2804 0.2804 0.2804
0.3033 0.3033 0.3033
0.3269 0.3269 0.3269
0.3702 0.3702 0.3702
0.4205 0.4205 0.4205
0.2250 0.2250 0.2250
0.2517 0.2517 0.2517
0.2899 0.2899 0.2899
0.3540 0.3540 0.3540
0.3898 0.3898 0.3898
0.4116 0.4116 0.4116
0.4562 0.4562 0.4562
0.5096 0.5096 0.5096
0.2952 0.2952 0.2952
0.3189 0.3189 0.3189
0.3472 0.3472 0.3472
0.4027 0.4027 0.4027
0.4710 0.4710 0.4710
0.5058 0.5058 0.5058
0.5462 0.5462 0.5462
0.6086 0.6086 0.6086
0.3809 0.3809 0.3809
0.4028 0.4028 0.4028
0.4284 0.4284 0.4284
0.4703 0.4703 0.4703
0.5521 0.5521 0.5521
0.6063 0.6063 0.6063
0.6508 0.6508 0.6508
0.7220 0.7220 0.7220
0.4718 0.4718 0.4718
0.4965 0.4965 0.4965
0.5306 0.5306 0.5306
0.5749 0.5749 0.5749
0.6376 0.6376 0.6376
0.7160 0.7160 0.7160
0.7574 0.7574 0.7574
0.8192 0.8192 0.8192
0.0588 0.0588 0.0588
0.0852 0.0852 0.0852
0.1407 0.1407 0.1407
0.1910 0.1910 0.1910
0.2152 0.2152 0.2152
0.1901 0.1901 0.1901
0.2029 0.2029 0.2029
0.2214 0.2214 0.2214
0.1298 0.1298 0.1298
0.1546 0.1546 0.1546
0.1810 0.1810 0.1810
0.2349 0.2349 0.2349
0.2634 0.2634 0.2634
0.2538 0.2538 0.2538
0.2839 0.2839 0.2839
0.3048 0.3048 0.3048
0.1595 0.1595 0.1595
0.1967 0.1967 0.1967
0.2278 0.2278 0.2278
0.2587 0.2587 0.2587
0.2928 0.2928 0.2928
0.3145 0.3145 0.3145
0.3493 0.3493 0.3493
0.3783 0.3783 0.3783
0.1934 0.1934 0.1934
0.2330 0.2330 0.2330
0.2779 0.2779 0.2779
0.3083 0.3083 0.3083
0.3399 0.3399 0.3399
0.3681 0.3681 0.3681
0.4032 0.4032 0.4032
0.4507 0.4507 0.4507
0.2361 0.2361 0.2361
0.2742 0.2742 0.2742
0.3220 0.3220 0.3220
0.3794 0.3794 0.3794
0.4232 0.4232 0.4232
0.4503 0.4503 0.4503
0.4789 0.4789 0.4789
0.5375 0.5375 0.5375
0.3039 0.3039 0.3039
0.3351 0.3351 0.3351
0.3752 0.3752 0.3752
0.4359 0.4359 0.4359
0.5064 0.5064 0.5064
0.5462 0.5462 0.5462
0.5742 0.5742 0.5742
0.6336 0.6336 0.6336
0.3922 0.3922 0.3922
0.4216 0.4216 0.4216
0.4549 0.4549 0.4549
0.5016 0.5016 0.5016
0.5668 0.5668 0.5668
0.6399 0.6399 0.6399
0.6804 0.6804 0.6804
0.7345 0.7345 0.7345
0.4882 0.4882 0.4882
0.5201 0.5201 0.5201
0.5534 0.5534 0.5534
0.5956 0.5956 0.5956
0.6526 0.6526 0.6526
0.7364 0.7364 0.7364
0.7892 0.7892 0.7892
0.8263 0.8263 0.8263
0.0670 0.0670 0.0670
0.0946 0.0946 0.0946
0.1521 0.1521 0.1521
0.2243 0.2243 0.2243
0.2727 0.2727 0.2727
0.2991 0.2991 0.2991
0.2585 0.2585 0.2585
0.2628 0.2628 0.2628
0.1520 0.1520 0.1520
0.1797 0.1797 0.1797
0.2038 0.2038 0.2038
0.2747 0.2747 0.2747
0.3386 0.3386 0.3386
0.3614 0.3614 0.3614
0.3310 0.3310 0.3310
0.3565 0.3565 0.3565
0.1924 0.1924 0.1924
0.2376 0.2376 0.2376
0.2747 0.2747 0.2747
0.3065 0.3065 0.3065
0.3535 0.3535 0.3535
0.3976 0.3976 0.3976
0.3996 0.3996 0.3996
0.4350 0.4350 0.4350
0.2199 0.2199 0.2199
0.2682 0.2682 0.2682
0.3174 0.3174 0.3174
0.3650 0.3650 0.3650
0.4000 0.4000 0.4000
0.4388 0.4388 0.4388
0.4658 0.4658 0.4658
0.5063 0.5063 0.5063
0.2646 0.2646 0.2646
0.3113 0.3113 0.3113
0.3694 0.3694 0.3694
0.4233 0.4233 0.4233
0.4585 0.4585 0.4585
0.4962 0.4962 0.4962
0.5318 0.5318 0.5318
0.5771 0.5771 0.5771
0.3201 0.3201 0.3201
0.3631 0.3631 0.3631
0.4189 0.4189 0.4189
0.4777 0.4777 0.4777
0.5362 0.5362 0.5362
0.5825 0.5825 0.5825
0.6159 0.6159 0.6159
0.6599 0.6599 0.6599
0.4079 0.4079 0.4079
0.4406 0.4406 0.4406
0.4852 0.4852 0.4852
0.5383 0.5383 0.5383
0.6040 0.6040 0.6040
0.6734 0.6734 0.6734
0.7216 0.7216 0.7216
0.7636 0.7636 0.7636
0.5063 0.5063 0.5063
0.5411 0.5411 0.5411
0.5820 0.5820 0.5820
0.6285 0.6285 0.6285
0.6840 0.6840 0.6840
0.7494 0.7494 0.7494
0.8205 0.8205 0.8205
0.8571 0.8571 0.8571
0.0795 0.0795 0.0795
0.1084 0.1084 0.1084
0.1531 0.1531 0.1531
0.2495 0.2495 0.2495
0.3038 0.3038 0.3038
0.3515 0.3515 0.3515
0.3801 0.3801 0.3801
0.3345 0.3345 0.3345
0.1712 0.1712 0.1712
0.2019 0.2019 0.2019
0.2341 0.2341 0.2341
0.3050 0.3050 0.3050
0.3892 0.3892 0.3892
0.4421 0.4421 0.4421
0.4676 0.4676 0.4676
0.4301 0.4301 0.4301
0.2365 0.2365 0.2365
0.2834 0.2834 0.2834
0.3242 0.3242 0.3242
0.3452 0.3452 0.3452
0.4017 0.4017 0.4017
0.4705 0.4705 0.4705
0.5059 0.5059 0.5059
0.4963 0.4963 0.4963
0.2683 0.2683 0.2683
0.3245 0.3245 0.3245
0.3893 0.3893 0.3893
0.4247 0.4247 0.4247
0.4610 0.4610 0.4610
0.5007 0.5007 0.5007
0.5507 0.5507 0.5507
0.5718 0.5718 0.5718
0.2991 0.2991 0.2991
0.3638 0.3638 0.3638
0.4193 0.4193 0.4193
0.4719 0.4719 0.4719
0.5245 0.5245 0.5245
0.5610 0.5610 0.5610
0.6047 0.6047 0.6047
0.6435 0.6435 0.6435
0.3614 0.3614 0.3614
0.4103 0.4103 0.4103
0.4774 0.4774 0.4774
0.5375 0.5375 0.5375
0.5864 0.5864 0.5864
0.6208 0.6208 0.6208
0.6634 0.6634 0.6634
0.7144 0.7144 0.7144
0.4298 0.4298 0.4298
0.4671 0.4671 0.4671
0.5347 0.5347 0.5347
0.5933 0.5933 0.5933
0.6532 0.6532 0.6532
0.7076 0.7076 0.7076
0.7542 0.7542 0.7542
0.7955 0.7955 0.7955
0.5274 0.5274 0.5274
0.5633 0.5633 0.5633
0.6127 0.6127 0.6127
0.6683 0.6683 0.6683
0.7256 0.7256 0.7256
0.7865 0.7865 0.7865
0.8468 0.8468 0.8468
0.8839 0.8839 0.8839
0.0964 0.0964 0.0964
0.1291 0.1291 0.1291
0.1662 0.1662 0.1662
0.2581 0.2581 0.2581
0.3328 0.3328 0.3328
0.3797 0.3797 0.3797
0.4262 0.4262 0.4262
0.4579 0.4579 0.4579
0.1936 0.1936 0.1936
0.2284 0.2284 0.2284
0.2669 0.2669 0.2669
0.3297 0.3297 0.3297
0.4225 0.4225 0.4225
0.4762 0.4762 0.4762
0.5243 0.5243 0.5243
0.5595 0.5595 0.5595
0.2871 0.2871 0.2871
0.3316 0.3316 0.3316
0.3746 0.3746 0.3746
0.3998 0.3998 0.3998
0.4405 0.4405 0.4405
0.5297 0.5297 0.5297
0.5990 0.5990 0.5990
0.6461 0.6461 0.6461
0.3293 0.3293 0.3293
0.3914 0.3914 0.3914
0.4632 0.4632 0.4632
0.4917 0.4917 0.4917
0.5001 0.5001 0.5001
0.5408 0.5408 0.5408
0.6075 0.6075 0.6075
0.6613 0.6613 0.6613
0.3483 0.3483 0.3483
0.4285 0.4285 0.4285
0.5012 0.5012 0.5012
0.5579 0.5579 0.5579
0.5877 0.5877 0.5877
0.6207 0.6207 0.6207
0.6594 0.6594 0.6594
0.7164 0.7164 0.7164
0.3958 0.3958 0.3958
0.4615 0.4615 0.4615
0.5490 0.5490 0.5490
0.5967 0.5967 0.5967
0.6443 0.6443 0.6443
0.6920 0.6920 0.6920
0.7280 0.7280 0.7280
0.7708 0.7708 0.7708
0.4752 0.4752 0.4752
0.5222 0.5222 0.5222
0.5917 0.5917 0.5917
0.6626 0.6626 0.6626
0.7207 0.7207 0.7207
0.7638 0.7638 0.7638
0.7888 0.7888 0.7888
0.8230 0.8230 0.8230
0.5532 0.5532 0.5532
0.5946 0.5946 0.5946
0.6486 0.6486 0.6486
0.7195 0.7195 0.7195
0.7811 0.7811 0.7811
0.8257 0.8257 0.8257
0.8674 0.8674 0.8674
0.8971 0.8971 0.8971
