lut/adanmq/Adanmq_Fuji_Neopan.cube
TITLE "Adanmq_Fuji Neopan"
LUT_3D_SIZE 32
0.0224 0.0224 0.0224
0.0293 0.0293 0.0293
0.0358 0.0358 0.0358
0.0419 0.0419 0.0419
0.0482 0.0482 0.0482
0.0552 0.0552 0.0552
0.0633 0.0633 0.0633
0.0726 0.0726 0.0726
0.0822 0.0822 0.0822
0.0911 0.0911 0.0911
0.0986 0.0986 0.0986
0.1051 0.1051 0.1051
0.1118 0.1118 0.1118
0.1199 0.1199 0.1199
0.1298 0.1298 0.1298
0.1411 0.1411 0.1411
0.1532 0.1532 0.1532
0.1657 0.1657 0.1657
0.1788 0.1788 0.1788
0.1924 0.1924 0.1924
0.2064 0.2064 0.2064
0.2208 0.2208 0.2208
0.2354 0.2354 0.2354
0.2503 0.2503 0.2503
0.2653 0.2653 0.2653
0.2802 0.2802 0.2802
0.2950 0.2950 0.2950
0.3094 0.3094 0.3094
0.3233 0.3233 0.3233
0.3369 0.3369 0.3369
0.3494 0.3494 0.3494
0.3582 0.3582 0.3582
0.0445 0.0445 0.0445
0.0515 0.0515 0.0515
0.0579 0.0579 0.0579
0.0638 0.0638 0.0638
0.0696 0.0696 0.0696
0.0759 0.0759 0.0759
0.0832 0.0832 0.0832
0.0916 0.0916 0.0916
0.1005 0.1005 0.1005
0.1089 0.1089 0.1089
0.1164 0.1164 0.1164
0.1233 0.1233 0.1233
0.1308 0.1308 0.1308
0.1398 0.1398 0.1398
0.1505 0.1505 0.1505
0.1624 0.1624 0.1624
0.1750 0.1750 0.1750
0.1880 0.1880 0.1880
0.2012 0.2012 0.2012
0.2148 0.2148 0.2148
0.2287 0.2287 0.2287
0.2430 0.2430 0.2430
0.2576 0.2576 0.2576
0.2726 0.2726 0.2726
0.2879 0.2879 0.2879
0.3033 0.3033 0.3033
0.3185 0.3185 0.3185
0.3333 0.3333 0.3333
0.3476 0.3476 0.3476
0.3615 0.3615 0.3615
0.3742 0.3742 0.3742
0.3831 0.3831 0.3831
0.0657 0.0657 0.0657
0.0727 0.0727 0.0727
0.0790 0.0790 0.0790
0.0845 0.0845 0.0845
0.0897 0.0897 0.0897
0.0950 0.0950 0.0950
0.1011 0.1011 0.1011
0.1082 0.1082 0.1082
0.1157 0.1157 0.1157
0.1232 0.1232 0.1232
0.1304 0.1304 0.1304
0.1379 0.1379 0.1379
0.1463 0.1463 0.1463
0.1563 0.1563 0.1563
0.1680 0.1680 0.1680
0.1809 0.1809 0.1809
0.1945 0.1945 0.1945
0.2082 0.2082 0.2082
0.2219 0.2219 0.2219
0.2356 0.2356 0.2356
0.2492 0.2492 0.2492
0.2631 0.2631 0.2631
0.2776 0.2776 0.2776
0.2927 0.2927 0.2927
0.3087 0.3087 0.3087
0.3250 0.3250 0.3250
0.3414 0.3414 0.3414
0.3575 0.3575 0.3575
0.3728 0.3728 0.3728
0.3878 0.3878 0.3878
0.4012 0.4012 0.4012
0.4102 0.4102 0.4102
0.0841 0.0841 0.0841
0.0910 0.0910 0.0910
0.0971 0.0971 0.0971
0.1022 0.1022 0.1022
0.1070 0.1070 0.1070
0.1120 0.1120 0.1120
0.1176 0.1176 0.1176
0.1238 0.1238 0.1238
0.1305 0.1305 0.1305
0.1373 0.1373 0.1373
0.1442 0.1442 0.1442
0.1517 0.1517 0.1517
0.1603 0.1603 0.1603
0.1706 0.1706 0.1706
0.1826 0.1826 0.1826
0.1960 0.1960 0.1960
0.2101 0.2101 0.2101
0.2246 0.2246 0.2246
0.2388 0.2388 0.2388
0.2525 0.2525 0.2525
0.2659 0.2659 0.2659
0.2793 0.2793 0.2793
0.2934 0.2934 0.2934
0.3085 0.3085 0.3085
0.3248 0.3248 0.3248
0.3420 0.3420 0.3420
0.3596 0.3596 0.3596
0.3770 0.3770 0.3770
0.3938 0.3938 0.3938
0.4102 0.4102 0.4102
0.4249 0.4249 0.4249
0.4348 0.4348 0.4348
0.0984 0.0984 0.0984
0.1052 0.1052 0.1052
0.1112 0.1112 0.1112
0.1165 0.1165 0.1165
0.1216 0.1216 0.1216
0.1272 0.1272 0.1272
0.1335 0.1335 0.1335
0.1404 0.1404 0.1404
0.1473 0.1473 0.1473
0.1542 0.1542 0.1542
0.1610 0.1610 0.1610
0.1683 0.1683 0.1683
0.1764 0.1764 0.1764
0.1860 0.1860 0.1860
0.1973 0.1973 0.1973
0.2103 0.2103 0.2103
0.2245 0.2245 0.2245
0.2392 0.2392 0.2392
0.2536 0.2536 0.2536
0.2674 0.2674 0.2674
0.2805 0.2805 0.2805
0.2935 0.2935 0.2935
0.3071 0.3071 0.3071
0.3217 0.3217 0.3217
0.3378 0.3378 0.3378
0.3550 0.3550 0.3550
0.3729 0.3729 0.3729
0.3909 0.3909 0.3909
0.4087 0.4087 0.4087
0.4262 0.4262 0.4262
0.4420 0.4420 0.4420
0.4532 0.4532 0.4532
0.1064 0.1064 0.1064
0.1134 0.1134 0.1134
0.1201 0.1201 0.1201
0.1264 0.1264 0.1264
0.1330 0.1330 0.1330
0.1401 0.1401 0.1401
0.1479 0.1479 0.1479
0.1561 0.1561 0.1561
0.1641 0.1641 0.1641
0.1717 0.1717 0.1717
0.1789 0.1789 0.1789
0.1861 0.1861 0.1861
0.1937 0.1937 0.1937
0.2025 0.2025 0.2025
0.2131 0.2131 0.2131
0.2255 0.2255 0.2255
0.2394 0.2394 0.2394
0.2540 0.2540 0.2540
0.2685 0.2685 0.2685
0.2823 0.2823 0.2823
0.2953 0.2953 0.2953
0.3080 0.3080 0.3080
0.3211 0.3211 0.3211
0.3350 0.3350 0.3350
0.3502 0.3502 0.3502
0.3664 0.3664 0.3664
0.3836 0.3836 0.3836
0.4012 0.4012 0.4012
0.4188 0.4188 0.4188
0.4366 0.4366 0.4366
0.4528 0.4528 0.4528
0.4652 0.4652 0.4652
0.1089 0.1089 0.1089
0.1163 0.1163 0.1163
0.1243 0.1243 0.1243
0.1328 0.1328 0.1328
0.1417 0.1417 0.1417
0.1511 0.1511 0.1511
0.1606 0.1606 0.1606
0.1700 0.1700 0.1700
0.1790 0.1790 0.1790
0.1874 0.1874 0.1874
0.1953 0.1953 0.1953
0.2028 0.2028 0.2028
0.2106 0.2106 0.2106
0.2193 0.2193 0.2193
0.2296 0.2296 0.2296
0.2417 0.2417 0.2417
0.2555 0.2555 0.2555
0.2701 0.2701 0.2701
0.2846 0.2846 0.2846
0.2986 0.2986 0.2986
0.3119 0.3119 0.3119
0.3247 0.3247 0.3247
0.3375 0.3375 0.3375
0.3507 0.3507 0.3507
0.3648 0.3648 0.3648
0.3796 0.3796 0.3796
0.3953 0.3953 0.3953
0.4114 0.4114 0.4114
0.4279 0.4279 0.4279
0.4446 0.4446 0.4446
0.4602 0.4602 0.4602
0.4731 0.4731 0.4731
0.1092 0.1092 0.1092
0.1170 0.1170 0.1170
0.1265 0.1265 0.1265
0.1375 0.1375 0.1375
0.1492 0.1492 0.1492
0.1610 0.1610 0.1610
0.1722 0.1722 0.1722
0.1825 0.1825 0.1825
0.1918 0.1918 0.1918
0.2005 0.2005 0.2005
0.2089 0.2089 0.2089
0.2172 0.2172 0.2172
0.2259 0.2259 0.2259
0.2353 0.2353 0.2353
0.2460 0.2460 0.2460
0.2585 0.2585 0.2585
0.2725 0.2725 0.2725
0.2873 0.2873 0.2873
0.3021 0.3021 0.3021
0.3165 0.3165 0.3165
0.3302 0.3302 0.3302
0.3435 0.3435 0.3435
0.3566 0.3566 0.3566
0.3697 0.3697 0.3697
0.3829 0.3829 0.3829
0.3965 0.3965 0.3965
0.4106 0.4106 0.4106
0.4250 0.4250 0.4250
0.4396 0.4396 0.4396
0.4547 0.4547 0.4547
0.4687 0.4687 0.4687
0.4809 0.4809 0.4809
0.1116 0.1116 0.1116
0.1198 0.1198 0.1198
0.1302 0.1302 0.1302
0.1432 0.1432 0.1432
0.1572 0.1572 0.1572
0.1711 0.1711 0.1711
0.1838 0.1838 0.1838
0.1945 0.1945 0.1945
0.2036 0.2036 0.2036
0.2119 0.2119 0.2119
0.2204 0.2204 0.2204
0.2295 0.2295 0.2295
0.2392 0.2392 0.2392
0.2498 0.2498 0.2498
0.2615 0.2615 0.2615
0.2748 0.2748 0.2748
0.2895 0.2895 0.2895
0.3049 0.3049 0.3049
0.3203 0.3203 0.3203
0.3351 0.3351 0.3351
0.3495 0.3495 0.3495
0.3634 0.3634 0.3634
0.3771 0.3771 0.3771
0.3906 0.3906 0.3906
0.4039 0.4039 0.4039
0.4169 0.4169 0.4169
0.4299 0.4299 0.4299
0.4430 0.4430 0.4430
0.4561 0.4561 0.4561
0.4693 0.4693 0.4693
0.4818 0.4818 0.4818
0.4926 0.4926 0.4926
0.1195 0.1195 0.1195
0.1276 0.1276 0.1276
0.1381 0.1381 0.1381
0.1516 0.1516 0.1516
0.1668 0.1668 0.1668
0.1823 0.1823 0.1823
0.1961 0.1961 0.1961
0.2072 0.2072 0.2072
0.2160 0.2160 0.2160
0.2237 0.2237 0.2237
0.2319 0.2319 0.2319
0.2412 0.2412 0.2412
0.2516 0.2516 0.2516
0.2630 0.2630 0.2630
0.2755 0.2755 0.2755
0.2897 0.2897 0.2897
0.3053 0.3053 0.3053
0.3217 0.3217 0.3217
0.3378 0.3378 0.3378
0.3534 0.3534 0.3534
0.3682 0.3682 0.3682
0.3827 0.3827 0.3827
0.3971 0.3971 0.3971
0.4113 0.4113 0.4113
0.4252 0.4252 0.4252
0.4387 0.4387 0.4387
0.4518 0.4518 0.4518
0.4644 0.4644 0.4644
0.4766 0.4766 0.4766
0.4887 0.4887 0.4887
0.5000 0.5000 0.5000
0.5092 0.5092 0.5092
0.1330 0.1330 0.1330
0.1408 0.1408 0.1408
0.1505 0.1505 0.1505
0.1633 0.1633 0.1633
0.1785 0.1785 0.1785
0.1947 0.1947 0.1947
0.2095 0.2095 0.2095
0.2213 0.2213 0.2213
0.2300 0.2300 0.2300
0.2373 0.2373 0.2373
0.2449 0.2449 0.2449
0.2538 0.2538 0.2538
0.2642 0.2642 0.2642
0.2757 0.2757 0.2757
0.2885 0.2885 0.2885
0.3031 0.3031 0.3031
0.3195 0.3195 0.3195
0.3369 0.3369 0.3369
0.3541 0.3541 0.3541
0.3705 0.3705 0.3705
0.3858 0.3858 0.3858
0.4005 0.4005 0.4005
0.4152 0.4152 0.4152
0.4300 0.4300 0.4300
0.4450 0.4450 0.4450
0.4595 0.4595 0.4595
0.4735 0.4735 0.4735
0.4868 0.4868 0.4868
0.4992 0.4992 0.4992
0.5110 0.5110 0.5110
0.5218 0.5218 0.5218
0.5302 0.5302 0.5302
0.1503 0.1503 0.1503
0.1576 0.1576 0.1576
0.1661 0.1661 0.1661
0.1775 0.1775 0.1775
0.1919 0.1919 0.1919
0.2081 0.2081 0.2081
0.2236 0.2236 0.2236
0.2362 0.2362 0.2362
0.2454 0.2454 0.2454
0.2526 0.2526 0.2526
0.2596 0.2596 0.2596
0.2679 0.2679 0.2679
0.2776 0.2776 0.2776
0.2886 0.2886 0.2886
0.3012 0.3012 0.3012
0.3156 0.3156 0.3156
0.3323 0.3323 0.3323
0.3504 0.3504 0.3504
0.3687 0.3687 0.3687
0.3859 0.3859 0.3859
0.4019 0.4019 0.4019
0.4168 0.4168 0.4168
0.4316 0.4316 0.4316
0.4466 0.4466 0.4466
0.4622 0.4622 0.4622
0.4779 0.4779 0.4779
0.4934 0.4934 0.4934
0.5080 0.5080 0.5080
0.5214 0.5214 0.5214
0.5337 0.5337 0.5337
0.5446 0.5446 0.5446
0.5530 0.5530 0.5530
0.1688 0.1688 0.1688
0.1757 0.1757 0.1757
0.1832 0.1832 0.1832
0.1931 0.1931 0.1931
0.2065 0.2065 0.2065
0.2222 0.2222 0.2222
0.2380 0.2380 0.2380
0.2514 0.2514 0.2514
0.2614 0.2614 0.2614
0.2689 0.2689 0.2689
0.2757 0.2757 0.2757
0.2834 0.2834 0.2834
0.2923 0.2923 0.2923
0.3026 0.3026 0.3026
0.3144 0.3144 0.3144
0.3282 0.3282 0.3282
0.3445 0.3445 0.3445
0.3628 0.3628 0.3628
0.3816 0.3816 0.3816
0.3998 0.3998 0.3998
0.4164 0.4164 0.4164
0.4319 0.4319 0.4319
0.4467 0.4467 0.4467
0.4617 0.4617 0.4617
0.4775 0.4775 0.4775
0.4940 0.4940 0.4940
0.5107 0.5107 0.5107
0.5269 0.5269 0.5269
0.5417 0.5417 0.5417
0.5551 0.5551 0.5551
0.5666 0.5666 0.5666
0.5755 0.5755 0.5755
0.1869 0.1869 0.1869
0.1936 0.1936 0.1936
0.2004 0.2004 0.2004
0.2091 0.2091 0.2091
0.2213 0.2213 0.2213
0.2364 0.2364 0.2364
0.2524 0.2524 0.2524
0.2664 0.2664 0.2664
0.2773 0.2773 0.2773
0.2855 0.2855 0.2855
0.2925 0.2925 0.2925
0.3000 0.3000 0.3000
0.3085 0.3085 0.3085
0.3181 0.3181 0.3181
0.3291 0.3291 0.3291
0.3420 0.3420 0.3420
0.3574 0.3574 0.3574
0.3750 0.3750 0.3750
0.3938 0.3938 0.3938
0.4124 0.4124 0.4124
0.4298 0.4298 0.4298
0.4459 0.4459 0.4459
0.4612 0.4612 0.4612
0.4762 0.4762 0.4762
0.4919 0.4919 0.4919
0.5085 0.5085 0.5085
0.5259 0.5259 0.5259
0.5433 0.5433 0.5433
0.5596 0.5596 0.5596
0.5745 0.5745 0.5745
0.5868 0.5868 0.5868
0.5967 0.5967 0.5967
0.2045 0.2045 0.2045
0.2110 0.2110 0.2110
0.2173 0.2173 0.2173
0.2251 0.2251 0.2251
0.2363 0.2363 0.2363
0.2507 0.2507 0.2507
0.2667 0.2667 0.2667
0.2815 0.2815 0.2815
0.2935 0.2935 0.2935
0.3027 0.3027 0.3027
0.3102 0.3102 0.3102
0.3178 0.3178 0.3178
0.3261 0.3261 0.3261
0.3354 0.3354 0.3354
0.3458 0.3458 0.3458
0.3577 0.3577 0.3577
0.3719 0.3719 0.3719
0.3884 0.3884 0.3884
0.4064 0.4064 0.4064
0.4249 0.4249 0.4249
0.4427 0.4427 0.4427
0.4595 0.4595 0.4595
0.4753 0.4753 0.4753
0.4907 0.4907 0.4907
0.5063 0.5063 0.5063
0.5226 0.5226 0.5226
0.5399 0.5399 0.5399
0.5579 0.5579 0.5579
0.5753 0.5753 0.5753
0.5917 0.5917 0.5917
0.6053 0.6053 0.6053
0.6164 0.6164 0.6164
0.2220 0.2220 0.2220
0.2284 0.2284 0.2284
0.2343 0.2343 0.2343
0.2414 0.2414 0.2414
0.2516 0.2516 0.2516
0.2653 0.2653 0.2653
0.2812 0.2812 0.2812
0.2970 0.2970 0.2970
0.3104 0.3104 0.3104
0.3208 0.3208 0.3208
0.3291 0.3291 0.3291
0.3369 0.3369 0.3369
0.3452 0.3452 0.3452
0.3543 0.3543 0.3543
0.3643 0.3643 0.3643
0.3755 0.3755 0.3755
0.3885 0.3885 0.3885
0.4037 0.4037 0.4037
0.4205 0.4205 0.4205
0.4382 0.4382 0.4382
0.4559 0.4559 0.4559
0.4730 0.4730 0.4730
0.4894 0.4894 0.4894
0.5052 0.5052 0.5052
0.5209 0.5209 0.5209
0.5369 0.5369 0.5369
0.5537 0.5537 0.5537
0.5715 0.5715 0.5715
0.5895 0.5895 0.5895
0.6071 0.6071 0.6071
0.6223 0.6223 0.6223
0.6347 0.6347 0.6347
0.2395 0.2395 0.2395
0.2459 0.2459 0.2459
0.2517 0.2517 0.2517
0.2582 0.2582 0.2582
0.2674 0.2674 0.2674
0.2803 0.2803 0.2803
0.2961 0.2961 0.2961
0.3128 0.3128 0.3128
0.3277 0.3277 0.3277
0.3397 0.3397 0.3397
0.3490 0.3490 0.3490
0.3571 0.3571 0.3571
0.3653 0.3653 0.3653
0.3742 0.3742 0.3742
0.3840 0.3840 0.3840
0.3947 0.3947 0.3947
0.4069 0.4069 0.4069
0.4207 0.4207 0.4207
0.4362 0.4362 0.4362
0.4528 0.4528 0.4528
0.4699 0.4699 0.4699
0.4869 0.4869 0.4869
0.5034 0.5034 0.5034
0.5196 0.5196 0.5196
0.5354 0.5354 0.5354
0.5513 0.5513 0.5513
0.5676 0.5676 0.5676
0.5849 0.5849 0.5849
0.6028 0.6028 0.6028
0.6211 0.6211 0.6211
0.6375 0.6375 0.6375
0.6479 0.6479 0.6479
0.2577 0.2577 0.2577
0.2640 0.2640 0.2640
0.2698 0.2698 0.2698
0.2759 0.2759 0.2759
0.2842 0.2842 0.2842
0.2960 0.2960 0.2960
0.3115 0.3115 0.3115
0.3288 0.3288 0.3288
0.3453 0.3453 0.3453
0.3589 0.3589 0.3589
0.3695 0.3695 0.3695
0.3781 0.3781 0.3781
0.3862 0.3862 0.3862
0.3948 0.3948 0.3948
0.4043 0.4043 0.4043
0.4147 0.4147 0.4147
0.4262 0.4262 0.4262
0.4391 0.4391 0.4391
0.4533 0.4533 0.4533
0.4687 0.4687 0.4687
0.4848 0.4848 0.4848
0.5012 0.5012 0.5012
0.5175 0.5175 0.5175
0.5337 0.5337 0.5337
0.5496 0.5496 0.5496
0.5655 0.5655 0.5655
0.5815 0.5815 0.5815
0.5982 0.5982 0.5982
0.6156 0.6156 0.6156
0.6339 0.6339 0.6339
0.6508 0.6508 0.6508
0.6619 0.6619 0.6619
0.2764 0.2764 0.2764
0.2829 0.2829 0.2829
0.2887 0.2887 0.2887
0.2945 0.2945 0.2945
0.3019 0.3019 0.3019
0.3126 0.3126 0.3126
0.3272 0.3272 0.3272
0.3447 0.3447 0.3447
0.3624 0.3624 0.3624
0.3779 0.3779 0.3779
0.3901 0.3901 0.3901
0.3995 0.3995 0.3995
0.4077 0.4077 0.4077
0.4160 0.4160 0.4160
0.4251 0.4251 0.4251
0.4351 0.4351 0.4351
0.4462 0.4462 0.4462
0.4583 0.4583 0.4583
0.4715 0.4715 0.4715
0.4857 0.4857 0.4857
0.5006 0.5006 0.5006
0.5161 0.5161 0.5161
0.5319 0.5319 0.5319
0.5477 0.5477 0.5477
0.5635 0.5635 0.5635
0.5793 0.5793 0.5793
0.5952 0.5952 0.5952
0.6115 0.6115 0.6115
0.6283 0.6283 0.6283
0.6460 0.6460 0.6460
0.6626 0.6626 0.6626
0.6740 0.6740 0.6740
0.2959 0.2959 0.2959
0.3024 0.3024 0.3024
0.3082 0.3082 0.3082
0.3139 0.3139 0.3139
0.3207 0.3207 0.3207
0.3300 0.3300 0.3300
0.3434 0.3434 0.3434
0.3604 0.3604 0.3604
0.3790 0.3790 0.3790
0.3962 0.3962 0.3962
0.4103 0.4103 0.4103
0.4210 0.4210 0.4210
0.4296 0.4296 0.4296
0.4378 0.4378 0.4378
0.4464 0.4464 0.4464
0.4560 0.4560 0.4560
0.4665 0.4665 0.4665
0.4781 0.4781 0.4781
0.4905 0.4905 0.4905
0.5037 0.5037 0.5037
0.5175 0.5175 0.5175
0.5319 0.5319 0.5319
0.5468 0.5468 0.5468
0.5619 0.5619 0.5619
0.5773 0.5773 0.5773
0.5928 0.5928 0.5928
0.6085 0.6085 0.6085
0.6246 0.6246 0.6246
0.6409 0.6409 0.6409
0.6578 0.6578 0.6578
0.6736 0.6736 0.6736
0.6851 0.6851 0.6851
0.3160 0.3160 0.3160
0.3225 0.3225 0.3225
0.3283 0.3283 0.3283
0.3340 0.3340 0.3340
0.3402 0.3402 0.3402
0.3483 0.3483 0.3483
0.3602 0.3602 0.3602
0.3763 0.3763 0.3763
0.3951 0.3951 0.3951
0.4139 0.4139 0.4139
0.4299 0.4299 0.4299
0.4424 0.4424 0.4424
0.4519 0.4519 0.4519
0.4601 0.4601 0.4601
0.4684 0.4684 0.4684
0.4774 0.4774 0.4774
0.4874 0.4874 0.4874
0.4985 0.4985 0.4985
0.5102 0.5102 0.5102
0.5226 0.5226 0.5226
0.5355 0.5355 0.5355
0.5489 0.5489 0.5489
0.5626 0.5626 0.5626
0.5767 0.5767 0.5767
0.5913 0.5913 0.5913
0.6063 0.6063 0.6063
0.6217 0.6217 0.6217
0.6375 0.6375 0.6375
0.6535 0.6535 0.6535
0.6698 0.6698 0.6698
0.6849 0.6849 0.6849
0.6964 0.6964 0.6964
0.3365 0.3365 0.3365
0.3430 0.3430 0.3430
0.3488 0.3488 0.3488
0.3544 0.3544 0.3544
0.3603 0.3603 0.3603
0.3675 0.3675 0.3675
0.3778 0.3778 0.3778
0.3926 0.3926 0.3926
0.4110 0.4110 0.4110
0.4309 0.4309 0.4309
0.4489 0.4489 0.4489
0.4633 0.4633 0.4633
0.4742 0.4742 0.4742
0.4829 0.4829 0.4829
0.4910 0.4910 0.4910
0.4995 0.4995 0.4995
0.5089 0.5089 0.5089
0.5193 0.5193 0.5193
0.5306 0.5306 0.5306
0.5425 0.5425 0.5425
0.5547 0.5547 0.5547
0.5670 0.5670 0.5670
0.5796 0.5796 0.5796
0.5926 0.5926 0.5926
0.6061 0.6061 0.6061
0.6201 0.6201 0.6201
0.6349 0.6349 0.6349
0.6504 0.6504 0.6504
0.6661 0.6661 0.6661
0.6822 0.6822 0.6822
0.6970 0.6970 0.6970
0.7086 0.7086 0.7086
0.3572 0.3572 0.3572
0.3637 0.3637 0.3637
0.3696 0.3696 0.3696
0.3752 0.3752 0.3752
0.3810 0.3810 0.3810
0.3876 0.3876 0.3876
0.3966 0.3966 0.3966
0.4097 0.4097 0.4097
0.4273 0.4273 0.4273
0.4475 0.4475 0.4475
0.4671 0.4671 0.4671
0.4837 0.4837 0.4837
0.4963 0.4963 0.4963
0.5059 0.5059 0.5059
0.5140 0.5140 0.5140
0.5222 0.5222 0.5222
0.5310 0.5310 0.5310
0.5407 0.5407 0.5407
0.5514 0.5514 0.5514
0.5628 0.5628 0.5628
0.5745 0.5745 0.5745
0.5862 0.5862 0.5862
0.5979 0.5979 0.5979
0.6097 0.6097 0.6097
0.6219 0.6219 0.6219
0.6348 0.6348 0.6348
0.6486 0.6486 0.6486
0.6634 0.6634 0.6634
0.6788 0.6788 0.6788
0.6948 0.6948 0.6948
0.7095 0.7095 0.7095
0.7214 0.7214 0.7214
0.3781 0.3781 0.3781
0.3847 0.3847 0.3847
0.3906 0.3906 0.3906
0.3963 0.3963 0.3963
0.4023 0.4023 0.4023
0.4086 0.4086 0.4086
0.4165 0.4165 0.4165
0.4280 0.4280 0.4280
0.4441 0.4441 0.4441
0.4639 0.4639 0.4639
0.4846 0.4846 0.4846
0.5032 0.5032 0.5032
0.5178 0.5178 0.5178
0.5287 0.5287 0.5287
0.5373 0.5373 0.5373
0.5453 0.5453 0.5453
0.5536 0.5536 0.5536
0.5626 0.5626 0.5626
0.5726 0.5726 0.5726
0.5834 0.5834 0.5834
0.5947 0.5947 0.5947
0.6060 0.6060 0.6060
0.6171 0.6171 0.6171
0.6280 0.6280 0.6280
0.6390 0.6390 0.6390
0.6506 0.6506 0.6506
0.6632 0.6632 0.6632
0.6769 0.6769 0.6769
0.6916 0.6916 0.6916
0.7071 0.7071 0.7071
0.7217 0.7217 0.7217
0.7340 0.7340 0.7340
0.3993 0.3993 0.3993
0.4059 0.4059 0.4059
0.4120 0.4120 0.4120
0.4179 0.4179 0.4179
0.4240 0.4240 0.4240
0.4303 0.4303 0.4303
0.4376 0.4376 0.4376
0.4475 0.4475 0.4475
0.4619 0.4619 0.4619
0.4806 0.4806 0.4806
0.5017 0.5017 0.5017
0.5219 0.5219 0.5219
0.5386 0.5386 0.5386
0.5512 0.5512 0.5512
0.5607 0.5607 0.5607
0.5687 0.5687 0.5687
0.5766 0.5766 0.5766
0.5849 0.5849 0.5849
0.5940 0.5940 0.5940
0.6041 0.6041 0.6041
0.6149 0.6149 0.6149
0.6258 0.6258 0.6258
0.6367 0.6367 0.6367
0.6471 0.6471 0.6471
0.6573 0.6573 0.6573
0.6678 0.6678 0.6678
0.6791 0.6791 0.6791
0.6915 0.6915 0.6915
0.7050 0.7050 0.7050
0.7195 0.7195 0.7195
0.7334 0.7334 0.7334
0.7460 0.7460 0.7460
0.4208 0.4208 0.4208
0.4275 0.4275 0.4275
0.4337 0.4337 0.4337
0.4399 0.4399 0.4399
0.4462 0.4462 0.4462
0.4527 0.4527 0.4527
0.4597 0.4597 0.4597
0.4684 0.4684 0.4684
0.4809 0.4809 0.4809
0.4980 0.4980 0.4980
0.5185 0.5185 0.5185
0.5398 0.5398 0.5398
0.5585 0.5585 0.5585
0.5731 0.5731 0.5731
0.5838 0.5838 0.5838
0.5922 0.5922 0.5922
0.5998 0.5998 0.5998
0.6075 0.6075 0.6075
0.6158 0.6158 0.6158
0.6250 0.6250 0.6250
0.6350 0.6350 0.6350
0.6456 0.6456 0.6456
0.6563 0.6563 0.6563
0.6667 0.6667 0.6667
0.6766 0.6766 0.6766
0.6864 0.6864 0.6864
0.6966 0.6966 0.6966
0.7076 0.7076 0.7076
0.7195 0.7195 0.7195
0.7325 0.7325 0.7325
0.7452 0.7452 0.7452
0.7576 0.7576 0.7576
0.4427 0.4427 0.4427
0.4495 0.4495 0.4495
0.4560 0.4560 0.4560
0.4623 0.4623 0.4623
0.4689 0.4689 0.4689
0.4756 0.4756 0.4756
0.4825 0.4825 0.4825
0.4904 0.4904 0.4904
0.5011 0.5011 0.5011
0.5162 0.5162 0.5162
0.5356 0.5356 0.5356
0.5572 0.5572 0.5572
0.5775 0.5775 0.5775
0.5941 0.5941 0.5941
0.6064 0.6064 0.6064
0.6156 0.6156 0.6156
0.6231 0.6231 0.6231
0.6304 0.6304 0.6304
0.6379 0.6379 0.6379
0.6461 0.6461 0.6461
0.6552 0.6552 0.6552
0.6653 0.6653 0.6653
0.6758 0.6758 0.6758
0.6863 0.6863 0.6863
0.6964 0.6964 0.6964
0.7061 0.7061 0.7061
0.7156 0.7156 0.7156
0.7255 0.7255 0.7255
0.7359 0.7359 0.7359
0.7472 0.7472 0.7472
0.7583 0.7583 0.7583
0.7700 0.7700 0.7700
0.4651 0.4651 0.4651
0.4720 0.4720 0.4720
0.4786 0.4786 0.4786
0.4853 0.4853 0.4853
0.4920 0.4920 0.4920
0.4989 0.4989 0.4989
0.5059 0.5059 0.5059
0.5133 0.5133 0.5133
0.5226 0.5226 0.5226
0.5357 0.5357 0.5357
0.5533 0.5533 0.5533
0.5744 0.5744 0.5744
0.5957 0.5957 0.5957
0.6142 0.6142 0.6142
0.6284 0.6284 0.6284
0.6386 0.6386 0.6386
0.6464 0.6464 0.6464
0.6533 0.6533 0.6533
0.6601 0.6601 0.6601
0.6674 0.6674 0.6674
0.6756 0.6756 0.6756
0.6849 0.6849 0.6849
0.6951 0.6951 0.6951
0.7058 0.7058 0.7058
0.7163 0.7163 0.7163
0.7263 0.7263 0.7263
0.7357 0.7357 0.7357
0.7450 0.7450 0.7450
0.7543 0.7543 0.7543
0.7640 0.7640 0.7640
0.7736 0.7736 0.7736
0.7842 0.7842 0.7842
0.4879 0.4879 0.4879
0.4949 0.4949 0.4949
0.5017 0.5017 0.5017
0.5085 0.5085 0.5085
