lut/adanmq/Adanmq_Fuji_Reala_8563.cube
TITLE "Adanmq_Fuji Reala 8563"
LUT_3D_SIZE 8
DOMAIN_MIN 0.000000 0.000000 0.000000
DOMAIN_MAX 0.903226 0.903226 0.903226
0.0215 0.0226 0.0223
0.1442 0.0227 0.0223
0.2360 0.0228 0.0224
0.3142 0.0229 0.0224
0.3908 0.0229 0.0224
0.4763 0.0229 0.0224
0.5748 0.0229 0.0222
0.6840 0.0228 0.0221
0.0215 0.1389 0.0222
0.1641 0.1463 0.0223
0.2847 0.1575 0.0224
0.3887 0.1678 0.0225
0.4759 0.1732 0.0226
0.5544 0.1746 0.0226
0.6331 0.1734 0.0225
0.7223 0.1701 0.0223
0.0215 0.2383 0.0221
0.1960 0.2562 0.0223
0.3231 0.2748 0.0225
0.4332 0.2881 0.0226
0.5377 0.2982 0.0227
0.6289 0.3047 0.0228
0.7112 0.3080 0.0229
0.8008 0.3072 0.0228
0.0216 0.3447 0.0220
0.2237 0.3581 0.0222
0.3536 0.3792 0.0225
0.4600 0.3874 0.0226
0.5605 0.3988 0.0227
0.6609 0.4094 0.0229
0.7486 0.4206 0.0230
0.8317 0.4287 0.0231
0.0216 0.4541 0.0219
0.2411 0.4562 0.0219
0.3675 0.4811 0.0224
0.4822 0.4840 0.0226
0.5804 0.4893 0.0227
0.6778 0.4975 0.0228
0.7726 0.5120 0.0230
0.8623 0.5302 0.0233
0.0216 0.5628 0.0217
0.2522 0.5566 0.0217
0.3761 0.5751 0.0221
0.4853 0.5917 0.0226
0.5945 0.5889 0.0226
0.6923 0.5903 0.0228
0.7861 0.5957 0.0229
0.8799 0.6187 0.0233
0.0216 0.6724 0.0216
0.2578 0.6641 0.0216
0.3876 0.6660 0.0217
0.4828 0.7007 0.0224
0.5912 0.7032 0.0226
0.6973 0.6977 0.0227
0.7921 0.6920 0.0229
0.8899 0.6993 0.0232
0.0216 0.7835 0.0215
0.2604 0.7757 0.0215
0.3957 0.7684 0.0215
0.4909 0.7990 0.0221
0.5801 0.8214 0.0226
0.6908 0.8117 0.0228
0.7896 0.8032 0.0230
0.8871 0.7973 0.0232
0.0215 0.0225 0.1233
0.1508 0.0226 0.1296
0.2527 0.0227 0.1360
0.3412 0.0228 0.1416
0.4239 0.0229 0.1459
0.5053 0.0229 0.1480
0.5874 0.0229 0.1421
0.6815 0.0228 0.1259
0.0215 0.1313 0.1180
0.1679 0.1455 0.1304
0.2907 0.1574 0.1405
0.3957 0.1682 0.1492
0.4838 0.1746 0.1559
0.5580 0.1766 0.1595
0.6226 0.1750 0.1549
0.7033 0.1685 0.1380
0.0215 0.2372 0.1139
0.1914 0.2611 0.1321
0.3158 0.2844 0.1491
0.4262 0.2985 0.1585
0.5324 0.3111 0.1687
0.6288 0.3175 0.1790
0.7032 0.3156 0.1850
0.7614 0.3067 0.1733
0.0216 0.3453 0.1117
0.2242 0.3548 0.1244
0.3509 0.3865 0.1576
0.4575 0.4026 0.1717
0.5540 0.4211 0.1802
0.6537 0.4354 0.1919
0.7451 0.4411 0.2054
0.8267 0.4384 0.2157
0.0216 0.4534 0.1058
0.2454 0.4506 0.1075
0.3722 0.4779 0.1444
0.4860 0.4961 0.1762
0.5857 0.5046 0.1855
0.6768 0.5253 0.2004
0.7676 0.5400 0.2177
0.8528 0.5483 0.2379
0.0216 0.5589 0.0964
0.2550 0.5521 0.0938
0.3854 0.5608 0.1107
0.4897 0.5968 0.1649
0.6004 0.5984 0.1779
0.6974 0.6052 0.1947
0.7857 0.6206 0.2166
0.8751 0.6348 0.2436
0.0216 0.6656 0.0878
0.2591 0.6576 0.0854
0.3949 0.6508 0.0861
0.4995 0.6788 0.1293
0.5941 0.7054 0.1738
0.7014 0.6993 0.1879
0.7990 0.6995 0.2097
0.8889 0.7105 0.2313
0.0216 0.7766 0.0823
0.2609 0.7692 0.0806
0.3968 0.7609 0.0792
0.5143 0.7658 0.0946
0.5915 0.8054 0.1631
0.6899 0.8084 0.1990
0.7996 0.7994 0.2165
0.8973 0.7986 0.2269
0.0215 0.0223 0.1925
0.1508 0.0225 0.2180
0.2586 0.0227 0.2317
0.3636 0.0228 0.2503
0.4667 0.0229 0.2620
0.5535 0.0229 0.2700
0.6358 0.0230 0.2750
0.7098 0.0229 0.2557
0.0215 0.1221 0.2083
0.1707 0.1447 0.2391
0.2940 0.1612 0.2585
0.3977 0.1700 0.2670
0.4939 0.1772 0.2729
0.5757 0.1817 0.2792
0.6535 0.1849 0.2842
0.7272 0.1762 0.2653
0.0215 0.2338 0.2164
0.1872 0.2688 0.2489
0.3109 0.2967 0.2746
0.4269 0.3059 0.2840
0.5292 0.3142 0.2922
0.6253 0.3225 0.3019
0.6991 0.3247 0.3056
0.7607 0.3163 0.2921
0.0215 0.3480 0.2170
0.2120 0.3695 0.2405
0.3275 0.4093 0.2760
0.4381 0.4305 0.2949
0.5424 0.4411 0.3027
0.6445 0.4517 0.3150
0.7447 0.4570 0.3315
0.8269 0.4519 0.3387
0.0216 0.4620 0.2163
0.2376 0.4634 0.2284
0.3633 0.4809 0.2558
0.4641 0.5194 0.3044
0.5680 0.5359 0.3160
0.6620 0.5574 0.3261
0.7550 0.5724 0.3464
0.8512 0.5743 0.3691
0.0216 0.5709 0.2131
0.2542 0.5585 0.2174
0.3884 0.5556 0.2252
0.4861 0.5958 0.2855
0.5922 0.6180 0.3202
0.6957 0.6263 0.3300
0.7742 0.6528 0.3597
0.8612 0.6729 0.3897
0.0216 0.6740 0.2088
0.2599 0.6569 0.2098
0.3957 0.6488 0.2104
0.5076 0.6656 0.2377
0.5926 0.7159 0.3042
0.7041 0.7175 0.3179
0.7965 0.7211 0.3506
0.8751 0.7458 0.3974
0.0216 0.7774 0.2047
0.2610 0.7638 0.2050
0.3958 0.7564 0.2048
0.5207 0.7531 0.2075
0.6130 0.7878 0.2560
0.6959 0.8187 0.3156
0.8022 0.8106 0.3433
0.8958 0.8170 0.3803
0.0215 0.0222 0.2655
0.1487 0.0224 0.2996
0.2517 0.0227 0.3283
0.3674 0.0229 0.3417
0.4750 0.0230 0.3761
0.5704 0.0230 0.3843
0.6564 0.0231 0.3904
0.7490 0.0231 0.3938
0.0215 0.1155 0.2960
0.1663 0.1362 0.3287
0.2832 0.1612 0.3621
0.3922 0.1714 0.3702
0.4895 0.1802 0.3845
0.5858 0.1860 0.3888
0.6641 0.1887 0.3962
0.7527 0.1874 0.3986
0.0215 0.2272 0.3228
0.1876 0.2602 0.3548
0.3096 0.2963 0.3939
0.4273 0.3088 0.4082
0.5258 0.3143 0.4115
0.6196 0.3217 0.4156
0.7003 0.3273 0.4212
0.7723 0.3278 0.4230
0.0216 0.3395 0.3282
0.2098 0.3713 0.3590
0.3223 0.4176 0.4012
0.4371 0.4399 0.4221
0.5468 0.4428 0.4284
0.6426 0.4460 0.4350
0.7372 0.4540 0.4469
0.8161 0.4556 0.4508
0.0216 0.4563 0.3330
0.2312 0.4768 0.3560
0.3465 0.5039 0.3836
0.4435 0.5455 0.4188
0.5499 0.5591 0.4346
0.6526 0.5664 0.4428
0.7485 0.5751 0.4581
0.8502 0.5805 0.4827
0.0216 0.5728 0.3348
0.2501 0.5776 0.3459
0.3737 0.5814 0.3604
0.4762 0.6010 0.3920
0.5641 0.6393 0.4417
0.6742 0.6577 0.4565
0.7661 0.6798 0.4708
0.8564 0.6947 0.5000
0.0216 0.6870 0.3301
0.2623 0.6748 0.3337
0.3901 0.6638 0.3425
0.5084 0.6601 0.3526
0.5889 0.7033 0.4214
0.6931 0.7324 0.4657
0.8010 0.7422 0.4820
0.8764 0.7718 0.5196
0.0217 0.7987 0.3243
0.2645 0.7772 0.3281
0.3926 0.7611 0.3355
0.5161 0.7566 0.3384
0.6200 0.7762 0.3681
0.6943 0.8265 0.4488
0.8059 0.8287 0.4733
0.8984 0.8332 0.5171
0.0215 0.0221 0.3551
0.1483 0.0222 0.3738
0.2480 0.0227 0.4321
0.3625 0.0229 0.4376
0.4755 0.0229 0.4475
0.5640 0.0230 0.4833
0.6488 0.0231 0.4893
0.7490 0.0231 0.4889
0.0215 0.1106 0.3786
0.1578 0.1239 0.4016
0.2748 0.1558 0.4563
0.3806 0.1716 0.4647
0.4874 0.1798 0.4697
0.5788 0.1866 0.4924
0.6620 0.1871 0.4925
0.7491 0.1860 0.4925
0.0215 0.2214 0.4204
0.1805 0.2469 0.4415
0.3014 0.2852 0.4833
0.4125 0.3047 0.5047
0.5164 0.3124 0.5070
0.6073 0.3225 0.5151
0.6982 0.3301 0.5171
0.7762 0.3297 0.5206
0.0216 0.3329 0.4363
0.2067 0.3612 0.4603
0.3218 0.4039 0.4990
0.4350 0.4352 0.5363
0.5481 0.4417 0.5463
0.6414 0.4432 0.5464
0.7295 0.4508 0.5536
0.8163 0.4554 0.5583
0.0216 0.4454 0.4425
0.2329 0.4690 0.4659
0.3437 0.5043 0.5010
0.4414 0.5463 0.5376
0.5525 0.5630 0.5544
0.6573 0.5612 0.5583
0.7485 0.5638 0.5678
0.8420 0.5720 0.5837
0.0217 0.5604 0.4484
0.2548 0.5728 0.4643
0.3668 0.5979 0.4932
0.4644 0.6223 0.5151
0.5522 0.6629 0.5467
0.6575 0.6726 0.5624
0.7579 0.6800 0.5765
0.8515 0.6876 0.5974
0.0217 0.6761 0.4507
0.2677 0.6751 0.4534
0.3845 0.6920 0.4779
0.4917 0.6906 0.4894
0.5861 0.7082 0.5178
0.6692 0.7498 0.5728
0.7796 0.7726 0.5995
0.8711 0.7962 0.6182
0.0217 0.7928 0.4460
0.2708 0.7861 0.4444
0.3941 0.7811 0.4583
0.5053 0.7750 0.4714
0.6227 0.7713 0.4784
0.7026 0.8110 0.5538
0.7995 0.8440 0.6240
0.9051 0.8616 0.6525
0.0214 0.0220 0.4597
0.1424 0.0220 0.4592
0.2499 0.0225 0.5144
0.3513 0.0229 0.5506
0.4649 0.0229 0.5364
0.5680 0.0230 0.5369
0.6418 0.0230 0.5763
0.7317 0.0231 0.5871
0.0214 0.1063 0.4642
0.1443 0.1112 0.4722
0.2704 0.1395 0.5323
0.3708 0.1720 0.5689
0.4725 0.1790 0.5540
0.5753 0.1824 0.5549
0.6541 0.1848 0.5847
0.7345 0.1848 0.5852
0.0215 0.2179 0.5090
0.1636 0.2336 0.5138
0.2870 0.2706 0.5591
0.4030 0.3005 0.5966
0.5025 0.3104 0.5985
0.6041 0.3198 0.5960
0.6836 0.3258 0.6068
0.7708 0.3268 0.6024
0.0215 0.3283 0.5393
0.1977 0.3482 0.5484
0.3141 0.3877 0.5846
0.4257 0.4206 0.6156
0.5333 0.4357 0.6355
0.6359 0.4415 0.6367
0.7200 0.4502 0.6433
0.8106 0.4596 0.6424
0.0216 0.4401 0.5518
0.2297 0.4597 0.5656
0.3381 0.4940 0.5934
0.4402 0.5283 0.6255
0.5493 0.5543 0.6634
0.6598 0.5572 0.6710
0.7496 0.5589 0.6729
0.8379 0.5660 0.6834
0.0217 0.5503 0.5566
0.2614 0.5633 0.5692
0.3640 0.5922 0.5991
0.4627 0.6218 0.6281
0.5518 0.6590 0.6594
0.6603 0.6722 0.6744
0.7617 0.6699 0.6806
0.8502 0.6737 0.6973
0.0217 0.6646 0.5586
0.2765 0.6640 0.5660
0.3853 0.6859 0.5928
0.4877 0.7077 0.6205
0.5766 0.7295 0.6372
0.6610 0.7697 0.6658
0.7632 0.7806 0.6862
0.8588 0.7898 0.7095
0.0217 0.7828 0.5637
0.2718 0.7773 0.5655
0.3955 0.7815 0.5754
0.5002 0.8031 0.6068
0.6048 0.7986 0.6154
0.7008 0.8179 0.6412
0.7798 0.8620 0.7135
0.8846 0.8843 0.7404
0.0214 0.0219 0.5685
0.1324 0.0219 0.5630
0.2490 0.0221 0.5814
0.3397 0.0228 0.6512
0.4465 0.0230 0.6464
0.5558 0.0230 0.6287
0.6547 0.0230 0.6267
0.7342 0.0231 0.6711
0.0214 0.1009 0.5627
0.1287 0.0996 0.5588
0.2555 0.1090 0.5818
0.3605 0.1576 0.6539
0.4488 0.1772 0.6511
0.5537 0.1776 0.6305
0.6516 0.1777 0.6293
0.7344 0.1831 0.6691
0.0214 0.2155 0.5901
0.1391 0.2214 0.5808
0.2643 0.2427 0.6113
0.3940 0.2828 0.6795
0.4917 0.3066 0.6958
0.5871 0.3179 0.6812
0.6783 0.3185 0.6717
0.7624 0.3173 0.6887
0.0215 0.3283 0.6388
0.1805 0.3368 0.6285
0.2889 0.3661 0.6439
0.4054 0.4012 0.6855
0.5171 0.4235 0.7110
0.6197 0.4356 0.7202
0.7165 0.4456 0.7147
0.7958 0.4525 0.7170
0.0216 0.4361 0.6586
0.2198 0.4502 0.6560
0.3288 0.4780 0.6768
0.4324 0.5087 0.7034
0.5377 0.5356 0.7292
0.6443 0.5498 0.7515
0.7451 0.5562 0.7544
0.8303 0.5650 0.7601
0.0217 0.5461 0.6664
0.2554 0.5550 0.6694
0.3583 0.5823 0.6891
0.4561 0.6111 0.7106
0.5512 0.6381 0.7395
0.6571 0.6610 0.7776
0.7643 0.6631 0.7852
0.8528 0.6665 0.7915
0.0217 0.6565 0.6705
0.2858 0.6565 0.6721
0.3864 0.6770 0.6920
0.4820 0.7033 0.7214
0.5766 0.7297 0.7457
0.6617 0.7643 0.7731
0.7655 0.7763 0.7875
0.8661 0.7775 0.8011
0.0217 0.7756 0.6714
0.2845 0.7712 0.6758
0.3973 0.7737 0.6882
0.4953 0.7952 0.7171
0.5998 0.8143 0.7440
0.6903 0.8355 0.7584
0.7727 0.8754 0.7860
0.8736 0.8858 0.8094
0.0214 0.0218 0.6801
0.1216 0.0218 0.6747
0.2431 0.0218 0.6714
0.3350 0.0225 0.7317
0.4278 0.0230 0.7580
0.5366 0.0229 0.7416
0.6445 0.0229 0.7266
0.7487 0.0230 0.7285
0.0214 0.0940 0.6732
0.1162 0.0914 0.6679
0.2387 0.0893 0.6645
0.3490 0.1204 0.7079
0.4285 0.1715 0.7525
0.5297 0.1754 0.7368
0.6363 0.1744 0.7220
0.7422 0.1756 0.7250
0.0214 0.2135 0.6776
0.1134 0.2128 0.6661
0.2361 0.2155 0.6712
0.3713 0.2385 0.7217
0.4771 0.2885 0.7834
0.5550 0.3103 0.7688
0.6475 0.3109 0.7429
0.7461 0.3078 0.7382
0.0215 0.3290 0.7325
0.1500 0.3312 0.7101
0.2520 0.3443 0.7014
0.3767 0.3655 0.7340
0.5017 0.3995 0.7917
0.6060 0.4230 0.8112
0.7005 0.4434 0.8044
0.7888 0.4428 0.7911
0.0216 0.4372 0.7665
0.2013 0.4467 0.7541
0.3033 0.4573 0.7456
0.3991 0.4825 0.7581
0.5109 0.5093 0.7908
0.6193 0.5284 0.8116
0.7245 0.5463 0.8253
0.8230 0.5604 0.8213
0.0216 0.5401 0.7741
0.2401 0.5480 0.7689
0.3426 0.5651 0.7724
0.4427 0.5913 0.7928
0.5425 0.6151 0.8113
0.6431 0.6376 0.8316
0.7475 0.6532 0.8538
0.8446 0.6620 0.8565
0.0217 0.6543 0.7813
0.2666 0.6537 0.7785
0.3768 0.6657 0.7859
0.4703 0.6906 0.8062
0.5666 0.7142 0.8231
0.6626 0.7403 0.8475
0.7649 0.7642 0.8826
0.8704 0.7684 0.8918
0.0217 0.7717 0.7915
0.2833 0.7694 0.7904
0.4024 0.7718 0.7953
0.4926 0.7879 0.8141
0.5874 0.8077 0.8369
0.6877 0.8321 0.8584
0.7766 0.8687 0.8836
0.8805 0.8822 0.8966
