lut/adanmq/Adanmq_Fuji_Neopan.cube
TITLE "Adanmq_Fuji Neopan"
LUT_3D_SIZE 5
DOMAIN_MIN 0.000000 0.000000 0.000000
DOMAIN_MAX 0.903226 0.903226 0.903226
0.0224 0.0224 0.0224
0.0726 0.0726 0.0726
0.1298 0.1298 0.1298
0.2208 0.2208 0.2208
0.3233 0.3233 0.3233
0.1092 0.1092 0.1092
0.1825 0.1825 0.1825
0.2460 0.2460 0.2460
0.3435 0.3435 0.3435
0.4396 0.4396 0.4396
0.2045 0.2045 0.2045
0.2815 0.2815 0.2815
0.3458 0.3458 0.3458
0.4595 0.4595 0.4595
0.5753 0.5753 0.5753
0.3365 0.3365 0.3365
0.3926 0.3926 0.3926
0.4910 0.4910 0.4910
0.5670 0.5670 0.5670
0.6661 0.6661 0.6661
0.4879 0.4879 0.4879
0.5369 0.5369 0.5369
0.6495 0.6495 0.6495
0.7047 0.7047 0.7047
0.7744 0.7744 0.7744
0.0565 0.0565 0.0565
0.1578 0.1578 0.1578
0.2412 0.2412 0.2412
0.2951 0.2951 0.2951
0.3678 0.3678 0.3678
0.1609 0.1609 0.1609
0.2806 0.2806 0.2806
0.3160 0.3160 0.3160
0.4062 0.4062 0.4062
0.5318 0.5318 0.5318
0.2497 0.2497 0.2497
0.3117 0.3117 0.3117
0.4337 0.4337 0.4337
0.5025 0.5025 0.5025
0.5707 0.5707 0.5707
0.3711 0.3711 0.3711
0.4055 0.4055 0.4055
0.5260 0.5260 0.5260
0.5895 0.5895 0.5895
0.6804 0.6804 0.6804
0.5073 0.5073 0.5073
0.5554 0.5554 0.5554
0.6234 0.6234 0.6234
0.7205 0.7205 0.7205
0.7798 0.7798 0.7798
0.1296 0.1296 0.1296
0.2446 0.2446 0.2446
0.3398 0.3398 0.3398
0.3911 0.3911 0.3911
0.4354 0.4354 0.4354
0.2467 0.2467 0.2467
0.3396 0.3396 0.3396
0.4284 0.4284 0.4284
0.4917 0.4917 0.4917
0.5833 0.5833 0.5833
0.3265 0.3265 0.3265
0.4112 0.4112 0.4112
0.5348 0.5348 0.5348
0.5477 0.5477 0.5477
0.6285 0.6285 0.6285
0.4233 0.4233 0.4233
0.4915 0.4915 0.4915
0.5667 0.5667 0.5667
0.6741 0.6741 0.6741
0.7337 0.7337 0.7337
0.5838 0.5838 0.5838
0.6042 0.6042 0.6042
0.6443 0.6443 0.6443
0.7418 0.7418 0.7418
0.8104 0.8104 0.8104
0.1987 0.1987 0.1987
0.2794 0.2794 0.2794
0.4125 0.4125 0.4125
0.4632 0.4632 0.4632
0.4811 0.4811 0.4811
0.3526 0.3526 0.3526
0.4159 0.4159 0.4159
0.4965 0.4965 0.4965
0.5656 0.5656 0.5656
0.6176 0.6176 0.6176
0.4199 0.4199 0.4199
0.4990 0.4990 0.4990
0.5774 0.5774 0.5774
0.6394 0.6394 0.6394
0.6855 0.6855 0.6855
0.5037 0.5037 0.5037
0.5642 0.5642 0.5642
0.6481 0.6481 0.6481
0.7201 0.7201 0.7201
0.7450 0.7450 0.7450
0.6231 0.6231 0.6231
0.6523 0.6523 0.6523
0.7195 0.7195 0.7195
0.7811 0.7811 0.7811
0.8668 0.8668 0.8668
0.2496 0.2496 0.2496
0.3110 0.3110 0.3110
0.4343 0.4343 0.4343
0.4873 0.4873 0.4873
0.5296 0.5296 0.5296
0.4284 0.4284 0.4284
0.4896 0.4896 0.4896
0.5215 0.5215 0.5215
0.6364 0.6364 0.6364
0.6841 0.6841 0.6841
0.5141 0.5141 0.5141
0.6049 0.6049 0.6049
0.6242 0.6242 0.6242
0.6815 0.6815 0.6815
0.7544 0.7544 0.7544
0.5862 0.5862 0.5862
0.6556 0.6556 0.6556
0.6985 0.6985 0.6985
0.7483 0.7483 0.7483
0.8027 0.8027 0.8027
0.6795 0.6795 0.6795
0.7308 0.7308 0.7308
0.7734 0.7734 0.7734
0.8297 0.8297 0.8297
0.8874 0.8874 0.8874
