lut/adanmq/Adanmq_Kodak_Tri-X_400.cube
TITLE "Adanmq_Kodak Tri-X 400"
LUT_3D_SIZE 5
DOMAIN_MIN 0.000000 0.000000 0.000000
DOMAIN_MAX 0.903226 0.903226 0.903226
0.0223 0.0223 0.0223
0.0341 0.0341 0.0341
0.0575 0.0575 0.0575
0.0715 0.0715 0.0715
0.0967 0.0967 0.0967
0.0717 0.0717 0.0717
0.1035 0.1035 0.1035
0.1312 0.1312 0.1312
0.1668 0.1668 0.1668
0.2181 0.2181 0.2181
0.1396 0.1396 0.1396
0.1815 0.1815 0.1815
0.2201 0.2201 0.2201
0.2846 0.2846 0.2846
0.3933 0.3933 0.3933
0.2354 0.2354 0.2354
0.2748 0.2748 0.2748
0.3765 0.3765 0.3765
0.4543 0.4543 0.4543
0.5552 0.5552 0.5552
0.3625 0.3625 0.3625
0.4085 0.4085 0.4085
0.5503 0.5503 0.5503
0.6406 0.6406 0.6406
0.7466 0.7466 0.7466
0.0271 0.0271 0.0271
0.0793 0.0793 0.0793
0.0988 0.0988 0.0988
0.1029 0.1029 0.1029
0.1192 0.1192 0.1192
0.0927 0.0927 0.0927
0.1415 0.1415 0.1415
0.1619 0.1619 0.1619
0.2155 0.2155 0.2155
0.2892 0.2892 0.2892
0.1613 0.1613 0.1613
0.1982 0.1982 0.1982
0.2755 0.2755 0.2755
0.3377 0.3377 0.3377
0.4211 0.4211 0.4211
0.2541 0.2541 0.2541
0.2823 0.2823 0.2823
0.4097 0.4097 0.4097
0.4836 0.4836 0.4836
0.5938 0.5938 0.5938
0.3803 0.3803 0.3803
0.4348 0.4348 0.4348
0.5206 0.5206 0.5206
0.6601 0.6601 0.6601
0.7604 0.7604 0.7604
0.0500 0.0500 0.0500
0.1447 0.1447 0.1447
0.2268 0.2268 0.2268
0.2293 0.2293 0.2293
0.2369 0.2369 0.2369
0.1400 0.1400 0.1400
0.2133 0.2133 0.2133
0.2770 0.2770 0.2770
0.3160 0.3160 0.3160
0.3640 0.3640 0.3640
0.1955 0.1955 0.1955
0.2734 0.2734 0.2734
0.3575 0.3575 0.3575
0.4060 0.4060 0.4060
0.4902 0.4902 0.4902
0.2997 0.2997 0.2997
0.3545 0.3545 0.3545
0.4649 0.4649 0.4649
0.5517 0.5517 0.5517
0.6251 0.6251 0.6251
0.4663 0.4663 0.4663
0.4961 0.4961 0.4961
0.5629 0.5629 0.5629
0.7021 0.7021 0.7021
0.7824 0.7824 0.7824
0.0914 0.0914 0.0914
0.1762 0.1762 0.1762
0.3406 0.3406 0.3406
0.4040 0.4040 0.4040
0.3679 0.3679 0.3679
0.2342 0.2342 0.2342
0.3236 0.3236 0.3236
0.4000 0.4000 0.4000
0.4831 0.4831 0.4831
0.4988 0.4988 0.4988
0.2798 0.2798 0.2798
0.3919 0.3919 0.3919
0.4779 0.4779 0.4779
0.5370 0.5370 0.5370
0.5746 0.5746 0.5746
0.3545 0.3545 0.3545
0.4565 0.4565 0.4565
0.5563 0.5563 0.5563
0.6304 0.6304 0.6304
0.6927 0.6927 0.6927
0.5066 0.5066 0.5066
0.5643 0.5643 0.5643
0.6357 0.6357 0.6357
0.7543 0.7543 0.7543
0.8523 0.8523 0.8523
0.1576 0.1576 0.1576
0.2283 0.2283 0.2283
0.3894 0.3894 0.3894
0.4684 0.4684 0.4684
0.5257 0.5257 0.5257
0.3426 0.3426 0.3426
0.4195 0.4195 0.4195
0.4724 0.4724 0.4724
0.6141 0.6141 0.6141
0.6845 0.6845 0.6845
0.4052 0.4052 0.4052
0.5292 0.5292 0.5292
0.5988 0.5988 0.5988
0.6283 0.6283 0.6283
0.7096 0.7096 0.7096
0.4451 0.4451 0.4451
0.5771 0.5771 0.5771
0.6658 0.6658 0.6658
0.7358 0.7358 0.7358
0.7906 0.7906 0.7906
0.5577 0.5577 0.5577
0.6280 0.6280 0.6280
0.7428 0.7428 0.7428
0.8293 0.8293 0.8293
0.8905 0.8905 0.8905
