lut/adanmq/Adanmq_Ilford_FP.cube
TITLE "Adanmq_Ilford FP"
LUT_3D_SIZE 32
0.0222 0.0222 0.0222
0.0271 0.0271 0.0271
0.0297 0.0297 0.0297
0.0310 0.0310 0.0310
0.0322 0.0322 0.0322
0.0333 0.0333 0.0333
0.0344 0.0344 0.0344
0.0354 0.0354 0.0354
0.0364 0.0364 0.0364
0.0376 0.0376 0.0376
0.0395 0.0395 0.0395
0.0423 0.0423 0.0423
0.0460 0.0460 0.0460
0.0502 0.0502 0.0502
0.0542 0.0542 0.0542
0.0577 0.0577 0.0577
0.0604 0.0604 0.0604
0.0625 0.0625 0.0625
0.0641 0.0641 0.0641
0.0653 0.0653 0.0653
0.0665 0.0665 0.0665
0.0676 0.0676 0.0676
0.0688 0.0688 0.0688
0.0701 0.0701 0.0701
0.0716 0.0716 0.0716
0.0734 0.0734 0.0734
0.0757 0.0757 0.0757
0.0785 0.0785 0.0785
0.0818 0.0818 0.0818
0.0857 0.0857 0.0857
0.0903 0.0903 0.0903
0.0965 0.0965 0.0965
0.0415 0.0415 0.0415
0.0462 0.0462 0.0462
0.0485 0.0485 0.0485
0.0494 0.0494 0.0494
0.0502 0.0502 0.0502
0.0508 0.0508 0.0508
0.0514 0.0514 0.0514
0.0519 0.0519 0.0519
0.0525 0.0525 0.0525
0.0533 0.0533 0.0533
0.0549 0.0549 0.0549
0.0576 0.0576 0.0576
0.0615 0.0615 0.0615
0.0661 0.0661 0.0661
0.0707 0.0707 0.0707
0.0748 0.0748 0.0748
0.0779 0.0779 0.0779
0.0801 0.0801 0.0801
0.0817 0.0817 0.0817
0.0829 0.0829 0.0829
0.0840 0.0840 0.0840
0.0851 0.0851 0.0851
0.0864 0.0864 0.0864
0.0879 0.0879 0.0879
0.0898 0.0898 0.0898
0.0919 0.0919 0.0919
0.0945 0.0945 0.0945
0.0975 0.0975 0.0975
0.1010 0.1010 0.1010
0.1049 0.1049 0.1049
0.1095 0.1095 0.1095
0.1157 0.1157 0.1157
0.0585 0.0585 0.0585
0.0629 0.0629 0.0629
0.0645 0.0645 0.0645
0.0645 0.0645 0.0645
0.0645 0.0645 0.0645
0.0645 0.0645 0.0645
0.0646 0.0646 0.0646
0.0646 0.0646 0.0646
0.0645 0.0645 0.0645
0.0647 0.0647 0.0647
0.0657 0.0657 0.0657
0.0680 0.0680 0.0680
0.0716 0.0716 0.0716
0.0763 0.0763 0.0763
0.0811 0.0811 0.0811
0.0855 0.0855 0.0855
0.0889 0.0889 0.0889
0.0913 0.0913 0.0913
0.0930 0.0930 0.0930
0.0944 0.0944 0.0944
0.0956 0.0956 0.0956
0.0970 0.0970 0.0970
0.0988 0.0988 0.0988
0.1010 0.1010 0.1010
0.1037 0.1037 0.1037
0.1068 0.1068 0.1068
0.1103 0.1103 0.1103
0.1141 0.1141 0.1141
0.1183 0.1183 0.1183
0.1228 0.1228 0.1228
0.1277 0.1277 0.1277
0.1342 0.1342 0.1342
0.0720 0.0720 0.0720
0.0758 0.0758 0.0758
0.0765 0.0765 0.0765
0.0755 0.0755 0.0755
0.0750 0.0750 0.0750
0.0748 0.0748 0.0748
0.0750 0.0750 0.0750
0.0751 0.0751 0.0751
0.0750 0.0750 0.0750
0.0749 0.0749 0.0749
0.0753 0.0753 0.0753
0.0768 0.0768 0.0768
0.0795 0.0795 0.0795
0.0831 0.0831 0.0831
0.0871 0.0871 0.0871
0.0908 0.0908 0.0908
0.0938 0.0938 0.0938
0.0960 0.0960 0.0960
0.0978 0.0978 0.0978
0.0995 0.0995 0.0995
0.1013 0.1013 0.1013
0.1035 0.1035 0.1035
0.1061 0.1061 0.1061
0.1092 0.1092 0.1092
0.1129 0.1129 0.1129
0.1172 0.1172 0.1172
0.1219 0.1219 0.1219
0.1270 0.1270 0.1270
0.1323 0.1323 0.1323
0.1379 0.1379 0.1379
0.1437 0.1437 0.1437
0.1509 0.1509 0.1509
0.0813 0.0813 0.0813
0.0847 0.0847 0.0847
0.0847 0.0847 0.0847
0.0833 0.0833 0.0833
0.0828 0.0828 0.0828
0.0831 0.0831 0.0831
0.0842 0.0842 0.0842
0.0854 0.0854 0.0854
0.0862 0.0862 0.0862
0.0867 0.0867 0.0867
0.0871 0.0871 0.0871
0.0878 0.0878 0.0878
0.0891 0.0891 0.0891
0.0910 0.0910 0.0910
0.0933 0.0933 0.0933
0.0955 0.0955 0.0955
0.0974 0.0974 0.0974
0.0992 0.0992 0.0992
0.1010 0.1010 0.1010
0.1031 0.1031 0.1031
0.1056 0.1056 0.1056
0.1085 0.1085 0.1085
0.1119 0.1119 0.1119
0.1158 0.1158 0.1158
0.1202 0.1202 0.1202
0.1253 0.1253 0.1253
0.1309 0.1309 0.1309
0.1370 0.1370 0.1370
0.1434 0.1434 0.1434
0.1501 0.1501 0.1501
0.1571 0.1571 0.1571
0.1653 0.1653 0.1653
0.0836 0.0836 0.0836
0.0871 0.0871 0.0871
0.0875 0.0875 0.0875
0.0869 0.0869 0.0869
0.0874 0.0874 0.0874
0.0889 0.0889 0.0889
0.0911 0.0911 0.0911
0.0937 0.0937 0.0937
0.0959 0.0959 0.0959
0.0974 0.0974 0.0974
0.0982 0.0982 0.0982
0.0985 0.0985 0.0985
0.0988 0.0988 0.0988
0.0994 0.0994 0.0994
0.1003 0.1003 0.1003
0.1013 0.1013 0.1013
0.1025 0.1025 0.1025
0.1040 0.1040 0.1040
0.1059 0.1059 0.1059
0.1084 0.1084 0.1084
0.1114 0.1114 0.1114
0.1148 0.1148 0.1148
0.1186 0.1186 0.1186
0.1228 0.1228 0.1228
0.1274 0.1274 0.1274
0.1327 0.1327 0.1327
0.1385 0.1385 0.1385
0.1450 0.1450 0.1450
0.1521 0.1521 0.1521
0.1598 0.1598 0.1598
0.1677 0.1677 0.1677
0.1770 0.1770 0.1770
0.0797 0.0797 0.0797
0.0837 0.0837 0.0837
0.0855 0.0855 0.0855
0.0870 0.0870 0.0870
0.0894 0.0894 0.0894
0.0924 0.0924 0.0924
0.0957 0.0957 0.0957
0.0991 0.0991 0.0991
0.1021 0.1021 0.1021
0.1043 0.1043 0.1043
0.1057 0.1057 0.1057
0.1062 0.1062 0.1062
0.1064 0.1064 0.1064
0.1067 0.1067 0.1067
0.1075 0.1075 0.1075
0.1086 0.1086 0.1086
0.1100 0.1100 0.1100
0.1118 0.1118 0.1118
0.1141 0.1141 0.1141
0.1170 0.1170 0.1170
0.1204 0.1204 0.1204
0.1241 0.1241 0.1241
0.1281 0.1281 0.1281
0.1322 0.1322 0.1322
0.1366 0.1366 0.1366
0.1415 0.1415 0.1415
0.1470 0.1470 0.1470
0.1533 0.1533 0.1533
0.1605 0.1605 0.1605
0.1687 0.1687 0.1687
0.1772 0.1772 0.1772
0.1871 0.1871 0.1871
0.0726 0.0726 0.0726
0.0776 0.0776 0.0776
0.0815 0.0815 0.0815
0.0858 0.0858 0.0858
0.0905 0.0905 0.0905
0.0949 0.0949 0.0949
0.0988 0.0988 0.0988
0.1022 0.1022 0.1022
0.1050 0.1050 0.1050
0.1073 0.1073 0.1073
0.1089 0.1089 0.1089
0.1101 0.1101 0.1101
0.1112 0.1112 0.1112
0.1126 0.1126 0.1126
0.1144 0.1144 0.1144
0.1166 0.1166 0.1166
0.1191 0.1191 0.1191
0.1217 0.1217 0.1217
0.1247 0.1247 0.1247
0.1281 0.1281 0.1281
0.1320 0.1320 0.1320
0.1362 0.1362 0.1362
0.1404 0.1404 0.1404
0.1446 0.1446 0.1446
0.1488 0.1488 0.1488
0.1533 0.1533 0.1533
0.1584 0.1584 0.1584
0.1644 0.1644 0.1644
0.1715 0.1715 0.1715
0.1797 0.1797 0.1797
0.1885 0.1885 0.1885
0.1982 0.1982 0.1982
0.0677 0.0677 0.0677
0.0735 0.0735 0.0735
0.0793 0.0793 0.0793
0.0857 0.0857 0.0857
0.0922 0.0922 0.0922
0.0978 0.0978 0.0978
0.1020 0.1020 0.1020
0.1047 0.1047 0.1047
0.1066 0.1066 0.1066
0.1082 0.1082 0.1082
0.1099 0.1099 0.1099
0.1118 0.1118 0.1118
0.1142 0.1142 0.1142
0.1172 0.1172 0.1172
0.1207 0.1207 0.1207
0.1246 0.1246 0.1246
0.1285 0.1285 0.1285
0.1324 0.1324 0.1324
0.1362 0.1362 0.1362
0.1402 0.1402 0.1402
0.1447 0.1447 0.1447
0.1494 0.1494 0.1494
0.1543 0.1543 0.1543
0.1589 0.1589 0.1589
0.1635 0.1635 0.1635
0.1683 0.1683 0.1683
0.1734 0.1734 0.1734
0.1794 0.1794 0.1794
0.1864 0.1864 0.1864
0.1947 0.1947 0.1947
0.2036 0.2036 0.2036
0.2127 0.2127 0.2127
0.0690 0.0690 0.0690
0.0751 0.0751 0.0751
0.0815 0.0815 0.0815
0.0886 0.0886 0.0886
0.0958 0.0958 0.0958
0.1021 0.1021 0.1021
0.1063 0.1063 0.1063
0.1086 0.1086 0.1086
0.1096 0.1096 0.1096
0.1104 0.1104 0.1104
0.1118 0.1118 0.1118
0.1142 0.1142 0.1142
0.1176 0.1176 0.1176
0.1218 0.1218 0.1218
0.1268 0.1268 0.1268
0.1320 0.1320 0.1320
0.1372 0.1372 0.1372
0.1421 0.1421 0.1421
0.1469 0.1469 0.1469
0.1517 0.1517 0.1517
0.1568 0.1568 0.1568
0.1623 0.1623 0.1623
0.1679 0.1679 0.1679
0.1737 0.1737 0.1737
0.1794 0.1794 0.1794
0.1852 0.1852 0.1852
0.1913 0.1913 0.1913
0.1980 0.1980 0.1980
0.2056 0.2056 0.2056
0.2142 0.2142 0.2142
0.2233 0.2233 0.2233
0.2314 0.2314 0.2314
0.0767 0.0767 0.0767
0.0826 0.0826 0.0826
0.0884 0.0884 0.0884
0.0949 0.0949 0.0949
0.1017 0.1017 0.1017
0.1080 0.1080 0.1080
0.1123 0.1123 0.1123
0.1145 0.1145 0.1145
0.1152 0.1152 0.1152
0.1155 0.1155 0.1155
0.1165 0.1165 0.1165
0.1189 0.1189 0.1189
0.1227 0.1227 0.1227
0.1275 0.1275 0.1275
0.1331 0.1331 0.1331
0.1391 0.1391 0.1391
0.1452 0.1452 0.1452
0.1510 0.1510 0.1510
0.1566 0.1566 0.1566
0.1622 0.1622 0.1622
0.1679 0.1679 0.1679
0.1741 0.1741 0.1741
0.1807 0.1807 0.1807
0.1877 0.1877 0.1877
0.1952 0.1952 0.1952
0.2028 0.2028 0.2028
0.2108 0.2108 0.2108
0.2191 0.2191 0.2191
0.2278 0.2278 0.2278
0.2373 0.2373 0.2373
0.2468 0.2468 0.2468
0.2541 0.2541 0.2541
0.0887 0.0887 0.0887
0.0937 0.0937 0.0937
0.0985 0.0985 0.0985
0.1036 0.1036 0.1036
0.1094 0.1094 0.1094
0.1152 0.1152 0.1152
0.1197 0.1197 0.1197
0.1221 0.1221 0.1221
0.1228 0.1228 0.1228
0.1230 0.1230 0.1230
0.1238 0.1238 0.1238
0.1260 0.1260 0.1260
0.1296 0.1296 0.1296
0.1344 0.1344 0.1344
0.1401 0.1401 0.1401
0.1464 0.1464 0.1464
0.1529 0.1529 0.1529
0.1594 0.1594 0.1594
0.1657 0.1657 0.1657
0.1719 0.1719 0.1719
0.1782 0.1782 0.1782
0.1851 0.1851 0.1851
0.1927 0.1927 0.1927
0.2011 0.2011 0.2011
0.2104 0.2104 0.2104
0.2203 0.2203 0.2203
0.2307 0.2307 0.2307
0.2413 0.2413 0.2413
0.2520 0.2520 0.2520
0.2628 0.2628 0.2628
0.2730 0.2730 0.2730
0.2796 0.2796 0.2796
0.1016 0.1016 0.1016
0.1055 0.1055 0.1055
0.1093 0.1093 0.1093
0.1131 0.1131 0.1131
0.1180 0.1180 0.1180
0.1233 0.1233 0.1233
0.1278 0.1278 0.1278
0.1306 0.1306 0.1306
0.1316 0.1316 0.1316
0.1319 0.1319 0.1319
0.1327 0.1327 0.1327
0.1347 0.1347 0.1347
0.1382 0.1382 0.1382
0.1427 0.1427 0.1427
0.1482 0.1482 0.1482
0.1544 0.1544 0.1544
0.1610 0.1610 0.1610
0.1678 0.1678 0.1678
0.1744 0.1744 0.1744
0.1811 0.1811 0.1811
0.1881 0.1881 0.1881
0.1958 0.1958 0.1958
0.2046 0.2046 0.2046
0.2144 0.2144 0.2144
0.2254 0.2254 0.2254
0.2375 0.2375 0.2375
0.2506 0.2506 0.2506
0.2640 0.2640 0.2640
0.2773 0.2773 0.2773
0.2901 0.2901 0.2901
0.3015 0.3015 0.3015
0.3074 0.3074 0.3074
0.1133 0.1133 0.1133
0.1163 0.1163 0.1163
0.1193 0.1193 0.1193
0.1223 0.1223 0.1223
0.1267 0.1267 0.1267
0.1315 0.1315 0.1315
0.1361 0.1361 0.1361
0.1392 0.1392 0.1392
0.1407 0.1407 0.1407
0.1414 0.1414 0.1414
0.1425 0.1425 0.1425
0.1447 0.1447 0.1447
0.1481 0.1481 0.1481
0.1525 0.1525 0.1525
0.1577 0.1577 0.1577
0.1637 0.1637 0.1637
0.1701 0.1701 0.1701
0.1768 0.1768 0.1768
0.1835 0.1835 0.1835
0.1904 0.1904 0.1904
0.1979 0.1979 0.1979
0.2066 0.2066 0.2066
0.2166 0.2166 0.2166
0.2280 0.2280 0.2280
0.2406 0.2406 0.2406
0.2547 0.2547 0.2547
0.2703 0.2703 0.2703
0.2867 0.2867 0.2867
0.3031 0.3031 0.3031
0.3186 0.3186 0.3186
0.3319 0.3319 0.3319
0.3374 0.3374 0.3374
0.1240 0.1240 0.1240
0.1260 0.1260 0.1260
0.1287 0.1287 0.1287
0.1312 0.1312 0.1312
0.1352 0.1352 0.1352
0.1399 0.1399 0.1399
0.1445 0.1445 0.1445
0.1483 0.1483 0.1483
0.1506 0.1506 0.1506
0.1521 0.1521 0.1521
0.1537 0.1537 0.1537
0.1561 0.1561 0.1561
0.1597 0.1597 0.1597
0.1640 0.1640 0.1640
0.1691 0.1691 0.1691
0.1748 0.1748 0.1748
0.1810 0.1810 0.1810
0.1874 0.1874 0.1874
0.1939 0.1939 0.1939
0.2009 0.2009 0.2009
0.2088 0.2088 0.2088
0.2183 0.2183 0.2183
0.2294 0.2294 0.2294
0.2421 0.2421 0.2421
0.2564 0.2564 0.2564
0.2723 0.2723 0.2723
0.2900 0.2900 0.2900
0.3091 0.3091 0.3091
0.3286 0.3286 0.3286
0.3475 0.3475 0.3475
0.3635 0.3635 0.3635
0.3691 0.3691 0.3691
0.1343 0.1343 0.1343
0.1355 0.1355 0.1355
0.1380 0.1380 0.1380
0.1402 0.1402 0.1402
0.1438 0.1438 0.1438
0.1484 0.1484 0.1484
0.1534 0.1534 0.1534
0.1584 0.1584 0.1584
0.1620 0.1620 0.1620
0.1646 0.1646 0.1646
0.1669 0.1669 0.1669
0.1697 0.1697 0.1697
0.1732 0.1732 0.1732
0.1775 0.1775 0.1775
0.1824 0.1824 0.1824
0.1880 0.1880 0.1880
0.1941 0.1941 0.1941
0.2004 0.2004 0.2004
0.2070 0.2070 0.2070
0.2140 0.2140 0.2140
0.2220 0.2220 0.2220
0.2317 0.2317 0.2317
0.2434 0.2434 0.2434
0.2571 0.2571 0.2571
0.2727 0.2727 0.2727
0.2902 0.2902 0.2902
0.3097 0.3097 0.3097
0.3312 0.3312 0.3312
0.3534 0.3534 0.3534
0.3757 0.3757 0.3757
0.3949 0.3949 0.3949
0.4016 0.4016 0.4016
0.1448 0.1448 0.1448
0.1451 0.1451 0.1451
0.1476 0.1476 0.1476
0.1496 0.1496 0.1496
0.1530 0.1530 0.1530
0.1575 0.1575 0.1575
0.1629 0.1629 0.1629
0.1693 0.1693 0.1693
0.1747 0.1747 0.1747
0.1788 0.1788 0.1788
0.1820 0.1820 0.1820
0.1850 0.1850 0.1850
0.1884 0.1884 0.1884
0.1926 0.1926 0.1926
0.1975 0.1975 0.1975
0.2030 0.2030 0.2030
0.2092 0.2092 0.2092
0.2159 0.2159 0.2159
0.2228 0.2228 0.2228
0.2302 0.2302 0.2302
0.2384 0.2384 0.2384
0.2480 0.2480 0.2480
0.2596 0.2596 0.2596
0.2735 0.2735 0.2735
0.2898 0.2898 0.2898
0.3084 0.3084 0.3084
0.3295 0.3295 0.3295
0.3527 0.3527 0.3527
0.3771 0.3771 0.3771
0.4021 0.4021 0.4021
0.4240 0.4240 0.4240
0.4360 0.4360 0.4360
0.1559 0.1559 0.1559
0.1554 0.1554 0.1554
0.1579 0.1579 0.1579
0.1598 0.1598 0.1598
0.1629 0.1629 0.1629
0.1673 0.1673 0.1673
0.1732 0.1732 0.1732
0.1807 0.1807 0.1807
0.1880 0.1880 0.1880
0.1938 0.1938 0.1938
0.1982 0.1982 0.1982
0.2016 0.2016 0.2016
0.2051 0.2051 0.2051
0.2091 0.2091 0.2091
0.2141 0.2141 0.2141
0.2198 0.2198 0.2198
0.2263 0.2263 0.2263
0.2336 0.2336 0.2336
0.2413 0.2413 0.2413
0.2495 0.2495 0.2495
0.2582 0.2582 0.2582
0.2676 0.2676 0.2676
0.2787 0.2787 0.2787
0.2921 0.2921 0.2921
0.3083 0.3083 0.3083
0.3274 0.3274 0.3274
0.3494 0.3494 0.3494
0.3738 0.3738 0.3738
0.3995 0.3995 0.3995
0.4263 0.4263 0.4263
0.4500 0.4500 0.4500
0.4627 0.4627 0.4627
0.1677 0.1677 0.1677
0.1669 0.1669 0.1669
0.1690 0.1690 0.1690
0.1709 0.1709 0.1709
0.1737 0.1737 0.1737
0.1779 0.1779 0.1779
0.1839 0.1839 0.1839
0.1921 0.1921 0.1921
0.2011 0.2011 0.2011
0.2088 0.2088 0.2088
0.2145 0.2145 0.2145
0.2188 0.2188 0.2188
0.2228 0.2228 0.2228
0.2271 0.2271 0.2271
0.2322 0.2322 0.2322
0.2383 0.2383 0.2383
0.2452 0.2452 0.2452
0.2531 0.2531 0.2531
0.2618 0.2618 0.2618
0.2711 0.2711 0.2711
0.2807 0.2807 0.2807
0.2906 0.2906 0.2906
0.3014 0.3014 0.3014
0.3140 0.3140 0.3140
0.3293 0.3293 0.3293
0.3479 0.3479 0.3479
0.3700 0.3700 0.3700
0.3948 0.3948 0.3948
0.4213 0.4213 0.4213
0.4490 0.4490 0.4490
0.4735 0.4735 0.4735
0.4867 0.4867 0.4867
0.1801 0.1801 0.1801
0.1794 0.1794 0.1794
0.1808 0.1808 0.1808
0.1828 0.1828 0.1828
0.1854 0.1854 0.1854
0.1893 0.1893 0.1893
0.1952 0.1952 0.1952
0.2034 0.2034 0.2034
0.2136 0.2136 0.2136
0.2232 0.2232 0.2232
0.2308 0.2308 0.2308
0.2366 0.2366 0.2366
0.2414 0.2414 0.2414
0.2464 0.2464 0.2464
0.2520 0.2520 0.2520
0.2585 0.2585 0.2585
0.2660 0.2660 0.2660
0.2745 0.2745 0.2745
0.2840 0.2840 0.2840
0.2944 0.2944 0.2944
0.3053 0.3053 0.3053
0.3163 0.3163 0.3163
0.3275 0.3275 0.3275
0.3396 0.3396 0.3396
0.3538 0.3538 0.3538
0.3712 0.3712 0.3712
0.3923 0.3923 0.3923
0.4167 0.4167 0.4167
0.4432 0.4432 0.4432
0.4710 0.4710 0.4710
0.4959 0.4959 0.4959
0.5092 0.5092 0.5092
0.1933 0.1933 0.1933
0.1925 0.1925 0.1925
0.1934 0.1934 0.1934
0.1954 0.1954 0.1954
0.1979 0.1979 0.1979
0.2014 0.2014 0.2014
0.2069 0.2069 0.2069
0.2148 0.2148 0.2148
0.2257 0.2257 0.2257
0.2371 0.2371 0.2371
0.2469 0.2469 0.2469
0.2547 0.2547 0.2547
0.2610 0.2610 0.2610
0.2669 0.2669 0.2669
0.2733 0.2733 0.2733
0.2804 0.2804 0.2804
0.2885 0.2885 0.2885
0.2976 0.2976 0.2976
0.3079 0.3079 0.3079
0.3192 0.3192 0.3192
0.3314 0.3314 0.3314
0.3438 0.3438 0.3438
0.3561 0.3561 0.3561
0.3686 0.3686 0.3686
0.3821 0.3821 0.3821
0.3981 0.3981 0.3981
0.4175 0.4175 0.4175
0.4406 0.4406 0.4406
0.4662 0.4662 0.4662
0.4938 0.4938 0.4938
0.5186 0.5186 0.5186
0.5319 0.5319 0.5319
0.2070 0.2070 0.2070
0.2062 0.2062 0.2062
0.2066 0.2066 0.2066
0.2087 0.2087 0.2087
0.2112 0.2112 0.2112
0.2144 0.2144 0.2144
0.2193 0.2193 0.2193
0.2268 0.2268 0.2268
0.2376 0.2376 0.2376
0.2505 0.2505 0.2505
0.2627 0.2627 0.2627
0.2729 0.2729 0.2729
0.2812 0.2812 0.2812
0.2884 0.2884 0.2884
0.2958 0.2958 0.2958
0.3037 0.3037 0.3037
0.3125 0.3125 0.3125
0.3223 0.3223 0.3223
0.3332 0.3332 0.3332
0.3453 0.3453 0.3453
0.3585 0.3585 0.3585
0.3723 0.3723 0.3723
0.3861 0.3861 0.3861
0.3997 0.3997 0.3997
0.4135 0.4135 0.4135
0.4285 0.4285 0.4285
0.4462 0.4462 0.4462
0.4674 0.4674 0.4674
0.4913 0.4913 0.4913
0.5178 0.5178 0.5178
0.5423 0.5423 0.5423
0.5553 0.5553 0.5553
0.2212 0.2212 0.2212
0.2205 0.2205 0.2205
0.2203 0.2203 0.2203
0.2226 0.2226 0.2226
0.2251 0.2251 0.2251
0.2282 0.2282 0.2282
0.2326 0.2326 0.2326
0.2396 0.2396 0.2396
0.2498 0.2498 0.2498
0.2638 0.2638 0.2638
0.2782 0.2782 0.2782
0.2911 0.2911 0.2911
0.3016 0.3016 0.3016
0.3106 0.3106 0.3106
0.3191 0.3191 0.3191
0.3281 0.3281 0.3281
0.3379 0.3379 0.3379
0.3484 0.3484 0.3484
0.3599 0.3599 0.3599
0.3726 0.3726 0.3726
0.3865 0.3865 0.3865
0.4013 0.4013 0.4013
0.4166 0.4166 0.4166
0.4317 0.4317 0.4317
0.4465 0.4465 0.4465
0.4616 0.4616 0.4616
0.4782 0.4782 0.4782
0.4973 0.4973 0.4973
0.5191 0.5191 0.5191
0.5437 0.5437 0.5437
0.5668 0.5668 0.5668
0.5794 0.5794 0.5794
0.2358 0.2358 0.2358
0.2351 0.2351 0.2351
0.2346 0.2346 0.2346
0.2370 0.2370 0.2370
0.2397 0.2397 0.2397
0.2428 0.2428 0.2428
0.2469 0.2469 0.2469
0.2533 0.2533 0.2533
0.2629 0.2629 0.2629
0.2771 0.2771 0.2771
0.2934 0.2934 0.2934
0.3089 0.3089 0.3089
0.3221 0.3221 0.3221
0.3332 0.3332 0.3332
0.3432 0.3432 0.3432
0.3533 0.3533 0.3533
0.3640 0.3640 0.3640
0.3754 0.3754 0.3754
0.3875 0.3875 0.3875
0.4007 0.4007 0.4007
0.4150 0.4150 0.4150
0.4305 0.4305 0.4305
0.4469 0.4469 0.4469
0.4634 0.4634 0.4634
0.4796 0.4796 0.4796
0.4955 0.4955 0.4955
0.5119 0.5119 0.5119
0.5297 0.5297 0.5297
0.5494 0.5494 0.5494
0.5715 0.5715 0.5715
0.5926 0.5926 0.5926
0.6041 0.6041 0.6041
0.2508 0.2508 0.2508
0.2502 0.2502 0.2502
0.2494 0.2494 0.2494
0.2520 0.2520 0.2520
0.2550 0.2550 0.2550
0.2583 0.2583 0.2583
0.2623 0.2623 0.2623
0.2682 0.2682 0.2682
0.2773 0.2773 0.2773
0.2908 0.2908 0.2908
0.3084 0.3084 0.3084
0.3263 0.3263 0.3263
0.3424 0.3424 0.3424
0.3560 0.3560 0.3560
0.3678 0.3678 0.3678
0.3792 0.3792 0.3792
0.3909 0.3909 0.3909
0.4031 0.4031 0.4031
0.4159 0.4159 0.4159
0.4295 0.4295 0.4295
0.4441 0.4441 0.4441
0.4599 0.4599 0.4599
0.4769 0.4769 0.4769
0.4944 0.4944 0.4944
0.5119 0.5119 0.5119
0.5291 0.5291 0.5291
0.5461 0.5461 0.5461
0.5635 0.5635 0.5635
0.5818 0.5818 0.5818
0.6015 0.6015 0.6015
0.6202 0.6202 0.6202
0.6302 0.6302 0.6302
0.2663 0.2663 0.2663
0.2658 0.2658 0.2658
0.2648 0.2648 0.2648
0.2678 0.2678 0.2678
0.2712 0.2712 0.2712
0.2748 0.2748 0.2748
0.2790 0.2790 0.2790
0.2846 0.2846 0.2846
0.2930 0.2930 0.2930
0.3056 0.3056 0.3056
0.3235 0.3235 0.3235
0.3434 0.3434 0.3434
0.3623 0.3623 0.3623
0.3787 0.3787 0.3787
0.3928 0.3928 0.3928
0.4056 0.4056 0.4056
0.4183 0.4183 0.4183
0.4313 0.4313 0.4313
0.4448 0.4448 0.4448
0.4588 0.4588 0.4588
0.4737 0.4737 0.4737
0.4896 0.4896 0.4896
0.5067 0.5067 0.5067
0.5248 0.5248 0.5248
0.5433 0.5433 0.5433
0.5617 0.5617 0.5617
0.5797 0.5797 0.5797
0.5975 0.5975 0.5975
0.6152 0.6152 0.6152
0.6333 0.6333 0.6333
0.6500 0.6500 0.6500
0.6584 0.6584 0.6584
0.2822 0.2822 0.2822
0.2819 0.2819 0.2819
0.2809 0.2809 0.2809
0.2844 0.2844 0.2844
0.2882 0.2882 0.2882
0.2924 0.2924 0.2924
0.2970 0.2970 0.2970
0.3024 0.3024 0.3024
0.3102 0.3102 0.3102
0.3218 0.3218 0.3218
0.3391 0.3391 0.3391
0.3604 0.3604 0.3604
0.3819 0.3819 0.3819
0.4013 0.4013 0.4013
0.4179 0.4179 0.4179
0.4324 0.4324 0.4324
0.4462 0.4462 0.4462
0.4601 0.4601 0.4601
0.4742 0.4742 0.4742
0.4887 0.4887 0.4887
0.5037 0.5037 0.5037
0.5196 0.5196 0.5196
0.5366 0.5366 0.5366
0.5549 0.5549 0.5549
0.5740 0.5740 0.5740
0.5933 0.5933 0.5933
0.6125 0.6125 0.6125
0.6310 0.6310 0.6310
0.6488 0.6488 0.6488
0.6662 0.6662 0.6662
0.6817 0.6817 0.6817
0.6888 0.6888 0.6888
0.2988 0.2988 0.2988
0.2986 0.2986 0.2986
0.2979 0.2979 0.2979
0.3019 0.3019 0.3019
0.3062 0.3062 0.3062
0.3110 0.3110 0.3110
0.3160 0.3160 0.3160
0.3217 0.3217 0.3217
0.3290 0.3290 0.3290
0.3396 0.3396 0.3396
0.3557 0.3557 0.3557
0.3774 0.3774 0.3774
0.4011 0.4011 0.4011
0.4235 0.4235 0.4235
0.4429 0.4429 0.4429
0.4596 0.4596 0.4596
0.4746 0.4746 0.4746
0.4892 0.4892 0.4892
0.5039 0.5039 0.5039
0.5189 0.5189 0.5189
0.5341 0.5341 0.5341
0.5499 0.5499 0.5499
0.5667 0.5667 0.5667
0.5848 0.5848 0.5848
0.6042 0.6042 0.6042
0.6242 0.6242 0.6242
0.6443 0.6443 0.6443
0.6637 0.6637 0.6637
0.6819 0.6819 0.6819
0.6992 0.6992 0.6992
0.7141 0.7141 0.7141
0.7205 0.7205 0.7205
0.3161 0.3161 0.3161
0.3160 0.3160 0.3160
0.3158 0.3158 0.3158
0.3203 0.3203 0.3203
