lut/adanmq/Adanmq_Polaroid_600.cube
TITLE "Adanmq_Polaroid 600"
LUT_3D_SIZE 8
DOMAIN_MIN 0.000000 0.000000 0.000000
DOMAIN_MAX 0.903226 0.903226 0.903226
0.1180 0.0732 0.0447
0.2044 0.0697 0.0398
0.2901 0.0761 0.0392
0.3932 0.0778 0.0392
0.4934 0.0777 0.0385
0.5954 0.0800 0.0338
0.6994 0.0796 0.0269
0.8126 0.0759 0.0166
0.1246 0.1759 0.0464
0.2079 0.1751 0.0440
0.2796 0.1751 0.0473
0.3731 0.1791 0.0506
0.4682 0.1795 0.0565
0.5652 0.1773 0.0535
0.6681 0.1731 0.0386
0.7841 0.1691 0.0180
0.1491 0.2590 0.0531
0.2329 0.2658 0.0550
0.2971 0.2734 0.0648
0.3870 0.2884 0.0661
0.4800 0.2903 0.0598
0.5678 0.2892 0.0640
0.6612 0.2839 0.0691
0.7730 0.2755 0.0604
0.1572 0.3630 0.0451
0.2554 0.3680 0.0461
0.3208 0.3799 0.0596
0.4053 0.3924 0.0737
0.4998 0.4038 0.0698
0.5918 0.3996 0.0462
0.6788 0.3980 0.0489
0.7771 0.3957 0.0681
0.1574 0.4636 0.0288
0.2722 0.4612 0.0236
0.3324 0.4809 0.0365
0.4139 0.4833 0.0405
0.5067 0.4987 0.0659
0.6101 0.5061 0.0567
0.7045 0.4990 0.0212
0.8012 0.4999 0.0338
0.1537 0.5633 0.0091
0.2780 0.5534 0.0011
0.3479 0.5700 0.0080
0.4062 0.5850 0.0122
0.5014 0.5820 0.0148
0.6070 0.5985 0.0506
0.7170 0.5995 0.0323
0.8215 0.5959 0.0010
0.1476 0.6650 0.0002
0.2729 0.6535 0.0002
0.3729 0.6533 0.0002
0.4027 0.6875 0.0002
0.4885 0.6833 0.0002
0.5937 0.6830 0.0010
0.7066 0.6936 0.0289
0.8235 0.6892 0.0015
0.1400 0.7698 0.0002
0.2647 0.7592 0.0002
0.3845 0.7488 0.0002
0.4266 0.7776 0.0002
0.4735 0.7929 0.0002
0.5832 0.7787 0.0002
0.6956 0.7835 0.0002
0.8084 0.7843 0.0002
0.1191 0.0703 0.1295
0.2069 0.0707 0.1282
0.2952 0.0779 0.1218
0.3948 0.0782 0.1178
0.4962 0.0739 0.1154
0.5983 0.0726 0.1155
0.7028 0.0761 0.1245
0.8170 0.0785 0.1261
0.1237 0.1663 0.1274
0.2041 0.1685 0.1286
0.2914 0.1701 0.1253
0.3848 0.1743 0.1224
0.4813 0.1814 0.1279
0.5754 0.1832 0.1269
0.6721 0.1792 0.1239
0.7871 0.1709 0.1162
0.1532 0.2491 0.1294
0.2310 0.2655 0.1370
0.3026 0.2790 0.1382
0.3937 0.2912 0.1335
0.4871 0.2977 0.1383
0.5761 0.2980 0.1509
0.6644 0.2919 0.1576
0.7700 0.2758 0.1389
0.1641 0.3530 0.1335
0.2669 0.3590 0.1422
0.3358 0.3771 0.1541
0.4132 0.3928 0.1534
0.4990 0.4079 0.1475
0.5938 0.4129 0.1474
0.6809 0.4110 0.1631
0.7753 0.4034 0.1788
0.1608 0.4551 0.1313
0.2775 0.4510 0.1302
0.3588 0.4661 0.1369
0.4314 0.4775 0.1450
0.5122 0.4858 0.1439
0.6054 0.5030 0.1429
0.7051 0.5104 0.1426
0.7981 0.5143 0.1651
0.1528 0.5546 0.1230
0.2759 0.5446 0.1149
0.3789 0.5461 0.1101
0.4338 0.5742 0.1225
0.5165 0.5734 0.1151
0.6072 0.5785 0.1219
0.7140 0.5941 0.1288
0.8221 0.6025 0.1336
0.1446 0.6551 0.1062
0.2691 0.6438 0.0960
0.3888 0.6329 0.0845
0.4528 0.6556 0.0919
0.5022 0.6768 0.0963
0.5988 0.6667 0.0916
0.7074 0.6703 0.1047
0.8278 0.6845 0.1109
0.1363 0.7604 0.0858
0.2603 0.7501 0.0755
0.3826 0.7385 0.0629
0.4797 0.7403 0.0584
0.5027 0.7734 0.0771
0.5846 0.7691 0.0798
0.7025 0.7590 0.0818
0.8232 0.7672 0.0853
0.1285 0.0715 0.1765
0.2096 0.0826 0.1977
0.3027 0.0975 0.2045
0.4037 0.0951 0.2045
0.5009 0.0967 0.2048
0.5969 0.0794 0.1934
0.7024 0.0650 0.1896
0.8169 0.0619 0.2027
0.1345 0.1590 0.1793
0.2069 0.1699 0.2069
0.2986 0.1776 0.2162
0.3992 0.1804 0.2055
0.4990 0.1878 0.2036
0.5873 0.1906 0.2061
0.6816 0.1871 0.2052
0.7997 0.1749 0.2018
0.1598 0.2369 0.1854
0.2258 0.2620 0.2089
0.2953 0.2802 0.2234
0.4022 0.2862 0.2167
0.5010 0.2906 0.2120
0.5912 0.2930 0.2195
0.6758 0.3010 0.2313
0.7765 0.2939 0.2257
0.1808 0.3367 0.1910
0.2679 0.3529 0.2083
0.3219 0.3831 0.2207
0.4098 0.4064 0.2242
0.5084 0.4141 0.2218
0.6017 0.4164 0.2298
0.6952 0.4160 0.2545
0.7884 0.4136 0.2699
0.1935 0.4349 0.1846
0.2840 0.4459 0.2104
0.3653 0.4556 0.2167
0.4332 0.4887 0.2389
0.5185 0.5032 0.2438
0.6047 0.5177 0.2444
0.7077 0.5307 0.2634
0.8075 0.5342 0.2946
0.1905 0.5386 0.1838
0.2809 0.5383 0.2090
0.3836 0.5322 0.2081
0.4523 0.5580 0.2318
0.5337 0.5745 0.2467
0.6200 0.5795 0.2419
0.7113 0.6061 0.2584
0.8188 0.6314 0.2913
0.1733 0.6438 0.1891
0.2690 0.6352 0.2043
0.3835 0.6242 0.1974
0.4797 0.6316 0.2009
0.5338 0.6700 0.2289
0.6260 0.6687 0.2191
0.7195 0.6705 0.2307
0.8232 0.7010 0.2716
0.1494 0.7507 0.1894
0.2561 0.7405 0.1917
0.3750 0.7302 0.1814
0.4919 0.7232 0.1723
0.5605 0.7489 0.1904
0.6164 0.7706 0.2057
0.7230 0.7591 0.2069
0.8355 0.7692 0.2289
0.1325 0.0782 0.2598
0.2204 0.0879 0.2838
0.2958 0.1263 0.3134
0.4061 0.1308 0.3176
0.5026 0.1180 0.3246
0.5861 0.1215 0.3252
0.6843 0.0976 0.3074
0.8058 0.0591 0.2888
0.1391 0.1707 0.2679
0.2220 0.1785 0.2888
0.2981 0.2038 0.3195
0.4034 0.2187 0.3251
0.5103 0.2112 0.3167
0.6034 0.2187 0.3161
0.6833 0.2130 0.3140
0.7957 0.1831 0.2961
0.1599 0.2428 0.2772
0.2390 0.2647 0.2962
0.2994 0.2838 0.3291
0.3986 0.2902 0.3338
0.5041 0.2932 0.3186
0.6001 0.2922 0.3105
0.6858 0.3030 0.3227
0.7735 0.3131 0.3392
0.1833 0.3301 0.2808
0.2703 0.3529 0.2963
0.3193 0.3869 0.3213
0.4022 0.4008 0.3337
0.5157 0.4057 0.3261
0.6113 0.4037 0.3211
0.7002 0.4040 0.3289
0.7888 0.4185 0.3551
0.2068 0.4210 0.2768
0.2965 0.4446 0.2991
0.3610 0.4650 0.3030
0.4213 0.5056 0.3190
0.5164 0.5201 0.3302
0.6132 0.5217 0.3363
0.7091 0.5258 0.3459
0.8061 0.5300 0.3809
0.2222 0.5207 0.2681
0.3151 0.5351 0.2916
0.3804 0.5406 0.3005
0.4551 0.5552 0.3088
0.5247 0.5955 0.3472
0.6183 0.6083 0.3656
0.7100 0.6279 0.3746
0.8182 0.6539 0.4095
0.2242 0.6307 0.2610
0.3140 0.6295 0.2826
0.3799 0.6269 0.3005
0.4791 0.6182 0.2988
0.5418 0.6538 0.3478
0.6340 0.6770 0.3832
0.7340 0.6840 0.3873
0.8300 0.7297 0.4198
0.2145 0.7441 0.2595
0.2936 0.7357 0.2823
0.3689 0.7272 0.2965
0.4801 0.7203 0.2925
0.5740 0.7342 0.3102
0.6388 0.7754 0.3703
0.7476 0.7730 0.3716
0.8513 0.7814 0.3918
0.1322 0.0888 0.3602
0.2410 0.0903 0.3726
0.2942 0.1363 0.4248
0.3965 0.1653 0.4365
0.5051 0.1598 0.4361
0.5813 0.1388 0.4443
0.6565 0.1386 0.4451
0.7704 0.1142 0.4265
0.1364 0.1935 0.3718
0.2343 0.1914 0.3832
0.2985 0.2105 0.4192
0.3982 0.2564 0.4461
0.5124 0.2600 0.4460
0.6063 0.2374 0.4370
0.6781 0.2452 0.4357
0.7747 0.2249 0.4189
0.1575 0.2599 0.3892
0.2466 0.2762 0.4000
0.3102 0.2932 0.4231
0.3955 0.3144 0.4456
0.4985 0.3284 0.4473
0.6014 0.3212 0.4326
0.6972 0.3279 0.4293
0.7817 0.3284 0.4356
0.1827 0.3353 0.3902
0.2710 0.3586 0.4014
0.3344 0.3890 0.4241
0.4067 0.3999 0.4457
0.5077 0.4023 0.4449
0.6068 0.4029 0.4345
0.6960 0.4010 0.4297
0.7916 0.4155 0.4475
0.2071 0.4176 0.3834
0.2969 0.4403 0.3964
0.3644 0.4710 0.4139
0.4236 0.5064 0.4327
0.5118 0.5133 0.4396
0.6212 0.5130 0.4386
0.7165 0.5125 0.4418
0.8079 0.5172 0.4548
0.2247 0.5118 0.3803
0.3260 0.5265 0.3950
0.3915 0.5530 0.4162
0.4559 0.5726 0.4105
0.5208 0.6155 0.4303
0.6172 0.6235 0.4439
0.7163 0.6276 0.4599
0.8179 0.6414 0.4819
0.2278 0.6181 0.3787
0.3457 0.6190 0.3840
0.4097 0.6450 0.4164
0.4747 0.6359 0.4040
0.5514 0.6563 0.4226
0.6258 0.7007 0.4722
0.7249 0.7162 0.5022
0.8283 0.7517 0.5194
0.2234 0.7340 0.3747
0.3424 0.7295 0.3760
0.4100 0.7340 0.4005
0.4722 0.7288 0.4079
0.5746 0.7238 0.4112
0.6531 0.7638 0.4823
0.7518 0.7922 0.5497
0.8595 0.8040 0.5595
0.1305 0.0963 0.4726
0.2551 0.0961 0.4726
0.3173 0.1315 0.5198
0.3815 0.1783 0.5572
0.4927 0.1865 0.5504
0.5926 0.1791 0.5466
0.6559 0.1558 0.5584
0.7450 0.1479 0.5606
0.1314 0.2156 0.4761
0.2464 0.2117 0.4794
0.3199 0.2099 0.5126
0.3875 0.2633 0.5539
0.4977 0.2983 0.5622
0.6033 0.2878 0.5536
0.6768 0.2608 0.5511
0.7524 0.2668 0.5543
0.1488 0.2852 0.5014
0.2492 0.2969 0.5018
0.3175 0.3036 0.5190
0.3936 0.3234 0.5446
0.4970 0.3667 0.5750
0.6107 0.3779 0.5729
0.6989 0.3583 0.5500
0.7813 0.3616 0.5456
0.1776 0.3478 0.5054
0.2726 0.3654 0.5090
0.3394 0.3903 0.5288
0.4138 0.4077 0.5448
0.4983 0.4215 0.5595
0.5957 0.4323 0.5595
0.6914 0.4306 0.5499
0.7877 0.4393 0.5488
0.2081 0.4267 0.4989
0.2972 0.4428 0.5034
0.3634 0.4741 0.5209
0.4355 0.5014 0.5405
0.5117 0.5079 0.5556
0.6129 0.5089 0.5545
0.7117 0.5143 0.5553
0.8029 0.5162 0.5583
0.2275 0.5098 0.4905
0.3247 0.5223 0.4970
0.3920 0.5513 0.5144
0.4619 0.5809 0.5295
0.5269 0.6144 0.5459
0.6181 0.6209 0.5525
0.7275 0.6252 0.5630
0.8248 0.6331 0.5804
0.2306 0.6134 0.4898
0.3446 0.6115 0.4970
0.4222 0.6386 0.5214
0.4884 0.6579 0.5350
0.5561 0.6801 0.5326
0.6293 0.7245 0.5540
0.7292 0.7379 0.5753
0.8338 0.7548 0.5997
0.2202 0.7277 0.4955
0.3392 0.7231 0.4996
0.4404 0.7334 0.5160
0.5021 0.7568 0.5437
0.5725 0.7482 0.5328
0.6624 0.7733 0.5560
0.7484 0.8239 0.6270
0.8570 0.8429 0.6489
0.1260 0.0991 0.5909
0.2528 0.0990 0.5888
0.3516 0.1143 0.6070
0.3773 0.1772 0.6682
0.4732 0.1913 0.6696
0.5824 0.1929 0.6616
0.6803 0.1859 0.6614
0.7561 0.1624 0.6757
0.1240 0.2252 0.5893
0.2485 0.2242 0.5884
0.3552 0.2175 0.6021
0.3948 0.2579 0.6538
0.4730 0.3093 0.6711
0.5803 0.3170 0.6645
0.6791 0.3056 0.6612
0.7585 0.2852 0.6732
0.1364 0.3158 0.6106
0.2489 0.3261 0.6047
0.3398 0.3186 0.6135
0.4046 0.3165 0.6422
0.4902 0.3667 0.6766
0.6017 0.4139 0.6943
0.6990 0.4067 0.6764
0.7815 0.3801 0.6642
0.1636 0.3678 0.6256
0.2729 0.3844 0.6226
0.3464 0.4050 0.6258
0.4136 0.4148 0.6413
0.4950 0.4334 0.6604
0.5939 0.4731 0.6887
0.7008 0.4899 0.6840
0.7880 0.4754 0.6641
0.2032 0.4392 0.6172
0.2998 0.4518 0.6140
0.3703 0.4754 0.6287
0.4404 0.4982 0.6458
0.5200 0.5166 0.6592
0.6052 0.5293 0.6708
0.6998 0.5421 0.6758
0.7947 0.5470 0.6738
0.2256 0.5223 0.6096
0.3296 0.5296 0.6096
0.3941 0.5534 0.6197
0.4645 0.5845 0.6376
0.5437 0.6110 0.6571
0.6263 0.6220 0.6732
0.7273 0.6278 0.6832
0.8224 0.6389 0.6943
0.2317 0.6112 0.6052
0.3468 0.6117 0.6095
0.4224 0.6326 0.6187
0.4924 0.6620 0.6396
0.5677 0.6929 0.6553
0.6428 0.7298 0.6752
0.7376 0.7444 0.6923
0.8456 0.7564 0.7150
0.2247 0.7259 0.6072
0.3402 0.7218 0.6161
0.4363 0.7284 0.6316
0.5149 0.7560 0.6602
0.5907 0.7751 0.6735
0.6689 0.8020 0.6806
0.7540 0.8512 0.7076
0.8593 0.8704 0.7391
0.1196 0.0985 0.7143
0.2458 0.0978 0.7139
0.3678 0.0988 0.7173
0.3999 0.1553 0.7676
0.4546 0.1928 0.7906
0.5641 0.1930 0.7857
0.6742 0.1914 0.7848
0.7796 0.1841 0.7914
0.1163 0.2250 0.7141
0.2422 0.2238 0.7153
0.3662 0.2211 0.7196
0.4342 0.2447 0.7513
0.4576 0.3091 0.7864
0.5578 0.3198 0.7854
0.6670 0.3178 0.7862
0.7736 0.3099 0.7942
0.1187 0.3398 0.7239
0.2396 0.3452 0.7231
0.3563 0.3386 0.7302
0.4453 0.3193 0.7461
0.4870 0.3525 0.7765
0.5726 0.4201 0.7981
0.6724 0.4357 0.7967
0.7732 0.4240 0.7966
0.1477 0.3961 0.7484
0.2617 0.4171 0.7448
0.3525 0.4334 0.7421
0.4341 0.4199 0.7429
0.4982 0.4204 0.7621
0.5908 0.4666 0.7927
0.6934 0.5231 0.8065
0.7899 0.5196 0.7924
0.1852 0.4508 0.7387
0.2895 0.4679 0.7370
0.3822 0.4915 0.7418
0.4439 0.5095 0.7490
0.5163 0.5209 0.7642
0.5980 0.5399 0.7777
0.6901 0.5795 0.7966
0.7930 0.6062 0.7917
0.2221 0.5366 0.7341
0.3264 0.5421 0.7294
0.4050 0.5594 0.7362
0.4731 0.5846 0.7540
0.5510 0.6093 0.7714
0.6351 0.6321 0.7851
0.7218 0.6480 0.7975
0.8095 0.6645 0.8038
0.2249 0.6288 0.7306
0.3427 0.6288 0.7306
0.4308 0.6397 0.7369
0.4979 0.6655 0.7539
0.5773 0.6988 0.7746
0.6672 0.7314 0.7957
0.7521 0.7487 0.8149
0.8519 0.7587 0.8327
0.2192 0.7266 0.7323
0.3370 0.7261 0.7369
0.4395 0.7314 0.7479
0.5170 0.7539 0.7679
0.5991 0.7835 0.7884
0.6885 0.8142 0.8053
0.7720 0.8564 0.8281
0.8695 0.8767 0.8529
