lut/adanmq/Adanmq_Fujicolor_Pro_160s.cube
TITLE "Adanmq_Fujicolor Pro 160s"
LUT_3D_SIZE 8
DOMAIN_MIN 0.000000 0.000000 0.000000
DOMAIN_MAX 0.903226 0.903226 0.903226
0.0214 0.0226 0.0222
0.1129 0.0226 0.0222
0.1432 0.0227 0.0223
0.1997 0.0229 0.0223
0.2730 0.0229 0.0223
0.3601 0.0229 0.0222
0.4674 0.0228 0.0221
0.5953 0.0226 0.0218
0.0215 0.1300 0.0222
0.1223 0.1304 0.0222
0.1801 0.1361 0.0222
0.2572 0.1425 0.0223
0.3471 0.1488 0.0224
0.4422 0.1516 0.0224
0.5415 0.1497 0.0222
0.6534 0.1403 0.0220
0.0215 0.1996 0.0221
0.1596 0.2177 0.0222
0.2478 0.2470 0.0224
0.3402 0.2663 0.0225
0.4474 0.2762 0.0225
0.5533 0.2805 0.0226
0.6488 0.2749 0.0226
0.7527 0.2719 0.0225
0.0215 0.3245 0.0220
0.1917 0.3448 0.0221
0.3047 0.3901 0.0225
0.4132 0.4193 0.0226
0.5117 0.4313 0.0227
0.6169 0.4392 0.0227
0.7089 0.4379 0.0227
0.7939 0.4233 0.0227
0.0215 0.4651 0.0219
0.2147 0.4768 0.0219
0.3407 0.5333 0.0223
0.4612 0.5617 0.0226
0.5595 0.5767 0.0227
0.6493 0.5784 0.0228
0.7409 0.5815 0.0228
0.8304 0.5751 0.0229
0.0215 0.6027 0.0217
0.2275 0.6052 0.0216
0.3591 0.6500 0.0220
0.4787 0.6923 0.0225
0.5844 0.6946 0.0226
0.6735 0.6998 0.0228
0.7581 0.6974 0.0229
0.8465 0.6992 0.0229
0.0216 0.7332 0.0215
0.2358 0.7309 0.0214
0.3723 0.7449 0.0215
0.4799 0.8046 0.0223
0.5880 0.8090 0.0225
0.6840 0.8044 0.0226
0.7691 0.8066 0.0229
0.8552 0.8029 0.0229
0.0216 0.8559 0.0213
0.2448 0.8508 0.0212
0.3861 0.8462 0.0212
0.4887 0.8927 0.0218
0.5792 0.9214 0.0224
0.6855 0.9064 0.0224
0.7695 0.9055 0.0227
0.8544 0.9039 0.0230
0.0214 0.0225 0.1252
0.1100 0.0225 0.1269
0.1460 0.0226 0.1303
0.2008 0.0227 0.1321
0.2712 0.0227 0.1308
0.3545 0.0228 0.1266
0.4589 0.0227 0.1204
0.5850 0.0225 0.1026
0.0214 0.1164 0.1129
0.1161 0.1170 0.1135
0.1808 0.1200 0.1170
0.2521 0.1281 0.1224
0.3382 0.1395 0.1267
0.4155 0.1465 0.1262
0.5057 0.1448 0.1213
0.6296 0.1319 0.1031
0.0215 0.1853 0.1051
0.1485 0.2081 0.1142
0.2249 0.2295 0.1202
0.3114 0.2409 0.1218
0.4277 0.2554 0.1286
0.5406 0.2669 0.1368
0.6282 0.2673 0.1426
0.7131 0.2519 0.1288
0.0215 0.3084 0.1072
0.1947 0.3294 0.1193
0.2987 0.3743 0.1425
0.3953 0.3971 0.1480
0.4920 0.4136 0.1492
0.5992 0.4240 0.1515
0.7002 0.4234 0.1561
0.7906 0.4143 0.1647
0.0215 0.4557 0.1075
0.2173 0.4673 0.1093
0.3429 0.5083 0.1327
0.4582 0.5431 0.1592
0.5621 0.5614 0.1687
0.6467 0.5733 0.1745
0.7357 0.5742 0.1759
0.8237 0.5664 0.1820
0.0215 0.6000 0.1010
0.2292 0.6018 0.0949
0.3637 0.6170 0.1011
0.4764 0.6641 0.1461
0.5862 0.6767 0.1612
0.6812 0.6844 0.1747
0.7577 0.6897 0.1865
0.8429 0.6922 0.1985
0.0216 0.7307 0.0876
0.2392 0.7269 0.0800
0.3801 0.7231 0.0733
0.4935 0.7582 0.1113
0.5873 0.7932 0.1571
0.6920 0.7880 0.1669
0.7788 0.7863 0.1858
0.8505 0.7891 0.1975
0.0216 0.8513 0.0728
0.2490 0.8455 0.0653
0.3918 0.8377 0.0553
0.5164 0.8452 0.0646
0.5924 0.8939 0.1386
0.6869 0.8951 0.1683
0.7886 0.8810 0.1811
0.8640 0.8808 0.1943
0.0215 0.0224 0.1827
0.1021 0.0224 0.2064
0.1437 0.0226 0.2221
0.1920 0.0226 0.2284
0.2663 0.0226 0.2358
0.3503 0.0226 0.2282
0.4558 0.0224 0.2140
0.5857 0.0223 0.1989
0.0215 0.1013 0.1717
0.1123 0.1075 0.1953
0.1805 0.1107 0.2063
0.2380 0.1206 0.2115
0.3164 0.1299 0.2177
0.3973 0.1350 0.2187
0.4943 0.1314 0.2093
0.6204 0.1223 0.1948
0.0215 0.1617 0.1589
0.1365 0.1893 0.1828
0.2097 0.2106 0.1974
0.3060 0.2170 0.2007
0.4116 0.2290 0.2055
0.5219 0.2433 0.2132
0.5980 0.2481 0.2141
0.6858 0.2308 0.2029
0.0215 0.2729 0.1599
0.1845 0.2992 0.1782
0.2579 0.3374 0.2001
0.3509 0.3547 0.2075
0.4593 0.3685 0.2072
0.5780 0.3866 0.2174
0.6904 0.4027 0.2327
0.7805 0.3968 0.2392
0.0216 0.4105 0.1588
0.2155 0.4417 0.1835
0.3322 0.4755 0.2052
0.4296 0.5122 0.2372
0.5303 0.5248 0.2392
0.6191 0.5373 0.2377
0.7135 0.5513 0.2472
0.8170 0.5541 0.2643
0.0216 0.5546 0.1587
0.2330 0.5843 0.1880
0.3662 0.5963 0.1935
0.4802 0.6366 0.2340
0.5843 0.6594 0.2622
0.6809 0.6654 0.2671
0.7519 0.6793 0.2807
0.8339 0.6871 0.2973
0.0216 0.6983 0.1668
0.2444 0.7150 0.1873
0.3837 0.7116 0.1817
0.5072 0.7223 0.1925
0.5967 0.7666 0.2472
0.6945 0.7714 0.2589
0.7870 0.7726 0.2851
0.8531 0.7866 0.3230
0.0216 0.8332 0.1731
0.2543 0.8370 0.1794
0.3969 0.8294 0.1695
0.5309 0.8218 0.1601
0.6274 0.8489 0.2002
0.6920 0.8770 0.2555
0.7920 0.8660 0.2767
0.8773 0.8671 0.3164
0.0214 0.0222 0.2678
0.1054 0.0222 0.2960
0.1270 0.0226 0.3471
0.1945 0.0226 0.3625
0.2575 0.0225 0.3673
0.3413 0.0224 0.3815
0.4460 0.0223 0.3665
0.5873 0.0220 0.3320
0.0215 0.0928 0.2592
0.1162 0.0969 0.2807
0.1608 0.1104 0.3163
0.2243 0.1196 0.3338
0.2863 0.1276 0.3406
0.3738 0.1317 0.3564
0.4751 0.1285 0.3553
0.6097 0.1135 0.3289
0.0215 0.1478 0.2415
0.1373 0.1683 0.2667
0.2059 0.1994 0.3036
0.3059 0.2116 0.3163
0.3929 0.2185 0.3168
0.4878 0.2268 0.3230
0.5795 0.2317 0.3310
0.6742 0.2225 0.3282
0.0215 0.2402 0.2359
0.1765 0.2729 0.2611
0.2435 0.3171 0.2972
0.3442 0.3412 0.3183
0.4604 0.3509 0.3188
0.5702 0.3610 0.3189
0.6752 0.3708 0.3300
0.7578 0.3659 0.3389
0.0216 0.3765 0.2391
0.2129 0.4110 0.2600
0.3071 0.4445 0.2820
0.3836 0.4732 0.3154
0.4950 0.4930 0.3295
0.6022 0.5067 0.3282
0.7046 0.5193 0.3382
0.8130 0.5334 0.3641
0.0216 0.5231 0.2377
0.2425 0.5469 0.2564
0.3546 0.5764 0.2777
0.4627 0.6005 0.3078
0.5555 0.6369 0.3569
0.6558 0.6480 0.3638
0.7330 0.6561 0.3611
0.8209 0.6718 0.3834
0.0216 0.6555 0.2322
0.2604 0.6757 0.2564
0.3816 0.6968 0.2789
0.5102 0.6988 0.2837
0.6065 0.7402 0.3508
0.7019 0.7622 0.3955
0.7919 0.7631 0.4032
0.8533 0.7802 0.4271
0.0216 0.7863 0.2335
0.2678 0.8057 0.2631
0.3991 0.8172 0.2800
0.5310 0.8110 0.2753
0.6454 0.8232 0.3007
0.7151 0.8618 0.3849
0.8019 0.8596 0.3993
0.8877 0.8584 0.4447
0.0214 0.0220 0.3785
0.1227 0.0219 0.3939
0.1127 0.0224 0.4793
0.1753 0.0226 0.5184
0.2608 0.0224 0.5185
0.3341 0.0223 0.5177
0.4243 0.0222 0.5330
0.5573 0.0220 0.5149
0.0214 0.0902 0.3756
0.1209 0.0876 0.3907
0.1527 0.0979 0.4354
0.1994 0.1212 0.4817
0.2777 0.1240 0.4909
0.3587 0.1222 0.4898
0.4503 0.1224 0.5115
0.5772 0.1115 0.5016
0.0215 0.1400 0.3544
0.1335 0.1562 0.3795
0.1933 0.1794 0.4148
0.2718 0.2012 0.4434
0.3603 0.2101 0.4576
0.4438 0.2220 0.4640
0.5362 0.2307 0.4799
0.6478 0.2253 0.4816
0.0215 0.2176 0.3377
0.1644 0.2439 0.3673
0.2358 0.2867 0.4091
0.3384 0.3280 0.4414
0.4575 0.3414 0.4515
0.5578 0.3445 0.4486
0.6470 0.3483 0.4513
0.7416 0.3494 0.4635
0.0215 0.3296 0.3323
0.2040 0.3710 0.3633
0.2958 0.4222 0.3997
0.3756 0.4593 0.4363
0.4888 0.4787 0.4559
0.6058 0.4894 0.4576
0.6994 0.4943 0.4545
0.7982 0.4995 0.4723
0.0216 0.4847 0.3403
0.2430 0.5173 0.3597
0.3466 0.5598 0.3887
0.4408 0.5825 0.4157
0.5198 0.6104 0.4570
0.6302 0.6270 0.4740
0.7234 0.6345 0.4725
0.8174 0.6420 0.4891
0.0216 0.6429 0.3491
0.2727 0.6503 0.3542
0.3781 0.6784 0.3816
0.4932 0.6912 0.3958
0.5947 0.7110 0.4349
0.6762 0.7477 0.5005
0.7710 0.7596 0.5219
0.8417 0.7708 0.5232
0.0217 0.7737 0.3496
0.2843 0.7731 0.3532
0.4066 0.7906 0.3763
0.5204 0.8027 0.3894
0.6485 0.8030 0.3990
0.7324 0.8362 0.4913
0.8133 0.8564 0.5721
0.8940 0.8610 0.5921
0.0214 0.0217 0.5050
0.1263 0.0216 0.5079
0.1378 0.0220 0.5842
0.1425 0.0225 0.6579
0.2382 0.0224 0.6565
0.3319 0.0222 0.6463
0.4207 0.0221 0.6569
0.5388 0.0219 0.6686
0.0214 0.0844 0.5044
0.1165 0.0772 0.5120
0.1747 0.0759 0.5501
0.1817 0.1158 0.6192
0.2494 0.1305 0.6406
0.3464 0.1227 0.6305
0.4461 0.1121 0.6350
0.5547 0.1119 0.6586
0.0214 0.1383 0.4891
0.1214 0.1505 0.5084
0.1880 0.1654 0.5417
0.2517 0.1845 0.5729
0.3236 0.2067 0.6050
0.4144 0.2180 0.6137
0.5040 0.2216 0.6150
0.6140 0.2254 0.6314
0.0215 0.2042 0.4645
0.1548 0.2243 0.4900
0.2244 0.2625 0.5333
0.3103 0.2976 0.5644
0.4186 0.3228 0.5860
0.5249 0.3303 0.5967
0.6105 0.3385 0.5972
0.7015 0.3501 0.6107
0.0215 0.3063 0.4537
0.1902 0.3343 0.4831
0.2719 0.3809 0.5237
0.3639 0.4277 0.5590
0.4847 0.4692 0.5877
0.6063 0.4801 0.5987
0.6956 0.4777 0.5926
0.7814 0.4774 0.5975
0.0216 0.4349 0.4490
0.2290 0.4675 0.4749
0.3342 0.5254 0.5149
0.4335 0.5679 0.5500
0.5182 0.6007 0.5856
0.6276 0.6149 0.6031
0.7302 0.6176 0.6026
0.8141 0.6176 0.6068
0.0216 0.5890 0.4585
0.2667 0.6142 0.4727
0.3809 0.6543 0.5039
0.4868 0.6840 0.5355
0.5785 0.7038 0.5627
0.6508 0.7335 0.5999
0.7493 0.7451 0.6192
0.8324 0.7510 0.6283
0.0217 0.7498 0.4734
0.2880 0.7593 0.4805
0.4200 0.7698 0.4969
0.5170 0.7939 0.5281
0.6298 0.8007 0.5375
0.7250 0.8192 0.5725
0.7898 0.8541 0.6603
0.8757 0.8664 0.6822
0.0213 0.0213 0.6347
0.1097 0.0212 0.6343
0.1837 0.0213 0.6647
0.1332 0.0222 0.7687
0.2078 0.0223 0.7756
0.3116 0.0221 0.7612
0.4194 0.0220 0.7524
0.5477 0.0219 0.7766
0.0213 0.0666 0.6338
0.1005 0.0578 0.6338
0.2000 0.0482 0.6476
0.1903 0.0941 0.7276
0.2145 0.1305 0.7659
0.3122 0.1266 0.7551
0.4238 0.1162 0.7443
0.5586 0.1074 0.7700
0.0214 0.1414 0.6265
0.0990 0.1464 0.6328
0.1905 0.1458 0.6522
0.2600 0.1611 0.6870
0.3088 0.1998 0.7275
0.3808 0.2252 0.7455
0.4810 0.2239 0.7371
0.6067 0.2135 0.7462
0.0214 0.2011 0.6092
0.1367 0.2127 0.6220
0.2092 0.2436 0.6498
0.2876 0.2734 0.6783
0.3799 0.2967 0.7009
0.4807 0.3203 0.7277
0.5750 0.3349 0.7321
0.6698 0.3380 0.7351
0.0215 0.2916 0.5894
0.1762 0.3107 0.6087
0.2596 0.3505 0.6418
0.3426 0.3926 0.6713
0.4458 0.4296 0.6946
0.5648 0.4547 0.7159
0.6699 0.4620 0.7239
0.7551 0.4687 0.7276
0.0215 0.4172 0.5840
0.2125 0.4341 0.6008
0.3101 0.4819 0.6366
0.4001 0.5242 0.6634
0.5029 0.5658 0.6933
0.6205 0.6006 0.7224
0.7326 0.6062 0.7303
0.8155 0.6034 0.7310
0.0216 0.5566 0.5818
0.2465 0.5680 0.5923
0.3636 0.6139 0.6262
0.4726 0.6581 0.6605
0.5722 0.6914 0.6905
0.6486 0.7220 0.7191
0.7484 0.7332 0.7324
0.8461 0.7358 0.7406
0.0216 0.6991 0.5892
0.2669 0.7156 0.5995
0.4097 0.7433 0.6220
0.5209 0.7752 0.6564
0.6262 0.7990 0.6854
0.7117 0.8189 0.7051
0.7724 0.8495 0.7357
0.8637 0.8587 0.7585
0.0213 0.0210 0.7611
0.0901 0.0208 0.7592
0.2020 0.0207 0.7607
0.1697 0.0216 0.8474
0.1839 0.0221 0.8906
0.2932 0.0220 0.8752
0.4071 0.0219 0.8600
0.5337 0.0218 0.8554
0.0213 0.0420 0.7585
0.0805 0.0325 0.7565
0.1960 0.0211 0.7556
0.2325 0.0494 0.8046
0.1967 0.1195 0.8770
0.2883 0.1219 0.8696
0.4035 0.1143 0.8542
0.5353 0.1063 0.8491
0.0213 0.1402 0.7551
0.0711 0.1362 0.7542
0.1814 0.1256 0.7577
0.2797 0.1260 0.7785
0.3075 0.1826 0.8325
0.3432 0.2282 0.8593
0.4354 0.2334 0.8502
0.5609 0.2249 0.8414
0.0214 0.2069 0.7505
0.1021 0.2156 0.7539
0.1837 0.2292 0.7621
0.2787 0.2401 0.7733
0.3716 0.2706 0.8017
0.4609 0.3068 0.8320
0.5436 0.3417 0.8491
0.6454 0.3419 0.8427
0.0215 0.2918 0.7310
0.1515 0.3051 0.7444
0.2392 0.3255 0.7599
0.3113 0.3622 0.7722
0.4084 0.3943 0.7925
0.5119 0.4193 0.8092
0.6210 0.4490 0.8325
0.7167 0.4693 0.8367
0.0215 0.4000 0.7188
0.1897 0.4147 0.7292
0.2895 0.4470 0.7540
0.3767 0.4897 0.7744
0.4759 0.5277 0.7924
0.5807 0.5597 0.8109
0.6928 0.5828 0.8291
0.7897 0.5929 0.8357
0.0215 0.5429 0.7180
0.2203 0.5483 0.7234
0.3364 0.5760 0.7447
0.4378 0.6185 0.7733
0.5357 0.6527 0.7944
0.6364 0.6887 0.8191
0.7433 0.7190 0.8436
0.8497 0.7250 0.8526
0.0216 0.6889 0.7195
0.2449 0.6924 0.7250
0.3777 0.7079 0.7407
0.4940 0.7430 0.7714
0.6026 0.7753 0.8009
0.7016 0.8060 0.8241
0.7725 0.8402 0.8462
0.8674 0.8539 0.8600
