lut/adanmq/Adanmq_Fujicolor_Pro_400H.cube
TITLE "Adanmq_Fujicolor Pro 400H"
LUT_3D_SIZE 8
DOMAIN_MIN 0.000000 0.000000 0.000000
DOMAIN_MAX 0.903226 0.903226 0.903226
0.0214 0.0223 0.0221
0.1150 0.0223 0.0221
0.1805 0.0223 0.0221
0.2614 0.0223 0.0221
0.3488 0.0223 0.0221
0.4505 0.0223 0.0221
0.5698 0.0223 0.0221
0.6967 0.0223 0.0221
0.0214 0.1382 0.0221
0.1429 0.1458 0.0221
0.2337 0.1572 0.0221
0.3355 0.1676 0.0221
0.4340 0.1742 0.0221
0.5296 0.1762 0.0221
0.6261 0.1755 0.0221
0.7310 0.1692 0.0221
0.0214 0.2513 0.0221
0.1936 0.2736 0.0221
0.3024 0.2987 0.0221
0.4063 0.3130 0.0221
0.5154 0.3230 0.0221
0.6128 0.3226 0.0221
0.7009 0.3200 0.0221
0.7945 0.3214 0.0221
0.0214 0.3799 0.0221
0.2351 0.3983 0.0221
0.3577 0.4330 0.0221
0.4609 0.4484 0.0221
0.5553 0.4613 0.0221
0.6507 0.4682 0.0221
0.7343 0.4677 0.0221
0.8130 0.4646 0.0221
0.0214 0.5041 0.0221
0.2634 0.5090 0.0221
0.3875 0.5495 0.0221
0.4989 0.5624 0.0221
0.5873 0.5731 0.0221
0.6704 0.5816 0.0221
0.7550 0.5884 0.0221
0.8349 0.5895 0.0221
0.0214 0.6220 0.0221
0.2813 0.6167 0.0221
0.4055 0.6472 0.0221
0.5093 0.6767 0.0221
0.6064 0.6758 0.0221
0.6858 0.6836 0.0221
0.7642 0.6880 0.0221
0.8451 0.6957 0.0221
0.0214 0.7345 0.0221
0.2941 0.7254 0.0221
0.4259 0.7307 0.0221
0.5079 0.7823 0.0221
0.6039 0.7856 0.0221
0.6908 0.7830 0.0221
0.7672 0.7870 0.0221
0.8494 0.7890 0.0221
0.0214 0.8436 0.0221
0.3030 0.8334 0.0221
0.4419 0.8235 0.0221
0.5208 0.8675 0.0221
0.5887 0.8971 0.0221
0.6864 0.8832 0.0221
0.7632 0.8853 0.0221
0.8440 0.8875 0.0221
0.0214 0.0223 0.1279
0.1175 0.0223 0.1340
0.1795 0.0223 0.1408
0.2527 0.0223 0.1459
0.3365 0.0223 0.1447
0.4385 0.0223 0.1418
0.5592 0.0223 0.1347
0.6865 0.0223 0.1207
0.0214 0.1264 0.1171
0.1380 0.1338 0.1241
0.2285 0.1429 0.1295
0.3224 0.1545 0.1373
0.4102 0.1637 0.1436
0.4935 0.1682 0.1470
0.5903 0.1683 0.1422
0.7082 0.1609 0.1257
0.0214 0.2353 0.1126
0.1820 0.2549 0.1250
0.2780 0.2733 0.1330
0.3789 0.2856 0.1377
0.4883 0.2964 0.1454
0.5894 0.3020 0.1558
0.6732 0.3021 0.1635
0.7560 0.2934 0.1533
0.0214 0.3651 0.1140
0.2379 0.3794 0.1248
0.3500 0.4098 0.1494
0.4458 0.4248 0.1574
0.5333 0.4383 0.1606
0.6273 0.4462 0.1662
0.7166 0.4439 0.1745
0.8023 0.4412 0.1836
0.0214 0.4935 0.1098
0.2684 0.4955 0.1109
0.3929 0.5213 0.1387
0.4974 0.5435 0.1659
0.5880 0.5558 0.1743
0.6619 0.5717 0.1829
0.7420 0.5764 0.1906
0.8225 0.5729 0.2027
0.0214 0.6142 0.0993
0.2853 0.6080 0.0937
0.4172 0.6135 0.1032
0.5105 0.6511 0.1523
0.6074 0.6597 0.1655
0.6907 0.6670 0.1806
0.7596 0.6783 0.1972
0.8378 0.6856 0.2170
0.0214 0.7262 0.0842
0.2978 0.7162 0.0772
0.4372 0.7060 0.0723
0.5315 0.7363 0.1140
0.6036 0.7712 0.1612
0.6981 0.7662 0.1729
0.7765 0.7671 0.1944
0.8447 0.7770 0.2117
0.0214 0.8344 0.0698
0.3056 0.8242 0.0633
0.4451 0.8123 0.0554
0.5581 0.8179 0.0678
0.6060 0.8690 0.1450
0.6861 0.8722 0.1795
0.7811 0.8613 0.1962
0.8546 0.8668 0.2105
0.0214 0.0223 0.2074
0.1122 0.0223 0.2347
0.1704 0.0223 0.2550
0.2364 0.0223 0.2686
0.3269 0.0223 0.2820
0.4308 0.0223 0.2747
0.5532 0.0223 0.2625
0.6835 0.0223 0.2407
0.0214 0.1136 0.1949
0.1374 0.1263 0.2200
0.2231 0.1366 0.2352
0.2994 0.1490 0.2463
0.3804 0.1571 0.2580
0.4682 0.1609 0.2633
0.5731 0.1615 0.2617
0.6982 0.1578 0.2432
0.0214 0.2115 0.1847
0.1709 0.2348 0.2078
0.2608 0.2503 0.2226
0.3701 0.2625 0.2293
0.4706 0.2733 0.2381
0.5667 0.2800 0.2486
0.6400 0.2842 0.2609
0.7270 0.2775 0.2574
0.0214 0.3326 0.1834
0.2249 0.3529 0.2000
0.3084 0.3774 0.2218
0.4046 0.3922 0.2328
0.5043 0.4033 0.2383
0.6042 0.4118 0.2477
0.7027 0.4205 0.2659
0.7887 0.4188 0.2802
0.0214 0.4576 0.1791
0.2657 0.4734 0.1978
0.3831 0.4923 0.2207
0.4692 0.5206 0.2596
0.5582 0.5295 0.2642
0.6334 0.5413 0.2631
0.7156 0.5533 0.2759
0.8110 0.5544 0.2969
0.0214 0.5798 0.1746
0.2888 0.5911 0.1957
0.4211 0.5917 0.2028
0.5140 0.6212 0.2534
0.5998 0.6389 0.2843
0.6856 0.6457 0.2880
0.7464 0.6640 0.3056
0.8214 0.6751 0.3271
0.0214 0.6999 0.1749
0.3009 0.7026 0.1904
0.4372 0.6927 0.1883
0.5463 0.6990 0.2072
0.6093 0.7404 0.2677
0.6968 0.7481 0.2784
0.7786 0.7499 0.3083
0.8385 0.7680 0.3512
0.0214 0.8167 0.1759
0.3075 0.8129 0.1812
0.4443 0.8023 0.1753
0.5688 0.7934 0.1725
0.6438 0.8207 0.2186
0.6899 0.8542 0.2761
0.7822 0.8469 0.3027
0.8625 0.8509 0.3441
0.0214 0.0223 0.3008
0.1145 0.0223 0.3333
0.1531 0.0223 0.3855
0.2365 0.0223 0.3995
0.3218 0.0223 0.4204
0.4226 0.0223 0.4407
0.5403 0.0223 0.4274
0.6783 0.0223 0.3982
0.0214 0.1086 0.2926
0.1374 0.1192 0.3184
0.1999 0.1376 0.3544
0.2758 0.1484 0.3730
0.3466 0.1562 0.3910
0.4410 0.1624 0.4110
0.5522 0.1640 0.4139
0.6847 0.1572 0.3962
0.0214 0.1948 0.2762
0.1704 0.2182 0.3049
0.2552 0.2410 0.3350
0.3618 0.2501 0.3463
0.4476 0.2609 0.3568
0.5306 0.2672 0.3670
0.6170 0.2716 0.3803
0.7093 0.2737 0.3930
0.0214 0.3002 0.2670
0.2164 0.3295 0.2938
0.2927 0.3613 0.3257
0.3926 0.3729 0.3392
0.5030 0.3828 0.3483
0.5960 0.3901 0.3548
0.6870 0.3951 0.3657
0.7652 0.4007 0.3888
0.0214 0.4251 0.2668
0.2608 0.4468 0.2857
0.3567 0.4706 0.3080
0.4251 0.4963 0.3395
0.5251 0.5084 0.3554
0.6169 0.5169 0.3584
0.7049 0.5237 0.3671
0.8030 0.5337 0.3937
0.0214 0.5492 0.2625
0.2944 0.5607 0.2769
0.4057 0.5755 0.2955
0.5004 0.5937 0.3294
0.5706 0.6240 0.3825
0.6591 0.6326 0.3898
0.7280 0.6449 0.3862
0.8072 0.6612 0.4102
0.0214 0.6641 0.2521
0.3138 0.6717 0.2713
0.4288 0.6808 0.2943
0.5458 0.6774 0.3050
0.6154 0.7113 0.3756
0.6947 0.7313 0.4184
0.7794 0.7379 0.4250
0.8359 0.7617 0.4523
0.0214 0.7798 0.2477
0.3187 0.7874 0.2732
0.4381 0.7917 0.2953
0.5582 0.7837 0.2979
0.6550 0.7940 0.3262
0.7044 0.8315 0.4051
0.7869 0.8369 0.4230
0.8678 0.8407 0.4730
0.0214 0.0223 0.4038
0.1321 0.0223 0.4195
0.1458 0.0223 0.5056
0.2212 0.0223 0.5335
0.3184 0.0223 0.5366
0.4128 0.0223 0.5615
0.5142 0.0223 0.5791
0.6414 0.0223 0.5609
0.0214 0.1078 0.3995
0.1384 0.1111 0.4165
0.1909 0.1299 0.4658
0.2474 0.1530 0.5056
0.3330 0.1580 0.5165
0.4258 0.1585 0.5336
0.5264 0.1643 0.5545
0.6509 0.1619 0.5500
0.0214 0.1846 0.3822
0.1635 0.2037 0.4082
0.2388 0.2276 0.4439
0.3224 0.2436 0.4705
0.4080 0.2524 0.4875
0.4868 0.2618 0.5008
0.5756 0.2691 0.5148
0.6853 0.2725 0.5271
0.0214 0.2773 0.3673
0.2032 0.3023 0.3963
0.2845 0.3368 0.4337
0.3831 0.3606 0.4609
0.4935 0.3666 0.4723
0.5804 0.3721 0.4771
0.6582 0.3782 0.4826
0.7469 0.3856 0.5010
0.0214 0.3858 0.3588
0.2506 0.4132 0.3858
0.3434 0.4486 0.4195
0.4138 0.4797 0.4545
0.5147 0.4888 0.4693
0.6172 0.4941 0.4741
0.6985 0.5012 0.4781
0.7875 0.5086 0.4941
0.0214 0.5142 0.3612
0.2953 0.5313 0.3777
0.3947 0.5570 0.4034
0.4769 0.5773 0.4296
0.5362 0.6052 0.4681
0.6319 0.6155 0.4840
0.7154 0.6244 0.4872
0.8006 0.6333 0.5033
0.0214 0.6437 0.3651
0.3275 0.6433 0.3679
0.4245 0.6621 0.3930
0.5265 0.6692 0.4096
0.6069 0.6868 0.4496
0.6674 0.7217 0.5132
0.7544 0.7362 0.5305
0.8220 0.7541 0.5321
0.0214 0.7607 0.3604
0.3373 0.7551 0.3607
0.4461 0.7662 0.3867
0.5409 0.7759 0.4100
0.6530 0.7754 0.4237
0.7181 0.8077 0.5089
0.7899 0.8325 0.5792
0.8713 0.8433 0.5987
0.0214 0.0223 0.5128
0.1381 0.0223 0.5118
0.1705 0.0223 0.5894
0.1946 0.0223 0.6591
0.2963 0.0223 0.6504
0.3995 0.0223 0.6451
0.5006 0.0223 0.6770
0.6148 0.0223 0.6898
0.0214 0.1051 0.5082
0.1335 0.1028 0.5126
0.2098 0.1118 0.5557
0.2330 0.1524 0.6253
0.3056 0.1688 0.6387
0.4084 0.1654 0.6336
0.5149 0.1598 0.6557
0.6211 0.1672 0.6772
0.0214 0.1826 0.4984
0.1492 0.1958 0.5118
0.2305 0.2146 0.5456
0.3005 0.2334 0.5803
0.3673 0.2513 0.6102
0.4562 0.2614 0.6178
0.5477 0.2668 0.6303
0.6527 0.2747 0.6437
0.0214 0.2635 0.4806
0.1921 0.2819 0.5008
0.2724 0.3126 0.5388
0.3555 0.3378 0.5668
0.4507 0.3525 0.5892
0.5447 0.3592 0.6006
0.6230 0.3700 0.6068
0.7073 0.3803 0.6169
0.0214 0.3631 0.4678
0.2354 0.3831 0.4923
0.3201 0.4157 0.5268
0.4027 0.4489 0.5583
0.5039 0.4725 0.5865
0.6111 0.4767 0.5953
0.6910 0.4824 0.5970
0.7688 0.4910 0.6050
0.0214 0.4749 0.4584
0.2810 0.4928 0.4788
0.3807 0.5283 0.5139
0.4649 0.5581 0.5447
0.5278 0.5875 0.5799
0.6228 0.5959 0.5912
0.7174 0.6000 0.5951
0.7982 0.6094 0.6074
0.0214 0.6023 0.4619
0.3202 0.6113 0.4743
0.4258 0.6363 0.5027
0.5163 0.6577 0.5305
0.5879 0.6766 0.5553
0.6406 0.7074 0.5883
0.7295 0.7194 0.6071
0.8124 0.7321 0.6206
0.0214 0.7371 0.4741
0.3369 0.7369 0.4793
0.4593 0.7410 0.4915
0.5393 0.7636 0.5235
0.6339 0.7711 0.5378
0.7132 0.7927 0.5728
0.7643 0.8315 0.6534
0.8516 0.8479 0.6706
0.0214 0.0223 0.6252
0.1256 0.0223 0.6203
0.2098 0.0223 0.6488
0.1877 0.0223 0.7596
0.2714 0.0223 0.7628
0.3770 0.0223 0.7427
0.4851 0.0223 0.7340
0.6071 0.0223 0.7747
0.0214 0.0953 0.6188
0.1190 0.0905 0.6143
0.2280 0.0879 0.6267
0.2407 0.1370 0.7162
0.2763 0.1741 0.7527
0.3752 0.1729 0.7355
0.4857 0.1663 0.7256
0.6101 0.1671 0.7656
0.0214 0.1865 0.6129
0.1251 0.1930 0.6119
0.2268 0.1976 0.6283
0.3052 0.2143 0.6721
0.3537 0.2465 0.7141
0.4229 0.2690 0.7267
0.5225 0.2716 0.7205
0.6394 0.2714 0.7408
0.0214 0.2610 0.6040
0.1711 0.2713 0.6076
0.2513 0.2976 0.6283
0.3320 0.3199 0.6587
0.4155 0.3342 0.6812
0.5013 0.3514 0.7064
0.5890 0.3662 0.7110
0.6779 0.3771 0.7231
0.0214 0.3481 0.5843
0.2179 0.3630 0.5956
0.3051 0.3903 0.6249
0.3851 0.4191 0.6520
0.4733 0.4434 0.6731
0.5722 0.4598 0.6946
0.6641 0.4696 0.7041
0.7425 0.4834 0.7131
0.0214 0.4564 0.5734
0.2618 0.4650 0.5837
0.3563 0.4957 0.6158
0.4355 0.5255 0.6392
0.5176 0.5559 0.6697
0.6126 0.5792 0.6981
0.7142 0.5838 0.7050
0.7952 0.5928 0.7122
0.0214 0.5742 0.5692
0.2993 0.5755 0.5743
0.4074 0.6029 0.6036
0.4981 0.6338 0.6348
0.5762 0.6617 0.6629
0.6336 0.6914 0.6912
0.7238 0.7023 0.7020
0.8240 0.7107 0.7143
0.0214 0.6995 0.5721
0.3159 0.7035 0.5810
0.4458 0.7186 0.6019
0.5382 0.7459 0.6331
0.6248 0.7693 0.6582
0.6953 0.7908 0.6769
0.7441 0.8237 0.7056
0.8379 0.8372 0.7285
0.0214 0.0223 0.7382
0.1106 0.0223 0.7322
0.2272 0.0223 0.7288
0.2200 0.0223 0.8246
0.2493 0.0223 0.8722
0.3575 0.0223 0.8507
0.4691 0.0223 0.8287
0.5875 0.0223 0.8242
0.0214 0.0813 0.7303
0.1035 0.0754 0.7235
0.2240 0.0676 0.7167
0.2758 0.0980 0.7711
0.2594 0.1663 0.8553
0.3517 0.1704 0.8427
0.4633 0.1668 0.8208
0.5833 0.1640 0.8167
0.0214 0.1897 0.7222
0.0985 0.1880 0.7143
0.2152 0.1811 0.7126
0.3209 0.1824 0.7386
0.3541 0.2293 0.8052
0.3908 0.2736 0.8306
0.4806 0.2842 0.8161
0.5950 0.2824 0.8102
0.0214 0.2655 0.7238
0.1353 0.2735 0.7165
0.2234 0.2875 0.7167
0.3237 0.2938 0.7321
0.4092 0.3103 0.7676
0.4853 0.3373 0.7979
0.5570 0.3698 0.8129
0.6531 0.3801 0.8129
0.0214 0.3456 0.7068
0.1928 0.3568 0.7101
0.2822 0.3714 0.7165
0.3539 0.3984 0.7320
0.4406 0.4187 0.7550
0.5301 0.4350 0.7711
0.6225 0.4609 0.7954
0.7088 0.4832 0.8036
0.0214 0.4406 0.6883
0.2380 0.4493 0.6919
0.3347 0.4698 0.7109
0.4136 0.4976 0.7333
0.4980 0.5249 0.7537
0.5847 0.5496 0.7735
0.6799 0.5701 0.7943
0.7696 0.5846 0.8037
0.0214 0.5615 0.6867
0.2708 0.5597 0.6856
0.3813 0.5742 0.7011
0.4678 0.6024 0.7283
0.5467 0.6298 0.7524
0.6266 0.6618 0.7826
0.7172 0.6894 0.8116
0.8233 0.6987 0.8216
0.0214 0.6869 0.6916
0.2938 0.6839 0.6912
0.4172 0.6894 0.6999
0.5143 0.7164 0.7293
0.6019 0.7452 0.7598
0.6832 0.7776 0.7879
0.7409 0.8148 0.8142
0.8415 0.8337 0.8317
