lut/adanmq/Adanmq_Fujicolor_Pro_160s.cube
TITLE "Adanmq_Fujicolor Pro 160s"
LUT_3D_SIZE 32
0.0214 0.0226 0.0222
0.0518 0.0226 0.0222
0.0794 0.0226 0.0222
0.0999 0.0226 0.0222
0.1129 0.0226 0.0222
0.1207 0.0226 0.0222
0.1273 0.0226 0.0222
0.1343 0.0227 0.0223
0.1432 0.0227 0.0223
0.1545 0.0228 0.0223
0.1681 0.0228 0.0223
0.1833 0.0229 0.0223
0.1997 0.0229 0.0223
0.2169 0.0229 0.0223
0.2348 0.0229 0.0223
0.2535 0.0229 0.0223
0.2730 0.0229 0.0223
0.2934 0.0229 0.0223
0.3146 0.0229 0.0223
0.3368 0.0229 0.0222
0.3601 0.0229 0.0222
0.3847 0.0229 0.0222
0.4108 0.0228 0.0222
0.4383 0.0228 0.0221
0.4674 0.0228 0.0221
0.4979 0.0227 0.0220
0.5296 0.0227 0.0219
0.5622 0.0226 0.0219
0.5953 0.0226 0.0218
0.6287 0.0225 0.0218
0.6620 0.0224 0.0217
0.6945 0.0227 0.0223
0.0214 0.0534 0.0222
0.0516 0.0531 0.0222
0.0792 0.0527 0.0222
0.0998 0.0524 0.0222
0.1133 0.0523 0.0222
0.1219 0.0526 0.0222
0.1294 0.0532 0.0222
0.1374 0.0540 0.0223
0.1472 0.0550 0.0223
0.1592 0.0558 0.0223
0.1733 0.0565 0.0223
0.1888 0.0570 0.0223
0.2055 0.0573 0.0223
0.2229 0.0575 0.0223
0.2411 0.0577 0.0223
0.2601 0.0579 0.0223
0.2799 0.0580 0.0223
0.3005 0.0582 0.0223
0.3218 0.0582 0.0223
0.3439 0.0582 0.0223
0.3670 0.0580 0.0222
0.3912 0.0577 0.0222
0.4168 0.0573 0.0222
0.4439 0.0566 0.0221
0.4725 0.0558 0.0221
0.5026 0.0547 0.0220
0.5341 0.0537 0.0219
0.5667 0.0524 0.0219
0.5999 0.0511 0.0218
0.6335 0.0498 0.0218
0.6670 0.0487 0.0217
0.6995 0.0484 0.0223
0.0214 0.0847 0.0222
0.0515 0.0842 0.0222
0.0789 0.0834 0.0222
0.0998 0.0826 0.0222
0.1144 0.0822 0.0222
0.1247 0.0824 0.0222
0.1341 0.0832 0.0222
0.1441 0.0844 0.0222
0.1557 0.0857 0.0222
0.1693 0.0869 0.0223
0.1847 0.0879 0.0223
0.2014 0.0887 0.0223
0.2190 0.0894 0.0223
0.2373 0.0901 0.0223
0.2563 0.0907 0.0223
0.2761 0.0912 0.0223
0.2966 0.0917 0.0223
0.3179 0.0922 0.0223
0.3396 0.0925 0.0223
0.3621 0.0926 0.0223
0.3851 0.0926 0.0223
0.4089 0.0923 0.0222
0.4338 0.0916 0.0222
0.4598 0.0907 0.0222
0.4873 0.0894 0.0221
0.5163 0.0877 0.0220
0.5467 0.0858 0.0220
0.5785 0.0836 0.0219
0.6111 0.0812 0.0218
0.6446 0.0787 0.0218
0.6781 0.0765 0.0217
0.7101 0.0761 0.0223
0.0214 0.1106 0.0222
0.0518 0.1102 0.0222
0.0796 0.1093 0.0222
0.1012 0.1085 0.0222
0.1172 0.1082 0.0222
0.1295 0.1085 0.0222
0.1411 0.1093 0.0222
0.1534 0.1105 0.0222
0.1671 0.1118 0.0222
0.1827 0.1131 0.0223
0.1999 0.1143 0.0223
0.2182 0.1154 0.0223
0.2374 0.1166 0.0223
0.2572 0.1178 0.0223
0.2777 0.1190 0.0223
0.2988 0.1201 0.0224
0.3206 0.1210 0.0224
0.3429 0.1218 0.0224
0.3655 0.1224 0.0224
0.3886 0.1229 0.0223
0.4120 0.1230 0.0223
0.4358 0.1230 0.0223
0.4603 0.1225 0.0222
0.4855 0.1216 0.0222
0.5118 0.1203 0.0222
0.5392 0.1185 0.0221
0.5681 0.1162 0.0220
0.5983 0.1135 0.0219
0.6296 0.1104 0.0219
0.6620 0.1071 0.0218
0.6948 0.1041 0.0217
0.7256 0.1034 0.0223
0.0215 0.1300 0.0222
0.0528 0.1298 0.0222
0.0816 0.1297 0.0222
0.1046 0.1298 0.0221
0.1223 0.1304 0.0222
0.1365 0.1314 0.0222
0.1501 0.1328 0.0222
0.1644 0.1345 0.0222
0.1801 0.1361 0.0222
0.1974 0.1377 0.0222
0.2162 0.1393 0.0223
0.2362 0.1408 0.0223
0.2572 0.1425 0.0223
0.2789 0.1442 0.0223
0.3012 0.1459 0.0224
0.3240 0.1475 0.0224
0.3471 0.1488 0.0224
0.3706 0.1499 0.0224
0.3943 0.1506 0.0224
0.4182 0.1512 0.0224
0.4422 0.1516 0.0224
0.4664 0.1517 0.0224
0.4910 0.1514 0.0223
0.5159 0.1508 0.0223
0.5415 0.1497 0.0222
0.5678 0.1481 0.0222
0.5951 0.1460 0.0221
0.6237 0.1434 0.0220
0.6534 0.1403 0.0220
0.6843 0.1368 0.0219
0.7159 0.1335 0.0218
0.7452 0.1324 0.0223
0.0215 0.1444 0.0222
0.0545 0.1448 0.0222
0.0850 0.1459 0.0221
0.1099 0.1476 0.0221
0.1299 0.1498 0.0222
0.1461 0.1523 0.0222
0.1616 0.1550 0.0222
0.1778 0.1577 0.0222
0.1951 0.1602 0.0223
0.2138 0.1625 0.0223
0.2340 0.1646 0.0223
0.2554 0.1667 0.0223
0.2780 0.1687 0.0223
0.3014 0.1708 0.0223
0.3256 0.1729 0.0224
0.3501 0.1749 0.0224
0.3748 0.1764 0.0224
0.3995 0.1776 0.0224
0.4241 0.1783 0.0225
0.4487 0.1788 0.0225
0.4733 0.1790 0.0225
0.4980 0.1790 0.0225
0.5228 0.1788 0.0224
0.5478 0.1784 0.0224
0.5731 0.1777 0.0224
0.5988 0.1766 0.0223
0.6252 0.1751 0.0222
0.6526 0.1731 0.0222
0.6809 0.1706 0.0221
0.7103 0.1676 0.0220
0.7407 0.1647 0.0219
0.7686 0.1636 0.0223
0.0215 0.1590 0.0221
0.0565 0.1599 0.0221
0.0894 0.1622 0.0221
0.1168 0.1657 0.0222
0.1393 0.1696 0.0222
0.1577 0.1739 0.0222
0.1750 0.1782 0.0222
0.1930 0.1823 0.0223
0.2120 0.1861 0.0223
0.2320 0.1896 0.0223
0.2531 0.1927 0.0223
0.2754 0.1953 0.0223
0.2990 0.1978 0.0224
0.3237 0.2001 0.0224
0.3494 0.2023 0.0224
0.3755 0.2045 0.0224
0.4016 0.2063 0.0225
0.4276 0.2076 0.0225
0.4530 0.2084 0.0225
0.4782 0.2087 0.0225
0.5030 0.2086 0.0225
0.5278 0.2083 0.0225
0.5527 0.2078 0.0225
0.5777 0.2073 0.0225
0.6029 0.2067 0.0225
0.6284 0.2060 0.0224
0.6545 0.2051 0.0224
0.6812 0.2039 0.0223
0.7088 0.2022 0.0222
0.7373 0.2001 0.0222
0.7669 0.1981 0.0221
0.7937 0.1967 0.0223
0.0215 0.1769 0.0221
0.0587 0.1781 0.0221
0.0940 0.1814 0.0221
0.1242 0.1863 0.0222
0.1496 0.1920 0.0222
0.1702 0.1980 0.0222
0.1893 0.2040 0.0223
0.2093 0.2098 0.0223
0.2300 0.2152 0.0223
0.2512 0.2201 0.0224
0.2730 0.2243 0.0224
0.2958 0.2278 0.0224
0.3198 0.2306 0.0224
0.3450 0.2331 0.0224
0.3715 0.2354 0.0224
0.3987 0.2378 0.0225
0.4260 0.2399 0.0225
0.4530 0.2416 0.0225
0.4793 0.2427 0.0225
0.5049 0.2430 0.0225
0.5298 0.2427 0.0226
0.5544 0.2419 0.0226
0.5789 0.2409 0.0226
0.6034 0.2399 0.0226
0.6284 0.2391 0.0226
0.6537 0.2384 0.0225
0.6795 0.2378 0.0225
0.7061 0.2371 0.0225
0.7335 0.2362 0.0224
0.7617 0.2350 0.0223
0.7910 0.2338 0.0223
0.8177 0.2324 0.0223
0.0215 0.1996 0.0221
0.0606 0.2009 0.0221
0.0984 0.2047 0.0221
0.1315 0.2106 0.0222
0.1596 0.2177 0.0222
0.1824 0.2253 0.0223
0.2033 0.2329 0.0223
0.2252 0.2402 0.0224
0.2478 0.2470 0.0224
0.2705 0.2532 0.0224
0.2932 0.2586 0.0224
0.3163 0.2629 0.0225
0.3402 0.2663 0.0225
0.3653 0.2689 0.0225
0.3918 0.2713 0.0225
0.4193 0.2737 0.0225
0.4474 0.2762 0.0225
0.4753 0.2784 0.0226
0.5023 0.2800 0.0226
0.5283 0.2807 0.0226
0.5533 0.2805 0.0226
0.5774 0.2795 0.0226
0.6011 0.2780 0.0226
0.6247 0.2763 0.0226
0.6488 0.2749 0.0226
0.6734 0.2738 0.0226
0.6989 0.2730 0.0226
0.7253 0.2725 0.0226
0.7527 0.2719 0.0225
0.7809 0.2714 0.0225
0.8103 0.2709 0.0225
0.8376 0.2694 0.0223
0.0215 0.2269 0.0221
0.0622 0.2282 0.0221
0.1022 0.2321 0.0221
0.1379 0.2387 0.0222
0.1688 0.2468 0.0222
0.1935 0.2556 0.0223
0.2162 0.2646 0.0223
0.2399 0.2730 0.0224
0.2644 0.2809 0.0224
0.2889 0.2882 0.0225
0.3127 0.2946 0.0225
0.3362 0.2998 0.0225
0.3600 0.3037 0.0225
0.3846 0.3066 0.0225
0.4106 0.3090 0.0226
0.4378 0.3114 0.0226
0.4659 0.3140 0.0226
0.4942 0.3165 0.0226
0.5219 0.3187 0.0226
0.5485 0.3201 0.0226
0.5737 0.3204 0.0226
0.5975 0.3196 0.0226
0.6205 0.3179 0.0226
0.6429 0.3157 0.0226
0.6656 0.3135 0.0226
0.6890 0.3117 0.0226
0.7134 0.3102 0.0226
0.7391 0.3093 0.0226
0.7662 0.3088 0.0226
0.7943 0.3084 0.0226
0.8238 0.3082 0.0226
0.8521 0.3068 0.0223
0.0215 0.2577 0.0221
0.0636 0.2588 0.0221
0.1054 0.2626 0.0221
0.1436 0.2695 0.0222
0.1770 0.2783 0.0222
0.2036 0.2883 0.0223
0.2278 0.2983 0.0223
0.2531 0.3078 0.0224
0.2794 0.3165 0.0225
0.3055 0.3244 0.0225
0.3307 0.3315 0.0225
0.3550 0.3376 0.0226
0.3789 0.3423 0.0226
0.4031 0.3456 0.0226
0.4283 0.3481 0.0226
0.4548 0.3503 0.0226
0.4824 0.3527 0.0226
0.5105 0.3553 0.0226
0.5384 0.3579 0.0226
0.5655 0.3599 0.0226
0.5911 0.3610 0.0226
0.6152 0.3608 0.0226
0.6379 0.3594 0.0226
0.6596 0.3571 0.0227
0.6810 0.3543 0.0227
0.7028 0.3515 0.0227
0.7256 0.3492 0.0227
0.7499 0.3474 0.0227
0.7759 0.3463 0.0227
0.8034 0.3456 0.0227
0.8325 0.3453 0.0226
0.8616 0.3439 0.0223
0.0215 0.2904 0.0221
0.0648 0.2914 0.0221
0.1083 0.2950 0.0221
0.1488 0.3019 0.0221
0.1846 0.3113 0.0222
0.2129 0.3221 0.0222
0.2383 0.3333 0.0223
0.2650 0.3437 0.0224
0.2927 0.3530 0.0225
0.3204 0.3613 0.0225
0.3470 0.3689 0.0226
0.3724 0.3756 0.0226
0.3967 0.3810 0.0226
0.4208 0.3850 0.0226
0.4453 0.3878 0.0226
0.4709 0.3899 0.0226
0.4974 0.3919 0.0226
0.5248 0.3942 0.0226
0.5523 0.3967 0.0226
0.5794 0.3991 0.0227
0.6054 0.4009 0.0227
0.6300 0.4016 0.0227
0.6531 0.4010 0.0227
0.6748 0.3991 0.0227
0.6956 0.3962 0.0227
0.7162 0.3928 0.0227
0.7375 0.3895 0.0227
0.7602 0.3866 0.0227
0.7847 0.3845 0.0227
0.8110 0.3830 0.0227
0.8393 0.3822 0.0227
0.8682 0.3805 0.0223
0.0215 0.3245 0.0220
0.0659 0.3254 0.0220
0.1110 0.3286 0.0220
0.1537 0.3352 0.0221
0.1917 0.3448 0.0221
0.2217 0.3565 0.0222
0.2482 0.3687 0.0223
0.2759 0.3801 0.0224
0.3047 0.3901 0.0225
0.3336 0.3986 0.0225
0.3615 0.4063 0.0226
0.3880 0.4132 0.0226
0.4132 0.4193 0.0226
0.4374 0.4240 0.0226
0.4616 0.4274 0.0226
0.4863 0.4297 0.0227
0.5117 0.4313 0.0227
0.5378 0.4330 0.0227
0.5644 0.4349 0.0227
0.5909 0.4371 0.0227
0.6169 0.4392 0.0227
0.6419 0.4408 0.0227
0.6656 0.4413 0.0227
0.6879 0.4403 0.0227
0.7089 0.4379 0.0227
0.7292 0.4345 0.0227
0.7494 0.4305 0.0227
0.7708 0.4266 0.0227
0.7939 0.4233 0.0227
0.8189 0.4208 0.0227
0.8463 0.4191 0.0227
0.8744 0.4170 0.0223
0.0215 0.3594 0.0220
0.0669 0.3601 0.0220
0.1135 0.3627 0.0220
0.1581 0.3688 0.0220
0.1983 0.3783 0.0221
0.2300 0.3905 0.0222
0.2574 0.4038 0.0223
0.2860 0.4164 0.0224
0.3155 0.4271 0.0224
0.3454 0.4360 0.0225
0.3744 0.4435 0.0226
0.4020 0.4503 0.0226
0.4280 0.4566 0.0226
0.4528 0.4619 0.0226
0.4769 0.4659 0.0227
0.5009 0.4686 0.0227
0.5253 0.4702 0.0227
0.5501 0.4713 0.0227
0.5753 0.4724 0.0227
0.6008 0.4740 0.0227
0.6262 0.4759 0.0227
0.6512 0.4778 0.0227
0.6754 0.4792 0.0227
0.6985 0.4794 0.0228
0.7202 0.4780 0.0228
0.7408 0.4752 0.0228
0.7610 0.4712 0.0228
0.7816 0.4667 0.0228
0.8037 0.4624 0.0228
0.8276 0.4587 0.0228
0.8540 0.4561 0.0228
0.8813 0.4535 0.0223
0.0215 0.3945 0.0220
0.0679 0.3951 0.0220
0.1157 0.3972 0.0220
0.1622 0.4025 0.0220
0.2044 0.4115 0.0220
0.2376 0.4239 0.0221
0.2659 0.4381 0.0222
0.2950 0.4519 0.0223
0.3252 0.4637 0.0224
0.3557 0.4729 0.0225
0.3856 0.4802 0.0225
0.4142 0.4866 0.0226
0.4411 0.4926 0.0226
0.4664 0.4981 0.0226
0.4907 0.5026 0.0227
0.5144 0.5059 0.0227
0.5380 0.5077 0.0227
0.5617 0.5087 0.0227
0.5856 0.5091 0.0227
0.6098 0.5098 0.0227
0.6343 0.5109 0.0227
0.6587 0.5126 0.0228
0.6830 0.5143 0.0228
0.7065 0.5155 0.0228
0.7292 0.5154 0.0228
0.7506 0.5137 0.0228
0.7712 0.5103 0.0228
0.7919 0.5059 0.0228
0.8136 0.5011 0.0228
0.8367 0.4965 0.0228
0.8624 0.4930 0.0228
0.8889 0.4900 0.0223
0.0215 0.4299 0.0219
0.0688 0.4303 0.0219
0.1177 0.4320 0.0219
0.1658 0.4362 0.0219
0.2099 0.4444 0.0220
0.2444 0.4565 0.0220
0.2735 0.4713 0.0222
0.3031 0.4862 0.0223
0.3336 0.4993 0.0224
0.3645 0.5093 0.0225
0.3951 0.5166 0.0225
0.4245 0.5223 0.0226
0.4522 0.5276 0.0226
0.4781 0.5327 0.0226
0.5027 0.5373 0.0226
0.5263 0.5410 0.0227
0.5495 0.5435 0.0227
0.5724 0.5446 0.0227
0.5954 0.5449 0.0227
0.6185 0.5448 0.0228
0.6419 0.5451 0.0228
0.6654 0.5460 0.0228
0.6892 0.5474 0.0228
0.7127 0.5489 0.0228
0.7358 0.5498 0.0228
0.7581 0.5494 0.0228
0.7796 0.5472 0.0228
0.8009 0.5435 0.0228
0.8227 0.5389 0.0228
0.8456 0.5340 0.0228
0.8708 0.5298 0.0228
0.8969 0.5264 0.0223
0.0215 0.4651 0.0219
0.0696 0.4654 0.0219
0.1196 0.4666 0.0219
0.1690 0.4699 0.0219
0.2147 0.4768 0.0219
0.2503 0.4882 0.0220
0.2801 0.5030 0.0221
0.3101 0.5189 0.0222
0.3407 0.5333 0.0223
0.3718 0.5445 0.0224
0.4027 0.5522 0.0225
0.4328 0.5574 0.0226
0.4612 0.5617 0.0226
0.4878 0.5659 0.0226
0.5127 0.5702 0.0226
0.5365 0.5739 0.0227
0.5595 0.5767 0.0227
0.5821 0.5784 0.0227
0.6044 0.5789 0.0228
0.6268 0.5787 0.0228
0.6493 0.5784 0.0228
0.6719 0.5784 0.0228
0.6948 0.5790 0.0228
0.7178 0.5803 0.0228
0.7409 0.5815 0.0228
0.7636 0.5821 0.0228
0.7859 0.5813 0.0228
0.8080 0.5788 0.0229
0.8304 0.5751 0.0229
0.8535 0.5704 0.0229
0.8787 0.5662 0.0229
0.9084 0.5645 0.0223
0.0215 0.5001 0.0219
0.0705 0.5004 0.0219
0.1213 0.5012 0.0218
0.1719 0.5035 0.0218
0.2188 0.5090 0.0218
0.2554 0.5191 0.0219
0.2857 0.5334 0.0220
0.3160 0.5498 0.0222
0.3466 0.5655 0.0223
0.3777 0.5781 0.0224
0.4087 0.5867 0.0225
0.4392 0.5919 0.0225
0.4683 0.5953 0.0226
0.4955 0.5984 0.0226
0.5209 0.6017 0.0226
0.5449 0.6050 0.0226
0.5679 0.6079 0.0227
0.5904 0.6100 0.0227
0.6125 0.6111 0.0228
0.6345 0.6112 0.0228
0.6564 0.6107 0.0228
0.6783 0.6101 0.0228
0.7004 0.6099 0.0228
0.7227 0.6104 0.0228
0.7452 0.6114 0.0228
0.7679 0.6124 0.0228
0.7906 0.6127 0.0229
0.8133 0.6116 0.0229
0.8364 0.6092 0.0229
0.8600 0.6055 0.0229
0.8854 0.6018 0.0229
0.9150 0.6002 0.0223
0.0215 0.5347 0.0218
0.0713 0.5350 0.0218
0.1229 0.5356 0.0218
0.1743 0.5371 0.0218
0.2222 0.5411 0.0218
0.2597 0.5495 0.0218
0.2905 0.5627 0.0219
0.3210 0.5790 0.0221
0.3515 0.5957 0.0222
0.3823 0.6098 0.0224
0.4132 0.6197 0.0225
0.4439 0.6254 0.0225
0.4734 0.6284 0.0226
0.5012 0.6304 0.0226
0.5273 0.6325 0.0226
0.5517 0.6350 0.0226
0.5749 0.6375 0.0226
0.5973 0.6398 0.0227
0.6194 0.6414 0.0227
0.6413 0.6421 0.0228
0.6630 0.6418 0.0228
0.6845 0.6411 0.0228
0.7061 0.6403 0.0228
0.7276 0.6400 0.0228
0.7494 0.6404 0.0228
0.7716 0.6412 0.0229
0.7941 0.6420 0.0229
0.8172 0.6421 0.0229
0.8408 0.6411 0.0229
0.8650 0.6389 0.0229
0.8908 0.6362 0.0229
0.9204 0.6349 0.0223
0.0215 0.5689 0.0218
0.0720 0.5691 0.0218
0.1244 0.5696 0.0217
0.1765 0.5706 0.0217
0.2251 0.5731 0.0217
0.2632 0.5796 0.0217
0.2945 0.5910 0.0218
0.3251 0.6066 0.0220
0.3555 0.6237 0.0221
0.3860 0.6393 0.0223
0.4165 0.6508 0.0224
0.4470 0.6577 0.0225
0.4768 0.6608 0.0225
0.5051 0.6621 0.0226
0.5319 0.6631 0.0226
0.5568 0.6644 0.0226
0.5803 0.6662 0.0226
0.6030 0.6682 0.0227
0.6251 0.6700 0.0227
0.6470 0.6712 0.0228
0.6688 0.6715 0.0228
0.6902 0.6711 0.0228
0.7115 0.6702 0.0228
0.7325 0.6693 0.0228
0.7537 0.6690 0.0229
0.7752 0.6693 0.0229
0.7973 0.6701 0.0229
0.8202 0.6709 0.0229
0.8439 0.6710 0.0229
0.8685 0.6703 0.0229
0.8948 0.6689 0.0229
0.9246 0.6683 0.0223
0.0215 0.6027 0.0217
0.0727 0.6029 0.0217
0.1256 0.6032 0.0217
0.1783 0.6037 0.0216
0.2275 0.6052 0.0216
0.2662 0.6096 0.0216
0.2979 0.6189 0.0217
0.3288 0.6330 0.0219
0.3591 0.6500 0.0220
0.3891 0.6666 0.0222
0.4190 0.6799 0.0224
0.4490 0.6883 0.0225
0.4787 0.6923 0.0225
0.5074 0.6934 0.0225
0.5347 0.6935 0.0226
0.5603 0.6938 0.0226
0.5844 0.6946 0.0226
0.6074 0.6959 0.0226
0.6297 0.6974 0.0227
0.6517 0.6989 0.0227
0.6735 0.6998 0.0228
0.6951 0.6999 0.0228
0.7164 0.6993 0.0228
0.7372 0.6983 0.0229
0.7581 0.6974 0.0229
0.7790 0.6972 0.0229
0.8004 0.6976 0.0229
0.8228 0.6984 0.0229
0.8465 0.6992 0.0229
0.8712 0.6996 0.0229
0.8977 0.6996 0.0229
0.9277 0.6998 0.0223
0.0215 0.6361 0.0217
0.0733 0.6362 0.0216
0.1268 0.6363 0.0216
0.1799 0.6364 0.0216
0.2296 0.6370 0.0216
0.2688 0.6397 0.0216
0.3009 0.6465 0.0216
0.3321 0.6587 0.0218
0.3623 0.6747 0.0219
0.3919 0.6918 0.0221
0.4211 0.7068 0.0223
0.4503 0.7173 0.0224
0.4795 0.7226 0.0225
0.5082 0.7242 0.0225
0.5360 0.7239 0.0225
0.5623 0.7233 0.0225
0.5872 0.7230 0.0226
0.6107 0.7234 0.0226
0.6333 0.7244 0.0226
0.6555 0.7257 0.0227
0.6773 0.7269 0.0227
0.6990 0.7276 0.0228
0.7204 0.7274 0.0228
0.7414 0.7267 0.0229
0.7621 0.7256 0.0229
0.7827 0.7249 0.0229
0.8037 0.7248 0.0229
0.8256 0.7253 0.0229
0.8488 0.7262 0.0229
0.8733 0.7272 0.0229
0.8999 0.7280 0.0229
0.9299 0.7291 0.0223
0.0216 0.6690 0.0216
0.0739 0.6690 0.0216
0.1279 0.6689 0.0216
0.1815 0.6688 0.0215
0.2317 0.6688 0.0215
0.2712 0.6699 0.0215
0.3037 0.6744 0.0215
0.3353 0.6840 0.0216
0.3655 0.6985 0.0218
0.3947 0.7155 0.0220
0.4231 0.7317 0.0222
0.4513 0.7443 0.0223
0.4797 0.7516 0.0224
0.5080 0.7543 0.0225
0.5360 0.7540 0.0225
0.5630 0.7528 0.0225
0.5886 0.7516 0.0225
0.6129 0.7510 0.0226
0.6360 0.7512 0.0226
0.6583 0.7520 0.0226
0.6802 0.7532 0.0227
0.7019 0.7542 0.0228
0.7234 0.7546 0.0228
0.7446 0.7543 0.0229
0.7655 0.7534 0.0229
0.7861 0.7524 0.0229
0.8068 0.7517 0.0229
0.8283 0.7517 0.0229
0.8511 0.7523 0.0229
0.8752 0.7534 0.0229
0.9016 0.7544 0.0229
0.9316 0.7563 0.0223
0.0216 0.7014 0.0215
0.0744 0.7013 0.0215
0.1289 0.7010 0.0215
0.1830 0.7005 0.0215
0.2337 0.7000 0.0215
0.2736 0.7000 0.0215
0.3065 0.7024 0.0215
0.3384 0.7093 0.0215
0.3688 0.7216 0.0217
0.3977 0.7378 0.0219
0.4253 0.7548 0.0221
0.4524 0.7693 0.0222
0.4797 0.7789 0.0224
0.5073 0.7833 0.0225
0.5350 0.7837 0.0225
0.5624 0.7822 0.0225
0.5888 0.7803 0.0225
0.6139 0.7787 0.0225
0.6377 0.7780 0.0226
0.6604 0.7781 0.0226
0.6824 0.7789 0.0226
0.7040 0.7799 0.0227
0.7255 0.7807 0.0228
0.7468 0.7809 0.0229
0.7678 0.7804 0.0229
0.7886 0.7794 0.0229
0.8094 0.7784 0.0229
0.8308 0.7778 0.0229
0.8533 0.7777 0.0229
0.8772 0.7783 0.0229
0.9033 0.7792 0.0229
0.9332 0.7815 0.0223
0.0216 0.7332 0.0215
0.0750 0.7330 0.0215
0.1301 0.7325 0.0215
0.1847 0.7317 0.0215
0.2358 0.7309 0.0214
0.2760 0.7302 0.0214
0.3092 0.7308 0.0214
0.3416 0.7352 0.0215
0.3723 0.7449 0.0215
0.4010 0.7595 0.0217
0.4280 0.7766 0.0219
0.4540 0.7926 0.0222
0.4799 0.8046 0.0223
0.5064 0.8110 0.0224
0.5336 0.8126 0.0225
0.5610 0.8113 0.0225
0.5880 0.8090 0.0225
0.6139 0.8067 0.0225
0.6385 0.8050 0.0225
0.6618 0.8042 0.0226
0.6840 0.8044 0.0226
0.7056 0.8052 0.0227
0.7269 0.8061 0.0228
0.7480 0.8067 0.0228
0.7691 0.8066 0.0229
0.7901 0.8058 0.0229
0.8111 0.8047 0.0229
0.8326 0.8036 0.0229
0.8552 0.8029 0.0229
0.8791 0.8027 0.0229
0.9051 0.8029 0.0229
0.9348 0.8055 0.0223
0.0216 0.7646 0.0215
0.0756 0.7642 0.0215
0.1313 0.7635 0.0214
0.1864 0.7624 0.0214
0.2379 0.7613 0.0214
0.2784 0.7601 0.0214
0.3119 0.7596 0.0213
0.3447 0.7617 0.0214
0.3759 0.7687 0.0214
0.4048 0.7812 0.0216
0.4313 0.7975 0.0218
0.4562 0.8145 0.0220
0.4807 0.8285 0.0222
0.5058 0.8374 0.0223
0.5320 0.8407 0.0224
0.5591 0.8401 0.0225
0.5864 0.8376 0.0225
0.6130 0.8346 0.0225
0.6385 0.8321 0.0225
0.6625 0.8304 0.0225
0.6851 0.8298 0.0226
0.7068 0.8301 0.0226
0.7278 0.8310 0.0227
0.7486 0.8318 0.0228
0.7695 0.8321 0.0229
0.7904 0.8317 0.0229
0.8117 0.8305 0.0230
0.8335 0.8291 0.0230
0.8564 0.8278 0.0230
0.8805 0.8268 0.0229
0.9066 0.8263 0.0229
0.9364 0.8289 0.0223
0.0216 0.7954 0.0214
0.0763 0.7950 0.0214
0.1325 0.7940 0.0214
0.1882 0.7927 0.0214
0.2402 0.7913 0.0213
0.2809 0.7899 0.0213
0.3145 0.7887 0.0213
0.3477 0.7891 0.0213
0.3795 0.7934 0.0213
0.4088 0.8033 0.0215
0.4352 0.8181 0.0216
0.4593 0.8352 0.0219
0.4824 0.8509 0.0221
0.5058 0.8622 0.0223
0.5307 0.8677 0.0224
0.5570 0.8683 0.0224
0.5842 0.8659 0.0224
0.6114 0.8625 0.0224
0.6375 0.8593 0.0224
0.6624 0.8567 0.0225
0.6858 0.8553 0.0225
0.7077 0.8549 0.0226
0.7287 0.8555 0.0226
0.7491 0.8564 0.0227
0.7694 0.8571 0.0228
0.7900 0.8570 0.0229
0.8112 0.8560 0.0229
0.8333 0.8545 0.0230
0.8566 0.8528 0.0230
0.8811 0.8512 0.0230
0.9077 0.8500 0.0229
0.9377 0.8525 0.0223
0.0216 0.8258 0.0214
0.0770 0.8253 0.0214
0.1338 0.8241 0.0213
0.1901 0.8227 0.0213
0.2425 0.8211 0.0213
0.2833 0.8195 0.0213
0.3171 0.8180 0.0212
0.3505 0.8172 0.0212
0.3829 0.8192 0.0212
0.4129 0.8264 0.0213
0.4396 0.8391 0.0215
0.4632 0.8555 0.0217
0.4850 0.8722 0.0220
0.5068 0.8856 0.0222
0.5299 0.8934 0.0223
0.5550 0.8957 0.0224
0.5818 0.8939 0.0224
0.6091 0.8903 0.0224
0.6359 0.8865 0.0224
0.6616 0.8831 0.0224
0.6859 0.8808 0.0225
0.7085 0.8797 0.0225
0.7296 0.8798 0.0226
0.7496 0.8806 0.0227
0.7693 0.8814 0.0228
0.7892 0.8818 0.0229
0.8100 0.8813 0.0229
0.8321 0.8799 0.0230
0.8558 0.8781 0.0230
0.8809 0.8761 0.0230
0.9079 0.8745 0.0230
0.9384 0.8767 0.0223
0.0216 0.8559 0.0213
0.0776 0.8553 0.0213
0.1351 0.8540 0.0213
0.1920 0.8524 0.0213
