lut/adanmq/Adanmq_Fuji_Provia_100.cube
TITLE "Adanmq_Fuji Provia 100"
LUT_3D_SIZE 5
DOMAIN_MIN 0.000000 0.000000 0.000000
DOMAIN_MAX 0.903226 0.903226 0.903226
0.0214 0.0223 0.0220
0.1978 0.0223 0.0219
0.4022 0.0226 0.0220
0.5985 0.0227 0.0219
0.8113 0.0227 0.0215
0.0214 0.1649 0.0217
0.2099 0.1949 0.0220
0.4062 0.2402 0.0222
0.6115 0.2645 0.0226
0.8046 0.2774 0.0225
0.0214 0.3076 0.0216
0.2331 0.3676 0.0221
0.4303 0.4227 0.0226
0.6453 0.4667 0.0230
0.8231 0.5116 0.0235
0.0214 0.5119 0.0213
0.2499 0.5340 0.0215
0.4489 0.6173 0.0226
0.6516 0.6356 0.0230
0.8416 0.6690 0.0235
0.0215 0.7253 0.0211
0.2743 0.7221 0.0211
0.4538 0.8161 0.0224
0.6598 0.8083 0.0228
0.8391 0.8081 0.0236
0.0214 0.0219 0.1339
0.2065 0.0224 0.1605
0.4230 0.0227 0.1724
0.6226 0.0226 0.1664
0.8210 0.0226 0.1544
0.0215 0.1498 0.1359
0.2412 0.2271 0.2074
0.4418 0.2478 0.2191
0.6345 0.2652 0.2205
0.8122 0.2680 0.1908
0.0215 0.3053 0.1431
0.2467 0.3586 0.1987
0.4653 0.4496 0.2569
0.6590 0.4900 0.2574
0.8396 0.5255 0.2968
0.0215 0.5084 0.1483
0.2654 0.5168 0.1727
0.4831 0.6145 0.2573
0.6813 0.6407 0.2792
0.8470 0.7010 0.3252
0.0215 0.7220 0.1599
0.2867 0.7198 0.1609
0.5170 0.7374 0.1718
0.6789 0.7965 0.2600
0.8693 0.7931 0.2992
0.0214 0.0220 0.2500
0.1837 0.0226 0.3293
0.4061 0.0230 0.3517
0.6278 0.0231 0.3779
0.8273 0.0228 0.3493
0.0215 0.1453 0.2677
0.1938 0.2073 0.3609
0.4259 0.2528 0.3974
0.6466 0.2747 0.3995
0.8299 0.2794 0.3812
0.0215 0.2886 0.2898
0.2494 0.3710 0.3652
0.4470 0.4603 0.4307
0.6571 0.4668 0.4186
0.8393 0.5003 0.4399
0.0216 0.4929 0.3031
0.2999 0.5479 0.3485
0.4729 0.6016 0.3992
0.6744 0.6706 0.4503
0.8550 0.7275 0.4711
0.0216 0.7110 0.2899
0.3133 0.7239 0.3397
0.5319 0.7254 0.3517
0.7070 0.8101 0.4692
0.8976 0.8265 0.5169
0.0215 0.0219 0.4204
0.2318 0.0221 0.4499
0.3941 0.0234 0.5287
0.6125 0.0235 0.5028
0.7988 0.0236 0.5664
0.0214 0.1737 0.4458
0.1986 0.1951 0.4803
0.4101 0.2650 0.5647
0.6479 0.3008 0.5516
0.8145 0.3012 0.5615
0.0215 0.3051 0.4851
0.2284 0.3572 0.5300
0.4294 0.4373 0.5850
0.6569 0.4797 0.6141
0.8391 0.5000 0.6138
0.0216 0.4795 0.4857
0.2902 0.5352 0.5313
0.4709 0.6175 0.5950
0.6671 0.6803 0.6512
0.8511 0.7014 0.6549
0.0216 0.7056 0.4987
0.3432 0.7204 0.5154
0.5148 0.7685 0.5571
0.7085 0.8161 0.6178
0.8759 0.8877 0.7039
0.0214 0.0215 0.6028
0.2470 0.0215 0.5886
0.3953 0.0234 0.6988
0.6058 0.0237 0.6646
0.8135 0.0237 0.6418
0.0214 0.1902 0.5897
0.2354 0.1878 0.5741
0.4092 0.2290 0.6708
0.6147 0.3180 0.6675
0.8096 0.3192 0.6317
0.0215 0.3351 0.6715
0.2445 0.3678 0.6284
0.4133 0.4098 0.6632
0.6522 0.4740 0.7254
0.8552 0.5145 0.7136
0.0216 0.4981 0.6852
0.2874 0.5221 0.6769
0.4756 0.5922 0.7222
0.6761 0.6579 0.7727
0.8598 0.7029 0.8207
0.0216 0.6999 0.7048
0.3253 0.7136 0.7113
0.5153 0.7684 0.7572
0.7129 0.8297 0.8166
0.8889 0.9013 0.8799
