lut/adanmq/Adanmq_Kodak_Vision3_200T_5213.cube
TITLE "Adanmq_Kodak Vision3 200T 5213"
LUT_3D_SIZE 32
0.0214 0.0220 0.0218
0.0396 0.0220 0.0218
0.0613 0.0219 0.0218
0.0818 0.0219 0.0219
0.1008 0.0219 0.0219
0.1170 0.0219 0.0219
0.1320 0.0219 0.0219
0.1476 0.0220 0.0219
0.1639 0.0220 0.0219
0.1805 0.0220 0.0220
0.1973 0.0221 0.0220
0.2144 0.0221 0.0220
0.2316 0.0221 0.0220
0.2492 0.0221 0.0220
0.2671 0.0221 0.0220
0.2855 0.0222 0.0220
0.3043 0.0222 0.0220
0.3237 0.0222 0.0220
0.3437 0.0222 0.0220
0.3645 0.0222 0.0220
0.3862 0.0222 0.0220
0.4089 0.0222 0.0220
0.4327 0.0222 0.0220
0.4576 0.0222 0.0220
0.4838 0.0222 0.0220
0.5110 0.0222 0.0219
0.5392 0.0221 0.0219
0.5684 0.0221 0.0219
0.5984 0.0221 0.0219
0.6290 0.0221 0.0219
0.6601 0.0221 0.0218
0.6920 0.0227 0.0223
0.0214 0.0402 0.0218
0.0393 0.0399 0.0218
0.0609 0.0394 0.0218
0.0816 0.0389 0.0218
0.1011 0.0387 0.0219
0.1181 0.0387 0.0219
0.1340 0.0390 0.0219
0.1506 0.0395 0.0219
0.1679 0.0401 0.0219
0.1854 0.0407 0.0220
0.2031 0.0414 0.0220
0.2207 0.0421 0.0220
0.2385 0.0426 0.0220
0.2564 0.0431 0.0220
0.2745 0.0435 0.0221
0.2929 0.0438 0.0221
0.3117 0.0440 0.0221
0.3310 0.0442 0.0221
0.3507 0.0443 0.0221
0.3711 0.0444 0.0221
0.3922 0.0445 0.0220
0.4142 0.0445 0.0220
0.4373 0.0444 0.0220
0.4615 0.0443 0.0220
0.4870 0.0442 0.0220
0.5136 0.0440 0.0220
0.5415 0.0438 0.0219
0.5704 0.0435 0.0219
0.6003 0.0433 0.0219
0.6309 0.0430 0.0219
0.6622 0.0428 0.0218
0.6940 0.0429 0.0223
0.0214 0.0648 0.0218
0.0387 0.0643 0.0218
0.0599 0.0635 0.0218
0.0810 0.0627 0.0218
0.1017 0.0622 0.0219
0.1203 0.0622 0.0219
0.1381 0.0627 0.0219
0.1566 0.0635 0.0219
0.1758 0.0646 0.0220
0.1954 0.0659 0.0220
0.2149 0.0672 0.0220
0.2342 0.0685 0.0220
0.2534 0.0698 0.0221
0.2723 0.0709 0.0221
0.2911 0.0718 0.0221
0.3100 0.0726 0.0221
0.3290 0.0732 0.0221
0.3482 0.0738 0.0221
0.3677 0.0742 0.0221
0.3876 0.0745 0.0221
0.4079 0.0748 0.0221
0.4289 0.0750 0.0221
0.4507 0.0750 0.0221
0.4734 0.0750 0.0221
0.4974 0.0748 0.0220
0.5225 0.0746 0.0220
0.5491 0.0743 0.0220
0.5770 0.0739 0.0219
0.6061 0.0734 0.0219
0.6363 0.0730 0.0219
0.6674 0.0726 0.0219
0.6989 0.0723 0.0223
0.0214 0.0910 0.0218
0.0379 0.0906 0.0218
0.0588 0.0898 0.0218
0.0804 0.0891 0.0218
0.1023 0.0888 0.0219
0.1228 0.0890 0.0219
0.1426 0.0898 0.0219
0.1634 0.0909 0.0219
0.1850 0.0925 0.0220
0.2069 0.0943 0.0220
0.2289 0.0963 0.0221
0.2506 0.0982 0.0221
0.2717 0.1002 0.0221
0.2924 0.1020 0.0222
0.3125 0.1035 0.0222
0.3324 0.1049 0.0222
0.3520 0.1061 0.0222
0.3716 0.1070 0.0222
0.3911 0.1079 0.0222
0.4109 0.1086 0.0222
0.4308 0.1092 0.0222
0.4511 0.1097 0.0222
0.4718 0.1100 0.0222
0.4933 0.1103 0.0222
0.5157 0.1104 0.0222
0.5392 0.1103 0.0221
0.5640 0.1100 0.0221
0.5903 0.1097 0.0220
0.6180 0.1092 0.0220
0.6471 0.1086 0.0220
0.6773 0.1081 0.0219
0.7078 0.1073 0.0223
0.0213 0.1167 0.0218
0.0373 0.1165 0.0218
0.0579 0.1163 0.0218
0.0799 0.1164 0.0218
0.1030 0.1169 0.0219
0.1251 0.1177 0.0219
0.1466 0.1191 0.0219
0.1693 0.1209 0.0220
0.1928 0.1230 0.0220
0.2170 0.1253 0.0221
0.2412 0.1278 0.0221
0.2652 0.1303 0.0221
0.2887 0.1328 0.0222
0.3114 0.1352 0.0222
0.3333 0.1373 0.0222
0.3546 0.1392 0.0222
0.3752 0.1408 0.0223
0.3956 0.1422 0.0223
0.4156 0.1434 0.0223
0.4356 0.1445 0.0223
0.4557 0.1454 0.0223
0.4759 0.1463 0.0223
0.4964 0.1471 0.0223
0.5172 0.1477 0.0223
0.5388 0.1481 0.0223
0.5612 0.1484 0.0222
0.5847 0.1484 0.0222
0.6096 0.1482 0.0222
0.6359 0.1479 0.0221
0.6636 0.1474 0.0221
0.6928 0.1469 0.0221
0.7219 0.1459 0.0223
0.0213 0.1382 0.0218
0.0368 0.1385 0.0218
0.0573 0.1393 0.0218
0.0799 0.1406 0.0219
0.1040 0.1423 0.0219
0.1275 0.1443 0.0219
0.1505 0.1465 0.0220
0.1745 0.1490 0.0220
0.1996 0.1517 0.0221
0.2253 0.1545 0.0221
0.2514 0.1574 0.0222
0.2775 0.1603 0.0222
0.3032 0.1631 0.0222
0.3281 0.1658 0.0223
0.3521 0.1683 0.0223
0.3751 0.1705 0.0223
0.3972 0.1724 0.0224
0.4186 0.1741 0.0224
0.4393 0.1755 0.0224
0.4599 0.1769 0.0224
0.4803 0.1781 0.0225
0.5008 0.1792 0.0225
0.5214 0.1802 0.0225
0.5424 0.1812 0.0225
0.5638 0.1819 0.0224
0.5859 0.1825 0.0224
0.6088 0.1829 0.0224
0.6328 0.1830 0.0223
0.6583 0.1830 0.0223
0.6850 0.1828 0.0223
0.7133 0.1825 0.0222
0.7409 0.1823 0.0223
0.0213 0.1570 0.0218
0.0364 0.1577 0.0218
0.0571 0.1595 0.0218
0.0803 0.1623 0.0219
0.1057 0.1653 0.0219
0.1303 0.1685 0.0220
0.1544 0.1718 0.0220
0.1795 0.1751 0.0221
0.2055 0.1783 0.0221
0.2323 0.1816 0.0222
0.2597 0.1849 0.0222
0.2873 0.1881 0.0222
0.3148 0.1911 0.0223
0.3416 0.1941 0.0223
0.3677 0.1968 0.0224
0.3926 0.1993 0.0224
0.4164 0.2015 0.0224
0.4391 0.2034 0.0225
0.4609 0.2051 0.0225
0.4820 0.2065 0.0225
0.5029 0.2079 0.0226
0.5236 0.2091 0.0226
0.5446 0.2103 0.0226
0.5659 0.2114 0.0226
0.5876 0.2124 0.0226
0.6098 0.2133 0.0226
0.6328 0.2140 0.0226
0.6569 0.2145 0.0225
0.6821 0.2148 0.0225
0.7085 0.2149 0.0225
0.7365 0.2148 0.0224
0.7631 0.2147 0.0223
0.0213 0.1762 0.0218
0.0361 0.1772 0.0218
0.0570 0.1799 0.0219
0.0812 0.1839 0.0219
0.1078 0.1883 0.0220
0.1337 0.1928 0.0220
0.1587 0.1972 0.0221
0.1846 0.2012 0.0221
0.2113 0.2051 0.0222
0.2386 0.2089 0.0222
0.2665 0.2126 0.0223
0.2950 0.2163 0.0223
0.3237 0.2197 0.0223
0.3520 0.2229 0.0224
0.3798 0.2259 0.0224
0.4065 0.2287 0.0225
0.4320 0.2312 0.0225
0.4563 0.2335 0.0226
0.4793 0.2354 0.0226
0.5012 0.2371 0.0226
0.5225 0.2386 0.0226
0.5435 0.2399 0.0227
0.5645 0.2412 0.0227
0.5858 0.2425 0.0227
0.6078 0.2437 0.0227
0.6304 0.2448 0.0227
0.6539 0.2457 0.0227
0.6784 0.2465 0.0227
0.7040 0.2471 0.0227
0.7308 0.2476 0.0227
0.7590 0.2478 0.0226
0.7855 0.2477 0.0223
0.0213 0.1967 0.0218
0.0358 0.1979 0.0218
0.0571 0.2011 0.0219
0.0824 0.2060 0.0219
0.1103 0.2116 0.0220
0.1374 0.2173 0.0221
0.1634 0.2227 0.0221
0.1900 0.2274 0.0222
0.2172 0.2318 0.0222
0.2448 0.2360 0.0223
0.2729 0.2401 0.0223
0.3016 0.2441 0.0224
0.3307 0.2479 0.0224
0.3600 0.2515 0.0225
0.3890 0.2549 0.0225
0.4172 0.2580 0.0225
0.4443 0.2609 0.0226
0.4702 0.2635 0.0226
0.4946 0.2658 0.0226
0.5176 0.2678 0.0227
0.5395 0.2696 0.0227
0.5606 0.2711 0.0227
0.5814 0.2725 0.0228
0.6024 0.2739 0.0228
0.6242 0.2752 0.0228
0.6467 0.2765 0.0228
0.6704 0.2777 0.0229
0.6954 0.2788 0.0229
0.7216 0.2797 0.0229
0.7490 0.2805 0.0229
0.7778 0.2810 0.0229
0.8049 0.2810 0.0223
0.0213 0.2188 0.0218
0.0354 0.2198 0.0218
0.0572 0.2231 0.0219
0.0835 0.2286 0.0219
0.1128 0.2352 0.0220
0.1412 0.2419 0.0221
0.1681 0.2482 0.0222
0.1956 0.2535 0.0222
0.2233 0.2582 0.0223
0.2511 0.2625 0.0223
0.2792 0.2668 0.0224
0.3078 0.2711 0.0224
0.3369 0.2753 0.0225
0.3665 0.2793 0.0225
0.3962 0.2830 0.0226
0.4255 0.2864 0.0226
0.4540 0.2897 0.0226
0.4813 0.2927 0.0226
0.5072 0.2954 0.0227
0.5315 0.2979 0.0227
0.5543 0.3000 0.0228
0.5759 0.3018 0.0228
0.5966 0.3034 0.0228
0.6172 0.3050 0.0229
0.6381 0.3066 0.0229
0.6600 0.3081 0.0229
0.6832 0.3095 0.0229
0.7080 0.3109 0.0229
0.7345 0.3121 0.0230
0.7622 0.3132 0.0230
0.7915 0.3140 0.0230
0.8197 0.3142 0.0223
0.0213 0.2423 0.0218
0.0350 0.2431 0.0218
0.0571 0.2462 0.0219
0.0844 0.2519 0.0219
0.1151 0.2591 0.0220
0.1446 0.2667 0.0221
0.1726 0.2737 0.0222
0.2009 0.2796 0.0223
0.2294 0.2844 0.0223
0.2576 0.2886 0.0224
0.2857 0.2929 0.0224
0.3141 0.2972 0.0225
0.3429 0.3016 0.0225
0.3723 0.3059 0.0226
0.4022 0.3099 0.0226
0.4320 0.3136 0.0226
0.4615 0.3172 0.0227
0.4901 0.3206 0.0227
0.5173 0.3237 0.0227
0.5431 0.3266 0.0228
0.5673 0.3291 0.0228
0.5898 0.3314 0.0229
0.6110 0.3334 0.0229
0.6313 0.3352 0.0229
0.6515 0.3371 0.0229
0.6724 0.3390 0.0230
0.6945 0.3408 0.0230
0.7184 0.3426 0.0230
0.7443 0.3441 0.0231
0.7718 0.3455 0.0231
0.8010 0.3465 0.0231
0.8299 0.3469 0.0223
0.0213 0.2669 0.0218
0.0346 0.2674 0.0218
0.0568 0.2701 0.0219
0.0851 0.2755 0.0219
0.1168 0.2831 0.0220
0.1474 0.2914 0.0221
0.1764 0.2992 0.0222
0.2057 0.3056 0.0223
0.2350 0.3105 0.0224
0.2639 0.3145 0.0224
0.2923 0.3183 0.0225
0.3205 0.3225 0.0225
0.3490 0.3269 0.0226
0.3779 0.3313 0.0226
0.4075 0.3355 0.0226
0.4374 0.3395 0.0227
0.4674 0.3433 0.0227
0.4968 0.3469 0.0227
0.5252 0.3503 0.0228
0.5523 0.3536 0.0228
0.5779 0.3567 0.0229
0.6018 0.3594 0.0229
0.6241 0.3619 0.0229
0.6450 0.3642 0.0230
0.6651 0.3665 0.0230
0.6851 0.3687 0.0230
0.7061 0.3710 0.0231
0.7288 0.3732 0.0231
0.7535 0.3752 0.0231
0.7802 0.3769 0.0232
0.8089 0.3781 0.0232
0.8375 0.3789 0.0223
0.0213 0.2923 0.0218
0.0341 0.2925 0.0218
0.0564 0.2944 0.0218
0.0853 0.2994 0.0219
0.1179 0.3069 0.0220
0.1495 0.3157 0.0221
0.1794 0.3243 0.0222
0.2096 0.3313 0.0223
0.2398 0.3365 0.0224
0.2696 0.3402 0.0224
0.2986 0.3435 0.0225
0.3270 0.3472 0.0225
0.3552 0.3514 0.0226
0.3836 0.3557 0.0226
0.4126 0.3600 0.0227
0.4422 0.3641 0.0227
0.4721 0.3680 0.0227
0.5020 0.3718 0.0228
0.5311 0.3754 0.0228
0.5593 0.3790 0.0229
0.5862 0.3825 0.0229
0.6115 0.3857 0.0229
0.6352 0.3888 0.0230
0.6573 0.3916 0.0230
0.6781 0.3943 0.0231
0.6981 0.3971 0.0231
0.7185 0.3999 0.0231
0.7401 0.4026 0.0232
0.7637 0.4051 0.0232
0.7893 0.4071 0.0232
0.8173 0.4086 0.0233
0.8450 0.4100 0.0223
0.0213 0.3181 0.0218
0.0337 0.3180 0.0218
0.0559 0.3191 0.0218
0.0851 0.3232 0.0219
0.1185 0.3303 0.0219
0.1509 0.3395 0.0221
0.1814 0.3488 0.0222
0.2124 0.3566 0.0223
0.2436 0.3622 0.0224
0.2744 0.3659 0.0224
0.3042 0.3686 0.0225
0.3331 0.3716 0.0226
0.3614 0.3752 0.0226
0.3894 0.3793 0.0226
0.4179 0.3836 0.0227
0.4469 0.3877 0.0227
0.4764 0.3917 0.0228
0.5062 0.3955 0.0228
0.5357 0.3992 0.0229
0.5646 0.4029 0.0229
0.5924 0.4066 0.0229
0.6190 0.4103 0.0230
0.6441 0.4139 0.0230
0.6676 0.4173 0.0231
0.6896 0.4206 0.0231
0.7104 0.4239 0.0232
0.7309 0.4273 0.0232
0.7521 0.4305 0.0232
0.7749 0.4334 0.0233
0.7996 0.4360 0.0233
0.8269 0.4378 0.0233
0.8536 0.4398 0.0223
0.0213 0.3440 0.0218
0.0332 0.3436 0.0218
0.0553 0.3439 0.0218
0.0847 0.3469 0.0218
0.1187 0.3533 0.0219
0.1516 0.3624 0.0220
0.1827 0.3724 0.0222
0.2143 0.3812 0.0223
0.2462 0.3876 0.0224
0.2779 0.3915 0.0225
0.3088 0.3939 0.0225
0.3385 0.3961 0.0226
0.3672 0.3989 0.0226
0.3952 0.4025 0.0226
0.4232 0.4064 0.0227
0.4516 0.4105 0.0227
0.4805 0.4145 0.0228
0.5099 0.4182 0.0228
0.5394 0.4219 0.0229
0.5686 0.4256 0.0229
0.5970 0.4294 0.0229
0.6245 0.4333 0.0230
0.6508 0.4373 0.0231
0.6756 0.4413 0.0231
0.6991 0.4452 0.0232
0.7211 0.4491 0.0232
0.7424 0.4530 0.0233
0.7638 0.4568 0.0233
0.7865 0.4602 0.0233
0.8108 0.4632 0.0234
0.8376 0.4654 0.0234
0.8635 0.4682 0.0223
0.0213 0.3700 0.0218
0.0327 0.3694 0.0218
0.0546 0.3690 0.0218
0.0842 0.3707 0.0218
0.1184 0.3760 0.0219
0.1518 0.3847 0.0220
0.1833 0.3951 0.0221
0.2154 0.4050 0.0222
0.2479 0.4125 0.0224
0.2803 0.4171 0.0225
0.3120 0.4194 0.0225
0.3427 0.4210 0.0226
0.3721 0.4229 0.0226
0.4005 0.4257 0.0226
0.4285 0.4292 0.0227
0.4564 0.4330 0.0227
0.4847 0.4368 0.0228
0.5136 0.4406 0.0228
0.5427 0.4442 0.0229
0.5719 0.4477 0.0229
0.6007 0.4514 0.0229
0.6287 0.4554 0.0230
0.6558 0.4596 0.0231
0.6817 0.4640 0.0231
0.7064 0.4684 0.0232
0.7298 0.4729 0.0233
0.7522 0.4774 0.0233
0.7746 0.4817 0.0233
0.7976 0.4857 0.0234
0.8220 0.4893 0.0234
0.8487 0.4920 0.0235
0.8740 0.4956 0.0223
0.0213 0.3959 0.0217
0.0323 0.3952 0.0217
0.0539 0.3941 0.0217
0.0834 0.3947 0.0218
0.1179 0.3987 0.0218
0.1516 0.4065 0.0219
0.1835 0.4169 0.0220
0.2159 0.4277 0.0222
0.2487 0.4367 0.0223
0.2816 0.4424 0.0224
0.3141 0.4452 0.0225
0.3456 0.4464 0.0226
0.3759 0.4475 0.0226
0.4050 0.4494 0.0226
0.4332 0.4521 0.0227
0.4611 0.4555 0.0227
0.4890 0.4591 0.0228
0.5173 0.4627 0.0228
0.5460 0.4662 0.0229
0.5749 0.4696 0.0229
0.6037 0.4731 0.0230
0.6320 0.4768 0.0230
0.6596 0.4810 0.0231
0.6863 0.4855 0.0231
0.7119 0.4904 0.0232
0.7364 0.4954 0.0233
0.7602 0.5005 0.0233
0.7836 0.5054 0.0234
0.8075 0.5100 0.0234
0.8323 0.5142 0.0235
0.8592 0.5174 0.0235
0.8895 0.5186 0.0223
0.0213 0.4219 0.0217
0.0319 0.4210 0.0217
0.0532 0.4196 0.0217
0.0826 0.4190 0.0217
0.1172 0.4215 0.0218
0.1512 0.4281 0.0219
0.1834 0.4382 0.0220
0.2159 0.4496 0.0221
0.2490 0.4599 0.0223
0.2822 0.4673 0.0224
0.3151 0.4711 0.0225
0.3473 0.4724 0.0226
0.3783 0.4728 0.0226
0.4082 0.4738 0.0226
0.4370 0.4757 0.0227
0.4652 0.4784 0.0227
0.4930 0.4816 0.0228
0.5210 0.4850 0.0228
0.5492 0.4883 0.0229
0.5778 0.4915 0.0229
0.6064 0.4948 0.0230
0.6348 0.4982 0.0230
0.6627 0.5020 0.0231
0.6898 0.5064 0.0231
0.7162 0.5114 0.0232
0.7416 0.5168 0.0233
0.7663 0.5224 0.0233
0.7908 0.5280 0.0234
0.8157 0.5333 0.0235
0.8413 0.5381 0.0235
0.8685 0.5418 0.0236
0.8987 0.5435 0.0223
0.0213 0.4480 0.0217
0.0315 0.4471 0.0217
0.0525 0.4453 0.0217
0.0819 0.4440 0.0217
0.1166 0.4450 0.0217
0.1508 0.4500 0.0218
0.1832 0.4591 0.0219
0.2159 0.4707 0.0221
0.2489 0.4823 0.0222
0.2822 0.4914 0.0224
0.3153 0.4967 0.0225
0.3478 0.4988 0.0226
0.3795 0.4991 0.0226
0.4101 0.4992 0.0226
0.4396 0.5002 0.0227
0.4684 0.5021 0.0227
0.4966 0.5047 0.0228
0.5246 0.5077 0.0228
0.5525 0.5108 0.0229
0.5807 0.5138 0.0229
0.6091 0.5168 0.0230
0.6373 0.5199 0.0230
0.6654 0.5233 0.0231
0.6928 0.5273 0.0231
0.7196 0.5321 0.0232
0.7456 0.5375 0.0233
0.7711 0.5435 0.0233
0.7966 0.5497 0.0234
0.8223 0.5556 0.0235
0.8487 0.5611 0.0236
0.8765 0.5654 0.0236
0.9066 0.5676 0.0223
0.0213 0.4743 0.0217
0.0313 0.4733 0.0217
0.0520 0.4714 0.0217
0.0814 0.4695 0.0217
0.1161 0.4693 0.0217
0.1505 0.4726 0.0217
0.1830 0.4803 0.0219
0.2158 0.4914 0.0220
0.2488 0.5037 0.0222
0.2820 0.5145 0.0223
0.3150 0.5218 0.0225
0.3477 0.5253 0.0226
0.3797 0.5259 0.0226
0.4107 0.5256 0.0226
0.4410 0.5257 0.0227
0.4704 0.5268 0.0227
0.4992 0.5287 0.0228
0.5276 0.5312 0.0228
0.5557 0.5340 0.0229
0.5838 0.5368 0.0229
0.6118 0.5395 0.0230
0.6399 0.5422 0.0230
0.6678 0.5451 0.0231
0.6953 0.5485 0.0232
0.7224 0.5528 0.0232
0.7489 0.5580 0.0233
0.7750 0.5641 0.0233
0.8011 0.5706 0.0234
0.8277 0.5771 0.0235
0.8548 0.5833 0.0236
0.8831 0.5882 0.0236
0.9133 0.5910 0.0223
0.0213 0.5007 0.0217
0.0310 0.4997 0.0216
0.0517 0.4977 0.0216
0.0810 0.4955 0.0216
0.1159 0.4944 0.0216
0.1505 0.4960 0.0217
0.1831 0.5019 0.0218
0.2158 0.5120 0.0219
0.2488 0.5246 0.0221
0.2817 0.5368 0.0223
0.3146 0.5461 0.0224
0.3471 0.5514 0.0226
0.3792 0.5531 0.0226
0.4106 0.5528 0.0226
0.4413 0.5523 0.0227
0.4714 0.5525 0.0227
0.5009 0.5537 0.0227
0.5300 0.5556 0.0228
0.5585 0.5580 0.0229
0.5867 0.5605 0.0229
0.6146 0.5630 0.0230
0.6425 0.5653 0.0230
0.6702 0.5677 0.0231
0.6977 0.5705 0.0232
0.7249 0.5741 0.0232
0.7517 0.5787 0.0233
0.7783 0.5845 0.0233
0.8050 0.5910 0.0234
0.8321 0.5979 0.0235
0.8598 0.6046 0.0236
0.8886 0.6101 0.0237
0.9190 0.6135 0.0223
0.0213 0.5275 0.0216
0.0309 0.5265 0.0216
0.0516 0.5245 0.0216
0.0810 0.5221 0.0216
0.1159 0.5203 0.0216
0.1507 0.5204 0.0216
0.1834 0.5243 0.0217
0.2161 0.5330 0.0218
0.2489 0.5451 0.0220
0.2816 0.5582 0.0222
0.3141 0.5695 0.0224
0.3464 0.5770 0.0225
0.3784 0.5803 0.0226
0.4098 0.5806 0.0226
0.4409 0.5798 0.0227
0.4716 0.5794 0.0227
0.5017 0.5798 0.0227
0.5315 0.5810 0.0228
0.5607 0.5829 0.0229
0.5893 0.5851 0.0229
0.6174 0.5873 0.0230
0.6451 0.5893 0.0230
0.6726 0.5913 0.0231
0.6999 0.5934 0.0232
0.7271 0.5962 0.0232
0.7540 0.6000 0.0233
0.7809 0.6051 0.0233
0.8081 0.6113 0.0234
0.8358 0.6181 0.0235
0.8640 0.6252 0.0236
0.8934 0.6311 0.0237
0.9239 0.6352 0.0223
0.0213 0.5546 0.0216
0.0309 0.5536 0.0216
0.0516 0.5516 0.0216
0.0812 0.5491 0.0216
0.1163 0.5469 0.0216
0.1512 0.5459 0.0216
0.1840 0.5479 0.0217
0.2167 0.5546 0.0218
0.2493 0.5656 0.0219
0.2817 0.5790 0.0221
0.3139 0.5919 0.0223
0.3458 0.6017 0.0225
0.3775 0.6071 0.0226
0.4089 0.6086 0.0226
0.4401 0.6081 0.0227
0.4711 0.6072 0.0227
0.5019 0.6069 0.0227
0.5323 0.6075 0.0228
0.5622 0.6088 0.0228
0.5914 0.6106 0.0229
0.6198 0.6125 0.0230
0.6476 0.6142 0.0230
0.6750 0.6158 0.0231
0.7021 0.6175 0.0232
0.7291 0.6195 0.0233
0.7560 0.6224 0.0233
0.7831 0.6265 0.0233
0.8106 0.6319 0.0234
0.8387 0.6382 0.0235
0.8676 0.6451 0.0236
0.8974 0.6511 0.0236
0.9281 0.6559 0.0223
0.0213 0.5819 0.0216
0.0310 0.5809 0.0216
0.0519 0.5788 0.0216
0.0816 0.5763 0.0216
0.1169 0.5739 0.0216
0.1519 0.5722 0.0216
0.1848 0.5726 0.0216
0.2175 0.5771 0.0217
0.2500 0.5865 0.0218
0.2822 0.5995 0.0220
0.3140 0.6134 0.0222
0.3455 0.6253 0.0224
0.3768 0.6331 0.0226
0.4080 0.6364 0.0226
0.4392 0.6367 0.0227
0.4704 0.6357 0.0227
0.5015 0.6349 0.0227
0.5325 0.6348 0.0228
0.5630 0.6354 0.0228
0.5928 0.6367 0.0229
0.6218 0.6382 0.0229
0.6498 0.6398 0.0230
0.6772 0.6412 0.0231
0.7040 0.6424 0.0232
0.7308 0.6438 0.0233
0.7576 0.6457 0.0233
0.7847 0.6488 0.0234
0.8125 0.6531 0.0234
0.8410 0.6585 0.0235
0.8703 0.6647 0.0235
0.9005 0.6703 0.0236
0.9315 0.6756 0.0223
0.0213 0.6094 0.0216
0.0312 0.6084 0.0216
0.0523 0.6063 0.0216
0.0822 0.6038 0.0216
0.1178 0.6013 0.0216
0.1529 0.5991 0.0216
0.1858 0.5983 0.0216
0.2186 0.6008 0.0216
0.2511 0.6081 0.0218
0.2831 0.6201 0.0219
0.3145 0.6343 0.0221
0.3456 0.6479 0.0223
0.3764 0.6581 0.0225
0.4073 0.6637 0.0226
0.4384 0.6653 0.0227
0.4696 0.6647 0.0227
0.5010 0.6636 0.0227
0.5323 0.6628 0.0228
0.5633 0.6628 0.0228
0.5937 0.6635 0.0229
0.6231 0.6647 0.0229
0.6515 0.6660 0.0230
0.6790 0.6672 0.0231
0.7057 0.6681 0.0232
0.7322 0.6691 0.0233
0.7588 0.6704 0.0233
0.7859 0.6724 0.0234
0.8137 0.6755 0.0234
0.8425 0.6796 0.0235
0.8722 0.6846 0.0235
0.9028 0.6893 0.0236
0.9341 0.6947 0.0223
0.0213 0.6371 0.0216
0.0314 0.6360 0.0216
0.0528 0.6340 0.0216
0.0830 0.6314 0.0216
0.1187 0.6290 0.0216
0.1540 0.6266 0.0216
0.1870 0.6250 0.0216
0.2199 0.6257 0.0216
0.2524 0.6309 0.0217
0.2843 0.6411 0.0218
0.3155 0.6550 0.0220
0.3462 0.6697 0.0222
0.3766 0.6821 0.0224
0.4070 0.6902 0.0226
0.4378 0.6937 0.0227
0.4690 0.6939 0.0227
0.5004 0.6927 0.0227
0.5319 0.6915 0.0228
0.5632 0.6909 0.0228
0.5940 0.6909 0.0229
0.6239 0.6915 0.0229
0.6526 0.6925 0.0230
0.6803 0.6936 0.0231
0.7071 0.6945 0.0232
0.7334 0.6952 0.0233
0.7597 0.6960 0.0234
0.7866 0.6973 0.0234
0.8144 0.6992 0.0235
0.8433 0.7020 0.0235
0.8732 0.7056 0.0236
0.9041 0.7091 0.0236
0.9357 0.7141 0.0223
0.0213 0.6649 0.0216
0.0317 0.6639 0.0216
0.0533 0.6618 0.0216
0.0838 0.6593 0.0215
0.1198 0.6569 0.0215
0.1552 0.6545 0.0215
0.1883 0.6525 0.0215
0.2213 0.6519 0.0216
0.2540 0.6549 0.0216
0.2860 0.6631 0.0218
0.3171 0.6759 0.0219
0.3474 0.6910 0.0222
0.3773 0.7052 0.0224
0.4072 0.7157 0.0225
0.4375 0.7214 0.0226
0.4685 0.7230 0.0227
0.4998 0.7221 0.0228
0.5314 0.7206 0.0228
0.5628 0.7194 0.0228
0.5939 0.7187 0.0229
0.6242 0.7188 0.0229
0.6534 0.7194 0.0230
0.6814 0.7204 0.0231
0.7082 0.7213 0.0232
0.7344 0.7220 0.0233
0.7604 0.7227 0.0234
0.7870 0.7234 0.0234
0.8146 0.7245 0.0235
0.8434 0.7261 0.0235
0.8734 0.7283 0.0236
0.9044 0.7305 0.0236
0.9363 0.7348 0.0223
0.0213 0.6929 0.0216
0.0321 0.6919 0.0216
0.0540 0.6898 0.0215
0.0848 0.6874 0.0215
0.1210 0.6850 0.0215
0.1566 0.6827 0.0215
0.1897 0.6805 0.0215
0.2229 0.6791 0.0215
0.2558 0.6803 0.0216
0.2880 0.6862 0.0217
0.3190 0.6974 0.0218
0.3492 0.7122 0.0220
0.3786 0.7275 0.0223
0.4079 0.7403 0.0225
0.4377 0.7483 0.0226
0.4681 0.7516 0.0227
0.4993 0.7515 0.0228
0.5308 0.7499 0.0228
0.5623 0.7482 0.0228
0.5937 0.7470 0.0229
0.6243 0.7465 0.0229
0.6539 0.7466 0.0230
0.6822 0.7474 0.0231
0.7092 0.7483 0.0232
0.7353 0.7493 0.0233
0.7611 0.7500 0.0234
0.7873 0.7505 0.0235
0.8146 0.7511 0.0235
0.8433 0.7519 0.0236
0.8731 0.7530 0.0236
0.9041 0.7542 0.0236
0.9362 0.7575 0.0223
0.0213 0.7210 0.0215
0.0324 0.7201 0.0215
0.0547 0.7181 0.0215
0.0858 0.7157 0.0215
