lut/adanmq/Adanmq_Kodak_Tri-X_400.cube
TITLE "Adanmq_Kodak Tri-X 400"
LUT_3D_SIZE 8
DOMAIN_MIN 0.000000 0.000000 0.000000
DOMAIN_MAX 0.903226 0.903226 0.903226
0.0223 0.0223 0.0223
0.0318 0.0318 0.0318
0.0363 0.0363 0.0363
0.0521 0.0521 0.0521
0.0606 0.0606 0.0606
0.0688 0.0688 0.0688
0.0807 0.0807 0.0807
0.0967 0.0967 0.0967
0.0740 0.0740 0.0740
0.0835 0.0835 0.0835
0.0875 0.0875 0.0875
0.0952 0.0952 0.0952
0.1072 0.1072 0.1072
0.1224 0.1224 0.1224
0.1426 0.1426 0.1426
0.1714 0.1714 0.1714
0.0765 0.0765 0.0765
0.0989 0.0989 0.0989
0.1118 0.1118 0.1118
0.1306 0.1306 0.1306
0.1526 0.1526 0.1526
0.1763 0.1763 0.1763
0.2032 0.2032 0.2032
0.2381 0.2381 0.2381
0.1172 0.1172 0.1172
0.1365 0.1365 0.1365
0.1564 0.1564 0.1564
0.1756 0.1756 0.1756
0.2011 0.2011 0.2011
0.2382 0.2382 0.2382
0.2866 0.2866 0.2866
0.3401 0.3401 0.3401
0.1642 0.1642 0.1642
0.1801 0.1801 0.1801
0.2194 0.2194 0.2194
0.2443 0.2443 0.2443
0.2748 0.2748 0.2748
0.3128 0.3128 0.3128
0.3684 0.3684 0.3684
0.4433 0.4433 0.4433
0.2201 0.2201 0.2201
0.2326 0.2326 0.2326
0.2782 0.2782 0.2782
0.3334 0.3334 0.3334
0.3697 0.3697 0.3697
0.4149 0.4149 0.4149
0.4626 0.4626 0.4626
0.5322 0.5322 0.5322
0.2856 0.2856 0.2856
0.3025 0.3025 0.3025
0.3377 0.3377 0.3377
0.4243 0.4243 0.4243
0.4753 0.4753 0.4753
0.5213 0.5213 0.5213
0.5771 0.5771 0.5771
0.6332 0.6332 0.6332
0.3625 0.3625 0.3625
0.3867 0.3867 0.3867
0.4177 0.4177 0.4177
0.5013 0.5013 0.5013
0.5817 0.5817 0.5817
0.6286 0.6286 0.6286
0.6833 0.6833 0.6833
0.7466 0.7466 0.7466
0.0203 0.0203 0.0203
0.0399 0.0399 0.0399
0.0567 0.0567 0.0567
0.0668 0.0668 0.0668
0.0715 0.0715 0.0715
0.0806 0.0806 0.0806
0.0914 0.0914 0.0914
0.1066 0.1066 0.1066
0.0735 0.0735 0.0735
0.0893 0.0893 0.0893
0.0989 0.0989 0.0989
0.1089 0.1089 0.1089
0.1264 0.1264 0.1264
0.1490 0.1490 0.1490
0.1693 0.1693 0.1693
0.1931 0.1931 0.1931
0.0891 0.0891 0.0891
0.1162 0.1162 0.1162
0.1387 0.1387 0.1387
0.1516 0.1516 0.1516
0.1731 0.1731 0.1731
0.1980 0.1980 0.1980
0.2293 0.2293 0.2293
0.2779 0.2779 0.2779
0.1247 0.1247 0.1247
0.1395 0.1395 0.1395
0.1719 0.1719 0.1719
0.1977 0.1977 0.1977
0.2306 0.2306 0.2306
0.2672 0.2672 0.2672
0.3083 0.3083 0.3083
0.3562 0.3562 0.3562
0.1666 0.1666 0.1666
0.1800 0.1800 0.1800
0.2248 0.2248 0.2248
0.2615 0.2615 0.2615
0.2964 0.2964 0.2964
0.3430 0.3430 0.3430
0.3970 0.3970 0.3970
0.4582 0.4582 0.4582
0.2196 0.2196 0.2196
0.2344 0.2344 0.2344
0.2710 0.2710 0.2710
0.3443 0.3443 0.3443
0.3830 0.3830 0.3830
0.4322 0.4322 0.4322
0.4836 0.4836 0.4836
0.5500 0.5500 0.5500
0.2874 0.2874 0.2874
0.3079 0.3079 0.3079
0.3361 0.3361 0.3361
0.4078 0.4078 0.4078
0.4855 0.4855 0.4855
0.5332 0.5332 0.5332
0.5827 0.5827 0.5827
0.6408 0.6408 0.6408
0.3691 0.3691 0.3691
0.3974 0.3974 0.3974
0.4305 0.4305 0.4305
0.4797 0.4797 0.4797
0.5798 0.5798 0.5798
0.6428 0.6428 0.6428
0.6905 0.6905 0.6905
0.7477 0.7477 0.7477
0.0305 0.0305 0.0305
0.0641 0.0641 0.0641
0.0947 0.0947 0.0947
0.0992 0.0992 0.0992
0.1183 0.1183 0.1183
0.1176 0.1176 0.1176
0.1202 0.1202 0.1202
0.1279 0.1279 0.1279
0.0831 0.0831 0.0831
0.1045 0.1045 0.1045
0.1228 0.1228 0.1228
0.1422 0.1422 0.1422
0.1653 0.1653 0.1653
0.1834 0.1834 0.1834
0.2010 0.2010 0.2010
0.2215 0.2215 0.2215
0.1023 0.1023 0.1023
0.1361 0.1361 0.1361
0.1632 0.1632 0.1632
0.1739 0.1739 0.1739
0.1965 0.1965 0.1965
0.2295 0.2295 0.2295
0.2699 0.2699 0.2699
0.3216 0.3216 0.3216
0.1405 0.1405 0.1405
0.1614 0.1614 0.1614
0.2097 0.2097 0.2097
0.2464 0.2464 0.2464
0.2667 0.2667 0.2667
0.3008 0.3008 0.3008
0.3381 0.3381 0.3381
0.3904 0.3904 0.3904
0.1915 0.1915 0.1915
0.2030 0.2030 0.2030
0.2351 0.2351 0.2351
0.3015 0.3015 0.3015
0.3382 0.3382 0.3382
0.3712 0.3712 0.3712
0.4196 0.4196 0.4196
0.4744 0.4744 0.4744
0.2512 0.2512 0.2512
0.2544 0.2544 0.2544
0.2816 0.2816 0.2816
0.3620 0.3620 0.3620
0.4148 0.4148 0.4148
0.4519 0.4519 0.4519
0.5109 0.5109 0.5109
0.5755 0.5755 0.5755
0.3155 0.3155 0.3155
0.3239 0.3239 0.3239
0.3562 0.3562 0.3562
0.4174 0.4174 0.4174
0.5056 0.5056 0.5056
0.5445 0.5445 0.5445
0.6007 0.6007 0.6007
0.6686 0.6686 0.6686
0.3911 0.3911 0.3911
0.4132 0.4132 0.4132
0.4498 0.4498 0.4498
0.4930 0.4930 0.4930
0.5716 0.5716 0.5716
0.6498 0.6498 0.6498
0.7021 0.7021 0.7021
0.7654 0.7654 0.7654
0.0426 0.0426 0.0426
0.0788 0.0788 0.0788
0.1441 0.1441 0.1441
0.1735 0.1735 0.1735
0.1642 0.1642 0.1642
0.1973 0.1973 0.1973
0.1993 0.1993 0.1993
0.1871 0.1871 0.1871
0.1059 0.1059 0.1059
0.1373 0.1373 0.1373
0.1745 0.1745 0.1745
0.2098 0.2098 0.2098
0.2180 0.2180 0.2180
0.2561 0.2561 0.2561
0.2734 0.2734 0.2734
0.2770 0.2770 0.2770
0.1279 0.1279 0.1279
0.1735 0.1735 0.1735
0.1974 0.1974 0.1974
0.2205 0.2205 0.2205
0.2481 0.2481 0.2481
0.2798 0.2798 0.2798
0.3130 0.3130 0.3130
0.3533 0.3533 0.3533
0.1615 0.1615 0.1615
0.1969 0.1969 0.1969
0.2423 0.2423 0.2423
0.2819 0.2819 0.2819
0.3069 0.3069 0.3069
0.3370 0.3370 0.3370
0.3809 0.3809 0.3809
0.4381 0.4381 0.4381
0.2036 0.2036 0.2036
0.2366 0.2366 0.2366
0.2776 0.2776 0.2776
0.3556 0.3556 0.3556
0.3986 0.3986 0.3986
0.4149 0.4149 0.4149
0.4557 0.4557 0.4557
0.5008 0.5008 0.5008
0.2725 0.2725 0.2725
0.2964 0.2964 0.2964
0.3247 0.3247 0.3247
0.3857 0.3857 0.3857
0.4674 0.4674 0.4674
0.4941 0.4941 0.4941
0.5250 0.5250 0.5250
0.5867 0.5867 0.5867
0.3604 0.3604 0.3604
0.3734 0.3734 0.3734
0.3890 0.3890 0.3890
0.4320 0.4320 0.4320
0.5220 0.5220 0.5220
0.5757 0.5757 0.5757
0.6104 0.6104 0.6104
0.6823 0.6823 0.6823
0.4523 0.4523 0.4523
0.4591 0.4591 0.4591
0.4795 0.4795 0.4795
0.5244 0.5244 0.5244
0.5892 0.5892 0.5892
0.6748 0.6748 0.6748
0.7149 0.7149 0.7149
0.7774 0.7774 0.7774
0.0587 0.0587 0.0587
0.0930 0.0930 0.0930
0.1832 0.1832 0.1832
0.2560 0.2560 0.2560
0.2821 0.2821 0.2821
0.2528 0.2528 0.2528
0.2796 0.2796 0.2796
0.2954 0.2954 0.2954
0.1358 0.1358 0.1358
0.1721 0.1721 0.1721
0.2154 0.2154 0.2154
0.2899 0.2899 0.2899
0.3217 0.3217 0.3217
0.3041 0.3041 0.3041
0.3507 0.3507 0.3507
0.3739 0.3739 0.3739
0.1681 0.1681 0.1681
0.2193 0.2193 0.2193
0.2625 0.2625 0.2625
0.3030 0.3030 0.3030
0.3448 0.3448 0.3448
0.3555 0.3555 0.3555
0.3856 0.3856 0.3856
0.4160 0.4160 0.4160
0.1983 0.1983 0.1983
0.2536 0.2536 0.2536
0.3097 0.3097 0.3097
0.3313 0.3313 0.3313
0.3642 0.3642 0.3642
0.3991 0.3991 0.3991
0.4304 0.4304 0.4304
0.4745 0.4745 0.4745
0.2337 0.2337 0.2337
0.2849 0.2849 0.2849
0.3359 0.3359 0.3359
0.3972 0.3972 0.3972
0.4369 0.4369 0.4369
0.4672 0.4672 0.4672
0.4951 0.4951 0.4951
0.5464 0.5464 0.5464
0.2930 0.2930 0.2930
0.3275 0.3275 0.3275
0.3721 0.3721 0.3721
0.4432 0.4432 0.4432
0.5217 0.5217 0.5217
0.5587 0.5587 0.5587
0.5741 0.5741 0.5741
0.6243 0.6243 0.6243
0.3775 0.3775 0.3775
0.4076 0.4076 0.4076
0.4354 0.4354 0.4354
0.4835 0.4835 0.4835
0.5518 0.5518 0.5518
0.6319 0.6319 0.6319
0.6595 0.6595 0.6595
0.7060 0.7060 0.7060
0.4755 0.4755 0.4755
0.5070 0.5070 0.5070
0.5253 0.5253 0.5253
0.5548 0.5548 0.5548
0.6056 0.6056 0.6056
0.6924 0.6924 0.6924
0.7504 0.7504 0.7504
0.7909 0.7909 0.7909
0.0836 0.0836 0.0836
0.1172 0.1172 0.1172
0.2042 0.2042 0.2042
0.3028 0.3028 0.3028
0.3574 0.3574 0.3574
0.3825 0.3825 0.3825
0.3444 0.3444 0.3444
0.3578 0.3578 0.3578
0.1762 0.1762 0.1762
0.2138 0.2138 0.2138
0.2556 0.2556 0.2556
0.3459 0.3459 0.3459
0.4201 0.4201 0.4201
0.4375 0.4375 0.4375
0.4054 0.4054 0.4054
0.4481 0.4481 0.4481
0.2267 0.2267 0.2267
0.2849 0.2849 0.2849
0.3327 0.3327 0.3327
0.3684 0.3684 0.3684
0.4230 0.4230 0.4230
0.4639 0.4639 0.4639
0.4533 0.4533 0.4533
0.4914 0.4914 0.4914
0.2506 0.2506 0.2506
0.3145 0.3145 0.3145
0.3703 0.3703 0.3703
0.4206 0.4206 0.4206
0.4521 0.4521 0.4521
0.4924 0.4924 0.4924
0.5059 0.5059 0.5059
0.5288 0.5288 0.5288
0.2845 0.2845 0.2845
0.3489 0.3489 0.3489
0.4147 0.4147 0.4147
0.4653 0.4653 0.4653
0.4832 0.4832 0.4832
0.5181 0.5181 0.5181
0.5579 0.5579 0.5579
0.5949 0.5949 0.5949
0.3274 0.3274 0.3274
0.3802 0.3802 0.3802
0.4410 0.4410 0.4410
0.4994 0.4994 0.4994
0.5562 0.5562 0.5562
0.5913 0.5913 0.5913
0.6240 0.6240 0.6240
0.6616 0.6616 0.6616
0.4082 0.4082 0.4082
0.4366 0.4366 0.4366
0.4797 0.4797 0.4797
0.5306 0.5306 0.5306
0.6061 0.6061 0.6061
0.6795 0.6795 0.6795
0.7220 0.7220 0.7220
0.7518 0.7518 0.7518
0.4984 0.4984 0.4984
0.5298 0.5298 0.5298
0.5656 0.5656 0.5656
0.5991 0.5991 0.5991
0.6526 0.6526 0.6526
0.7182 0.7182 0.7182
0.8046 0.8046 0.8046
0.8392 0.8392 0.8392
0.1176 0.1176 0.1176
0.1545 0.1545 0.1545
0.2141 0.2141 0.2141
0.3329 0.3329 0.3329
0.3899 0.3899 0.3899
0.4348 0.4348 0.4348
0.4601 0.4601 0.4601
0.4232 0.4232 0.4232
0.2198 0.2198 0.2198
0.2590 0.2590 0.2590
0.3011 0.3011 0.3011
0.3826 0.3826 0.3826
0.4737 0.4737 0.4737
0.5234 0.5234 0.5234
0.5437 0.5437 0.5437
0.5148 0.5148 0.5148
0.2962 0.2962 0.2962
0.3510 0.3510 0.3510
0.3977 0.3977 0.3977
0.4137 0.4137 0.4137
0.4717 0.4717 0.4717
0.5403 0.5403 0.5403
0.5686 0.5686 0.5686
0.5581 0.5581 0.5581
0.3256 0.3256 0.3256
0.3899 0.3899 0.3899
0.4581 0.4581 0.4581
0.4890 0.4890 0.4890
0.5205 0.5205 0.5205
0.5535 0.5535 0.5535
0.5965 0.5965 0.5965
0.6040 0.6040 0.6040
0.3387 0.3387 0.3387
0.4176 0.4176 0.4176
0.4752 0.4752 0.4752
0.5246 0.5246 0.5246
0.5713 0.5713 0.5713
0.5981 0.5981 0.5981
0.6392 0.6392 0.6392
0.6622 0.6622 0.6622
0.3854 0.3854 0.3854
0.4428 0.4428 0.4428
0.5206 0.5206 0.5206
0.5740 0.5740 0.5740
0.6173 0.6173 0.6173
0.6345 0.6345 0.6345
0.6718 0.6718 0.6718
0.7214 0.7214 0.7214
0.4397 0.4397 0.4397
0.4750 0.4750 0.4750
0.5491 0.5491 0.5491
0.6023 0.6023 0.6023
0.6620 0.6620 0.6620
0.7140 0.7140 0.7140
0.7499 0.7499 0.7499
0.7889 0.7889 0.7889
0.5314 0.5314 0.5314
0.5589 0.5589 0.5589
0.6003 0.6003 0.6003
0.6475 0.6475 0.6475
0.7017 0.7017 0.7017
0.7706 0.7706 0.7706
0.8389 0.8389 0.8389
0.8769 0.8769 0.8769
0.1576 0.1576 0.1576
0.1966 0.1966 0.1966
0.2407 0.2407 0.2407
0.3418 0.3418 0.3418
0.4162 0.4162 0.4162
0.4581 0.4581 0.4581
0.4993 0.4993 0.4993
0.5257 0.5257 0.5257
0.2629 0.2629 0.2629
0.3033 0.3033 0.3033
0.3468 0.3468 0.3468
0.4115 0.4115 0.4115
0.5036 0.5036 0.5036
0.5529 0.5529 0.5529
0.5947 0.5947 0.5947
0.6216 0.6216 0.6216
0.3635 0.3635 0.3635
0.4124 0.4124 0.4124
0.4556 0.4556 0.4556
0.4729 0.4729 0.4729
0.5070 0.5070 0.5070
0.5973 0.5973 0.5973
0.6609 0.6609 0.6609
0.6959 0.6959 0.6959
0.3987 0.3987 0.3987
0.4636 0.4636 0.4636
0.5355 0.5355 0.5355
0.5580 0.5580 0.5580
0.5566 0.5566 0.5566
0.5895 0.5895 0.5895
0.6478 0.6478 0.6478
0.6949 0.6949 0.6949
0.4001 0.4001 0.4001
0.4866 0.4866 0.4866
0.5549 0.5549 0.5549
0.6110 0.6110 0.6110
0.6356 0.6356 0.6356
0.6615 0.6615 0.6615
0.6851 0.6851 0.6851
0.7332 0.7332 0.7332
0.4267 0.4267 0.4267
0.4994 0.4994 0.4994
0.5907 0.5907 0.5907
0.6318 0.6318 0.6318
0.6767 0.6767 0.6767
0.7176 0.7176 0.7176
0.7429 0.7429 0.7429
0.7806 0.7806 0.7806
0.4923 0.4923 0.4923
0.5385 0.5385 0.5385
0.6112 0.6112 0.6112
0.6827 0.6827 0.6827
0.7337 0.7337 0.7337
0.7723 0.7723 0.7723
0.7872 0.7872 0.7872
0.8191 0.8191 0.8191
0.5577 0.5577 0.5577
0.5941 0.5941 0.5941
0.6415 0.6415 0.6415
0.7094 0.7094 0.7094
0.7704 0.7704 0.7704
0.8173 0.8173 0.8173
0.8617 0.8617 0.8617
0.8905 0.8905 0.8905
