lut/adanmq/Adanmq_Ilford_Delta_3200.cube
TITLE "Adanmq_Ilford Delta 3200"
LUT_3D_SIZE 8
DOMAIN_MIN 0.000000 0.000000 0.000000
DOMAIN_MAX 0.903226 0.903226 0.903226
0.0223 0.0223 0.0223
0.0340 0.0340 0.0340
0.0451 0.0451 0.0451
0.0672 0.0672 0.0672
0.0865 0.0865 0.0865
0.1118 0.1118 0.1118
0.1457 0.1457 0.1457
0.1884 0.1884 0.1884
0.0740 0.0740 0.0740
0.0879 0.0879 0.0879
0.0984 0.0984 0.0984
0.1155 0.1155 0.1155
0.1399 0.1399 0.1399
0.1700 0.1700 0.1700
0.2108 0.2108 0.2108
0.2652 0.2652 0.2652
0.0856 0.0856 0.0856
0.1101 0.1101 0.1101
0.1291 0.1291 0.1291
0.1575 0.1575 0.1575
0.1926 0.1926 0.1926
0.2339 0.2339 0.2339
0.2816 0.2816 0.2816
0.3344 0.3344 0.3344
0.1310 0.1310 0.1310
0.1539 0.1539 0.1539
0.1832 0.1832 0.1832
0.2113 0.2113 0.2113
0.2499 0.2499 0.2499
0.3009 0.3009 0.3009
0.3630 0.3630 0.3630
0.4315 0.4315 0.4315
0.1813 0.1813 0.1813
0.2018 0.2018 0.2018
0.2516 0.2516 0.2516
0.2843 0.2843 0.2843
0.3247 0.3247 0.3247
0.3758 0.3758 0.3758
0.4380 0.4380 0.4380
0.5162 0.5162 0.5162
0.2408 0.2408 0.2408
0.2594 0.2594 0.2594
0.3126 0.3126 0.3126
0.3736 0.3736 0.3736
0.4119 0.4119 0.4119
0.4653 0.4653 0.4653
0.5211 0.5211 0.5211
0.5896 0.5896 0.5896
0.3124 0.3124 0.3124
0.3338 0.3338 0.3338
0.3716 0.3716 0.3716
0.4616 0.4616 0.4616
0.5102 0.5102 0.5102
0.5586 0.5586 0.5586
0.6186 0.6186 0.6186
0.6740 0.6740 0.6740
0.3935 0.3935 0.3935
0.4203 0.4203 0.4203
0.4511 0.4511 0.4511
0.5348 0.5348 0.5348
0.6123 0.6123 0.6123
0.6553 0.6553 0.6553
0.7128 0.7128 0.7128
0.7729 0.7729 0.7729
0.0211 0.0211 0.0211
0.0434 0.0434 0.0434
0.0672 0.0672 0.0672
0.0851 0.0851 0.0851
0.1014 0.1014 0.1014
0.1277 0.1277 0.1277
0.1646 0.1646 0.1646
0.2122 0.2122 0.2122
0.0743 0.0743 0.0743
0.0926 0.0926 0.0926
0.1093 0.1093 0.1093
0.1288 0.1288 0.1288
0.1573 0.1573 0.1573
0.1953 0.1953 0.1953
0.2397 0.2397 0.2397
0.2983 0.2983 0.2983
0.0948 0.0948 0.0948
0.1254 0.1254 0.1254
0.1533 0.1533 0.1533
0.1769 0.1769 0.1769
0.2101 0.2101 0.2101
0.2473 0.2473 0.2473
0.2964 0.2964 0.2964
0.3757 0.3757 0.3757
0.1369 0.1369 0.1369
0.1556 0.1556 0.1556
0.1959 0.1959 0.1959
0.2303 0.2303 0.2303
0.2736 0.2736 0.2736
0.3210 0.3210 0.3210
0.3701 0.3701 0.3701
0.4320 0.4320 0.4320
0.1851 0.1851 0.1851
0.2022 0.2022 0.2022
0.2526 0.2526 0.2526
0.2997 0.2997 0.2997
0.3410 0.3410 0.3410
0.3958 0.3958 0.3958
0.4545 0.4545 0.4545
0.5209 0.5209 0.5209
0.2434 0.2434 0.2434
0.2635 0.2635 0.2635
0.3018 0.3018 0.3018
0.3814 0.3814 0.3814
0.4260 0.4260 0.4260
0.4754 0.4754 0.4754
0.5345 0.5345 0.5345
0.6014 0.6014 0.6014
0.3164 0.3164 0.3164
0.3401 0.3401 0.3401
0.3690 0.3690 0.3690
0.4415 0.4415 0.4415
0.5216 0.5216 0.5216
0.5661 0.5661 0.5661
0.6172 0.6172 0.6172
0.6802 0.6802 0.6802
0.4021 0.4021 0.4021
0.4309 0.4309 0.4309
0.4624 0.4624 0.4624
0.5106 0.5106 0.5106
0.6092 0.6092 0.6092
0.6668 0.6668 0.6668
0.7113 0.7113 0.7113
0.7699 0.7699 0.7699
0.0305 0.0305 0.0305
0.0660 0.0660 0.0660
0.1010 0.1010 0.1010
0.1179 0.1179 0.1179
0.1491 0.1491 0.1491
0.1663 0.1663 0.1663
0.1954 0.1954 0.1954
0.2399 0.2399 0.2399
0.0841 0.0841 0.0841
0.1089 0.1089 0.1089
0.1312 0.1312 0.1312
0.1606 0.1606 0.1606
0.1969 0.1969 0.1969
0.2309 0.2309 0.2309
0.2713 0.2713 0.2713
0.3311 0.3311 0.3311
0.1056 0.1056 0.1056
0.1433 0.1433 0.1433
0.1772 0.1772 0.1772
0.1981 0.1981 0.1981
0.2317 0.2317 0.2317
0.2758 0.2758 0.2758
0.3318 0.3318 0.3318
0.4091 0.4091 0.4091
0.1474 0.1474 0.1474
0.1724 0.1724 0.1724
0.2288 0.2288 0.2288
0.2734 0.2734 0.2734
0.3049 0.3049 0.3049
0.3495 0.3495 0.3495
0.3947 0.3947 0.3947
0.4548 0.4548 0.4548
0.2023 0.2023 0.2023
0.2202 0.2202 0.2202
0.2580 0.2580 0.2580
0.3301 0.3301 0.3301
0.3748 0.3748 0.3748
0.4212 0.4212 0.4212
0.4766 0.4766 0.4766
0.5337 0.5337 0.5337
0.2680 0.2680 0.2680
0.2799 0.2799 0.2799
0.3096 0.3096 0.3096
0.3881 0.3881 0.3881
0.4482 0.4482 0.4482
0.4939 0.4939 0.4939
0.5564 0.5564 0.5564
0.6219 0.6219 0.6219
0.3381 0.3381 0.3381
0.3545 0.3545 0.3545
0.3865 0.3865 0.3865
0.4439 0.4439 0.4439
0.5345 0.5345 0.5345
0.5820 0.5820 0.5820
0.6329 0.6329 0.6329
0.7014 0.7014 0.7014
0.4197 0.4197 0.4197
0.4447 0.4447 0.4447
0.4800 0.4800 0.4800
0.5218 0.5218 0.5218
0.5988 0.5988 0.5988
0.6780 0.6780 0.6780
0.7245 0.7245 0.7245
0.7832 0.7832 0.7832
0.0420 0.0420 0.0420
0.0791 0.0791 0.0791
0.1449 0.1449 0.1449
0.1801 0.1801 0.1801
0.1913 0.1913 0.1913
0.2320 0.2320 0.2320
0.2541 0.2541 0.2541
0.2769 0.2769 0.2769
0.1048 0.1048 0.1048
0.1393 0.1393 0.1393
0.1790 0.1790 0.1790
0.2185 0.2185 0.2185
0.2492 0.2492 0.2492
0.2986 0.2986 0.2986
0.3335 0.3335 0.3335
0.3681 0.3681 0.3681
0.1296 0.1296 0.1296
0.1772 0.1772 0.1772
0.2106 0.2106 0.2106
0.2402 0.2402 0.2402
0.2788 0.2788 0.2788
0.3236 0.3236 0.3236
0.3738 0.3738 0.3738
0.4342 0.4342 0.4342
0.1647 0.1647 0.1647
0.2052 0.2052 0.2052
0.2614 0.2614 0.2614
0.3098 0.3098 0.3098
0.3420 0.3420 0.3420
0.3779 0.3779 0.3779
0.4295 0.4295 0.4295
0.4990 0.4990 0.4990
0.2111 0.2111 0.2111
0.2456 0.2456 0.2456
0.2948 0.2948 0.2948
0.3799 0.3799 0.3799
0.4286 0.4286 0.4286
0.4581 0.4581 0.4581
0.5050 0.5050 0.5050
0.5580 0.5580 0.5580
0.2815 0.2815 0.2815
0.3086 0.3086 0.3086
0.3438 0.3438 0.3438
0.4057 0.4057 0.4057
0.4910 0.4910 0.4910
0.5361 0.5361 0.5361
0.5841 0.5841 0.5841
0.6458 0.6458 0.6458
0.3684 0.3684 0.3684
0.3883 0.3883 0.3883
0.4132 0.4132 0.4132
0.4546 0.4546 0.4546
0.5420 0.5420 0.5420
0.6044 0.6044 0.6044
0.6526 0.6526 0.6526
0.7263 0.7263 0.7263
0.4595 0.4595 0.4595
0.4766 0.4766 0.4766
0.5055 0.5055 0.5055
0.5495 0.5495 0.5495
0.6116 0.6116 0.6116
0.6946 0.6946 0.6946
0.7405 0.7405 0.7405
0.7960 0.7960 0.7960
0.0572 0.0572 0.0572
0.0915 0.0915 0.0915
0.1800 0.1800 0.1800
0.2493 0.2493 0.2493
0.2827 0.2827 0.2827
0.2761 0.2761 0.2761
0.3065 0.3065 0.3065
0.3381 0.3381 0.3381
0.1321 0.1321 0.1321
0.1699 0.1699 0.1699
0.2169 0.2169 0.2169
0.2860 0.2860 0.2860
0.3281 0.3281 0.3281
0.3403 0.3403 0.3403
0.3880 0.3880 0.3880
0.4280 0.4280 0.4280
0.1637 0.1637 0.1637
0.2164 0.2164 0.2164
0.2672 0.2672 0.2672
0.3082 0.3082 0.3082
0.3540 0.3540 0.3540
0.3918 0.3918 0.3918
0.4428 0.4428 0.4428
0.4939 0.4939 0.4939
0.1968 0.1968 0.1968
0.2543 0.2543 0.2543
0.3174 0.3174 0.3174
0.3532 0.3532 0.3532
0.3921 0.3921 0.3921
0.4301 0.4301 0.4301
0.4711 0.4711 0.4711
0.5322 0.5322 0.5322
0.2359 0.2359 0.2359
0.2871 0.2871 0.2871
0.3481 0.3481 0.3481
0.4172 0.4172 0.4172
0.4667 0.4667 0.4667
0.4987 0.4987 0.4987
0.5311 0.5311 0.5311
0.5870 0.5870 0.5870
0.2984 0.2984 0.2984
0.3327 0.3327 0.3327
0.3842 0.3842 0.3842
0.4566 0.4566 0.4566
0.5420 0.5420 0.5420
0.5848 0.5848 0.5848
0.6156 0.6156 0.6156
0.6645 0.6645 0.6645
0.3818 0.3818 0.3818
0.4115 0.4115 0.4115
0.4527 0.4527 0.4527
0.4988 0.4988 0.4988
0.5664 0.5664 0.5664
0.6497 0.6497 0.6497
0.6993 0.6993 0.6993
0.7563 0.7563 0.7563
0.4772 0.4772 0.4772
0.5087 0.5087 0.5087
0.5400 0.5400 0.5400
0.5766 0.5766 0.5766
0.6242 0.6242 0.6242
0.7064 0.7064 0.7064
0.7710 0.7710 0.7710
0.8201 0.8201 0.8201
0.0789 0.0789 0.0789
0.1112 0.1112 0.1112
0.1962 0.1962 0.1962
0.2924 0.2924 0.2924
0.3458 0.3458 0.3458
0.3775 0.3775 0.3775
0.3599 0.3599 0.3599
0.3804 0.3804 0.3804
0.1691 0.1691 0.1691
0.2058 0.2058 0.2058
0.2501 0.2501 0.2501
0.3395 0.3395 0.3395
0.4114 0.4114 0.4114
0.4416 0.4416 0.4416
0.4324 0.4324 0.4324
0.4746 0.4746 0.4746
0.2119 0.2119 0.2119
0.2720 0.2720 0.2720
0.3279 0.3279 0.3279
0.3672 0.3672 0.3672
0.4178 0.4178 0.4178
0.4738 0.4738 0.4738
0.4973 0.4973 0.4973
0.5448 0.5448 0.5448
0.2407 0.2407 0.2407
0.3058 0.3058 0.3058
0.3689 0.3689 0.3689
0.4237 0.4237 0.4237
0.4610 0.4610 0.4610
0.5059 0.5059 0.5059
0.5390 0.5390 0.5390
0.5920 0.5920 0.5920
0.2801 0.2801 0.2801
0.3437 0.3437 0.3437
0.4167 0.4167 0.4167
0.4725 0.4725 0.4725
0.5054 0.5054 0.5054
0.5436 0.5436 0.5436
0.5831 0.5831 0.5831
0.6252 0.6252 0.6252
0.3300 0.3300 0.3300
0.3798 0.3798 0.3798
0.4441 0.4441 0.4441
0.5103 0.5103 0.5103
0.5751 0.5751 0.5751
0.6160 0.6160 0.6160
0.6483 0.6483 0.6483
0.6853 0.6853 0.6853
0.4117 0.4117 0.4117
0.4390 0.4390 0.4390
0.4874 0.4874 0.4874
0.5471 0.5471 0.5471
0.6161 0.6161 0.6161
0.6934 0.6934 0.6934
0.7357 0.7357 0.7357
0.7742 0.7742 0.7742
0.4998 0.4998 0.4998
0.5303 0.5303 0.5303
0.5717 0.5717 0.5717
0.6244 0.6244 0.6244
0.6646 0.6646 0.6646
0.7257 0.7257 0.7257
0.8083 0.8083 0.8083
0.8543 0.8543 0.8543
0.1063 0.1063 0.1063
0.1411 0.1411 0.1411
0.1990 0.1990 0.1990
0.3205 0.3205 0.3205
0.3781 0.3781 0.3781
0.4238 0.4238 0.4238
0.4535 0.4535 0.4535
0.4365 0.4365 0.4365
0.2061 0.2061 0.2061
0.2434 0.2434 0.2434
0.2849 0.2849 0.2849
0.3725 0.3725 0.3725
0.4637 0.4637 0.4637
0.5142 0.5142 0.5142
0.5408 0.5408 0.5408
0.5304 0.5304 0.5304
0.2743 0.2743 0.2743
0.3308 0.3308 0.3308
0.3828 0.3828 0.3828
0.4086 0.4086 0.4086
0.4691 0.4691 0.4691
0.5419 0.5419 0.5419
0.5814 0.5814 0.5814
0.5887 0.5887 0.5887
0.3055 0.3055 0.3055
0.3695 0.3695 0.3695
0.4459 0.4459 0.4459
0.4849 0.4849 0.4849
0.5201 0.5201 0.5201
0.5592 0.5592 0.5592
0.6151 0.6151 0.6151
0.6547 0.6547 0.6547
0.3280 0.3280 0.3280
0.4072 0.4072 0.4072
0.4718 0.4718 0.4718
0.5243 0.5243 0.5243
0.5732 0.5732 0.5732
0.6075 0.6075 0.6075
0.6508 0.6508 0.6508
0.6909 0.6909 0.6909
0.3825 0.3825 0.3825
0.4390 0.4390 0.4390
0.5171 0.5171 0.5171
0.5769 0.5769 0.5769
0.6226 0.6226 0.6226
0.6517 0.6517 0.6517
0.6877 0.6877 0.6877
0.7329 0.7329 0.7329
0.4444 0.4444 0.4444
0.4829 0.4829 0.4829
0.5500 0.5500 0.5500
0.6060 0.6060 0.6060
0.6662 0.6662 0.6662
0.7236 0.7236 0.7236
0.7606 0.7606 0.7606
0.7959 0.7959 0.7959
0.5390 0.5390 0.5390
0.5686 0.5686 0.5686
0.6070 0.6070 0.6070
0.6579 0.6579 0.6579
0.7140 0.7140 0.7140
0.7717 0.7717 0.7717
0.8379 0.8379 0.8379
0.8742 0.8742 0.8742
0.1397 0.1397 0.1397
0.1770 0.1770 0.1770
0.2197 0.2197 0.2197
0.3265 0.3265 0.3265
0.4050 0.4050 0.4050
0.4472 0.4472 0.4472
0.4881 0.4881 0.4881
0.5178 0.5178 0.5178
0.2434 0.2434 0.2434
0.2827 0.2827 0.2827
0.3261 0.3261 0.3261
0.3959 0.3959 0.3959
0.4935 0.4935 0.4935
0.5426 0.5426 0.5426
0.5840 0.5840 0.5840
0.6144 0.6144 0.6144
0.3416 0.3416 0.3416
0.3919 0.3919 0.3919
0.4378 0.4378 0.4378
0.4610 0.4610 0.4610
0.5026 0.5026 0.5026
0.5949 0.5949 0.5949
0.6570 0.6570 0.6570
0.6948 0.6948 0.6948
0.3753 0.3753 0.3753
0.4435 0.4435 0.4435
0.5214 0.5214 0.5214
0.5467 0.5467 0.5467
0.5528 0.5528 0.5528
0.5943 0.5943 0.5943
0.6640 0.6640 0.6640
0.7159 0.7159 0.7159
0.3894 0.3894 0.3894
0.4755 0.4755 0.4755
0.5475 0.5475 0.5475
0.6033 0.6033 0.6033
0.6298 0.6298 0.6298
0.6596 0.6596 0.6596
0.6994 0.6994 0.6994
0.7570 0.7570 0.7570
0.4258 0.4258 0.4258
0.4976 0.4976 0.4976
0.5868 0.5868 0.5868
0.6308 0.6308 0.6308
0.6716 0.6716 0.6716
0.7129 0.7129 0.7129
0.7451 0.7451 0.7451
0.7854 0.7854 0.7854
0.4985 0.4985 0.4985
0.5465 0.5465 0.5465
0.6144 0.6144 0.6144
0.6779 0.6779 0.6779
0.7286 0.7286 0.7286
0.7686 0.7686 0.7686
0.7885 0.7885 0.7885
0.8186 0.8186 0.8186
0.5684 0.5684 0.5684
0.6096 0.6096 0.6096
0.6589 0.6589 0.6589
0.7160 0.7160 0.7160
0.7683 0.7683 0.7683
0.8122 0.8122 0.8122
0.8571 0.8571 0.8571
0.8880 0.8880 0.8880
