lut/adanmq/Adanmq_Kodak_Tri-X_400.cube
TITLE "Adanmq_Kodak Tri-X 400"
LUT_3D_SIZE 32
0.0223 0.0223 0.0223
0.0272 0.0272 0.0272
0.0298 0.0298 0.0298
0.0310 0.0310 0.0310
0.0318 0.0318 0.0318
0.0323 0.0323 0.0323
0.0329 0.0329 0.0329
0.0341 0.0341 0.0341
0.0363 0.0363 0.0363
0.0396 0.0396 0.0396
0.0438 0.0438 0.0438
0.0482 0.0482 0.0482
0.0521 0.0521 0.0521
0.0552 0.0552 0.0552
0.0575 0.0575 0.0575
0.0592 0.0592 0.0592
0.0606 0.0606 0.0606
0.0623 0.0623 0.0623
0.0641 0.0641 0.0641
0.0663 0.0663 0.0663
0.0688 0.0688 0.0688
0.0715 0.0715 0.0715
0.0743 0.0743 0.0743
0.0774 0.0774 0.0774
0.0807 0.0807 0.0807
0.0842 0.0842 0.0842
0.0880 0.0880 0.0880
0.0921 0.0921 0.0921
0.0967 0.0967 0.0967
0.1016 0.1016 0.1016
0.1071 0.1071 0.1071
0.1135 0.1135 0.1135
0.0418 0.0418 0.0418
0.0466 0.0466 0.0466
0.0489 0.0489 0.0489
0.0497 0.0497 0.0497
0.0501 0.0501 0.0501
0.0504 0.0504 0.0504
0.0506 0.0506 0.0506
0.0514 0.0514 0.0514
0.0533 0.0533 0.0533
0.0564 0.0564 0.0564
0.0604 0.0604 0.0604
0.0649 0.0649 0.0649
0.0689 0.0689 0.0689
0.0721 0.0721 0.0721
0.0746 0.0746 0.0746
0.0764 0.0764 0.0764
0.0780 0.0780 0.0780
0.0798 0.0798 0.0798
0.0819 0.0819 0.0819
0.0843 0.0843 0.0843
0.0871 0.0871 0.0871
0.0901 0.0901 0.0901
0.0934 0.0934 0.0934
0.0967 0.0967 0.0967
0.1003 0.1003 0.1003
0.1041 0.1041 0.1041
0.1081 0.1081 0.1081
0.1125 0.1125 0.1125
0.1172 0.1172 0.1172
0.1223 0.1223 0.1223
0.1280 0.1280 0.1280
0.1345 0.1345 0.1345
0.0585 0.0585 0.0585
0.0630 0.0630 0.0630
0.0647 0.0647 0.0647
0.0649 0.0649 0.0649
0.0649 0.0649 0.0649
0.0649 0.0649 0.0649
0.0648 0.0648 0.0648
0.0651 0.0651 0.0651
0.0664 0.0664 0.0664
0.0688 0.0688 0.0688
0.0723 0.0723 0.0723
0.0763 0.0763 0.0763
0.0801 0.0801 0.0801
0.0833 0.0833 0.0833
0.0859 0.0859 0.0859
0.0880 0.0880 0.0880
0.0901 0.0901 0.0901
0.0923 0.0923 0.0923
0.0949 0.0949 0.0949
0.0979 0.0979 0.0979
0.1012 0.1012 0.1012
0.1049 0.1049 0.1049
0.1088 0.1088 0.1088
0.1129 0.1129 0.1129
0.1173 0.1173 0.1173
0.1218 0.1218 0.1218
0.1266 0.1266 0.1266
0.1317 0.1317 0.1317
0.1372 0.1372 0.1372
0.1430 0.1430 0.1430
0.1491 0.1491 0.1491
0.1559 0.1559 0.1559
0.0693 0.0693 0.0693
0.0737 0.0737 0.0737
0.0753 0.0753 0.0753
0.0755 0.0755 0.0755
0.0757 0.0757 0.0757
0.0760 0.0760 0.0760
0.0762 0.0762 0.0762
0.0766 0.0766 0.0766
0.0774 0.0774 0.0774
0.0790 0.0790 0.0790
0.0814 0.0814 0.0814
0.0844 0.0844 0.0844
0.0875 0.0875 0.0875
0.0905 0.0905 0.0905
0.0932 0.0932 0.0932
0.0957 0.0957 0.0957
0.0984 0.0984 0.0984
0.1013 0.1013 0.1013
0.1045 0.1045 0.1045
0.1080 0.1080 0.1080
0.1119 0.1119 0.1119
0.1161 0.1161 0.1161
0.1206 0.1206 0.1206
0.1255 0.1255 0.1255
0.1307 0.1307 0.1307
0.1363 0.1363 0.1363
0.1422 0.1422 0.1422
0.1485 0.1485 0.1485
0.1552 0.1552 0.1552
0.1622 0.1622 0.1622
0.1694 0.1694 0.1694
0.1768 0.1768 0.1768
0.0740 0.0740 0.0740
0.0786 0.0786 0.0786
0.0810 0.0810 0.0810
0.0822 0.0822 0.0822
0.0835 0.0835 0.0835
0.0847 0.0847 0.0847
0.0857 0.0857 0.0857
0.0866 0.0866 0.0866
0.0875 0.0875 0.0875
0.0887 0.0887 0.0887
0.0904 0.0904 0.0904
0.0926 0.0926 0.0926
0.0952 0.0952 0.0952
0.0980 0.0980 0.0980
0.1009 0.1009 0.1009
0.1039 0.1039 0.1039
0.1072 0.1072 0.1072
0.1107 0.1107 0.1107
0.1144 0.1144 0.1144
0.1183 0.1183 0.1183
0.1224 0.1224 0.1224
0.1268 0.1268 0.1268
0.1316 0.1316 0.1316
0.1368 0.1368 0.1368
0.1426 0.1426 0.1426
0.1490 0.1490 0.1490
0.1559 0.1559 0.1559
0.1634 0.1634 0.1634
0.1714 0.1714 0.1714
0.1798 0.1798 0.1798
0.1883 0.1883 0.1883
0.1964 0.1964 0.1964
0.0735 0.0735 0.0735
0.0787 0.0787 0.0787
0.0824 0.0824 0.0824
0.0853 0.0853 0.0853
0.0880 0.0880 0.0880
0.0905 0.0905 0.0905
0.0924 0.0924 0.0924
0.0941 0.0941 0.0941
0.0955 0.0955 0.0955
0.0969 0.0969 0.0969
0.0986 0.0986 0.0986
0.1009 0.1009 0.1009
0.1035 0.1035 0.1035
0.1066 0.1066 0.1066
0.1099 0.1099 0.1099
0.1135 0.1135 0.1135
0.1173 0.1173 0.1173
0.1214 0.1214 0.1214
0.1255 0.1255 0.1255
0.1297 0.1297 0.1297
0.1340 0.1340 0.1340
0.1385 0.1385 0.1385
0.1432 0.1432 0.1432
0.1485 0.1485 0.1485
0.1545 0.1545 0.1545
0.1612 0.1612 0.1612
0.1688 0.1688 0.1688
0.1772 0.1772 0.1772
0.1862 0.1862 0.1862
0.1960 0.1960 0.1960
0.2057 0.2057 0.2057
0.2145 0.2145 0.2145
0.0713 0.0713 0.0713
0.0771 0.0771 0.0771
0.0821 0.0821 0.0821
0.0866 0.0866 0.0866
0.0908 0.0908 0.0908
0.0942 0.0942 0.0942
0.0969 0.0969 0.0969
0.0992 0.0992 0.0992
0.1012 0.1012 0.1012
0.1034 0.1034 0.1034
0.1059 0.1059 0.1059
0.1089 0.1089 0.1089
0.1124 0.1124 0.1124
0.1162 0.1162 0.1162
0.1202 0.1202 0.1202
0.1244 0.1244 0.1244
0.1288 0.1288 0.1288
0.1333 0.1333 0.1333
0.1379 0.1379 0.1379
0.1425 0.1425 0.1425
0.1471 0.1471 0.1471
0.1518 0.1518 0.1518
0.1567 0.1567 0.1567
0.1621 0.1621 0.1621
0.1680 0.1680 0.1680
0.1748 0.1748 0.1748
0.1827 0.1827 0.1827
0.1914 0.1914 0.1914
0.2011 0.2011 0.2011
0.2117 0.2117 0.2117
0.2223 0.2223 0.2223
0.2316 0.2316 0.2316
0.0717 0.0717 0.0717
0.0778 0.0778 0.0778
0.0835 0.0835 0.0835
0.0889 0.0889 0.0889
0.0938 0.0938 0.0938
0.0979 0.0979 0.0979
0.1009 0.1009 0.1009
0.1035 0.1035 0.1035
0.1060 0.1060 0.1060
0.1090 0.1090 0.1090
0.1126 0.1126 0.1126
0.1169 0.1169 0.1169
0.1216 0.1216 0.1216
0.1264 0.1264 0.1264
0.1312 0.1312 0.1312
0.1360 0.1360 0.1360
0.1408 0.1408 0.1408
0.1458 0.1458 0.1458
0.1509 0.1509 0.1509
0.1561 0.1561 0.1561
0.1615 0.1615 0.1615
0.1668 0.1668 0.1668
0.1724 0.1724 0.1724
0.1781 0.1781 0.1781
0.1844 0.1844 0.1844
0.1913 0.1913 0.1913
0.1992 0.1992 0.1992
0.2081 0.2081 0.2081
0.2181 0.2181 0.2181
0.2290 0.2290 0.2290
0.2401 0.2401 0.2401
0.2493 0.2493 0.2493
0.0765 0.0765 0.0765
0.0826 0.0826 0.0826
0.0882 0.0882 0.0882
0.0937 0.0937 0.0937
0.0989 0.0989 0.0989
0.1031 0.1031 0.1031
0.1063 0.1063 0.1063
0.1089 0.1089 0.1089
0.1118 0.1118 0.1118
0.1153 0.1153 0.1153
0.1198 0.1198 0.1198
0.1250 0.1250 0.1250
0.1306 0.1306 0.1306
0.1363 0.1363 0.1363
0.1419 0.1419 0.1419
0.1473 0.1473 0.1473
0.1526 0.1526 0.1526
0.1581 0.1581 0.1581
0.1639 0.1639 0.1639
0.1700 0.1700 0.1700
0.1763 0.1763 0.1763
0.1829 0.1829 0.1829
0.1895 0.1895 0.1895
0.1962 0.1962 0.1962
0.2032 0.2032 0.2032
0.2107 0.2107 0.2107
0.2189 0.2189 0.2189
0.2280 0.2280 0.2280
0.2381 0.2381 0.2381
0.2493 0.2493 0.2493
0.2605 0.2605 0.2605
0.2693 0.2693 0.2693
0.0852 0.0852 0.0852
0.0910 0.0910 0.0910
0.0961 0.0961 0.0961
0.1012 0.1012 0.1012
0.1063 0.1063 0.1063
0.1106 0.1106 0.1106
0.1139 0.1139 0.1139
0.1166 0.1166 0.1166
0.1196 0.1196 0.1196
0.1234 0.1234 0.1234
0.1282 0.1282 0.1282
0.1339 0.1339 0.1339
0.1400 0.1400 0.1400
0.1462 0.1462 0.1462
0.1522 0.1522 0.1522
0.1580 0.1580 0.1580
0.1638 0.1638 0.1638
0.1699 0.1699 0.1699
0.1765 0.1765 0.1765
0.1837 0.1837 0.1837
0.1913 0.1913 0.1913
0.1992 0.1992 0.1992
0.2072 0.2072 0.2072
0.2153 0.2153 0.2153
0.2236 0.2236 0.2236
0.2321 0.2321 0.2321
0.2411 0.2411 0.2411
0.2507 0.2507 0.2507
0.2612 0.2612 0.2612
0.2726 0.2726 0.2726
0.2840 0.2840 0.2840
0.2920 0.2920 0.2920
0.0959 0.0959 0.0959
0.1013 0.1013 0.1013
0.1058 0.1058 0.1058
0.1105 0.1105 0.1105
0.1155 0.1155 0.1155
0.1201 0.1201 0.1201
0.1238 0.1238 0.1238
0.1268 0.1268 0.1268
0.1299 0.1299 0.1299
0.1337 0.1337 0.1337
0.1386 0.1386 0.1386
0.1442 0.1442 0.1442
0.1504 0.1504 0.1504
0.1566 0.1566 0.1566
0.1628 0.1628 0.1628
0.1688 0.1688 0.1688
0.1750 0.1750 0.1750
0.1817 0.1817 0.1817
0.1893 0.1893 0.1893
0.1976 0.1976 0.1976
0.2066 0.2066 0.2066
0.2158 0.2158 0.2158
0.2253 0.2253 0.2253
0.2348 0.2348 0.2348
0.2445 0.2445 0.2445
0.2544 0.2544 0.2544
0.2647 0.2647 0.2647
0.2754 0.2754 0.2754
0.2866 0.2866 0.2866
0.2984 0.2984 0.2984
0.3099 0.3099 0.3099
0.3174 0.3174 0.3174
0.1066 0.1066 0.1066
0.1118 0.1118 0.1118
0.1161 0.1161 0.1161
0.1206 0.1206 0.1206
0.1258 0.1258 0.1258
0.1309 0.1309 0.1309
0.1353 0.1353 0.1353
0.1389 0.1389 0.1389
0.1424 0.1424 0.1424
0.1462 0.1462 0.1462
0.1508 0.1508 0.1508
0.1563 0.1563 0.1563
0.1622 0.1622 0.1622
0.1684 0.1684 0.1684
0.1745 0.1745 0.1745
0.1807 0.1807 0.1807
0.1872 0.1872 0.1872
0.1944 0.1944 0.1944
0.2027 0.2027 0.2027
0.2121 0.2121 0.2121
0.2222 0.2222 0.2222
0.2327 0.2327 0.2327
0.2434 0.2434 0.2434
0.2543 0.2543 0.2543
0.2655 0.2655 0.2655
0.2770 0.2770 0.2770
0.2888 0.2888 0.2888
0.3009 0.3009 0.3009
0.3131 0.3131 0.3131
0.3256 0.3256 0.3256
0.3373 0.3373 0.3373
0.3443 0.3443 0.3443
0.1172 0.1172 0.1172
0.1224 0.1224 0.1224
0.1265 0.1265 0.1265
0.1309 0.1309 0.1309
0.1365 0.1365 0.1365
0.1425 0.1425 0.1425
0.1479 0.1479 0.1479
0.1525 0.1525 0.1525
0.1564 0.1564 0.1564
0.1603 0.1603 0.1603
0.1647 0.1647 0.1647
0.1699 0.1699 0.1699
0.1756 0.1756 0.1756
0.1817 0.1817 0.1817
0.1880 0.1880 0.1880
0.1943 0.1943 0.1943
0.2011 0.2011 0.2011
0.2087 0.2087 0.2087
0.2173 0.2173 0.2173
0.2272 0.2272 0.2272
0.2382 0.2382 0.2382
0.2498 0.2498 0.2498
0.2618 0.2618 0.2618
0.2740 0.2740 0.2740
0.2866 0.2866 0.2866
0.2996 0.2996 0.2996
0.3130 0.3130 0.3130
0.3266 0.3266 0.3266
0.3401 0.3401 0.3401
0.3534 0.3534 0.3534
0.3654 0.3654 0.3654
0.3720 0.3720 0.3720
0.1280 0.1280 0.1280
0.1331 0.1331 0.1331
0.1370 0.1370 0.1370
0.1413 0.1413 0.1413
0.1473 0.1473 0.1473
0.1543 0.1543 0.1543
0.1610 0.1610 0.1610
0.1669 0.1669 0.1669
0.1716 0.1716 0.1716
0.1757 0.1757 0.1757
0.1800 0.1800 0.1800
0.1850 0.1850 0.1850
0.1906 0.1906 0.1906
0.1967 0.1967 0.1967
0.2032 0.2032 0.2032
0.2099 0.2099 0.2099
0.2170 0.2170 0.2170
0.2248 0.2248 0.2248
0.2335 0.2335 0.2335
0.2434 0.2434 0.2434
0.2546 0.2546 0.2546
0.2669 0.2669 0.2669
0.2800 0.2800 0.2800
0.2936 0.2936 0.2936
0.3076 0.3076 0.3076
0.3219 0.3219 0.3219
0.3368 0.3368 0.3368
0.3520 0.3520 0.3520
0.3670 0.3670 0.3670
0.3815 0.3815 0.3815
0.3943 0.3943 0.3943
0.4006 0.4006 0.4006
0.1396 0.1396 0.1396
0.1441 0.1441 0.1441
0.1479 0.1479 0.1479
0.1520 0.1520 0.1520
0.1582 0.1582 0.1582
0.1659 0.1659 0.1659
0.1741 0.1741 0.1741
0.1815 0.1815 0.1815
0.1874 0.1874 0.1874
0.1922 0.1922 0.1922
0.1966 0.1966 0.1966
0.2014 0.2014 0.2014
0.2070 0.2070 0.2070
0.2133 0.2133 0.2133
0.2201 0.2201 0.2201
0.2273 0.2273 0.2273
0.2348 0.2348 0.2348
0.2429 0.2429 0.2429
0.2515 0.2515 0.2515
0.2612 0.2612 0.2612
0.2721 0.2721 0.2721
0.2846 0.2846 0.2846
0.2983 0.2983 0.2983
0.3129 0.3129 0.3129
0.3282 0.3282 0.3282
0.3438 0.3438 0.3438
0.3601 0.3601 0.3601
0.3768 0.3768 0.3768
0.3933 0.3933 0.3933
0.4094 0.4094 0.4094
0.4234 0.4234 0.4234
0.4298 0.4298 0.4298
0.1516 0.1516 0.1516
0.1557 0.1557 0.1557
0.1593 0.1593 0.1593
0.1631 0.1631 0.1631
0.1690 0.1690 0.1690
0.1773 0.1773 0.1773
0.1868 0.1868 0.1868
0.1959 0.1959 0.1959
0.2035 0.2035 0.2035
0.2094 0.2094 0.2094
0.2143 0.2143 0.2143
0.2193 0.2193 0.2193
0.2249 0.2249 0.2249
0.2313 0.2313 0.2313
0.2384 0.2384 0.2384
0.2461 0.2461 0.2461
0.2542 0.2542 0.2542
0.2627 0.2627 0.2627
0.2715 0.2715 0.2715
0.2809 0.2809 0.2809
0.2914 0.2914 0.2914
0.3033 0.3033 0.3033
0.3171 0.3171 0.3171
0.3322 0.3322 0.3322
0.3484 0.3484 0.3484
0.3652 0.3652 0.3652
0.3828 0.3828 0.3828
0.4008 0.4008 0.4008
0.4189 0.4189 0.4189
0.4368 0.4368 0.4368
0.4523 0.4523 0.4523
0.4592 0.4592 0.4592
0.1642 0.1642 0.1642
0.1678 0.1678 0.1678
0.1713 0.1713 0.1713
0.1747 0.1747 0.1747
0.1801 0.1801 0.1801
0.1884 0.1884 0.1884
0.1988 0.1988 0.1988
0.2097 0.2097 0.2097
0.2194 0.2194 0.2194
0.2270 0.2270 0.2270
0.2330 0.2330 0.2330
0.2385 0.2385 0.2385
0.2443 0.2443 0.2443
0.2508 0.2508 0.2508
0.2581 0.2581 0.2581
0.2661 0.2661 0.2661
0.2748 0.2748 0.2748
0.2838 0.2838 0.2838
0.2931 0.2931 0.2931
0.3027 0.3027 0.3027
0.3128 0.3128 0.3128
0.3241 0.3241 0.3241
0.3371 0.3371 0.3371
0.3519 0.3519 0.3519
0.3684 0.3684 0.3684
0.3860 0.3860 0.3860
0.4046 0.4046 0.4046
0.4239 0.4239 0.4239
0.4433 0.4433 0.4433
0.4627 0.4627 0.4627
0.4798 0.4798 0.4798
0.4902 0.4902 0.4902
0.1774 0.1774 0.1774
0.1805 0.1805 0.1805
0.1839 0.1839 0.1839
0.1870 0.1870 0.1870
0.1918 0.1918 0.1918
0.1996 0.1996 0.1996
0.2105 0.2105 0.2105
0.2229 0.2229 0.2229
0.2348 0.2348 0.2348
0.2448 0.2448 0.2448
0.2525 0.2525 0.2525
0.2589 0.2589 0.2589
0.2652 0.2652 0.2652
0.2719 0.2719 0.2719
0.2794 0.2794 0.2794
0.2876 0.2876 0.2876
0.2966 0.2966 0.2966
0.3062 0.3062 0.3062
0.3162 0.3162 0.3162
0.3264 0.3264 0.3264
0.3366 0.3366 0.3366
0.3473 0.3473 0.3473
0.3593 0.3593 0.3593
0.3731 0.3731 0.3731
0.3890 0.3890 0.3890
0.4067 0.4067 0.4067
0.4258 0.4258 0.4258
0.4460 0.4460 0.4460
0.4665 0.4665 0.4665
0.4871 0.4871 0.4871
0.5052 0.5052 0.5052
0.5160 0.5160 0.5160
0.1911 0.1911 0.1911
0.1938 0.1938 0.1938
0.1971 0.1971 0.1971
0.2001 0.2001 0.2001
0.2044 0.2044 0.2044
0.2113 0.2113 0.2113
0.2221 0.2221 0.2221
0.2357 0.2357 0.2357
0.2498 0.2498 0.2498
0.2623 0.2623 0.2623
0.2723 0.2723 0.2723
0.2802 0.2802 0.2802
0.2872 0.2872 0.2872
0.2944 0.2944 0.2944
0.3022 0.3022 0.3022
0.3106 0.3106 0.3106
0.3198 0.3198 0.3198
0.3298 0.3298 0.3298
0.3404 0.3404 0.3404
0.3512 0.3512 0.3512
0.3620 0.3620 0.3620
0.3727 0.3727 0.3727
0.3840 0.3840 0.3840
0.3966 0.3966 0.3966
0.4112 0.4112 0.4112
0.4280 0.4280 0.4280
0.4470 0.4470 0.4470
0.4676 0.4676 0.4676
0.4886 0.4886 0.4886
0.5099 0.5099 0.5099
0.5288 0.5288 0.5288
0.5399 0.5399 0.5399
0.2053 0.2053 0.2053
0.2076 0.2076 0.2076
0.2111 0.2111 0.2111
0.2140 0.2140 0.2140
0.2179 0.2179 0.2179
0.2240 0.2240 0.2240
0.2343 0.2343 0.2343
0.2483 0.2483 0.2483
0.2642 0.2642 0.2642
0.2793 0.2793 0.2793
0.2919 0.2919 0.2919
0.3018 0.3018 0.3018
0.3101 0.3101 0.3101
0.3180 0.3180 0.3180
0.3262 0.3262 0.3262
0.3349 0.3349 0.3349
0.3442 0.3442 0.3442
0.3544 0.3544 0.3544
0.3653 0.3653 0.3653
0.3768 0.3768 0.3768
0.3883 0.3883 0.3883
0.3996 0.3996 0.3996
0.4108 0.4108 0.4108
0.4225 0.4225 0.4225
0.4357 0.4357 0.4357
0.4511 0.4511 0.4511
0.4691 0.4691 0.4691
0.4891 0.4891 0.4891
0.5102 0.5102 0.5102
0.5319 0.5319 0.5319
0.5513 0.5513 0.5513
0.5626 0.5626 0.5626
0.2201 0.2201 0.2201
0.2221 0.2221 0.2221
0.2257 0.2257 0.2257
0.2288 0.2288 0.2288
0.2326 0.2326 0.2326
0.2380 0.2380 0.2380
0.2473 0.2473 0.2473
0.2612 0.2612 0.2612
0.2782 0.2782 0.2782
0.2957 0.2957 0.2957
0.3110 0.3110 0.3110
0.3234 0.3234 0.3234
0.3334 0.3334 0.3334
0.3423 0.3423 0.3423
0.3511 0.3511 0.3511
0.3602 0.3602 0.3602
0.3697 0.3697 0.3697
0.3799 0.3799 0.3799
0.3909 0.3909 0.3909
0.4027 0.4027 0.4027
0.4149 0.4149 0.4149
0.4269 0.4269 0.4269
0.4387 0.4387 0.4387
0.4503 0.4503 0.4503
0.4626 0.4626 0.4626
0.4765 0.4765 0.4765
0.4928 0.4928 0.4928
0.5117 0.5117 0.5117
0.5322 0.5322 0.5322
0.5538 0.5538 0.5538
0.5733 0.5733 0.5733
0.5848 0.5848 0.5848
0.2354 0.2354 0.2354
0.2374 0.2374 0.2374
0.2412 0.2412 0.2412
0.2445 0.2445 0.2445
0.2484 0.2484 0.2484
0.2535 0.2535 0.2535
0.2616 0.2616 0.2616
0.2748 0.2748 0.2748
0.2922 0.2922 0.2922
0.3115 0.3115 0.3115
0.3296 0.3296 0.3296
0.3447 0.3447 0.3447
0.3568 0.3568 0.3568
0.3670 0.3670 0.3670
0.3765 0.3765 0.3765
0.3860 0.3860 0.3860
0.3958 0.3958 0.3958
0.4060 0.4060 0.4060
0.4170 0.4170 0.4170
0.4289 0.4289 0.4289
0.4415 0.4415 0.4415
0.4543 0.4543 0.4543
0.4669 0.4669 0.4669
0.4790 0.4790 0.4790
0.4911 0.4911 0.4911
0.5040 0.5040 0.5040
0.5188 0.5188 0.5188
0.5360 0.5360 0.5360
0.5552 0.5552 0.5552
0.5761 0.5761 0.5761
0.5954 0.5954 0.5954
0.6070 0.6070 0.6070
0.2514 0.2514 0.2514
0.2534 0.2534 0.2534
0.2576 0.2576 0.2576
0.2613 0.2613 0.2613
0.2654 0.2654 0.2654
0.2704 0.2704 0.2704
0.2776 0.2776 0.2776
0.2896 0.2896 0.2896
0.3066 0.3066 0.3066
0.3269 0.3269 0.3269
0.3474 0.3474 0.3474
0.3655 0.3655 0.3655
0.3800 0.3800 0.3800
0.3918 0.3918 0.3918
0.4022 0.4022 0.4022
0.4122 0.4122 0.4122
0.4222 0.4222 0.4222
0.4327 0.4327 0.4327
0.4436 0.4436 0.4436
0.4554 0.4554 0.4554
0.4681 0.4681 0.4681
0.4814 0.4814 0.4814
0.4948 0.4948 0.4948
0.5078 0.5078 0.5078
0.5203 0.5203 0.5203
0.5330 0.5330 0.5330
0.5466 0.5466 0.5466
0.5622 0.5622 0.5622
0.5797 0.5797 0.5797
0.5992 0.5992 0.5992
0.6178 0.6178 0.6178
0.6291 0.6291 0.6291
0.2681 0.2681 0.2681
0.2703 0.2703 0.2703
0.2748 0.2748 0.2748
0.2790 0.2790 0.2790
0.2835 0.2835 0.2835
0.2885 0.2885 0.2885
0.2950 0.2950 0.2950
0.3056 0.3056 0.3056
0.3216 0.3216 0.3216
0.3421 0.3421 0.3421
0.3644 0.3644 0.3644
0.3853 0.3853 0.3853
0.4026 0.4026 0.4026
0.4163 0.4163 0.4163
0.4277 0.4277 0.4277
0.4383 0.4383 0.4383
0.4487 0.4487 0.4487
0.4594 0.4594 0.4594
0.4703 0.4703 0.4703
0.4820 0.4820 0.4820
0.4946 0.4946 0.4946
0.5080 0.5080 0.5080
0.5220 0.5220 0.5220
0.5358 0.5358 0.5358
0.5491 0.5491 0.5491
0.5621 0.5621 0.5621
0.5754 0.5754 0.5754
0.5899 0.5899 0.5899
0.6058 0.6058 0.6058
0.6235 0.6235 0.6235
0.6406 0.6406 0.6406
0.6514 0.6514 0.6514
0.2856 0.2856 0.2856
0.2881 0.2881 0.2881
0.2930 0.2930 0.2930
0.2976 0.2976 0.2976
0.3025 0.3025 0.3025
0.3078 0.3078 0.3078
0.3139 0.3139 0.3139
0.3232 0.3232 0.3232
0.3377 0.3377 0.3377
0.3576 0.3576 0.3576
0.3809 0.3809 0.3809
0.4042 0.4042 0.4042
0.4243 0.4243 0.4243
0.4403 0.4403 0.4403
0.4532 0.4532 0.4532
0.4644 0.4644 0.4644
0.4753 0.4753 0.4753
0.4862 0.4862 0.4862
0.4973 0.4973 0.4973
0.5089 0.5089 0.5089
0.5213 0.5213 0.5213
0.5346 0.5346 0.5346
0.5486 0.5486 0.5486
0.5630 0.5630 0.5630
0.5771 0.5771 0.5771
0.5909 0.5909 0.5909
0.6045 0.6045 0.6045
0.6185 0.6185 0.6185
0.6332 0.6332 0.6332
0.6492 0.6492 0.6492
0.6645 0.6645 0.6645
0.6744 0.6744 0.6744
0.3038 0.3038 0.3038
0.3068 0.3068 0.3068
0.3120 0.3120 0.3120
0.3170 0.3170 0.3170
0.3223 0.3223 0.3223
0.3279 0.3279 0.3279
0.3341 0.3341 0.3341
0.3424 0.3424 0.3424
0.3552 0.3552 0.3552
0.3738 0.3738 0.3738
0.3971 0.3971 0.3971
0.4220 0.4220 0.4220
0.4449 0.4449 0.4449
0.4636 0.4636 0.4636
0.4783 0.4783 0.4783
0.4905 0.4905 0.4905
0.5019 0.5019 0.5019
0.5130 0.5130 0.5130
0.5243 0.5243 0.5243
0.5358 0.5358 0.5358
0.5480 0.5480 0.5480
0.5610 0.5610 0.5610
0.5749 0.5749 0.5749
0.5895 0.5895 0.5895
0.6043 0.6043 0.6043
0.6188 0.6188 0.6188
0.6331 0.6331 0.6331
0.6473 0.6473 0.6473
0.6615 0.6615 0.6615
0.6762 0.6762 0.6762
0.6900 0.6900 0.6900
0.6987 0.6987 0.6987
0.3227 0.3227 0.3227
0.3263 0.3263 0.3263
0.3318 0.3318 0.3318
0.3373 0.3373 0.3373
0.3429 0.3429 0.3429
0.3490 0.3490 0.3490
0.3554 0.3554 0.3554
0.3631 0.3631 0.3631
0.3743 0.3743 0.3743
0.3911 0.3911 0.3911
0.4135 0.4135 0.4135
0.4393 0.4393 0.4393
0.4645 0.4645 0.4645
0.4860 0.4860 0.4860
0.5030 0.5030 0.5030
0.5166 0.5166 0.5166
0.5285 0.5285 0.5285
0.5400 0.5400 0.5400
0.5513 0.5513 0.5513
0.5629 0.5629 0.5629
0.5748 0.5748 0.5748
0.5874 0.5874 0.5874
0.6011 0.6011 0.6011
0.6157 0.6157 0.6157
0.6309 0.6309 0.6309
0.6461 0.6461 0.6461
0.6612 0.6612 0.6612
0.6759 0.6759 0.6759
0.6901 0.6901 0.6901
0.7041 0.7041 0.7041
0.7169 0.7169 0.7169
0.7247 0.7247 0.7247
0.3423 0.3423 0.3423
0.3465 0.3465 0.3465
0.3523 0.3523 0.3523
0.3582 0.3582 0.3582
0.3644 0.3644 0.3644
0.3709 0.3709 0.3709
0.3777 0.3777 0.3777
0.3853 0.3853 0.3853
0.3952 0.3952 0.3952
0.4099 0.4099 0.4099
0.4308 0.4308 0.4308
0.4564 0.4564 0.4564
0.4832 0.4832 0.4832
0.5073 0.5073 0.5073
0.5270 0.5270 0.5270
0.5424 0.5424 0.5424
0.5551 0.5551 0.5551
0.5669 0.5669 0.5669
0.5784 0.5784 0.5784
0.5899 0.5899 0.5899
0.6016 0.6016 0.6016
0.6139 0.6139 0.6139
0.6272 0.6272 0.6272
0.6417 0.6417 0.6417
0.6571 0.6571 0.6571
0.6730 0.6730 0.6730
0.6889 0.6889 0.6889
0.7041 0.7041 0.7041
0.7185 0.7185 0.7185
0.7323 0.7323 0.7323
0.7446 0.7446 0.7446
0.7517 0.7517 0.7517
0.3625 0.3625 0.3625
0.3673 0.3673 0.3673
0.3736 0.3736 0.3736
0.3800 0.3800 0.3800
