lut/adanmq/Adanmq_Fuji_Eterna_8553.cube
TITLE "Adanmq_Fuji Eterna 8553"
LUT_3D_SIZE 8
DOMAIN_MIN 0.000000 0.000000 0.000000
DOMAIN_MAX 0.903226 0.903226 0.903226
0.0215 0.0226 0.0223
0.1440 0.0227 0.0224
0.2408 0.0228 0.0225
0.3237 0.0229 0.0225
0.4046 0.0229 0.0225
0.4939 0.0229 0.0225
0.5935 0.0229 0.0224
0.7025 0.0228 0.0223
0.0215 0.1417 0.0223
0.1622 0.1517 0.0224
0.2883 0.1661 0.0225
0.3972 0.1777 0.0226
0.4887 0.1830 0.0227
0.5714 0.1837 0.0227
0.6533 0.1818 0.0226
0.7441 0.1767 0.0225
0.0215 0.2498 0.0223
0.1881 0.2707 0.0225
0.3214 0.2924 0.0226
0.4368 0.3066 0.0227
0.5451 0.3163 0.0228
0.6392 0.3223 0.0229
0.7245 0.3265 0.0229
0.8162 0.3265 0.0229
0.0215 0.3613 0.0222
0.2104 0.3753 0.0223
0.3477 0.3993 0.0226
0.4592 0.4096 0.0227
0.5640 0.4207 0.0228
0.6674 0.4295 0.0229
0.7566 0.4383 0.0230
0.8405 0.4449 0.0231
0.0216 0.4724 0.0221
0.2252 0.4735 0.0221
0.3599 0.5010 0.0225
0.4798 0.5062 0.0227
0.5820 0.5130 0.0228
0.6819 0.5200 0.0229
0.7783 0.5306 0.0230
0.8683 0.5427 0.0232
0.0216 0.5796 0.0219
0.2350 0.5719 0.0219
0.3657 0.5931 0.0222
0.4843 0.6138 0.0226
0.5960 0.6111 0.0227
0.6948 0.6132 0.0229
0.7897 0.6165 0.0230
0.8851 0.6325 0.0232
0.0216 0.6863 0.0218
0.2411 0.6769 0.0218
0.3738 0.6797 0.0219
0.4816 0.7205 0.0225
0.5931 0.7218 0.0227
0.6988 0.7158 0.0228
0.7942 0.7116 0.0230
0.8933 0.7152 0.0232
0.0216 0.7954 0.0217
0.2449 0.7867 0.0217
0.3806 0.7785 0.0217
0.4854 0.8130 0.0222
0.5818 0.8364 0.0227
0.6930 0.8247 0.0228
0.7923 0.8178 0.0230
0.8906 0.8116 0.0231
0.0215 0.0225 0.1311
0.1504 0.0226 0.1404
0.2559 0.0227 0.1472
0.3486 0.0228 0.1518
0.4357 0.0228 0.1566
0.5216 0.0229 0.1597
0.6040 0.0229 0.1548
0.6979 0.0228 0.1389
0.0215 0.1320 0.1308
0.1671 0.1476 0.1446
0.2943 0.1608 0.1544
0.4039 0.1723 0.1614
0.4961 0.1780 0.1661
0.5752 0.1789 0.1686
0.6432 0.1777 0.1651
0.7253 0.1715 0.1492
0.0215 0.2425 0.1315
0.1859 0.2679 0.1476
0.3168 0.2921 0.1620
0.4324 0.3069 0.1690
0.5422 0.3197 0.1759
0.6412 0.3255 0.1828
0.7190 0.3249 0.1881
0.7817 0.3178 0.1784
0.0215 0.3563 0.1303
0.2111 0.3666 0.1411
0.3459 0.3975 0.1688
0.4594 0.4145 0.1798
0.5616 0.4332 0.1855
0.6642 0.4456 0.1926
0.7566 0.4501 0.2020
0.8389 0.4482 0.2116
0.0216 0.4679 0.1250
0.2292 0.4641 0.1251
0.3628 0.4888 0.1545
0.4845 0.5074 0.1810
0.5899 0.5182 0.1886
0.6847 0.5373 0.1992
0.7768 0.5496 0.2116
0.8620 0.5558 0.2275
0.0216 0.5733 0.1155
0.2381 0.5648 0.1112
0.3717 0.5716 0.1230
0.4869 0.6085 0.1689
0.6021 0.6118 0.1804
0.7016 0.6182 0.1936
0.7918 0.6318 0.2113
0.8822 0.6435 0.2331
0.0216 0.6783 0.1052
0.2430 0.6691 0.1011
0.3792 0.6610 0.0992
0.4924 0.6904 0.1360
0.5950 0.7189 0.1760
0.7035 0.7121 0.1875
0.8024 0.7120 0.2064
0.8935 0.7209 0.2248
0.0216 0.7877 0.0971
0.2460 0.7792 0.0937
0.3818 0.7695 0.0899
0.5025 0.7744 0.1020
0.5901 0.8170 0.1642
0.6925 0.8194 0.1957
0.8031 0.8094 0.2109
0.9013 0.8083 0.2209
0.0215 0.0223 0.2057
0.1510 0.0225 0.2314
0.2636 0.0227 0.2434
0.3741 0.0228 0.2599
0.4815 0.0229 0.2714
0.5720 0.0229 0.2817
0.6551 0.0230 0.2871
0.7279 0.0229 0.2663
0.0215 0.1204 0.2248
0.1700 0.1454 0.2545
0.2986 0.1633 0.2714
0.4083 0.1715 0.2782
0.5100 0.1783 0.2834
0.5952 0.1822 0.2889
0.6742 0.1854 0.2920
0.7478 0.1766 0.2730
0.0215 0.2332 0.2361
0.1844 0.2719 0.2651
0.3154 0.3026 0.2870
0.4353 0.3120 0.2942
0.5423 0.3202 0.2997
0.6420 0.3290 0.3075
0.7179 0.3296 0.3075
0.7823 0.3217 0.2939
0.0215 0.3505 0.2369
0.2030 0.3749 0.2576
0.3284 0.4168 0.2886
0.4453 0.4385 0.3039
0.5538 0.4484 0.3078
0.6587 0.4598 0.3172
0.7594 0.4640 0.3277
0.8424 0.4576 0.3307
0.0216 0.4682 0.2364
0.2238 0.4710 0.2455
0.3552 0.4881 0.2672
0.4658 0.5256 0.3069
0.5751 0.5425 0.3159
0.6738 0.5650 0.3244
0.7677 0.5787 0.3388
0.8631 0.5797 0.3566
0.0216 0.5785 0.2326
0.2383 0.5670 0.2332
0.3749 0.5627 0.2361
0.4820 0.6008 0.2843
0.5944 0.6231 0.3143
0.7015 0.6324 0.3236
0.7838 0.6585 0.3479
0.8720 0.6787 0.3745
0.0216 0.6825 0.2263
0.2444 0.6659 0.2236
0.3809 0.6559 0.2201
0.4973 0.6709 0.2403
0.5923 0.7220 0.2997
0.7069 0.7244 0.3138
0.8026 0.7277 0.3411
0.8840 0.7513 0.3814
0.0216 0.7863 0.2194
0.2466 0.7722 0.2163
0.3813 0.7632 0.2130
0.5073 0.7588 0.2130
0.6068 0.7947 0.2573
0.6981 0.8268 0.3132
0.8067 0.8180 0.3378
0.9017 0.8238 0.3717
0.0215 0.0221 0.2792
0.1485 0.0224 0.3143
0.2609 0.0227 0.3416
0.3824 0.0228 0.3547
0.4949 0.0229 0.3876
0.5936 0.0230 0.3966
0.6803 0.0231 0.4034
0.7727 0.0231 0.4070
0.0215 0.1131 0.3134
0.1642 0.1364 0.3469
0.2900 0.1633 0.3774
0.4060 0.1736 0.3840
0.5105 0.1825 0.3988
0.6107 0.1888 0.4041
0.6884 0.1909 0.4089
0.7766 0.1904 0.4103
0.0215 0.2262 0.3439
0.1827 0.2634 0.3743
0.3146 0.3042 0.4095
0.4376 0.3182 0.4222
0.5423 0.3232 0.4252
0.6427 0.3323 0.4318
0.7241 0.3373 0.4346
0.7951 0.3354 0.4302
0.0215 0.3399 0.3505
0.2005 0.3763 0.3795
0.3256 0.4279 0.4184
0.4473 0.4527 0.4376
0.5600 0.4549 0.4416
0.6605 0.4585 0.4475
0.7574 0.4682 0.4588
0.8359 0.4665 0.4554
0.0216 0.4597 0.3548
0.2187 0.4828 0.3755
0.3424 0.5125 0.4008
0.4505 0.5576 0.4335
0.5616 0.5717 0.4465
0.6678 0.5788 0.4528
0.7646 0.5881 0.4653
0.8645 0.5925 0.4835
0.0216 0.5771 0.3545
0.2336 0.5834 0.3638
0.3639 0.5882 0.3749
0.4731 0.6086 0.4008
0.5701 0.6484 0.4444
0.6838 0.6672 0.4587
0.7781 0.6902 0.4724
0.8683 0.7060 0.4991
0.0216 0.6916 0.3491
0.2434 0.6805 0.3496
0.3773 0.6695 0.3521
0.4981 0.6650 0.3577
0.5875 0.7099 0.4186
0.6970 0.7399 0.4613
0.8076 0.7503 0.4790
0.8857 0.7813 0.5155
0.0216 0.8043 0.3428
0.2466 0.7834 0.3413
0.3789 0.7663 0.3415
0.5040 0.7614 0.3424
0.6122 0.7825 0.3711
0.6955 0.8350 0.4474
0.8103 0.8371 0.4735
0.9041 0.8418 0.5171
0.0214 0.0220 0.3695
0.1442 0.0222 0.3897
0.2593 0.0226 0.4477
0.3812 0.0228 0.4531
0.4981 0.0229 0.4637
0.5901 0.0230 0.4988
0.6753 0.0230 0.5030
0.7753 0.0231 0.5032
0.0215 0.1079 0.3956
0.1530 0.1241 0.4217
0.2812 0.1590 0.4760
0.3969 0.1740 0.4814
0.5092 0.1833 0.4871
0.6061 0.1914 0.5115
0.6893 0.1906 0.5093
0.7756 0.1895 0.5078
0.0215 0.2213 0.4420
0.1736 0.2503 0.4636
0.3047 0.2939 0.5043
0.4244 0.3150 0.5225
0.5344 0.3229 0.5243
0.6324 0.3345 0.5359
0.7249 0.3425 0.5384
0.8014 0.3399 0.5365
0.0215 0.3349 0.4611
0.1958 0.3667 0.4838
0.3225 0.4150 0.5204
0.4455 0.4497 0.5549
0.5623 0.4569 0.5640
0.6613 0.4590 0.5660
0.7536 0.4685 0.5760
0.8391 0.4712 0.5755
0.0216 0.4478 0.4675
0.2188 0.4757 0.4897
0.3398 0.5162 0.5240
0.4500 0.5620 0.5580
0.5662 0.5803 0.5732
0.6735 0.5781 0.5761
0.7665 0.5800 0.5844
0.8593 0.5896 0.5992
0.0216 0.5635 0.4702
0.2375 0.5793 0.4858
0.3590 0.6082 0.5141
0.4646 0.6347 0.5346
0.5632 0.6792 0.5647
0.6719 0.6892 0.5781
0.7728 0.6955 0.5898
0.8647 0.7041 0.6090
0.0216 0.6810 0.4705
0.2461 0.6811 0.4730
0.3727 0.7004 0.4953
0.4848 0.6991 0.5042
0.5857 0.7189 0.5294
0.6777 0.7627 0.5809
0.7899 0.7857 0.6079
0.8812 0.8106 0.6277
0.0216 0.7989 0.4655
0.2482 0.7925 0.4629
0.3778 0.7880 0.4718
0.4957 0.7821 0.4815
0.6143 0.7788 0.4879
0.7017 0.8202 0.5590
0.8043 0.8539 0.6295
0.9104 0.8719 0.6608
0.0214 0.0219 0.4740
0.1337 0.0219 0.4744
0.2557 0.0224 0.5307
0.3732 0.0229 0.5676
0.4901 0.0229 0.5550
0.5955 0.0230 0.5559
0.6690 0.0230 0.5920
0.7580 0.0231 0.6019
0.0214 0.1028 0.4798
0.1360 0.1097 0.4901
0.2715 0.1425 0.5527
0.3883 0.1743 0.5873
0.4965 0.1809 0.5727
0.6023 0.1859 0.5750
0.6818 0.1891 0.6034
0.7609 0.1886 0.6017
0.0215 0.2176 0.5283
0.1552 0.2358 0.5347
0.2873 0.2786 0.5810
0.4138 0.3113 0.6162
0.5215 0.3213 0.6170
0.6277 0.3320 0.6162
0.7101 0.3380 0.6290
0.7966 0.3383 0.6236
0.0215 0.3316 0.5636
0.1861 0.3533 0.5713
0.3125 0.3980 0.6063
0.4343 0.4348 0.6360
0.5486 0.4510 0.6545
0.6560 0.4569 0.6559
0.7436 0.4674 0.6658
0.8343 0.4781 0.6661
0.0216 0.4446 0.5775
0.2152 0.4668 0.5899
0.3332 0.5057 0.6164
0.4471 0.5445 0.6475
0.5633 0.5727 0.6838
0.6763 0.5759 0.6905
0.7684 0.5772 0.6926
0.8571 0.5858 0.7050
0.0216 0.5530 0.5803
0.2439 0.5693 0.5923
0.3552 0.6042 0.6225
0.4650 0.6378 0.6517
0.5641 0.6779 0.6811
0.6759 0.6919 0.6940
0.7776 0.6885 0.6984
0.8640 0.6919 0.7140
0.0217 0.6684 0.5803
0.2556 0.6696 0.5865
0.3720 0.6961 0.6134
0.4836 0.7205 0.6410
0.5798 0.7444 0.6571
0.6736 0.7876 0.6841
0.7771 0.7981 0.7020
0.8698 0.8067 0.7238
0.0216 0.7887 0.5832
0.2492 0.7839 0.5839
0.3757 0.7898 0.5933
0.4914 0.8137 0.6245
0.5995 0.8085 0.6319
0.7010 0.8289 0.6567
0.7874 0.8741 0.7259
0.8914 0.8963 0.7519
0.0214 0.0219 0.5842
0.1221 0.0219 0.5790
0.2450 0.0220 0.5980
0.3613 0.0228 0.6697
0.4739 0.0229 0.6661
0.5843 0.0229 0.6484
0.6829 0.0230 0.6451
0.7608 0.0231 0.6884
0.0214 0.0977 0.5788
0.1186 0.0969 0.5752
0.2487 0.1086 0.5995
0.3745 0.1593 0.6728
0.4753 0.1775 0.6708
0.5818 0.1779 0.6501
0.6797 0.1790 0.6482
0.7609 0.1876 0.6874
0.0214 0.2145 0.6076
0.1297 0.2210 0.5985
0.2592 0.2467 0.6307
0.4005 0.2925 0.6987
0.5102 0.3173 0.7148
0.6112 0.3286 0.7009
0.7039 0.3285 0.6920
0.7883 0.3284 0.7104
0.0215 0.3315 0.6598
0.1691 0.3405 0.6483
0.2842 0.3736 0.6640
0.4110 0.4136 0.7050
0.5308 0.4382 0.7295
0.6395 0.4506 0.7386
0.7387 0.4615 0.7341
0.8199 0.4702 0.7400
0.0216 0.4408 0.6816
0.2058 0.4562 0.6772
0.3222 0.4877 0.6969
0.4371 0.5234 0.7231
0.5497 0.5530 0.7482
0.6610 0.5677 0.7698
0.7643 0.5737 0.7720
0.8503 0.5848 0.7808
0.0216 0.5505 0.6889
0.2389 0.5613 0.6909
0.3476 0.5923 0.7086
0.4568 0.6255 0.7301
0.5614 0.6563 0.7595
0.6724 0.6808 0.7969
0.7805 0.6824 0.8028
0.8681 0.6857 0.8088
0.0217 0.6602 0.6925
0.2668 0.6613 0.6930
0.3711 0.6855 0.7107
0.4766 0.7164 0.7406
0.5810 0.7463 0.7657
0.6750 0.7832 0.7921
0.7801 0.7950 0.8036
0.8776 0.7951 0.8153
0.0217 0.7801 0.6921
0.2642 0.7765 0.6949
0.3774 0.7809 0.7059
0.4836 0.8061 0.7352
0.5963 0.8268 0.7616
0.6937 0.8483 0.7750
0.7828 0.8895 0.8000
0.8817 0.8991 0.8208
0.0214 0.0218 0.6965
0.1115 0.0217 0.6909
0.2338 0.0217 0.6874
0.3485 0.0225 0.7500
0.4562 0.0229 0.7777
0.5652 0.0229 0.7606
0.6729 0.0229 0.7449
0.7764 0.0230 0.7460
0.0214 0.0913 0.6894
0.1066 0.0888 0.6838
0.2291 0.0869 0.6801
0.3527 0.1197 0.7250
0.4545 0.1712 0.7718
0.5582 0.1749 0.7556
0.6646 0.1745 0.7399
0.7694 0.1775 0.7422
0.0214 0.2116 0.6937
0.1041 0.2105 0.6817
0.2275 0.2146 0.6869
0.3693 0.2430 0.7388
0.4928 0.2973 0.8018
0.5799 0.3170 0.7875
0.6738 0.3158 0.7608
0.7721 0.3130 0.7557
0.0215 0.3314 0.7503
0.1397 0.3325 0.7265
0.2446 0.3469 0.7178
0.3756 0.3734 0.7516
0.5115 0.4130 0.8090
0.6234 0.4380 0.8287
0.7223 0.4587 0.8225
0.8116 0.4574 0.8102
0.0215 0.4412 0.7858
0.1880 0.4510 0.7711
0.2933 0.4627 0.7617
0.3985 0.4926 0.7751
0.5189 0.5235 0.8073
0.6334 0.5446 0.8274
0.7433 0.5632 0.8412
0.8422 0.5785 0.8382
0.0216 0.5449 0.7945
0.2252 0.5540 0.7875
0.3298 0.5725 0.7882
0.4395 0.6022 0.8077
0.5488 0.6304 0.8264
0.6555 0.6556 0.8466
0.7630 0.6715 0.8684
0.8597 0.6798 0.8701
0.0216 0.6596 0.8016
0.2502 0.6601 0.7976
0.3614 0.6734 0.8021
0.4615 0.7007 0.8199
0.5680 0.7283 0.8372
0.6725 0.7575 0.8621
0.7780 0.7820 0.8958
0.8809 0.7849 0.9023
0.0217 0.7764 0.8113
0.2646 0.7744 0.8088
0.3836 0.7773 0.8114
0.4780 0.7956 0.8280
0.5805 0.8187 0.8506
0.6905 0.8452 0.8719
0.7858 0.8826 0.8949
0.8873 0.8943 0.9046
