lut/adanmq/Adanmq_Kodak_Portra_400.cube
TITLE "Adanmq_Kodak Portra 400"
LUT_3D_SIZE 32
0.0214 0.0221 0.0218
0.0419 0.0220 0.0218
0.0647 0.0220 0.0218
0.0845 0.0220 0.0218
0.1003 0.0220 0.0218
0.1123 0.0221 0.0218
0.1232 0.0221 0.0218
0.1352 0.0222 0.0219
0.1494 0.0222 0.0219
0.1657 0.0223 0.0219
0.1839 0.0224 0.0219
0.2034 0.0224 0.0219
0.2237 0.0224 0.0219
0.2447 0.0225 0.0220
0.2666 0.0225 0.0220
0.2894 0.0225 0.0220
0.3132 0.0225 0.0220
0.3377 0.0226 0.0220
0.3630 0.0226 0.0220
0.3891 0.0226 0.0220
0.4161 0.0226 0.0219
0.4440 0.0226 0.0219
0.4729 0.0226 0.0219
0.5026 0.0226 0.0219
0.5331 0.0225 0.0218
0.5641 0.0225 0.0218
0.5957 0.0224 0.0217
0.6276 0.0224 0.0216
0.6598 0.0223 0.0216
0.6921 0.0223 0.0215
0.7244 0.0222 0.0215
0.7567 0.0227 0.0223
0.0214 0.0415 0.0218
0.0417 0.0413 0.0218
0.0643 0.0409 0.0218
0.0841 0.0407 0.0218
0.1000 0.0407 0.0218
0.1123 0.0411 0.0218
0.1236 0.0420 0.0218
0.1358 0.0432 0.0219
0.1500 0.0446 0.0219
0.1664 0.0459 0.0219
0.1846 0.0470 0.0219
0.2040 0.0479 0.0219
0.2243 0.0485 0.0219
0.2454 0.0491 0.0220
0.2673 0.0496 0.0220
0.2902 0.0500 0.0220
0.3139 0.0505 0.0220
0.3385 0.0510 0.0220
0.3638 0.0515 0.0220
0.3899 0.0518 0.0220
0.4168 0.0520 0.0219
0.4446 0.0521 0.0219
0.4734 0.0520 0.0219
0.5029 0.0517 0.0219
0.5334 0.0512 0.0218
0.5644 0.0505 0.0218
0.5960 0.0496 0.0217
0.6281 0.0485 0.0217
0.6604 0.0474 0.0216
0.6930 0.0461 0.0215
0.7255 0.0451 0.0215
0.7579 0.0448 0.0223
0.0214 0.0657 0.0218
0.0412 0.0653 0.0218
0.0635 0.0646 0.0218
0.0831 0.0639 0.0218
0.0993 0.0635 0.0218
0.1122 0.0638 0.0218
0.1239 0.0645 0.0218
0.1365 0.0658 0.0218
0.1509 0.0674 0.0219
0.1675 0.0689 0.0219
0.1857 0.0704 0.0219
0.2053 0.0716 0.0219
0.2258 0.0728 0.0219
0.2470 0.0739 0.0220
0.2692 0.0749 0.0220
0.2923 0.0760 0.0220
0.3162 0.0770 0.0220
0.3409 0.0780 0.0220
0.3661 0.0790 0.0220
0.3922 0.0798 0.0220
0.4190 0.0804 0.0220
0.4465 0.0809 0.0220
0.4751 0.0811 0.0219
0.5044 0.0811 0.0219
0.5346 0.0807 0.0219
0.5655 0.0799 0.0218
0.5971 0.0788 0.0217
0.6293 0.0774 0.0217
0.6618 0.0757 0.0216
0.6947 0.0738 0.0215
0.7276 0.0721 0.0215
0.7600 0.0718 0.0223
0.0214 0.0868 0.0217
0.0407 0.0865 0.0217
0.0626 0.0858 0.0217
0.0821 0.0850 0.0217
0.0985 0.0844 0.0217
0.1118 0.0841 0.0217
0.1240 0.0842 0.0218
0.1369 0.0847 0.0218
0.1516 0.0856 0.0218
0.1683 0.0866 0.0219
0.1868 0.0878 0.0219
0.2068 0.0891 0.0219
0.2278 0.0905 0.0219
0.2495 0.0919 0.0219
0.2722 0.0934 0.0220
0.2957 0.0949 0.0220
0.3198 0.0964 0.0220
0.3447 0.0978 0.0221
0.3701 0.0991 0.0221
0.3962 0.1003 0.0221
0.4229 0.1013 0.0220
0.4503 0.1022 0.0220
0.4786 0.1029 0.0220
0.5076 0.1033 0.0220
0.5375 0.1035 0.0219
0.5680 0.1033 0.0219
0.5994 0.1027 0.0218
0.6314 0.1017 0.0217
0.6640 0.1003 0.0217
0.6970 0.0986 0.0216
0.7301 0.0970 0.0215
0.7625 0.0973 0.0223
0.0214 0.1017 0.0217
0.0404 0.1017 0.0217
0.0620 0.1016 0.0217
0.0814 0.1014 0.0217
0.0978 0.1010 0.0217
0.1114 0.1006 0.0217
0.1239 0.1003 0.0218
0.1371 0.1003 0.0218
0.1520 0.1006 0.0218
0.1689 0.1014 0.0218
0.1878 0.1023 0.0219
0.2083 0.1035 0.0219
0.2300 0.1049 0.0219
0.2525 0.1064 0.0219
0.2758 0.1079 0.0220
0.2999 0.1095 0.0220
0.3245 0.1111 0.0221
0.3498 0.1127 0.0221
0.3754 0.1141 0.0221
0.4016 0.1154 0.0221
0.4283 0.1166 0.0221
0.4556 0.1176 0.0221
0.4837 0.1184 0.0221
0.5124 0.1191 0.0221
0.5419 0.1196 0.0220
0.5721 0.1199 0.0219
0.6030 0.1199 0.0219
0.6348 0.1196 0.0218
0.6671 0.1190 0.0218
0.7000 0.1179 0.0217
0.7331 0.1168 0.0216
0.7654 0.1183 0.0223
0.0214 0.1111 0.0217
0.0403 0.1115 0.0217
0.0619 0.1121 0.0217
0.0811 0.1127 0.0217
0.0975 0.1130 0.0217
0.1112 0.1130 0.0217
0.1240 0.1129 0.0218
0.1375 0.1129 0.0218
0.1527 0.1133 0.0218
0.1699 0.1142 0.0219
0.1890 0.1154 0.0219
0.2100 0.1167 0.0219
0.2323 0.1180 0.0219
0.2556 0.1193 0.0219
0.2798 0.1206 0.0220
0.3046 0.1220 0.0220
0.3300 0.1234 0.0221
0.3558 0.1249 0.0221
0.3819 0.1263 0.0221
0.4084 0.1276 0.0222
0.4352 0.1287 0.0222
0.4624 0.1295 0.0222
0.4903 0.1302 0.0222
0.5186 0.1307 0.0222
0.5478 0.1311 0.0221
0.5775 0.1314 0.0221
0.6080 0.1317 0.0220
0.6392 0.1317 0.0219
0.6712 0.1315 0.0219
0.7038 0.1310 0.0218
0.7368 0.1304 0.0218
0.7688 0.1333 0.0223
0.0214 0.1192 0.0217
0.0403 0.1197 0.0217
0.0619 0.1208 0.0217
0.0811 0.1222 0.0217
0.0976 0.1232 0.0217
0.1114 0.1238 0.0217
0.1246 0.1243 0.0218
0.1386 0.1248 0.0218
0.1542 0.1258 0.0219
0.1716 0.1273 0.0219
0.1909 0.1290 0.0219
0.2120 0.1307 0.0219
0.2347 0.1322 0.0219
0.2587 0.1334 0.0220
0.2837 0.1345 0.0220
0.3094 0.1356 0.0220
0.3357 0.1369 0.0221
0.3623 0.1382 0.0221
0.3891 0.1396 0.0222
0.4160 0.1408 0.0222
0.4431 0.1419 0.0222
0.4704 0.1426 0.0222
0.4981 0.1430 0.0222
0.5261 0.1432 0.0222
0.5548 0.1433 0.0222
0.5840 0.1432 0.0222
0.6139 0.1431 0.0222
0.6446 0.1429 0.0221
0.6761 0.1426 0.0220
0.7083 0.1421 0.0220
0.7411 0.1416 0.0219
0.7728 0.1451 0.0223
0.0214 0.1294 0.0216
0.0403 0.1298 0.0216
0.0620 0.1310 0.0216
0.0814 0.1327 0.0217
0.0980 0.1344 0.0217
0.1121 0.1357 0.0218
0.1259 0.1369 0.0218
0.1405 0.1381 0.0219
0.1567 0.1397 0.0219
0.1744 0.1418 0.0219
0.1937 0.1442 0.0219
0.2147 0.1464 0.0220
0.2374 0.1482 0.0220
0.2617 0.1496 0.0220
0.2873 0.1507 0.0220
0.3138 0.1518 0.0221
0.3411 0.1529 0.0221
0.3688 0.1542 0.0221
0.3965 0.1556 0.0222
0.4241 0.1569 0.0222
0.4517 0.1580 0.0222
0.4791 0.1588 0.0222
0.5067 0.1591 0.0222
0.5344 0.1591 0.0223
0.5626 0.1587 0.0223
0.5912 0.1582 0.0223
0.6205 0.1575 0.0222
0.6506 0.1567 0.0222
0.6815 0.1559 0.0222
0.7133 0.1549 0.0221
0.7458 0.1541 0.0221
0.7772 0.1576 0.0223
0.0214 0.1434 0.0216
0.0401 0.1436 0.0216
0.0621 0.1446 0.0216
0.0818 0.1464 0.0217
0.0987 0.1484 0.0217
0.1133 0.1505 0.0218
0.1277 0.1523 0.0219
0.1432 0.1540 0.0219
0.1601 0.1559 0.0219
0.1782 0.1583 0.0220
0.1974 0.1610 0.0220
0.2181 0.1636 0.0220
0.2405 0.1658 0.0220
0.2647 0.1676 0.0221
0.2906 0.1689 0.0221
0.3178 0.1702 0.0221
0.3460 0.1715 0.0221
0.3747 0.1728 0.0222
0.4035 0.1742 0.0222
0.4321 0.1756 0.0222
0.4604 0.1769 0.0222
0.4883 0.1779 0.0222
0.5159 0.1784 0.0223
0.5433 0.1784 0.0223
0.5710 0.1780 0.0223
0.5989 0.1771 0.0223
0.6275 0.1760 0.0223
0.6569 0.1746 0.0223
0.6872 0.1731 0.0223
0.7185 0.1715 0.0223
0.7505 0.1701 0.0222
0.7817 0.1730 0.0223
0.0214 0.1614 0.0216
0.0399 0.1613 0.0216
0.0620 0.1620 0.0216
0.0824 0.1637 0.0217
0.0998 0.1661 0.0217
0.1150 0.1687 0.0218
0.1300 0.1710 0.0219
0.1463 0.1731 0.0219
0.1640 0.1750 0.0220
0.1826 0.1772 0.0220
0.2019 0.1798 0.0220
0.2222 0.1824 0.0221
0.2441 0.1849 0.0221
0.2680 0.1871 0.0221
0.2939 0.1889 0.0221
0.3215 0.1905 0.0222
0.3504 0.1919 0.0222
0.3800 0.1934 0.0222
0.4099 0.1949 0.0222
0.4396 0.1964 0.0222
0.4688 0.1979 0.0222
0.4974 0.1992 0.0223
0.5253 0.2000 0.0223
0.5527 0.2004 0.0223
0.5798 0.2002 0.0223
0.6070 0.1994 0.0224
0.6348 0.1982 0.0224
0.6634 0.1965 0.0224
0.6930 0.1946 0.0224
0.7238 0.1926 0.0224
0.7553 0.1908 0.0224
0.7863 0.1927 0.0223
0.0214 0.1824 0.0216
0.0395 0.1821 0.0216
0.0619 0.1825 0.0216
0.0830 0.1843 0.0216
0.1013 0.1870 0.0217
0.1170 0.1901 0.0218
0.1327 0.1929 0.0219
0.1497 0.1952 0.0219
0.1681 0.1970 0.0220
0.1874 0.1988 0.0220
0.2069 0.2009 0.0221
0.2271 0.2033 0.0221
0.2487 0.2059 0.0221
0.2720 0.2083 0.0222
0.2976 0.2105 0.0222
0.3252 0.2124 0.0222
0.3544 0.2141 0.0222
0.3848 0.2157 0.0222
0.4155 0.2173 0.0222
0.4463 0.2189 0.0222
0.4766 0.2206 0.0223
0.5061 0.2221 0.0223
0.5346 0.2234 0.0223
0.5622 0.2241 0.0223
0.5892 0.2243 0.0223
0.6158 0.2239 0.0224
0.6428 0.2229 0.0224
0.6705 0.2214 0.0224
0.6993 0.2197 0.0224
0.7293 0.2176 0.0224
0.7603 0.2158 0.0224
0.7908 0.2168 0.0223
0.0214 0.2051 0.0215
0.0390 0.2048 0.0215
0.0618 0.2051 0.0215
0.0839 0.2069 0.0216
0.1031 0.2100 0.0217
0.1195 0.2136 0.0218
0.1355 0.2170 0.0219
0.1529 0.2195 0.0219
0.1720 0.2213 0.0220
0.1920 0.2227 0.0221
0.2123 0.2243 0.0221
0.2327 0.2264 0.0221
0.2540 0.2287 0.0222
0.2769 0.2312 0.0222
0.3019 0.2336 0.0222
0.3292 0.2358 0.0222
0.3584 0.2377 0.0222
0.3890 0.2394 0.0222
0.4204 0.2412 0.0222
0.4520 0.2430 0.0223
0.4833 0.2448 0.0223
0.5138 0.2466 0.0223
0.5433 0.2481 0.0223
0.5715 0.2492 0.0223
0.5987 0.2499 0.0224
0.6251 0.2499 0.0224
0.6515 0.2493 0.0224
0.6786 0.2482 0.0224
0.7066 0.2468 0.0224
0.7358 0.2451 0.0225
0.7662 0.2435 0.0225
0.7959 0.2441 0.0223
0.0214 0.2292 0.0215
0.0385 0.2288 0.0215
0.0616 0.2291 0.0215
0.0848 0.2309 0.0215
0.1052 0.2342 0.0216
0.1222 0.2383 0.0217
0.1384 0.2423 0.0218
0.1560 0.2453 0.0219
0.1755 0.2473 0.0220
0.1963 0.2486 0.0220
0.2175 0.2498 0.0221
0.2386 0.2514 0.0221
0.2601 0.2535 0.0222
0.2827 0.2559 0.0222
0.3071 0.2583 0.0222
0.3338 0.2606 0.0222
0.3626 0.2626 0.0223
0.3932 0.2645 0.0223
0.4248 0.2664 0.0223
0.4569 0.2683 0.0223
0.4890 0.2703 0.0223
0.5204 0.2723 0.0223
0.5509 0.2742 0.0223
0.5799 0.2757 0.0224
0.6078 0.2768 0.0224
0.6345 0.2773 0.0224
0.6608 0.2772 0.0224
0.6875 0.2765 0.0224
0.7150 0.2755 0.0225
0.7436 0.2742 0.0225
0.7735 0.2730 0.0225
0.8022 0.2733 0.0223
0.0213 0.2544 0.0215
0.0379 0.2541 0.0215
0.0612 0.2542 0.0215
0.0856 0.2560 0.0215
0.1073 0.2595 0.0216
0.1251 0.2640 0.0217
0.1415 0.2685 0.0218
0.1590 0.2722 0.0219
0.1786 0.2746 0.0220
0.2000 0.2760 0.0220
0.2222 0.2770 0.0221
0.2444 0.2783 0.0221
0.2665 0.2801 0.0222
0.2891 0.2822 0.0222
0.3131 0.2845 0.0222
0.3391 0.2867 0.0223
0.3672 0.2889 0.0223
0.3973 0.2909 0.0223
0.4288 0.2928 0.0223
0.4612 0.2948 0.0223
0.4937 0.2969 0.0223
0.5257 0.2991 0.0224
0.5570 0.3013 0.0224
0.5871 0.3033 0.0224
0.6158 0.3049 0.0224
0.6432 0.3060 0.0224
0.6699 0.3064 0.0224
0.6967 0.3062 0.0225
0.7241 0.3056 0.0225
0.7526 0.3046 0.0225
0.7823 0.3036 0.0225
0.8101 0.3037 0.0223
0.0213 0.2809 0.0215
0.0372 0.2806 0.0214
0.0606 0.2807 0.0214
0.0861 0.2822 0.0215
0.1093 0.2856 0.0215
0.1280 0.2903 0.0216
0.1445 0.2954 0.0217
0.1618 0.2997 0.0218
0.1812 0.3028 0.0219
0.2030 0.3046 0.0220
0.2262 0.3057 0.0221
0.2497 0.3067 0.0221
0.2728 0.3082 0.0222
0.2958 0.3100 0.0222
0.3196 0.3121 0.0222
0.3449 0.3143 0.0223
0.3723 0.3165 0.0223
0.4018 0.3185 0.0223
0.4329 0.3205 0.0223
0.4651 0.3224 0.0223
0.4977 0.3246 0.0224
0.5301 0.3268 0.0224
0.5619 0.3293 0.0224
0.5927 0.3318 0.0224
0.6223 0.3340 0.0224
0.6507 0.3358 0.0224
0.6782 0.3369 0.0225
0.7056 0.3373 0.0225
0.7334 0.3371 0.0225
0.7621 0.3363 0.0225
0.7919 0.3355 0.0225
0.8192 0.3351 0.0223
0.0213 0.3086 0.0214
0.0364 0.3084 0.0214
0.0597 0.3085 0.0214
0.0862 0.3098 0.0214
0.1109 0.3130 0.0214
0.1308 0.3177 0.0215
0.1476 0.3230 0.0216
0.1646 0.3280 0.0218
0.1836 0.3318 0.0219
0.2054 0.3342 0.0220
0.2293 0.3355 0.0220
0.2540 0.3366 0.0221
0.2784 0.3378 0.0221
0.3023 0.3395 0.0222
0.3263 0.3414 0.0222
0.3513 0.3435 0.0222
0.3779 0.3456 0.0223
0.4067 0.3477 0.0223
0.4371 0.3496 0.0223
0.4689 0.3514 0.0224
0.5013 0.3534 0.0224
0.5337 0.3557 0.0224
0.5659 0.3582 0.0224
0.5971 0.3610 0.0224
0.6275 0.3639 0.0225
0.6567 0.3666 0.0225
0.6852 0.3686 0.0225
0.7135 0.3697 0.0225
0.7420 0.3700 0.0225
0.7712 0.3696 0.0225
0.8015 0.3688 0.0226
0.8287 0.3678 0.0223
0.0213 0.3375 0.0214
0.0356 0.3374 0.0214
0.0586 0.3375 0.0213
0.0858 0.3386 0.0213
0.1122 0.3414 0.0214
0.1334 0.3459 0.0215
0.1509 0.3514 0.0216
0.1677 0.3569 0.0217
0.1861 0.3614 0.0219
0.2074 0.3645 0.0220
0.2315 0.3663 0.0220
0.2572 0.3675 0.0221
0.2830 0.3687 0.0221
0.3080 0.3702 0.0222
0.3327 0.3720 0.0222
0.3578 0.3741 0.0222
0.3840 0.3762 0.0223
0.4120 0.3782 0.0223
0.4417 0.3801 0.0223
0.4728 0.3818 0.0224
0.5048 0.3836 0.0224
0.5370 0.3856 0.0224
0.5691 0.3881 0.0224
0.6006 0.3910 0.0224
0.6314 0.3944 0.0225
0.6613 0.3977 0.0225
0.6907 0.4007 0.0225
0.7199 0.4028 0.0225
0.7494 0.4040 0.0225
0.7793 0.4041 0.0226
0.8101 0.4037 0.0226
0.8418 0.4034 0.0223
0.0213 0.3676 0.0213
0.0347 0.3676 0.0213
0.0573 0.3678 0.0213
0.0850 0.3687 0.0213
0.1129 0.3711 0.0213
0.1358 0.3752 0.0214
0.1543 0.3806 0.0215
0.1712 0.3863 0.0216
0.1889 0.3915 0.0218
0.2094 0.3953 0.0219
0.2331 0.3978 0.0220
0.2593 0.3994 0.0221
0.2862 0.4008 0.0221
0.3126 0.4023 0.0221
0.3384 0.4040 0.0222
0.3641 0.4060 0.0222
0.3904 0.4081 0.0222
0.4179 0.4101 0.0223
0.4468 0.4120 0.0223
0.4772 0.4137 0.0224
0.5085 0.4154 0.0224
0.5403 0.4171 0.0224
0.5722 0.4193 0.0224
0.6035 0.4221 0.0225
0.6345 0.4255 0.0225
0.6649 0.4294 0.0225
0.6949 0.4332 0.0225
0.7249 0.4364 0.0225
0.7552 0.4386 0.0226
0.7858 0.4398 0.0226
0.8171 0.4400 0.0226
0.8488 0.4397 0.0223
0.0213 0.3986 0.0213
0.0338 0.3987 0.0213
0.0558 0.3991 0.0212
0.0839 0.3999 0.0212
0.1131 0.4019 0.0212
0.1379 0.4055 0.0213
0.1578 0.4106 0.0214
0.1751 0.4163 0.0215
0.1923 0.4219 0.0217
0.2117 0.4265 0.0219
0.2346 0.4298 0.0220
0.2607 0.4319 0.0220
0.2883 0.4336 0.0221
0.3160 0.4353 0.0221
0.3431 0.4371 0.0221
0.3698 0.4391 0.0222
0.3966 0.4411 0.0222
0.4240 0.4432 0.0223
0.4524 0.4451 0.0223
0.4821 0.4469 0.0224
0.5127 0.4485 0.0224
0.5438 0.4500 0.0224
0.5752 0.4519 0.0225
0.6063 0.4543 0.0225
0.6372 0.4576 0.0225
0.6678 0.4615 0.0225
0.6982 0.4659 0.0225
0.7287 0.4701 0.0226
0.7595 0.4735 0.0226
0.7909 0.4759 0.0226
0.8226 0.4772 0.0226
0.8544 0.4771 0.0223
0.0213 0.4304 0.0212
0.0330 0.4306 0.0212
0.0545 0.4312 0.0212
0.0826 0.4321 0.0211
0.1129 0.4338 0.0211
0.1395 0.4368 0.0212
0.1611 0.4414 0.0213
0.1794 0.4470 0.0215
0.1964 0.4528 0.0216
0.2148 0.4579 0.0218
0.2364 0.4620 0.0219
0.2617 0.4649 0.0220
0.2895 0.4670 0.0221
0.3182 0.4690 0.0221
0.3467 0.4710 0.0221
0.3746 0.4730 0.0221
0.4023 0.4751 0.0222
0.4301 0.4772 0.0222
0.4584 0.4792 0.0223
0.4875 0.4810 0.0223
0.5173 0.4826 0.0224
0.5477 0.4841 0.0224
0.5784 0.4858 0.0225
0.6091 0.4878 0.0225
0.6398 0.4906 0.0225
0.6703 0.4944 0.0225
0.7008 0.4989 0.0225
0.7317 0.5037 0.0226
0.7630 0.5081 0.0226
0.7947 0.5118 0.0226
0.8269 0.5143 0.0226
0.8587 0.5146 0.0223
0.0213 0.4630 0.0212
0.0322 0.4633 0.0211
0.0532 0.4640 0.0211
0.0812 0.4651 0.0211
0.1122 0.4666 0.0211
0.1407 0.4692 0.0211
0.1642 0.4732 0.0212
0.1838 0.4783 0.0213
0.2011 0.4841 0.0215
0.2187 0.4897 0.0217
0.2389 0.4944 0.0219
0.2629 0.4981 0.0220
0.2903 0.5008 0.0220
0.3195 0.5031 0.0220
0.3491 0.5053 0.0221
0.3784 0.5075 0.0221
0.4071 0.5097 0.0221
0.4357 0.5118 0.0222
0.4642 0.5138 0.0222
0.4931 0.5157 0.0223
0.5224 0.5174 0.0224
0.5520 0.5189 0.0224
0.5820 0.5205 0.0225
0.6121 0.5222 0.0225
0.6423 0.5246 0.0225
0.6726 0.5279 0.0225
0.7032 0.5322 0.0226
0.7342 0.5372 0.0226
0.7658 0.5423 0.0226
0.7979 0.5471 0.0226
0.8303 0.5507 0.0226
0.8623 0.5514 0.0223
0.0213 0.4962 0.0211
0.0316 0.4967 0.0211
0.0521 0.4975 0.0211
0.0799 0.4988 0.0211
0.1114 0.5003 0.0210
0.1413 0.5025 0.0210
0.1669 0.5059 0.0211
0.1882 0.5105 0.0212
0.2063 0.5160 0.0214
0.2235 0.5218 0.0216
0.2424 0.5270 0.0218
0.2649 0.5314 0.0219
0.2913 0.5348 0.0220
0.3204 0.5376 0.0220
0.3508 0.5400 0.0220
0.3811 0.5424 0.0221
0.4111 0.5446 0.0221
0.4407 0.5468 0.0221
0.4698 0.5488 0.0222
0.4988 0.5507 0.0222
0.5277 0.5525 0.0223
0.5567 0.5541 0.0224
0.5859 0.5556 0.0225
0.6153 0.5572 0.0225
0.6450 0.5593 0.0225
0.6750 0.5621 0.0226
0.7054 0.5660 0.0226
0.7365 0.5707 0.0226
0.7682 0.5760 0.0226
0.8006 0.5813 0.0226
0.8333 0.5856 0.0226
0.8653 0.5868 0.0223
0.0213 0.5301 0.0211
0.0310 0.5306 0.0211
0.0511 0.5316 0.0210
0.0787 0.5330 0.0210
0.1104 0.5346 0.0210
0.1415 0.5366 0.0210
0.1690 0.5394 0.0210
0.1923 0.5435 0.0211
0.2117 0.5486 0.0213
0.2291 0.5543 0.0215
0.2470 0.5599 0.0217
0.2679 0.5648 0.0219
0.2929 0.5688 0.0219
0.3214 0.5721 0.0220
0.3520 0.5749 0.0220
0.3832 0.5774 0.0220
0.4142 0.5798 0.0220
0.4448 0.5820 0.0221
0.4747 0.5839 0.0221
0.5041 0.5858 0.0222
0.5330 0.5875 0.0223
0.5616 0.5892 0.0224
0.5901 0.5908 0.0224
0.6188 0.5923 0.0225
0.6479 0.5942 0.0226
0.6773 0.5966 0.0226
0.7075 0.6000 0.0226
0.7386 0.6043 0.0226
0.7703 0.6092 0.0226
0.8029 0.6145 0.0226
0.8358 0.6191 0.0227
0.8679 0.6207 0.0223
0.0213 0.5643 0.0210
0.0305 0.5649 0.0210
0.0502 0.5661 0.0210
0.0776 0.5677 0.0209
0.1095 0.5693 0.0209
0.1413 0.5711 0.0209
0.1705 0.5735 0.0209
0.1960 0.5770 0.0210
0.2172 0.5816 0.0211
0.2354 0.5870 0.0213
0.2529 0.5927 0.0215
0.2724 0.5981 0.0218
0.2956 0.6027 0.0219
0.3229 0.6065 0.0220
0.3532 0.6096 0.0220
0.3848 0.6124 0.0220
0.4166 0.6148 0.0220
0.4482 0.6169 0.0220
0.4789 0.6188 0.0221
0.5089 0.6206 0.0221
0.5380 0.6222 0.0222
0.5664 0.6239 0.0223
0.5944 0.6255 0.0224
0.6224 0.6271 0.0225
0.6508 0.6288 0.0226
0.6797 0.6310 0.0226
0.7095 0.6339 0.0226
0.7403 0.6376 0.0226
0.7720 0.6420 0.0226
0.8047 0.6468 0.0227
0.8377 0.6511 0.0227
0.8700 0.6529 0.0223
0.0213 0.5989 0.0210
0.0301 0.5996 0.0209
0.0495 0.6009 0.0209
0.0768 0.6026 0.0209
0.1087 0.6042 0.0209
0.1410 0.6060 0.0208
0.1715 0.6081 0.0208
0.1992 0.6110 0.0209
0.2227 0.6149 0.0210
0.2423 0.6199 0.0212
0.2598 0.6256 0.0214
0.2782 0.6313 0.0216
0.2997 0.6364 0.0218
0.3253 0.6408 0.0219
0.3547 0.6443 0.0219
0.3863 0.6472 0.0220
0.4186 0.6496 0.0220
0.4509 0.6517 0.0220
0.4825 0.6535 0.0220
0.5131 0.6551 0.0221
0.5426 0.6566 0.0222
0.5710 0.6581 0.0222
0.5988 0.6597 0.0223
0.6261 0.6613 0.0225
0.6538 0.6631 0.0225
0.6820 0.6651 0.0226
0.7113 0.6677 0.0226
0.7417 0.6709 0.0226
0.7733 0.6746 0.0227
0.8058 0.6788 0.0227
0.8389 0.6825 0.0227
0.8713 0.6843 0.0223
0.0213 0.6338 0.0209
0.0297 0.6345 0.0209
0.0489 0.6359 0.0209
0.0761 0.6376 0.0208
0.1081 0.6393 0.0208
0.1408 0.6410 0.0208
0.1724 0.6428 0.0208
0.2020 0.6452 0.0208
0.2279 0.6485 0.0209
0.2494 0.6530 0.0210
0.2677 0.6584 0.0213
0.2853 0.6642 0.0215
0.3051 0.6698 0.0217
0.3288 0.6747 0.0219
0.3568 0.6786 0.0219
0.3879 0.6817 0.0219
0.4204 0.6841 0.0219
0.4533 0.6861 0.0219
0.4855 0.6877 0.0220
0.5168 0.6891 0.0220
0.5468 0.6905 0.0221
0.5755 0.6918 0.0222
0.6030 0.6933 0.0223
0.6299 0.6949 0.0224
0.6569 0.6967 0.0225
0.6844 0.6988 0.0226
0.7129 0.7012 0.0226
0.7429 0.7039 0.0227
0.7740 0.7071 0.0227
0.8064 0.7106 0.0227
0.8393 0.7136 0.0227
0.8719 0.7152 0.0223
0.0213 0.6689 0.0208
0.0294 0.6696 0.0208
0.0485 0.6710 0.0208
0.0757 0.6727 0.0208
0.1079 0.6743 0.0208
0.1410 0.6760 0.0208
0.1733 0.6776 0.0207
0.2045 0.6796 0.0207
0.2327 0.6822 0.0208
0.2565 0.6860 0.0209
0.2761 0.6911 0.0211
0.2936 0.6969 0.0214
0.3120 0.7028 0.0216
0.3337 0.7082 0.0218
0.3598 0.7126 0.0219
0.3898 0.7159 0.0219
0.4222 0.7183 0.0219
0.4554 0.7202 0.0219
0.4882 0.7216 0.0219
0.5201 0.7228 0.0220
0.5507 0.7239 0.0220
0.5797 0.7251 0.0221
0.6072 0.7265 0.0222
0.6338 0.7281 0.0223
0.6601 0.7300 0.0225
0.6868 0.7321 0.0226
0.7146 0.7344 0.0226
0.7438 0.7370 0.0227
0.7745 0.7397 0.0227
0.8064 0.7425 0.0227
0.8390 0.7450 0.0227
0.8718 0.7463 0.0223
0.0213 0.7039 0.0208
0.0292 0.7046 0.0208
0.0483 0.7060 0.0208
0.0757 0.7076 0.0208
0.1082 0.7092 0.0207
0.1416 0.7107 0.0207
0.1745 0.7122 0.0207
0.2068 0.7138 0.0207
0.2371 0.7159 0.0207
0.2632 0.7191 0.0208
0.2846 0.7235 0.0210
0.3026 0.7292 0.0212
0.3201 0.7354 0.0215
0.3399 0.7412 0.0217
0.3639 0.7461 0.0218
0.3924 0.7497 0.0219
0.4242 0.7522 0.0219
0.4574 0.7539 0.0219
0.4905 0.7551 0.0219
0.5230 0.7561 0.0219
0.5542 0.7570 0.0220
0.5836 0.7580 0.0221
0.6114 0.7592 0.0222
0.6377 0.7608 0.0223
0.6635 0.7628 0.0224
0.6894 0.7650 0.0226
0.7163 0.7674 0.0226
0.7448 0.7699 0.0227
0.7748 0.7724 0.0227
0.8062 0.7748 0.0228
0.8385 0.7768 0.0228
0.8712 0.7777 0.0223
0.0213 0.7389 0.0208
0.0292 0.7396 0.0208
0.0484 0.7409 0.0207
0.0762 0.7425 0.0207
