lut/adanmq/Adanmq_Ilford_Delta_400.cube
TITLE "Adanmq_Ilford Delta 400"
LUT_3D_SIZE 8
DOMAIN_MIN 0.000000 0.000000 0.000000
DOMAIN_MAX 0.903226 0.903226 0.903226
0.0223 0.0223 0.0223
0.0403 0.0403 0.0403
0.0575 0.0575 0.0575
0.0830 0.0830 0.0830
0.1066 0.1066 0.1066
0.1338 0.1338 0.1338
0.1653 0.1653 0.1653
0.2031 0.2031 0.2031
0.0836 0.0836 0.0836
0.1024 0.1024 0.1024
0.1201 0.1201 0.1201
0.1420 0.1420 0.1420
0.1673 0.1673 0.1673
0.1953 0.1953 0.1953
0.2350 0.2350 0.2350
0.2854 0.2854 0.2854
0.1060 0.1060 0.1060
0.1362 0.1362 0.1362
0.1618 0.1618 0.1618
0.1900 0.1900 0.1900
0.2235 0.2235 0.2235
0.2617 0.2617 0.2617
0.3019 0.3019 0.3019
0.3532 0.3532 0.3532
0.1606 0.1606 0.1606
0.1874 0.1874 0.1874
0.2148 0.2148 0.2148
0.2420 0.2420 0.2420
0.2831 0.2831 0.2831
0.3327 0.3327 0.3327
0.3861 0.3861 0.3861
0.4472 0.4472 0.4472
0.2183 0.2183 0.2183
0.2401 0.2401 0.2401
0.2856 0.2856 0.2856
0.3172 0.3172 0.3172
0.3569 0.3569 0.3569
0.4076 0.4076 0.4076
0.4679 0.4679 0.4679
0.5358 0.5358 0.5358
0.2815 0.2815 0.2815
0.3010 0.3010 0.3010
0.3522 0.3522 0.3522
0.4119 0.4119 0.4119
0.4513 0.4513 0.4513
0.5009 0.5009 0.5009
0.5523 0.5523 0.5523
0.6146 0.6146 0.6146
0.3560 0.3560 0.3560
0.3775 0.3775 0.3775
0.4139 0.4139 0.4139
0.5055 0.5055 0.5055
0.5579 0.5579 0.5579
0.6013 0.6013 0.6013
0.6472 0.6472 0.6472
0.6917 0.6917 0.6917
0.4375 0.4375 0.4375
0.4630 0.4630 0.4630
0.4936 0.4936 0.4936
0.5822 0.5822 0.5822
0.6620 0.6620 0.6620
0.6961 0.6961 0.6961
0.7358 0.7358 0.7358
0.7779 0.7779 0.7779
0.0284 0.0284 0.0284
0.0594 0.0594 0.0594
0.0895 0.0895 0.0895
0.1108 0.1108 0.1108
0.1290 0.1290 0.1290
0.1541 0.1541 0.1541
0.1848 0.1848 0.1848
0.2247 0.2247 0.2247
0.0877 0.0877 0.0877
0.1157 0.1157 0.1157
0.1378 0.1378 0.1378
0.1600 0.1600 0.1600
0.1898 0.1898 0.1898
0.2271 0.2271 0.2271
0.2684 0.2684 0.2684
0.3177 0.3177 0.3177
0.1198 0.1198 0.1198
0.1572 0.1572 0.1572
0.1906 0.1906 0.1906
0.2137 0.2137 0.2137
0.2457 0.2457 0.2457
0.2805 0.2805 0.2805
0.3246 0.3246 0.3246
0.3995 0.3995 0.3995
0.1719 0.1719 0.1719
0.1936 0.1936 0.1936
0.2331 0.2331 0.2331
0.2676 0.2676 0.2676
0.3127 0.3127 0.3127
0.3574 0.3574 0.3574
0.4025 0.4025 0.4025
0.4573 0.4573 0.4573
0.2253 0.2253 0.2253
0.2434 0.2434 0.2434
0.2936 0.2936 0.2936
0.3330 0.3330 0.3330
0.3763 0.3763 0.3763
0.4338 0.4338 0.4338
0.4918 0.4918 0.4918
0.5483 0.5483 0.5483
0.2850 0.2850 0.2850
0.3058 0.3058 0.3058
0.3438 0.3438 0.3438
0.4192 0.4192 0.4192
0.4611 0.4611 0.4611
0.5145 0.5145 0.5145
0.5684 0.5684 0.5684
0.6255 0.6255 0.6255
0.3597 0.3597 0.3597
0.3826 0.3826 0.3826
0.4101 0.4101 0.4101
0.4842 0.4842 0.4842
0.5652 0.5652 0.5652
0.6073 0.6073 0.6073
0.6480 0.6480 0.6480
0.6952 0.6952 0.6952
0.4445 0.4445 0.4445
0.4729 0.4729 0.4729
0.5057 0.5057 0.5057
0.5567 0.5567 0.5567
0.6560 0.6560 0.6560
0.7039 0.7039 0.7039
0.7356 0.7356 0.7356
0.7769 0.7769 0.7769
0.0515 0.0515 0.0515
0.0998 0.0998 0.0998
0.1418 0.1418 0.1418
0.1538 0.1538 0.1538
0.1850 0.1850 0.1850
0.2007 0.2007 0.2007
0.2238 0.2238 0.2238
0.2552 0.2552 0.2552
0.1072 0.1072 0.1072
0.1427 0.1427 0.1427
0.1716 0.1716 0.1716
0.1992 0.1992 0.1992
0.2332 0.2332 0.2332
0.2674 0.2674 0.2674
0.3031 0.3031 0.3031
0.3507 0.3507 0.3507
0.1366 0.1366 0.1366
0.1827 0.1827 0.1827
0.2220 0.2220 0.2220
0.2408 0.2408 0.2408
0.2722 0.2722 0.2722
0.3141 0.3141 0.3141
0.3652 0.3652 0.3652
0.4356 0.4356 0.4356
0.1898 0.1898 0.1898
0.2159 0.2159 0.2159
0.2738 0.2738 0.2738
0.3188 0.3188 0.3188
0.3493 0.3493 0.3493
0.3899 0.3899 0.3899
0.4331 0.4331 0.4331
0.4890 0.4890 0.4890
0.2507 0.2507 0.2507
0.2680 0.2680 0.2680
0.3041 0.3041 0.3041
0.3722 0.3722 0.3722
0.4171 0.4171 0.4171
0.4609 0.4609 0.4609
0.5173 0.5173 0.5173
0.5702 0.5702 0.5702
0.3180 0.3180 0.3180
0.3260 0.3260 0.3260
0.3536 0.3536 0.3536
0.4337 0.4337 0.4337
0.4891 0.4891 0.4891
0.5296 0.5296 0.5296
0.5910 0.5910 0.5910
0.6517 0.6517 0.6517
0.3863 0.3863 0.3863
0.3968 0.3968 0.3968
0.4280 0.4280 0.4280
0.4883 0.4883 0.4883
0.5778 0.5778 0.5778
0.6125 0.6125 0.6125
0.6573 0.6573 0.6573
0.7167 0.7167 0.7167
0.4643 0.4643 0.4643
0.4877 0.4877 0.4877
0.5247 0.5247 0.5247
0.5682 0.5682 0.5682
0.6429 0.6429 0.6429
0.7052 0.7052 0.7052
0.7395 0.7395 0.7395
0.7886 0.7886 0.7886
0.0728 0.0728 0.0728
0.1195 0.1195 0.1195
0.1979 0.1979 0.1979
0.2288 0.2288 0.2288
0.2302 0.2302 0.2302
0.2709 0.2709 0.2709
0.2889 0.2889 0.2889
0.3033 0.3033 0.3033
0.1405 0.1405 0.1405
0.1801 0.1801 0.1801
0.2246 0.2246 0.2246
0.2659 0.2659 0.2659
0.2871 0.2871 0.2871
0.3370 0.3370 0.3370
0.3705 0.3705 0.3705
0.3968 0.3968 0.3968
0.1692 0.1692 0.1692
0.2233 0.2233 0.2233
0.2562 0.2562 0.2562
0.2850 0.2850 0.2850
0.3207 0.3207 0.3207
0.3629 0.3629 0.3629
0.4123 0.4123 0.4123
0.4648 0.4648 0.4648
0.2134 0.2134 0.2134
0.2547 0.2547 0.2547
0.3065 0.3065 0.3065
0.3483 0.3483 0.3483
0.3807 0.3807 0.3807
0.4193 0.4193 0.4193
0.4697 0.4697 0.4697
0.5319 0.5319 0.5319
0.2646 0.2646 0.2646
0.3006 0.3006 0.3006
0.3435 0.3435 0.3435
0.4222 0.4222 0.4222
0.4687 0.4687 0.4687
0.4964 0.4964 0.4964
0.5438 0.5438 0.5438
0.5903 0.5903 0.5903
0.3363 0.3363 0.3363
0.3641 0.3641 0.3641
0.3949 0.3949 0.3949
0.4541 0.4541 0.4541
0.5352 0.5352 0.5352
0.5673 0.5673 0.5673
0.6044 0.6044 0.6044
0.6717 0.6717 0.6717
0.4247 0.4247 0.4247
0.4410 0.4410 0.4410
0.4613 0.4613 0.4613
0.5014 0.5014 0.5014
0.5863 0.5863 0.5863
0.6393 0.6393 0.6393
0.6688 0.6688 0.6688
0.7390 0.7390 0.7390
0.5175 0.5175 0.5175
0.5285 0.5285 0.5285
0.5521 0.5521 0.5521
0.5944 0.5944 0.5944
0.6532 0.6532 0.6532
0.7244 0.7244 0.7244
0.7514 0.7514 0.7514
0.7973 0.7973 0.7973
0.0931 0.0931 0.0931
0.1313 0.1313 0.1313
0.2336 0.2336 0.2336
0.3062 0.3062 0.3062
0.3351 0.3351 0.3351
0.3174 0.3174 0.3174
0.3457 0.3457 0.3457
0.3724 0.3724 0.3724
0.1737 0.1737 0.1737
0.2143 0.2143 0.2143
0.2632 0.2632 0.2632
0.3406 0.3406 0.3406
0.3792 0.3792 0.3792
0.3787 0.3787 0.3787
0.4269 0.4269 0.4269
0.4615 0.4615 0.4615
0.2124 0.2124 0.2124
0.2678 0.2678 0.2678
0.3137 0.3137 0.3137
0.3575 0.3575 0.3575
0.4075 0.4075 0.4075
0.4351 0.4351 0.4351
0.4830 0.4830 0.4830
0.5247 0.5247 0.5247
0.2506 0.2506 0.2506
0.3104 0.3104 0.3104
0.3663 0.3663 0.3663
0.3901 0.3901 0.3901
0.4263 0.4263 0.4263
0.4691 0.4691 0.4691
0.5111 0.5111 0.5111
0.5644 0.5644 0.5644
0.2953 0.2953 0.2953
0.3464 0.3464 0.3464
0.3980 0.3980 0.3980
0.4570 0.4570 0.4570
0.4955 0.4955 0.4955
0.5316 0.5316 0.5316
0.5688 0.5688 0.5688
0.6187 0.6187 0.6187
0.3558 0.3558 0.3558
0.3910 0.3910 0.3910
0.4398 0.4398 0.4398
0.5046 0.5046 0.5046
0.5778 0.5778 0.5778
0.6153 0.6153 0.6153
0.6370 0.6370 0.6370
0.6855 0.6855 0.6855
0.4393 0.4393 0.4393
0.4702 0.4702 0.4702
0.5083 0.5083 0.5083
0.5503 0.5503 0.5503
0.6084 0.6084 0.6084
0.6800 0.6800 0.6800
0.7037 0.7037 0.7037
0.7499 0.7499 0.7499
0.5380 0.5380 0.5380
0.5694 0.5694 0.5694
0.5927 0.5927 0.5927
0.6196 0.6196 0.6196
0.6614 0.6614 0.6614
0.7324 0.7324 0.7324
0.7806 0.7806 0.7806
0.8102 0.8102 0.8102
0.1174 0.1174 0.1174
0.1513 0.1513 0.1513
0.2460 0.2460 0.2460
0.3500 0.3500 0.3500
0.4011 0.4011 0.4011
0.4250 0.4250 0.4250
0.3982 0.3982 0.3982
0.4148 0.4148 0.4148
0.2120 0.2120 0.2120
0.2493 0.2493 0.2493
0.2944 0.2944 0.2944
0.3935 0.3935 0.3935
0.4677 0.4677 0.4677
0.4884 0.4884 0.4884
0.4693 0.4693 0.4693
0.5089 0.5089 0.5089
0.2668 0.2668 0.2668
0.3230 0.3230 0.3230
0.3719 0.3719 0.3719
0.4160 0.4160 0.4160
0.4791 0.4791 0.4791
0.5269 0.5269 0.5269
0.5346 0.5346 0.5346
0.5741 0.5741 0.5741
0.2998 0.2998 0.2998
0.3641 0.3641 0.3641
0.4193 0.4193 0.4193
0.4684 0.4684 0.4684
0.5054 0.5054 0.5054
0.5512 0.5512 0.5512
0.5763 0.5763 0.5763
0.6152 0.6152 0.6152
0.3405 0.3405 0.3405
0.4046 0.4046 0.4046
0.4704 0.4704 0.4704
0.5154 0.5154 0.5154
0.5319 0.5319 0.5319
0.5669 0.5669 0.5669
0.6119 0.6119 0.6119
0.6510 0.6510 0.6510
0.3887 0.3887 0.3887
0.4410 0.4410 0.4410
0.5003 0.5003 0.5003
0.5529 0.5529 0.5529
0.6030 0.6030 0.6030
0.6354 0.6354 0.6354
0.6687 0.6687 0.6687
0.7050 0.7050 0.7050
0.4700 0.4700 0.4700
0.4978 0.4978 0.4978
0.5434 0.5434 0.5434
0.5903 0.5903 0.5903
0.6515 0.6515 0.6515
0.7159 0.7159 0.7159
0.7505 0.7505 0.7505
0.7746 0.7746 0.7746
0.5595 0.5595 0.5595
0.5899 0.5899 0.5899
0.6261 0.6261 0.6261
0.6580 0.6580 0.6580
0.6971 0.6971 0.6971
0.7505 0.7505 0.7505
0.8189 0.8189 0.8189
0.8414 0.8414 0.8414
0.1473 0.1473 0.1473
0.1833 0.1833 0.1833
0.2452 0.2452 0.2452
0.3743 0.3743 0.3743
0.4273 0.4273 0.4273
0.4658 0.4658 0.4658
0.4883 0.4883 0.4883
0.4658 0.4658 0.4658
0.2503 0.2503 0.2503
0.2889 0.2889 0.2889
0.3313 0.3313 0.3313
0.4227 0.4227 0.4227
0.5131 0.5131 0.5131
0.5564 0.5564 0.5564
0.5751 0.5751 0.5751
0.5596 0.5596 0.5596
0.3315 0.3315 0.3315
0.3845 0.3845 0.3845
0.4279 0.4279 0.4279
0.4526 0.4526 0.4526
0.5184 0.5184 0.5184
0.5908 0.5908 0.5908
0.6183 0.6183 0.6183
0.6132 0.6132 0.6132
0.3730 0.3730 0.3730
0.4363 0.4363 0.4363
0.4961 0.4961 0.4961
0.5275 0.5275 0.5275
0.5619 0.5619 0.5619
0.6075 0.6075 0.6075
0.6526 0.6526 0.6526
0.6679 0.6679 0.6679
0.3954 0.3954 0.3954
0.4690 0.4690 0.4690
0.5255 0.5255 0.5255
0.5677 0.5677 0.5677
0.6069 0.6069 0.6069
0.6349 0.6349 0.6349
0.6758 0.6758 0.6758
0.7027 0.7027 0.7027
0.4448 0.4448 0.4448
0.4986 0.4986 0.4986
0.5713 0.5713 0.5713
0.6183 0.6183 0.6183
0.6515 0.6515 0.6515
0.6647 0.6647 0.6647
0.6977 0.6977 0.6977
0.7416 0.7416 0.7416
0.4995 0.4995 0.4995
0.5341 0.5341 0.5341
0.6009 0.6009 0.6009
0.6452 0.6452 0.6452
0.6917 0.6917 0.6917
0.7377 0.7377 0.7377
0.7704 0.7704 0.7704
0.8014 0.8014 0.8014
0.5905 0.5905 0.5905
0.6163 0.6163 0.6163
0.6533 0.6533 0.6533
0.6929 0.6929 0.6929
0.7296 0.7296 0.7296
0.7865 0.7865 0.7865
0.8471 0.8471 0.8471
0.8751 0.8751 0.8751
0.1827 0.1827 0.1827
0.2220 0.2220 0.2220
0.2671 0.2671 0.2671
0.3747 0.3747 0.3747
0.4469 0.4469 0.4469
0.4825 0.4825 0.4825
0.5167 0.5167 0.5167
0.5395 0.5395 0.5395
0.2905 0.2905 0.2905
0.3316 0.3316 0.3316
0.3763 0.3763 0.3763
0.4443 0.4443 0.4443
0.5351 0.5351 0.5351
0.5778 0.5778 0.5778
0.6117 0.6117 0.6117
0.6345 0.6345 0.6345
0.3961 0.3961 0.3961
0.4449 0.4449 0.4449
0.4879 0.4879 0.4879
0.5037 0.5037 0.5037
0.5402 0.5402 0.5402
0.6319 0.6319 0.6319
0.6851 0.6851 0.6851
0.7118 0.7118 0.7118
0.4472 0.4472 0.4472
0.5102 0.5102 0.5102
0.5711 0.5711 0.5711
0.5828 0.5828 0.5828
0.5843 0.5843 0.5843
0.6278 0.6278 0.6278
0.6940 0.6940 0.6940
0.7296 0.7296 0.7296
0.4573 0.4573 0.4573
0.5374 0.5374 0.5374
0.6006 0.6006 0.6006
0.6379 0.6379 0.6379
0.6577 0.6577 0.6577
0.6822 0.6822 0.6822
0.7157 0.7157 0.7157
0.7607 0.7607 0.7607
0.4923 0.4923 0.4923
0.5532 0.5532 0.5532
0.6309 0.6309 0.6309
0.6656 0.6656 0.6656
0.6987 0.6987 0.6987
0.7287 0.7287 0.7287
0.7521 0.7521 0.7521
0.7857 0.7857 0.7857
0.5517 0.5517 0.5517
0.5914 0.5914 0.5914
0.6505 0.6505 0.6505
0.7086 0.7086 0.7086
0.7481 0.7481 0.7481
0.7794 0.7794 0.7794
0.7939 0.7939 0.7939
0.8207 0.8207 0.8207
0.6125 0.6125 0.6125
0.6447 0.6447 0.6447
0.6830 0.6830 0.6830
0.7356 0.7356 0.7356
0.7808 0.7808 0.7808
0.8181 0.8181 0.8181
0.8606 0.8606 0.8606
0.8895 0.8895 0.8895
