lut/adanmq/Adanmq_Fuji_Reala_8563.cube
TITLE "Adanmq_Fuji Reala 8563"
LUT_3D_SIZE 5
DOMAIN_MIN 0.000000 0.000000 0.000000
DOMAIN_MAX 0.903226 0.903226 0.903226
0.0215 0.0226 0.0223
0.2147 0.0227 0.0224
0.3520 0.0229 0.0224
0.4998 0.0229 0.0223
0.6840 0.0228 0.0221
0.0215 0.2133 0.0222
0.2845 0.2435 0.0224
0.4788 0.2654 0.0226
0.6367 0.2753 0.0228
0.7856 0.2742 0.0227
0.0216 0.3995 0.0219
0.3320 0.4271 0.0224
0.5215 0.4390 0.0226
0.6942 0.4575 0.0229
0.8476 0.4815 0.0232
0.0216 0.5901 0.0217
0.3520 0.5897 0.0219
0.5407 0.6180 0.0226
0.7185 0.6158 0.0228
0.8831 0.6389 0.0233
0.0216 0.7835 0.0215
0.3644 0.7692 0.0215
0.5308 0.8176 0.0225
0.7173 0.8094 0.0229
0.8871 0.7973 0.0232
0.0215 0.0224 0.1756
0.2331 0.0227 0.2056
0.4114 0.0229 0.2279
0.5648 0.0229 0.2414
0.6989 0.0229 0.2208
0.0215 0.2074 0.1893
0.2777 0.2587 0.2365
0.4735 0.2764 0.2530
0.6334 0.2888 0.2672
0.7435 0.2781 0.2505
0.0216 0.4050 0.1889
0.3238 0.4315 0.2278
0.5079 0.4790 0.2754
0.6779 0.5092 0.2945
0.8434 0.5123 0.3271
0.0216 0.5925 0.1823
0.3612 0.5750 0.1849
0.5399 0.6359 0.2742
0.7230 0.6445 0.3004
0.8674 0.6842 0.3596
0.0216 0.7740 0.1738
0.3643 0.7586 0.1723
0.5719 0.7659 0.1936
0.7212 0.8123 0.2936
0.8970 0.8110 0.3424
0.0215 0.0221 0.3079
0.2227 0.0226 0.3755
0.4232 0.0229 0.3969
0.5889 0.0230 0.4391
0.7534 0.0231 0.4460
0.0215 0.1963 0.3669
0.2712 0.2515 0.4260
0.4647 0.2771 0.4506
0.6285 0.2924 0.4599
0.7672 0.2951 0.4689
0.0216 0.3924 0.3851
0.3068 0.4512 0.4423
0.4962 0.5040 0.4904
0.6732 0.5048 0.4996
0.8339 0.5161 0.5208
0.0216 0.5958 0.3939
0.3453 0.6155 0.4219
0.5199 0.6467 0.4663
0.6936 0.6924 0.5187
0.8574 0.7222 0.5541
0.0217 0.7980 0.3847
0.3635 0.7733 0.3948
0.5716 0.7614 0.4064
0.7187 0.8289 0.5268
0.9033 0.8454 0.5864
0.0214 0.0220 0.4867
0.2259 0.0222 0.5113
0.4042 0.0229 0.5718
0.5898 0.0230 0.5586
0.7290 0.0231 0.6128
0.0215 0.1895 0.5163
0.2463 0.2228 0.5515
0.4434 0.2743 0.6174
0.6161 0.2881 0.6062
0.7567 0.2895 0.6199
0.0216 0.3830 0.5727
0.2971 0.4288 0.6039
0.4865 0.4848 0.6573
0.6717 0.5003 0.6781
0.8229 0.5146 0.6861
0.0217 0.5763 0.5848
0.3449 0.6070 0.6151
0.5129 0.6586 0.6655
0.6867 0.6985 0.7032
0.8529 0.6994 0.7249
0.0217 0.7808 0.5904
0.3672 0.7753 0.5998
0.5509 0.8076 0.6472
0.7155 0.8360 0.6834
0.8783 0.8860 0.7566
0.0214 0.0218 0.6801
0.2132 0.0218 0.6703
0.3769 0.0229 0.7575
0.5636 0.0229 0.7376
0.7487 0.0230 0.7285
0.0214 0.1837 0.6721
0.2039 0.1817 0.6644
0.4217 0.2354 0.7552
0.5654 0.2775 0.7477
0.7418 0.2747 0.7304
0.0215 0.3856 0.7547
0.2526 0.3971 0.7251
0.4436 0.4392 0.7636
0.6392 0.4787 0.8139
0.8085 0.5052 0.8084
0.0216 0.5684 0.7750
0.3272 0.5854 0.7734
0.5002 0.6304 0.8067
0.6746 0.6690 0.8441
0.8506 0.6876 0.8666
0.0217 0.7717 0.7915
0.3765 0.7701 0.7928
0.5376 0.7980 0.8257
0.7103 0.8409 0.8644
0.8805 0.8822 0.8966
