lut/adanmq/Adanmq_Kodak_Vision3_200T_5213.cube
TITLE "Adanmq_Kodak Vision3 200T 5213"
LUT_3D_SIZE 8
DOMAIN_MIN 0.000000 0.000000 0.000000
DOMAIN_MAX 0.903226 0.903226 0.903226
0.0214 0.0220 0.0218
0.1008 0.0219 0.0219
0.1639 0.0220 0.0219
0.2316 0.0221 0.0220
0.3043 0.0222 0.0220
0.3862 0.0222 0.0220
0.4838 0.0222 0.0220
0.5984 0.0221 0.0219
0.0213 0.1167 0.0218
0.1030 0.1169 0.0219
0.1928 0.1230 0.0220
0.2887 0.1328 0.0222
0.3752 0.1408 0.0223
0.4557 0.1454 0.0223
0.5388 0.1481 0.0223
0.6359 0.1479 0.0221
0.0213 0.1967 0.0218
0.1103 0.2116 0.0220
0.2172 0.2318 0.0222
0.3307 0.2479 0.0224
0.4443 0.2609 0.0226
0.5395 0.2696 0.0227
0.6242 0.2752 0.0228
0.7216 0.2797 0.0229
0.0213 0.2923 0.0218
0.1179 0.3069 0.0220
0.2398 0.3365 0.0224
0.3552 0.3514 0.0226
0.4721 0.3680 0.0227
0.5862 0.3825 0.0229
0.6781 0.3943 0.0231
0.7637 0.4051 0.0232
0.0213 0.3959 0.0217
0.1179 0.3987 0.0218
0.2487 0.4367 0.0223
0.3759 0.4475 0.0226
0.4890 0.4591 0.0228
0.6037 0.4731 0.0230
0.7119 0.4904 0.0232
0.8075 0.5100 0.0234
0.0213 0.5007 0.0217
0.1159 0.4944 0.0216
0.2488 0.5246 0.0221
0.3792 0.5531 0.0226
0.5009 0.5537 0.0227
0.6146 0.5630 0.0230
0.7249 0.5741 0.0232
0.8321 0.5979 0.0235
0.0213 0.6094 0.0216
0.1178 0.6013 0.0216
0.2511 0.6081 0.0218
0.3764 0.6581 0.0225
0.5010 0.6636 0.0227
0.6231 0.6647 0.0229
0.7322 0.6691 0.0233
0.8425 0.6796 0.0235
0.0213 0.7210 0.0215
0.1223 0.7134 0.0215
0.2576 0.7071 0.0215
0.3805 0.7495 0.0222
0.4989 0.7806 0.0228
0.6243 0.7745 0.0229
0.7364 0.7768 0.0233
0.8430 0.7794 0.0236
0.0214 0.0218 0.1139
0.1057 0.0218 0.1211
0.1808 0.0219 0.1293
0.2609 0.0220 0.1360
0.3398 0.0221 0.1435
0.4186 0.0222 0.1478
0.5010 0.0222 0.1487
0.6018 0.0221 0.1411
0.0214 0.1058 0.1087
0.1078 0.1119 0.1234
0.2049 0.1190 0.1360
0.3050 0.1309 0.1490
0.3955 0.1428 0.1593
0.4700 0.1501 0.1623
0.5348 0.1523 0.1605
0.6224 0.1491 0.1529
0.0213 0.1928 0.1143
0.1141 0.2135 0.1325
0.2231 0.2378 0.1496
0.3362 0.2530 0.1641
0.4510 0.2682 0.1810
0.5528 0.2791 0.1963
0.6273 0.2830 0.2043
0.6874 0.2801 0.1960
0.0213 0.2902 0.1247
0.1213 0.2999 0.1407
0.2459 0.3380 0.1752
0.3648 0.3602 0.1920
0.4765 0.3828 0.2036
0.5888 0.4006 0.2185
0.6862 0.4104 0.2353
0.7694 0.4139 0.2516
0.0213 0.3931 0.1287
0.1197 0.3904 0.1343
0.2538 0.4244 0.1720
0.3911 0.4530 0.2080
0.5044 0.4662 0.2216
0.6119 0.4917 0.2383
0.7156 0.5116 0.2547
0.8072 0.5267 0.2767
0.0213 0.4961 0.1275
0.1180 0.4894 0.1273
0.2526 0.5018 0.1440
0.3907 0.5504 0.1984
0.5190 0.5574 0.2169
0.6294 0.5690 0.2383
0.7341 0.5917 0.2626
0.8341 0.6112 0.2881
0.0213 0.6028 0.1246
0.1201 0.5950 0.1235
0.2554 0.5892 0.1251
0.3864 0.6266 0.1681
0.5122 0.6627 0.2158
0.6329 0.6606 0.2344
0.7451 0.6685 0.2613
0.8481 0.6857 0.2842
0.0213 0.7143 0.1220
0.1252 0.7072 0.1209
0.2619 0.6997 0.1198
0.3937 0.7090 0.1355
0.5082 0.7608 0.2077
0.6274 0.7695 0.2462
0.7500 0.7660 0.2659
0.8588 0.7733 0.2833
0.0214 0.0216 0.1715
0.1091 0.0217 0.1967
0.1976 0.0219 0.2106
0.2958 0.0221 0.2300
0.3981 0.0222 0.2423
0.4813 0.0222 0.2546
0.5633 0.0223 0.2632
0.6411 0.0222 0.2596
0.0214 0.0945 0.1854
0.1146 0.1093 0.2191
0.2189 0.1237 0.2408
0.3230 0.1373 0.2507
0.4259 0.1504 0.2580
0.5064 0.1586 0.2663
0.5827 0.1634 0.2702
0.6607 0.1603 0.2647
0.0214 0.1894 0.2022
0.1184 0.2213 0.2342
0.2308 0.2508 0.2587
0.3505 0.2613 0.2706
0.4615 0.2726 0.2842
0.5641 0.2867 0.2978
0.6380 0.2945 0.2989
0.6994 0.2920 0.2877
0.0214 0.2907 0.2154
0.1256 0.3144 0.2397
0.2408 0.3614 0.2681
0.3649 0.3883 0.2860
0.4823 0.4021 0.2980
0.5933 0.4170 0.3166
0.6993 0.4265 0.3387
0.7826 0.4269 0.3473
0.0213 0.3956 0.2201
0.1263 0.4021 0.2421
0.2506 0.4244 0.2706
0.3812 0.4737 0.3162
0.5066 0.4970 0.3277
0.6143 0.5238 0.3377
0.7176 0.5446 0.3601
0.8185 0.5525 0.3845
0.0213 0.5016 0.2229
0.1251 0.4944 0.2447
0.2572 0.4936 0.2568
0.3879 0.5421 0.3106
0.5275 0.5737 0.3457
0.6448 0.5868 0.3585
0.7368 0.6220 0.3870
0.8336 0.6501 0.4115
0.0213 0.6072 0.2311
0.1258 0.5938 0.2484
0.2625 0.5870 0.2514
0.3948 0.6078 0.2726
0.5230 0.6685 0.3309
0.6544 0.6754 0.3505
0.7586 0.6851 0.3855
0.8497 0.7188 0.4286
0.0213 0.7137 0.2402
0.1300 0.7023 0.2499
0.2684 0.6963 0.2497
0.4047 0.6948 0.2492
0.5282 0.7367 0.2900
0.6469 0.7777 0.3508
0.7663 0.7746 0.3810
0.8695 0.7872 0.4168
0.0214 0.0215 0.2297
0.1152 0.0216 0.2650
0.2014 0.0220 0.2943
0.3160 0.0222 0.3085
0.4219 0.0223 0.3447
0.5191 0.0224 0.3540
0.6035 0.0225 0.3626
0.6959 0.0224 0.3718
0.0214 0.0923 0.2610
0.1228 0.1080 0.2947
0.2245 0.1344 0.3301
0.3375 0.1495 0.3388
0.4396 0.1618 0.3545
0.5391 0.1722 0.3591
0.6137 0.1776 0.3690
0.7024 0.1772 0.3749
0.0214 0.1900 0.2954
0.1292 0.2207 0.3265
0.2404 0.2577 0.3692
0.3632 0.2731 0.3840
0.4710 0.2822 0.3879
0.5737 0.2955 0.3927
0.6558 0.3067 0.3985
0.7263 0.3119 0.3987
0.0214 0.2903 0.3106
0.1338 0.3239 0.3417
0.2487 0.3772 0.3814
0.3776 0.4059 0.4020
0.4978 0.4118 0.4109
0.6018 0.4174 0.4195
0.7015 0.4303 0.4330
0.7815 0.4381 0.4346
0.0214 0.3929 0.3211
0.1357 0.4194 0.3467
0.2546 0.4550 0.3728
0.3808 0.5106 0.4052
0.5058 0.5311 0.4231
0.6187 0.5406 0.4319
0.7205 0.5535 0.4495
0.8256 0.5637 0.4779
0.0213 0.5004 0.3242
0.1366 0.5122 0.3423
0.2630 0.5229 0.3642
0.3862 0.5507 0.3968
0.5112 0.6023 0.4456
0.6392 0.6266 0.4579
0.7420 0.6569 0.4696
0.8386 0.6793 0.4992
0.0213 0.6153 0.3212
0.1368 0.6078 0.3405
0.2722 0.6029 0.3657
0.4028 0.6017 0.3768
0.5194 0.6551 0.4382
0.6536 0.6924 0.4783
0.7764 0.7093 0.4948
0.8611 0.7500 0.5278
0.0213 0.7295 0.3204
0.1382 0.7129 0.3468
0.2770 0.7018 0.3705
0.4132 0.6992 0.3710
0.5384 0.7234 0.3924
0.6522 0.7861 0.4634
0.7834 0.7939 0.4899
0.8829 0.8037 0.5316
0.0213 0.0214 0.3139
0.1231 0.0215 0.3344
0.2055 0.0220 0.3947
0.3242 0.0223 0.4019
0.4417 0.0224 0.4151
0.5248 0.0225 0.4505
0.6102 0.0226 0.4563
0.7124 0.0226 0.4571
0.0213 0.0948 0.3408
0.1245 0.1047 0.3648
0.2272 0.1353 0.4192
0.3427 0.1603 0.4291
0.4572 0.1715 0.4359
0.5429 0.1769 0.4569
0.6262 0.1838 0.4578
0.7143 0.1863 0.4605
0.0214 0.1948 0.3899
0.1317 0.2198 0.4100
0.2459 0.2585 0.4518
0.3655 0.2821 0.4740
0.4792 0.2939 0.4753
0.5743 0.3078 0.4832
0.6692 0.3217 0.4852
0.7468 0.3275 0.4908
0.0214 0.2964 0.4126
0.1397 0.3271 0.4367
0.2598 0.3758 0.4762
0.3874 0.4103 0.5156
0.5100 0.4204 0.5262
0.6105 0.4249 0.5254
0.7045 0.4378 0.5315
0.7939 0.4498 0.5366
0.0214 0.3966 0.4209
0.1451 0.4244 0.4479
0.2660 0.4691 0.4860
0.3932 0.5220 0.5223
0.5219 0.5456 0.5405
0.6345 0.5458 0.5449
0.7295 0.5500 0.5525
0.8255 0.5653 0.5702
0.0214 0.4990 0.4313
0.1468 0.5143 0.4500
0.2764 0.5500 0.4812
0.3971 0.5855 0.5044
0.5201 0.6430 0.5381
0.6383 0.6567 0.5536
0.7444 0.6665 0.5656
0.8400 0.6797 0.5873
0.0214 0.6076 0.4385
0.1429 0.6083 0.4423
0.2880 0.6373 0.4722
0.4100 0.6404 0.4892
0.5276 0.6683 0.5208
0.6420 0.7216 0.5726
0.7663 0.7505 0.5949
0.8635 0.7837 0.6101
0.0214 0.7242 0.4345
0.1418 0.7194 0.4348
0.2852 0.7221 0.4627
0.4204 0.7213 0.4865
0.5488 0.7194 0.4938
0.6605 0.7705 0.5627
0.7847 0.8134 0.6253
0.8973 0.8374 0.6493
0.0213 0.0213 0.4234
0.1196 0.0213 0.4248
0.2194 0.0219 0.4805
0.3231 0.0224 0.5189
0.4448 0.0225 0.5078
0.5499 0.0226 0.5086
0.6157 0.0226 0.5449
0.7039 0.0226 0.5543
0.0213 0.0977 0.4306
0.1165 0.1012 0.4395
0.2327 0.1252 0.4980
0.3406 0.1664 0.5358
0.4561 0.1819 0.5235
0.5595 0.1856 0.5239
0.6291 0.1862 0.5510
0.7086 0.1914 0.5521
0.0213 0.2029 0.4797
0.1230 0.2194 0.4838
0.2425 0.2545 0.5274
0.3687 0.2881 0.5647
0.4830 0.3045 0.5656
0.5913 0.3181 0.5630
0.6647 0.3264 0.5733
0.7523 0.3354 0.5712
0.0214 0.3035 0.5144
0.1386 0.3267 0.5244
0.2629 0.3720 0.5622
0.3920 0.4099 0.5940
0.5101 0.4273 0.6129
0.6183 0.4366 0.6121
0.7064 0.4515 0.6194
0.8014 0.4700 0.6196
0.0214 0.4058 0.5283
0.1512 0.4297 0.5454
0.2747 0.4742 0.5776
0.4039 0.5168 0.6120
0.5299 0.5456 0.6515
0.6472 0.5516 0.6592
0.7408 0.5579 0.6593
0.8304 0.5731 0.6690
0.0214 0.5054 0.5340
0.1664 0.5209 0.5502
0.2825 0.5575 0.5854
0.4117 0.5985 0.6185
0.5319 0.6481 0.6518
0.6543 0.6676 0.6672
0.7597 0.6667 0.6723
0.8459 0.6743 0.6862
0.0214 0.6127 0.5409
0.1642 0.6086 0.5509
0.2929 0.6375 0.5803
0.4273 0.6695 0.6106
0.5395 0.7032 0.6305
0.6526 0.7589 0.6609
0.7637 0.7732 0.6795
0.8587 0.7865 0.6994
0.0214 0.7227 0.5501
0.1480 0.7153 0.5531
0.2848 0.7251 0.5643
0.4338 0.7584 0.5994
0.5541 0.7584 0.6135
0.6693 0.7859 0.6413
0.7742 0.8419 0.7084
0.8845 0.8707 0.7305
0.0213 0.0213 0.5383
0.1080 0.0213 0.5338
0.2250 0.0215 0.5528
0.3195 0.0224 0.6230
0.4331 0.0226 0.6197
0.5489 0.0226 0.6033
0.6504 0.0227 0.6018
0.7187 0.0227 0.6414
0.0213 0.0976 0.5338
0.1027 0.0972 0.5308
0.2268 0.1053 0.5539
0.3367 0.1585 0.6256
0.4377 0.1874 0.6240
0.5495 0.1921 0.6049
0.6487 0.1932 0.6041
0.7202 0.1956 0.6393
0.0213 0.2114 0.5629
0.1049 0.2197 0.5539
0.2286 0.2400 0.5846
0.3676 0.2806 0.6530
0.4822 0.3112 0.6680
0.5886 0.3286 0.6521
0.6791 0.3335 0.6442
0.7528 0.3337 0.6603
0.0214 0.3140 0.6136
0.1279 0.3271 0.6038
0.2466 0.3621 0.6215
0.3814 0.4021 0.6652
0.5095 0.4292 0.6900
0.6193 0.4446 0.6958
0.7215 0.4615 0.6916
0.7963 0.4747 0.6939
0.0214 0.4145 0.6351
0.1509 0.4331 0.6349
0.2750 0.4689 0.6604
0.4061 0.5085 0.6902
0.5317 0.5415 0.7172
0.6458 0.5584 0.7393
0.7496 0.5711 0.7419
0.8343 0.5878 0.7465
0.0214 0.5165 0.6452
0.1752 0.5292 0.6505
0.2897 0.5627 0.6746
0.4208 0.6028 0.7005
0.5423 0.6379 0.7326
0.6605 0.6631 0.7721
0.7719 0.6680 0.7795
0.8588 0.6792 0.7834
0.0215 0.6184 0.6509
0.1990 0.6197 0.6537
0.3064 0.6430 0.6771
0.4318 0.6774 0.7107
0.5563 0.7146 0.7389
0.6638 0.7603 0.7694
0.7768 0.7776 0.7835
0.8750 0.7811 0.7946
0.0215 0.7342 0.6533
0.1901 0.7266 0.6594
0.3018 0.7270 0.6743
0.4287 0.7556 0.7045
0.5678 0.7852 0.7338
0.6793 0.8165 0.7517
0.7810 0.8692 0.7810
0.8838 0.8846 0.8025
0.0213 0.0212 0.6529
0.0951 0.0212 0.6483
0.2174 0.0212 0.6459
0.3166 0.0221 0.7059
0.4205 0.0226 0.7326
0.5359 0.0227 0.7179
0.6496 0.0227 0.7048
0.7537 0.0227 0.7067
0.0213 0.0944 0.6471
0.0881 0.0929 0.6425
0.2101 0.0918 0.6397
0.3245 0.1263 0.6830
0.4219 0.1861 0.7277
0.5313 0.1940 0.7137
0.6431 0.1956 0.7009
0.7485 0.1979 0.7041
0.0212 0.2174 0.6522
0.0811 0.2188 0.6413
0.2032 0.2225 0.6469
0.3431 0.2459 0.6990
0.4714 0.3016 0.7613
0.5614 0.3303 0.7451
0.6578 0.3364 0.7215
0.7541 0.3366 0.7183
0.0213 0.3249 0.7075
0.1042 0.3322 0.6853
0.2153 0.3510 0.6786
0.3542 0.3766 0.7158
0.5007 0.4146 0.7751
0.6171 0.4427 0.7924
0.7179 0.4702 0.7853
0.8030 0.4760 0.7738
0.0214 0.4249 0.7436
0.1411 0.4410 0.7328
0.2572 0.4602 0.7269
0.3806 0.4945 0.7455
0.5139 0.5271 0.7798
0.6358 0.5528 0.8006
0.7432 0.5766 0.8135
0.8415 0.5981 0.8109
0.0214 0.5244 0.7533
0.1740 0.5369 0.7505
0.2883 0.5609 0.7573
0.4183 0.5948 0.7826
0.5453 0.6269 0.8038
0.6607 0.6559 0.8261
0.7677 0.6744 0.8492
0.8609 0.6905 0.8520
0.0215 0.6306 0.7624
0.1971 0.6333 0.7607
0.3168 0.6492 0.7703
0.4339 0.6800 0.7946
0.5626 0.7146 0.8156
0.6761 0.7470 0.8435
0.7834 0.7714 0.8805
0.8860 0.7787 0.8886
0.0215 0.7378 0.7728
0.2112 0.7378 0.7722
0.3389 0.7420 0.7783
0.4433 0.7610 0.7990
0.5648 0.7897 0.8257
0.6891 0.8226 0.8514
0.7928 0.8686 0.8805
0.8961 0.8873 0.8935
