lut/adanmq/Adanmq_Fuji_Astia_100.cube
TITLE "Adanmq_Fuji Astia 100"
LUT_3D_SIZE 32
0.0215 0.0228 0.0223
0.0567 0.0228 0.0223
0.0869 0.0227 0.0223
0.1066 0.0227 0.0223
0.1202 0.0227 0.0223
0.1358 0.0227 0.0223
0.1556 0.0227 0.0223
0.1799 0.0228 0.0224
0.2079 0.0228 0.0224
0.2380 0.0228 0.0224
0.2689 0.0228 0.0224
0.3002 0.0228 0.0224
0.3315 0.0229 0.0224
0.3625 0.0229 0.0224
0.3933 0.0229 0.0224
0.4236 0.0229 0.0224
0.4533 0.0229 0.0224
0.4825 0.0229 0.0224
0.5112 0.0229 0.0223
0.5395 0.0229 0.0223
0.5675 0.0229 0.0223
0.5951 0.0230 0.0222
0.6225 0.0229 0.0222
0.6497 0.0229 0.0221
0.6769 0.0229 0.0221
0.7041 0.0229 0.0220
0.7317 0.0229 0.0219
0.7596 0.0229 0.0219
0.7881 0.0228 0.0218
0.8170 0.0228 0.0217
0.8467 0.0228 0.0216
0.8782 0.0227 0.0223
0.0215 0.0562 0.0223
0.0566 0.0559 0.0223
0.0867 0.0552 0.0223
0.1064 0.0545 0.0223
0.1200 0.0541 0.0223
0.1353 0.0541 0.0223
0.1544 0.0544 0.0223
0.1781 0.0548 0.0223
0.2054 0.0552 0.0224
0.2349 0.0557 0.0224
0.2655 0.0561 0.0224
0.2966 0.0566 0.0224
0.3278 0.0571 0.0224
0.3588 0.0576 0.0224
0.3897 0.0581 0.0224
0.4201 0.0586 0.0224
0.4499 0.0591 0.0224
0.4793 0.0594 0.0224
0.5081 0.0597 0.0224
0.5364 0.0600 0.0223
0.5644 0.0602 0.0223
0.5920 0.0602 0.0222
0.6194 0.0602 0.0222
0.6467 0.0600 0.0221
0.6740 0.0597 0.0221
0.7014 0.0592 0.0220
0.7292 0.0586 0.0219
0.7574 0.0579 0.0219
0.7862 0.0571 0.0218
0.8155 0.0564 0.0217
0.8456 0.0559 0.0216
0.8772 0.0556 0.0223
0.0215 0.0876 0.0223
0.0562 0.0871 0.0223
0.0859 0.0859 0.0222
0.1055 0.0844 0.0222
0.1191 0.0832 0.0222
0.1338 0.0823 0.0223
0.1521 0.0820 0.0223
0.1746 0.0822 0.0223
0.2009 0.0827 0.0223
0.2297 0.0836 0.0224
0.2598 0.0848 0.0224
0.2906 0.0862 0.0224
0.3216 0.0876 0.0224
0.3526 0.0891 0.0225
0.3835 0.0905 0.0225
0.4140 0.0919 0.0225
0.4441 0.0930 0.0225
0.4737 0.0940 0.0224
0.5027 0.0949 0.0224
0.5312 0.0957 0.0224
0.5593 0.0964 0.0223
0.5869 0.0970 0.0223
0.6144 0.0974 0.0222
0.6417 0.0975 0.0222
0.6691 0.0972 0.0221
0.6967 0.0966 0.0220
0.7247 0.0956 0.0219
0.7534 0.0945 0.0219
0.7827 0.0931 0.0218
0.8126 0.0918 0.0217
0.8433 0.0907 0.0216
0.8753 0.0902 0.0223
0.0215 0.1077 0.0222
0.0554 0.1074 0.0222
0.0843 0.1066 0.0222
0.1034 0.1051 0.0222
0.1169 0.1035 0.0222
0.1316 0.1021 0.0222
0.1494 0.1013 0.0223
0.1714 0.1014 0.0223
0.1971 0.1022 0.0223
0.2255 0.1039 0.0224
0.2554 0.1060 0.0224
0.2861 0.1086 0.0224
0.3171 0.1114 0.0225
0.3479 0.1141 0.0225
0.3787 0.1167 0.0225
0.4092 0.1190 0.0225
0.4393 0.1209 0.0225
0.4692 0.1227 0.0225
0.4984 0.1244 0.0225
0.5272 0.1259 0.0225
0.5554 0.1274 0.0224
0.5832 0.1288 0.0224
0.6107 0.1301 0.0223
0.6380 0.1310 0.0223
0.6654 0.1313 0.0222
0.6930 0.1312 0.0221
0.7211 0.1305 0.0220
0.7498 0.1293 0.0219
0.7794 0.1278 0.0219
0.8098 0.1261 0.0218
0.8409 0.1246 0.0217
0.8731 0.1242 0.0223
0.0215 0.1179 0.0222
0.0544 0.1182 0.0222
0.0822 0.1186 0.0222
0.1004 0.1185 0.0222
0.1142 0.1180 0.0222
0.1294 0.1177 0.0223
0.1477 0.1179 0.0223
0.1699 0.1189 0.0223
0.1958 0.1207 0.0223
0.2244 0.1230 0.0224
0.2545 0.1259 0.0224
0.2853 0.1292 0.0224
0.3164 0.1327 0.0225
0.3473 0.1362 0.0225
0.3780 0.1395 0.0225
0.4084 0.1424 0.0226
0.4384 0.1449 0.0226
0.4681 0.1470 0.0226
0.4974 0.1489 0.0226
0.5263 0.1508 0.0226
0.5548 0.1527 0.0226
0.5828 0.1546 0.0225
0.6103 0.1565 0.0225
0.6376 0.1580 0.0224
0.6649 0.1592 0.0224
0.6922 0.1597 0.0223
0.7200 0.1597 0.0222
0.7485 0.1592 0.0221
0.7779 0.1581 0.0220
0.8082 0.1568 0.0219
0.8393 0.1554 0.0218
0.8715 0.1549 0.0223
0.0215 0.1271 0.0222
0.0532 0.1279 0.0222
0.0800 0.1294 0.0222
0.0977 0.1312 0.0222
0.1119 0.1328 0.0222
0.1280 0.1345 0.0223
0.1473 0.1366 0.0223
0.1704 0.1393 0.0224
0.1969 0.1424 0.0224
0.2258 0.1458 0.0224
0.2561 0.1494 0.0224
0.2872 0.1532 0.0225
0.3186 0.1573 0.0225
0.3497 0.1615 0.0225
0.3806 0.1655 0.0226
0.4110 0.1691 0.0226
0.4410 0.1721 0.0226
0.4706 0.1746 0.0226
0.4997 0.1767 0.0226
0.5285 0.1787 0.0226
0.5568 0.1807 0.0226
0.5848 0.1827 0.0226
0.6124 0.1849 0.0226
0.6395 0.1868 0.0226
0.6665 0.1885 0.0225
0.6935 0.1898 0.0225
0.7209 0.1905 0.0224
0.7490 0.1906 0.0223
0.7779 0.1903 0.0222
0.8078 0.1895 0.0221
0.8386 0.1886 0.0220
0.8706 0.1879 0.0223
0.0215 0.1389 0.0222
0.0522 0.1400 0.0222
0.0783 0.1426 0.0222
0.0960 0.1462 0.0222
0.1111 0.1501 0.0223
0.1284 0.1541 0.0223
0.1490 0.1584 0.0224
0.1731 0.1630 0.0224
0.2001 0.1676 0.0225
0.2291 0.1721 0.0225
0.2595 0.1764 0.0225
0.2908 0.1807 0.0225
0.3224 0.1853 0.0226
0.3539 0.1901 0.0226
0.3853 0.1948 0.0226
0.4161 0.1992 0.0226
0.4463 0.2029 0.0227
0.4759 0.2058 0.0227
0.5048 0.2082 0.0227
0.5332 0.2102 0.0227
0.5612 0.2121 0.0227
0.5887 0.2141 0.0227
0.6160 0.2162 0.0227
0.6428 0.2183 0.0227
0.6695 0.2202 0.0227
0.6960 0.2219 0.0226
0.7229 0.2232 0.0226
0.7505 0.2240 0.0225
0.7789 0.2244 0.0224
0.8083 0.2243 0.0224
0.8387 0.2241 0.0223
0.8704 0.2232 0.0223
0.0214 0.1555 0.0222
0.0513 0.1566 0.0222
0.0775 0.1599 0.0222
0.0960 0.1652 0.0222
0.1124 0.1712 0.0223
0.1310 0.1774 0.0224
0.1528 0.1837 0.0224
0.1778 0.1898 0.0225
0.2051 0.1956 0.0225
0.2341 0.2011 0.0226
0.2642 0.2061 0.0226
0.2952 0.2109 0.0226
0.3270 0.2159 0.0226
0.3589 0.2210 0.0226
0.3908 0.2264 0.0226
0.4223 0.2315 0.0227
0.4531 0.2360 0.0227
0.4830 0.2397 0.0227
0.5119 0.2425 0.0228
0.5401 0.2446 0.0228
0.5674 0.2464 0.0228
0.5943 0.2481 0.0228
0.6208 0.2499 0.0228
0.6469 0.2518 0.0228
0.6730 0.2537 0.0228
0.6990 0.2555 0.0228
0.7253 0.2571 0.0228
0.7523 0.2585 0.0227
0.7801 0.2594 0.0227
0.8090 0.2601 0.0226
0.8391 0.2604 0.0226
0.8707 0.2596 0.0223
0.0214 0.1766 0.0221
0.0506 0.1777 0.0222
0.0774 0.1814 0.0222
0.0978 0.1880 0.0222
0.1157 0.1959 0.0223
0.1357 0.2040 0.0224
0.1586 0.2118 0.0225
0.1843 0.2189 0.0225
0.2118 0.2255 0.0226
0.2404 0.2317 0.0226
0.2698 0.2373 0.0226
0.3004 0.2427 0.0226
0.3319 0.2479 0.0227
0.3640 0.2534 0.0227
0.3965 0.2590 0.0227
0.4287 0.2646 0.0227
0.4602 0.2698 0.0228
0.4908 0.2742 0.0228
0.5201 0.2777 0.0228
0.5482 0.2804 0.0229
0.5752 0.2823 0.0229
0.6013 0.2838 0.0229
0.6269 0.2852 0.0229
0.6519 0.2867 0.0229
0.6770 0.2883 0.0229
0.7021 0.2900 0.0229
0.7277 0.2917 0.0229
0.7541 0.2932 0.0229
0.7814 0.2945 0.0229
0.8099 0.2957 0.0228
0.8397 0.2965 0.0228
0.8712 0.2959 0.0223
0.0214 0.2010 0.0221
0.0500 0.2020 0.0221
0.0779 0.2059 0.0222
0.1007 0.2135 0.0222
0.1205 0.2229 0.0223
0.1418 0.2327 0.0224
0.1656 0.2417 0.0225
0.1919 0.2495 0.0226
0.2196 0.2563 0.0226
0.2479 0.2628 0.0226
0.2766 0.2690 0.0227
0.3063 0.2749 0.0227
0.3372 0.2805 0.0227
0.3691 0.2861 0.0228
0.4018 0.2918 0.0228
0.4346 0.2975 0.0228
0.4669 0.3030 0.0228
0.4982 0.3082 0.0229
0.5282 0.3125 0.0229
0.5568 0.3159 0.0229
0.5839 0.3184 0.0229
0.6096 0.3200 0.0229
0.6343 0.3213 0.0230
0.6582 0.3224 0.0230
0.6821 0.3235 0.0230
0.7061 0.3248 0.0230
0.7306 0.3263 0.0230
0.7562 0.3278 0.0230
0.7829 0.3292 0.0230
0.8110 0.3306 0.0230
0.8405 0.3317 0.0230
0.8718 0.3314 0.0223
0.0214 0.2274 0.0221
0.0497 0.2282 0.0221
0.0787 0.2321 0.0221
0.1042 0.2401 0.0222
0.1260 0.2508 0.0223
0.1485 0.2622 0.0224
0.1732 0.2724 0.0225
0.2000 0.2807 0.0226
0.2280 0.2875 0.0226
0.2562 0.2939 0.0227
0.2844 0.3003 0.0227
0.3132 0.3067 0.0228
0.3431 0.3128 0.0228
0.3744 0.3186 0.0228
0.4069 0.3242 0.0228
0.4399 0.3298 0.0229
0.4728 0.3354 0.0229
0.5048 0.3409 0.0229
0.5356 0.3459 0.0229
0.5648 0.3502 0.0230
0.5923 0.3536 0.0230
0.6182 0.3559 0.0230
0.6425 0.3574 0.0230
0.6658 0.3584 0.0231
0.6885 0.3592 0.0231
0.7112 0.3601 0.0231
0.7346 0.3611 0.0231
0.7591 0.3623 0.0231
0.7852 0.3636 0.0231
0.8127 0.3649 0.0231
0.8419 0.3660 0.0231
0.8728 0.3658 0.0223
0.0214 0.2552 0.0220
0.0495 0.2558 0.0220
0.0797 0.2592 0.0221
0.1078 0.2671 0.0221
0.1315 0.2785 0.0222
0.1552 0.2913 0.0223
0.1805 0.3029 0.0225
0.2078 0.3119 0.0226
0.2362 0.3188 0.0226
0.2647 0.3248 0.0227
0.2928 0.3310 0.0227
0.3210 0.3376 0.0228
0.3499 0.3441 0.0228
0.3802 0.3503 0.0229
0.4120 0.3561 0.0229
0.4448 0.3616 0.0229
0.4779 0.3669 0.0229
0.5105 0.3724 0.0230
0.5418 0.3777 0.0230
0.5716 0.3827 0.0230
0.5997 0.3871 0.0231
0.6260 0.3904 0.0231
0.6507 0.3928 0.0231
0.6738 0.3942 0.0232
0.6959 0.3950 0.0232
0.7176 0.3956 0.0232
0.7399 0.3962 0.0232
0.7634 0.3970 0.0232
0.7886 0.3980 0.0232
0.8156 0.3990 0.0232
0.8444 0.3999 0.0232
0.8747 0.3997 0.0223
0.0214 0.2839 0.0220
0.0494 0.2842 0.0220
0.0808 0.2868 0.0220
0.1113 0.2941 0.0221
0.1367 0.3056 0.0222
0.1614 0.3195 0.0223
0.1872 0.3326 0.0224
0.2148 0.3429 0.0226
0.2438 0.3501 0.0226
0.2729 0.3556 0.0227
0.3013 0.3612 0.0228
0.3292 0.3675 0.0228
0.3574 0.3743 0.0229
0.3866 0.3810 0.0229
0.4174 0.3872 0.0229
0.4495 0.3927 0.0230
0.4824 0.3980 0.0230
0.5152 0.4031 0.0230
0.5470 0.4082 0.0230
0.5773 0.4135 0.0231
0.6059 0.4186 0.0231
0.6327 0.4231 0.0232
0.6578 0.4266 0.0232
0.6812 0.4290 0.0233
0.7034 0.4304 0.0233
0.7248 0.4311 0.0233
0.7463 0.4315 0.0233
0.7690 0.4319 0.0233
0.7935 0.4324 0.0233
0.8199 0.4331 0.0233
0.8484 0.4338 0.0233
0.8779 0.4334 0.0223
0.0214 0.3132 0.0219
0.0495 0.3132 0.0219
0.0819 0.3149 0.0219
0.1144 0.3209 0.0220
0.1415 0.3319 0.0221
0.1671 0.3464 0.0222
0.1932 0.3611 0.0224
0.2210 0.3730 0.0226
0.2502 0.3812 0.0226
0.2800 0.3866 0.0227
0.3091 0.3915 0.0228
0.3375 0.3971 0.0228
0.3654 0.4036 0.0229
0.3938 0.4105 0.0229
0.4234 0.4172 0.0230
0.4546 0.4232 0.0230
0.4868 0.4285 0.0231
0.5194 0.4334 0.0231
0.5513 0.4381 0.0231
0.5819 0.4431 0.0231
0.6108 0.4483 0.0232
0.6379 0.4536 0.0232
0.6635 0.4582 0.0233
0.6874 0.4620 0.0233
0.7101 0.4645 0.0234
0.7317 0.4659 0.0234
0.7531 0.4665 0.0234
0.7754 0.4667 0.0234
0.7994 0.4670 0.0234
0.8255 0.4673 0.0234
0.8539 0.4676 0.0234
0.8827 0.4671 0.0223
0.0214 0.3426 0.0219
0.0497 0.3424 0.0219
0.0829 0.3432 0.0219
0.1172 0.3478 0.0219
0.1457 0.3576 0.0220
0.1723 0.3721 0.0222
0.1987 0.3881 0.0224
0.2263 0.4021 0.0225
0.2556 0.4118 0.0226
0.2859 0.4179 0.0227
0.3160 0.4222 0.0228
0.3452 0.4269 0.0228
0.3735 0.4328 0.0229
0.4016 0.4394 0.0230
0.4304 0.4463 0.0230
0.4603 0.4528 0.0231
0.4915 0.4585 0.0231
0.5234 0.4634 0.0231
0.5550 0.4679 0.0232
0.5858 0.4724 0.0232
0.6149 0.4771 0.0232
0.6423 0.4824 0.0233
0.6680 0.4877 0.0233
0.6923 0.4926 0.0234
0.7155 0.4966 0.0235
0.7377 0.4992 0.0235
0.7595 0.5006 0.0236
0.7820 0.5012 0.0236
0.8060 0.5013 0.0236
0.8320 0.5013 0.0236
0.8604 0.5014 0.0236
0.8887 0.5008 0.0223
0.0214 0.3722 0.0219
0.0501 0.3719 0.0219
0.0840 0.3720 0.0219
0.1198 0.3750 0.0219
0.1496 0.3832 0.0219
0.1771 0.3969 0.0221
0.2038 0.4138 0.0223
0.2312 0.4298 0.0225
0.2602 0.4419 0.0226
0.2907 0.4494 0.0227
0.3216 0.4539 0.0228
0.3520 0.4578 0.0229
0.3813 0.4626 0.0229
0.4097 0.4685 0.0230
0.4381 0.4752 0.0230
0.4670 0.4819 0.0231
0.4970 0.4881 0.0232
0.5278 0.4934 0.0232
0.5588 0.4979 0.0232
0.5893 0.5019 0.0233
0.6184 0.5059 0.0233
0.6459 0.5106 0.0233
0.6718 0.5158 0.0234
0.6963 0.5213 0.0235
0.7198 0.5265 0.0235
0.7425 0.5305 0.0236
0.7650 0.5333 0.0237
0.7880 0.5347 0.0237
0.8124 0.5352 0.0237
0.8387 0.5352 0.0237
0.8673 0.5351 0.0238
0.8954 0.5344 0.0223
0.0214 0.4018 0.0218
0.0505 0.4015 0.0218
0.0851 0.4012 0.0218
0.1221 0.4027 0.0218
0.1532 0.4089 0.0219
0.1816 0.4212 0.0220
0.2087 0.4381 0.0222
0.2359 0.4560 0.0224
0.2644 0.4708 0.0226
0.2947 0.4805 0.0228
0.3261 0.4860 0.0228
0.3575 0.4896 0.0229
0.3880 0.4934 0.0229
0.4173 0.4983 0.0230
0.4459 0.5043 0.0230
0.4744 0.5108 0.0231
0.5033 0.5173 0.0232
0.5330 0.5230 0.0232
0.5629 0.5278 0.0233
0.5927 0.5317 0.0233
0.6216 0.5352 0.0233
0.6492 0.5389 0.0234
0.6752 0.5434 0.0234
0.6998 0.5486 0.0235
0.7234 0.5543 0.0236
0.7464 0.5596 0.0237
0.7694 0.5637 0.0237
0.7930 0.5665 0.0238
0.8180 0.5679 0.0239
0.8447 0.5684 0.0239
0.8737 0.5683 0.0239
0.9050 0.5683 0.0223
0.0214 0.4316 0.0218
0.0510 0.4312 0.0218
0.0863 0.4306 0.0218
0.1244 0.4311 0.0217
0.1565 0.4354 0.0218
0.1860 0.4457 0.0219
0.2137 0.4618 0.0221
0.2407 0.4808 0.0223
0.2686 0.4982 0.0226
0.2983 0.5108 0.0227
0.3297 0.5182 0.0229
0.3618 0.5222 0.0229
0.3934 0.5254 0.0229
0.4239 0.5292 0.0230
0.4532 0.5342 0.0231
0.4818 0.5401 0.0231
0.5102 0.5463 0.0232
0.5389 0.5524 0.0233
0.5677 0.5576 0.0233
0.5965 0.5618 0.0234
0.6249 0.5650 0.0234
0.6522 0.5680 0.0234
0.6783 0.5714 0.0235
0.7030 0.5757 0.0235
0.7267 0.5810 0.0236
0.7498 0.5867 0.0237
0.7731 0.5920 0.0238
0.7971 0.5962 0.0239
0.8225 0.5989 0.0240
0.8496 0.6003 0.0240
0.8788 0.6008 0.0240
0.9101 0.6008 0.0223
0.0214 0.4615 0.0217
0.0516 0.4612 0.0217
0.0877 0.4605 0.0217
0.1266 0.4603 0.0217
0.1597 0.4628 0.0217
0.1902 0.4708 0.0218
0.2187 0.4854 0.0220
0.2459 0.5046 0.0222
0.2732 0.5241 0.0225
0.3020 0.5397 0.0227
0.3329 0.5497 0.0229
0.3651 0.5550 0.0229
0.3975 0.5582 0.0230
0.4291 0.5612 0.0230
0.4594 0.5651 0.0231
0.4887 0.5700 0.0231
0.5171 0.5756 0.0232
0.5451 0.5815 0.0233
0.5730 0.5870 0.0233
0.6008 0.5915 0.0234
0.6283 0.5950 0.0235
0.6552 0.5976 0.0235
0.6811 0.6000 0.0235
0.7059 0.6031 0.0236
0.7298 0.6073 0.0236
0.7530 0.6126 0.0237
0.7763 0.6183 0.0238
0.8005 0.6236 0.0239
0.8261 0.6277 0.0240
0.8535 0.6305 0.0241
0.8827 0.6319 0.0242
0.9140 0.6323 0.0223
0.0214 0.4916 0.0217
0.0524 0.4913 0.0217
0.0892 0.4907 0.0217
0.1290 0.4902 0.0216
0.1628 0.4913 0.0216
0.1943 0.4970 0.0217
0.2238 0.5094 0.0219
0.2513 0.5278 0.0221
0.2782 0.5486 0.0224
0.3062 0.5671 0.0226
0.3361 0.5801 0.0228
0.3679 0.5875 0.0229
0.4006 0.5912 0.0230
0.4329 0.5939 0.0230
0.4643 0.5969 0.0231
0.4943 0.6007 0.0231
0.5232 0.6054 0.0232
0.5512 0.6107 0.0233
0.5785 0.6160 0.0233
0.6055 0.6208 0.0234
0.6321 0.6246 0.0235
0.6583 0.6272 0.0236
0.6838 0.6291 0.0236
0.7086 0.6311 0.0236
0.7325 0.6339 0.0237
0.7559 0.6381 0.0237
0.7794 0.6434 0.0238
0.8036 0.6490 0.0239
0.8293 0.6542 0.0240
0.8566 0.6584 0.0242
0.8858 0.6610 0.0243
0.9169 0.6622 0.0223
0.0214 0.5220 0.0216
0.0532 0.5217 0.0216
0.0909 0.5212 0.0216
0.1316 0.5206 0.0216
0.1659 0.5210 0.0216
0.1983 0.5246 0.0216
0.2288 0.5344 0.0218
0.2570 0.5511 0.0220
0.2838 0.5722 0.0222
0.3109 0.5929 0.0226
0.3397 0.6090 0.0228
0.3706 0.6190 0.0229
0.4030 0.6242 0.0230
0.4356 0.6269 0.0231
0.4677 0.6293 0.0231
0.4987 0.6321 0.0232
0.5282 0.6357 0.0232
0.5565 0.6401 0.0233
0.5837 0.6449 0.0233
0.6101 0.6495 0.0234
0.6360 0.6535 0.0235
0.6614 0.6563 0.0236
0.6864 0.6581 0.0237
0.7109 0.6593 0.0237
0.7349 0.6609 0.0237
0.7584 0.6636 0.0238
0.7821 0.6678 0.0238
0.8065 0.6730 0.0240
0.8322 0.6786 0.0240
0.8594 0.6839 0.0242
0.8885 0.6878 0.0243
0.9195 0.6900 0.0223
0.0215 0.5528 0.0216
0.0542 0.5525 0.0216
0.0928 0.5521 0.0216
0.1343 0.5516 0.0216
0.1691 0.5516 0.0215
0.2023 0.5537 0.0216
0.2338 0.5608 0.0217
0.2629 0.5751 0.0219
0.2900 0.5953 0.0221
0.3164 0.6173 0.0224
0.3439 0.6363 0.0227
0.3735 0.6494 0.0229
0.4051 0.6565 0.0230
0.4376 0.6599 0.0231
0.4701 0.6620 0.0231
0.5017 0.6640 0.0232
0.5319 0.6665 0.0232
0.5608 0.6698 0.0233
0.5882 0.6736 0.0233
0.6144 0.6778 0.0234
0.6397 0.6817 0.0235
0.6644 0.6846 0.0237
0.6887 0.6864 0.0237
0.7128 0.6873 0.0238
0.7368 0.6880 0.0238
0.7605 0.6893 0.0238
0.7844 0.6920 0.0239
0.8091 0.6961 0.0240
0.8350 0.7013 0.0241
0.8623 0.7070 0.0242
0.8914 0.7119 0.0243
0.9222 0.7152 0.0223
0.0215 0.5839 0.0216
0.0552 0.5837 0.0216
0.0949 0.5834 0.0215
0.1373 0.5831 0.0215
0.1724 0.5830 0.0215
0.2061 0.5841 0.0215
0.2386 0.5889 0.0216
0.2688 0.6003 0.0217
0.2965 0.6186 0.0220
0.3226 0.6408 0.0223
0.3489 0.6620 0.0226
0.3771 0.6782 0.0229
0.4074 0.6879 0.0230
0.4392 0.6926 0.0231
0.4717 0.6947 0.0232
0.5036 0.6961 0.0232
0.5345 0.6976 0.0232
0.5640 0.6997 0.0233
0.5917 0.7025 0.0233
0.6180 0.7058 0.0234
0.6430 0.7092 0.0235
0.6670 0.7121 0.0237
0.6908 0.7139 0.0237
0.7143 0.7146 0.0238
0.7380 0.7146 0.0239
0.7618 0.7148 0.0239
0.7860 0.7159 0.0240
0.8111 0.7187 0.0240
0.8374 0.7228 0.0241
0.8650 0.7282 0.0242
0.8943 0.7332 0.0243
0.9251 0.7376 0.0223
0.0215 0.6153 0.0215
0.0564 0.6152 0.0215
0.0971 0.6150 0.0215
0.1405 0.6150 0.0215
0.1759 0.6150 0.0215
0.2100 0.6155 0.0215
0.2433 0.6185 0.0215
0.2746 0.6269 0.0216
0.3032 0.6425 0.0219
0.3294 0.6637 0.0222
0.3548 0.6862 0.0225
0.3814 0.7052 0.0228
0.4101 0.7178 0.0230
0.4408 0.7244 0.0231
0.4727 0.7270 0.0232
0.5047 0.7281 0.0232
0.5359 0.7288 0.0233
0.5660 0.7297 0.0233
0.5943 0.7313 0.0233
0.6208 0.7335 0.0234
0.6457 0.7361 0.0235
0.6693 0.7386 0.0236
0.6924 0.7403 0.0237
0.7154 0.7409 0.0239
0.7386 0.7405 0.0240
0.7623 0.7399 0.0240
0.7867 0.7397 0.0240
0.8123 0.7408 0.0241
0.8390 0.7435 0.0241
0.8672 0.7477 0.0242
0.8969 0.7521 0.0243
0.9279 0.7573 0.0223
0.0215 0.6471 0.0215
0.0576 0.6471 0.0215
0.0995 0.6471 0.0215
0.1439 0.6472 0.0215
0.1795 0.6473 0.0215
0.2138 0.6477 0.0215
0.2477 0.6494 0.0215
0.2802 0.6551 0.0216
0.3099 0.6675 0.0218
0.3366 0.6866 0.0220
0.3615 0.7093 0.0224
0.3865 0.7305 0.0227
0.4134 0.7462 0.0229
0.4426 0.7551 0.0231
0.4736 0.7588 0.0232
0.5052 0.7598 0.0233
0.5366 0.7599 0.0233
0.5669 0.7598 0.0233
0.5958 0.7600 0.0233
0.6227 0.7610 0.0234
0.6478 0.7625 0.0235
0.6712 0.7643 0.0236
0.6937 0.7657 0.0237
0.7160 0.7663 0.0239
0.7387 0.7658 0.0240
0.7621 0.7646 0.0241
0.7866 0.7633 0.0241
0.8124 0.7629 0.0241
0.8397 0.7639 0.0242
0.8685 0.7664 0.0242
0.8987 0.7695 0.0242
0.9300 0.7750 0.0223
0.0215 0.6793 0.0215
0.0589 0.6793 0.0215
0.1021 0.6794 0.0215
0.1474 0.6797 0.0215
0.1832 0.6800 0.0215
0.2177 0.6803 0.0215
0.2520 0.6813 0.0215
0.2853 0.6848 0.0215
0.3164 0.6940 0.0217
0.3441 0.7102 0.0219
0.3689 0.7318 0.0222
0.3927 0.7543 0.0226
0.4176 0.7727 0.0229
0.4449 0.7844 0.0231
0.4745 0.7898 0.0232
0.5055 0.7911 0.0233
0.5366 0.7907 0.0233
0.5671 0.7896 0.0233
0.5963 0.7886 0.0233
0.6238 0.7881 0.0234
0.6492 0.7884 0.0235
0.6727 0.7893 0.0236
0.6949 0.7904 0.0237
0.7164 0.7909 0.0239
0.7384 0.7904 0.0240
0.7614 0.7890 0.0241
0.7857 0.7870 0.0242
0.8117 0.7854 0.0242
0.8394 0.7847 0.0243
0.8686 0.7853 0.0243
0.8992 0.7867 0.0243
0.9310 0.7919 0.0223
0.0215 0.7117 0.0215
0.0602 0.7118 0.0215
0.1047 0.7121 0.0215
0.1511 0.7124 0.0215
0.1870 0.7128 0.0215
0.2216 0.7132 0.0215
0.2561 0.7138 0.0215
0.2902 0.7158 0.0215
0.3225 0.7220 0.0216
0.3514 0.7349 0.0218
0.3768 0.7543 0.0221
0.3998 0.7769 0.0224
0.4229 0.7975 0.0228
0.4479 0.8120 0.0230
0.4756 0.8196 0.0232
0.5055 0.8218 0.0233
0.5361 0.8211 0.0233
0.5666 0.8192 0.0233
0.5960 0.8170 0.0234
0.6240 0.8151 0.0234
0.6500 0.8140 0.0235
0.6739 0.8138 0.0236
0.6959 0.8143 0.0237
0.7170 0.8148 0.0238
0.7383 0.8145 0.0240
0.7606 0.8132 0.0241
0.7845 0.8110 0.0242
0.8104 0.8085 0.0243
0.8382 0.8065 0.0243
0.8677 0.8054 0.0243
0.8985 0.8050 0.0243
0.9308 0.8095 0.0223
0.0215 0.7444 0.0215
0.0616 0.7446 0.0215
0.1074 0.7449 0.0215
0.1547 0.7453 0.0215
0.1909 0.7457 0.0215
0.2255 0.7462 0.0215
0.2602 0.7467 0.0215
0.2948 0.7478 0.0215
0.3281 0.7515 0.0216
0.3586 0.7610 0.0217
0.3849 0.7774 0.0220
0.4078 0.7989 0.0223
0.4292 0.8208 0.0226
0.4519 0.8379 0.0229
0.4773 0.8480 0.0232
0.5055 0.8515 0.0233
0.5353 0.8508 0.0233
0.5654 0.8482 0.0234
0.5950 0.8449 0.0234
0.6234 0.8417 0.0234
0.6501 0.8392 0.0235
0.6746 0.8378 0.0236
0.6970 0.8376 0.0237
0.7179 0.8379 0.0238
0.7385 0.8380 0.0240
0.7600 0.8372 0.0241
0.7834 0.8352 0.0242
0.8090 0.8325 0.0243
0.8367 0.8297 0.0244
0.8662 0.8273 0.0244
0.8971 0.8256 0.0244
0.9296 0.8291 0.0223
0.0215 0.7772 0.0215
0.0631 0.7774 0.0215
0.1101 0.7778 0.0215
0.1585 0.7783 0.0215
