lut/adanmq/Adanmq_Fuji_Vivid_8543.cube
TITLE "Adanmq_Fuji Vivid 8543"
LUT_3D_SIZE 5
DOMAIN_MIN 0.000000 0.000000 0.000000
DOMAIN_MAX 0.903226 0.903226 0.903226
0.0214 0.0220 0.0218
0.1609 0.0219 0.0219
0.2715 0.0221 0.0219
0.4076 0.0220 0.0218
0.6170 0.0218 0.0216
0.0214 0.1928 0.0217
0.2397 0.2202 0.0219
0.4560 0.2430 0.0220
0.6272 0.2504 0.0221
0.7914 0.2520 0.0221
0.0214 0.3830 0.0215
0.2890 0.4212 0.0218
0.5085 0.4471 0.0220
0.7045 0.4692 0.0221
0.8769 0.4882 0.0223
0.0214 0.5865 0.0211
0.3013 0.5948 0.0212
0.5345 0.6443 0.0218
0.7324 0.6490 0.0220
0.9193 0.6736 0.0223
0.0215 0.7903 0.0209
0.3195 0.7815 0.0208
0.5284 0.8466 0.0217
0.7352 0.8421 0.0221
0.9284 0.8381 0.0224
0.0214 0.0216 0.1549
0.1651 0.0217 0.1682
0.3171 0.0218 0.1842
0.4869 0.0218 0.2113
0.6490 0.0217 0.2034
0.0214 0.1710 0.1784
0.2301 0.2150 0.2152
0.4435 0.2324 0.2297
0.6176 0.2445 0.2411
0.7423 0.2281 0.2273
0.0214 0.3727 0.1796
0.2695 0.4096 0.2072
0.4902 0.4634 0.2471
0.6868 0.4962 0.2637
0.8736 0.5101 0.2933
0.0214 0.5805 0.1645
0.3082 0.5769 0.1609
0.5272 0.6508 0.2393
0.7355 0.6660 0.2625
0.9042 0.7087 0.3197
0.0215 0.7830 0.1519
0.3297 0.7762 0.1510
0.5557 0.7909 0.1751
0.7404 0.8420 0.2666
0.9355 0.8468 0.3279
0.0213 0.0212 0.2376
0.1433 0.0216 0.2928
0.3289 0.0216 0.3095
0.5215 0.0215 0.3796
0.7289 0.0215 0.4096
0.0214 0.1454 0.3301
0.2137 0.1965 0.3918
0.4229 0.2225 0.4167
0.6067 0.2314 0.4338
0.7720 0.2353 0.4480
0.0214 0.3409 0.3658
0.2427 0.4163 0.4204
0.4700 0.4815 0.4728
0.6692 0.4864 0.4828
0.8517 0.5020 0.5055
0.0214 0.5679 0.3700
0.2750 0.6060 0.4001
0.4879 0.6485 0.4446
0.6941 0.7037 0.5048
0.8867 0.7442 0.5454
0.0214 0.7823 0.3603
0.3116 0.7824 0.3740
0.5570 0.7846 0.3953
0.7280 0.8581 0.5239
0.9332 0.8782 0.6016
0.0213 0.0208 0.3992
0.1729 0.0208 0.4246
0.3076 0.0214 0.4745
0.5160 0.0213 0.4848
0.7062 0.0214 0.5809
0.0213 0.1285 0.4577
0.1817 0.1523 0.5065
0.3882 0.2041 0.5811
0.5807 0.2137 0.5782
0.7476 0.2153 0.6030
0.0214 0.3185 0.5512
0.2148 0.3730 0.5818
0.4421 0.4461 0.6442
0.6525 0.4657 0.6699
0.8336 0.4840 0.6860
0.0214 0.5303 0.5657
0.2505 0.5836 0.6016
0.4673 0.6552 0.6620
0.6768 0.7056 0.7078
0.8661 0.7119 0.7282
0.0214 0.7631 0.5742
0.2787 0.7764 0.5928
0.5086 0.8224 0.6530
0.7045 0.8541 0.6981
0.8903 0.9077 0.7740
0.0212 0.0203 0.6054
0.1617 0.0201 0.6032
0.2981 0.0211 0.6795
0.5030 0.0211 0.6793
0.7104 0.0210 0.6928
0.0212 0.1082 0.6097
0.1374 0.0984 0.6096
0.3521 0.1539 0.7154
0.5188 0.1868 0.7074
0.7110 0.1770 0.7025
0.0213 0.3091 0.7288
0.1564 0.3132 0.6945
0.3723 0.3687 0.7466
0.6079 0.4191 0.8088
0.8035 0.4507 0.8105
0.0214 0.5096 0.7616
0.2125 0.5335 0.7613
0.4287 0.6008 0.8030
0.6468 0.6572 0.8506
0.8489 0.6818 0.8756
0.0214 0.7436 0.7853
0.2759 0.7519 0.7954
0.4643 0.7948 0.8353
0.6822 0.8491 0.8804
0.8822 0.8949 0.9098
