lut/adanmq/Adanmq_Fuji_Reala_8563.cube
TITLE "Adanmq_Fuji Reala 8563"
LUT_3D_SIZE 32
0.0215 0.0226 0.0223
0.0554 0.0226 0.0223
0.0878 0.0226 0.0223
0.1173 0.0226 0.0223
0.1442 0.0227 0.0223
0.1689 0.0227 0.0223
0.1923 0.0227 0.0223
0.2147 0.0227 0.0224
0.2360 0.0228 0.0224
0.2564 0.0228 0.0224
0.2760 0.0228 0.0224
0.2952 0.0228 0.0224
0.3142 0.0229 0.0224
0.3330 0.0229 0.0224
0.3520 0.0229 0.0224
0.3712 0.0229 0.0224
0.3908 0.0229 0.0224
0.4110 0.0229 0.0224
0.4320 0.0229 0.0224
0.4537 0.0229 0.0224
0.4763 0.0229 0.0224
0.4998 0.0229 0.0223
0.5241 0.0229 0.0223
0.5491 0.0229 0.0223
0.5748 0.0229 0.0222
0.6012 0.0229 0.0222
0.6281 0.0229 0.0222
0.6558 0.0229 0.0221
0.6840 0.0228 0.0221
0.7126 0.0228 0.0221
0.7420 0.0228 0.0220
0.7732 0.0227 0.0223
0.0215 0.0529 0.0223
0.0555 0.0529 0.0223
0.0883 0.0529 0.0223
0.1186 0.0531 0.0223
0.1465 0.0533 0.0223
0.1724 0.0537 0.0223
0.1969 0.0543 0.0223
0.2204 0.0550 0.0223
0.2429 0.0557 0.0224
0.2643 0.0563 0.0224
0.2848 0.0569 0.0224
0.3046 0.0574 0.0224
0.3240 0.0577 0.0224
0.3431 0.0580 0.0224
0.3622 0.0583 0.0224
0.3813 0.0584 0.0224
0.4007 0.0585 0.0224
0.4205 0.0586 0.0224
0.4409 0.0586 0.0224
0.4619 0.0586 0.0224
0.4836 0.0586 0.0224
0.5062 0.0586 0.0223
0.5296 0.0585 0.0223
0.5537 0.0584 0.0223
0.5787 0.0583 0.0223
0.6044 0.0581 0.0222
0.6309 0.0580 0.0222
0.6582 0.0577 0.0222
0.6862 0.0574 0.0221
0.7148 0.0570 0.0221
0.7443 0.0567 0.0220
0.7754 0.0565 0.0223
0.0215 0.0836 0.0222
0.0560 0.0837 0.0223
0.0896 0.0840 0.0223
0.1214 0.0844 0.0223
0.1514 0.0851 0.0223
0.1793 0.0861 0.0223
0.2060 0.0873 0.0223
0.2318 0.0887 0.0223
0.2564 0.0901 0.0224
0.2799 0.0915 0.0224
0.3023 0.0927 0.0224
0.3238 0.0938 0.0224
0.3444 0.0948 0.0224
0.3643 0.0955 0.0224
0.3839 0.0960 0.0225
0.4032 0.0964 0.0225
0.4226 0.0967 0.0225
0.4420 0.0968 0.0225
0.4616 0.0969 0.0225
0.4816 0.0969 0.0224
0.5020 0.0969 0.0224
0.5230 0.0968 0.0224
0.5447 0.0967 0.0224
0.5671 0.0964 0.0223
0.5903 0.0962 0.0223
0.6143 0.0959 0.0223
0.6393 0.0954 0.0222
0.6655 0.0949 0.0222
0.6926 0.0944 0.0222
0.7207 0.0937 0.0221
0.7498 0.0930 0.0221
0.7806 0.0925 0.0223
0.0215 0.1123 0.0222
0.0569 0.1127 0.0222
0.0917 0.1135 0.0222
0.1253 0.1147 0.0222
0.1576 0.1161 0.0223
0.1877 0.1178 0.0223
0.2166 0.1198 0.0223
0.2446 0.1219 0.0223
0.2717 0.1241 0.0224
0.2976 0.1263 0.0224
0.3223 0.1284 0.0224
0.3458 0.1302 0.0224
0.3682 0.1317 0.0225
0.3896 0.1330 0.0225
0.4103 0.1340 0.0225
0.4304 0.1348 0.0225
0.4501 0.1353 0.0225
0.4696 0.1357 0.0225
0.4889 0.1359 0.0225
0.5083 0.1360 0.0225
0.5278 0.1359 0.0225
0.5476 0.1358 0.0225
0.5677 0.1355 0.0225
0.5883 0.1352 0.0224
0.6097 0.1348 0.0224
0.6318 0.1343 0.0223
0.6549 0.1337 0.0223
0.6792 0.1330 0.0222
0.7048 0.1321 0.0222
0.7316 0.1311 0.0222
0.7598 0.1302 0.0221
0.7896 0.1294 0.0223
0.0215 0.1389 0.0222
0.0581 0.1397 0.0222
0.0944 0.1415 0.0222
0.1298 0.1438 0.0222
0.1641 0.1463 0.0223
0.1960 0.1489 0.0223
0.2263 0.1516 0.0223
0.2560 0.1545 0.0224
0.2847 0.1575 0.0224
0.3124 0.1604 0.0224
0.3390 0.1631 0.0224
0.3644 0.1656 0.0225
0.3887 0.1678 0.0225
0.4118 0.1696 0.0225
0.4340 0.1711 0.0225
0.4553 0.1723 0.0225
0.4759 0.1732 0.0226
0.4960 0.1739 0.0226
0.5156 0.1743 0.0226
0.5351 0.1745 0.0226
0.5544 0.1746 0.0226
0.5738 0.1744 0.0226
0.5933 0.1742 0.0226
0.6130 0.1739 0.0225
0.6331 0.1734 0.0225
0.6538 0.1728 0.0225
0.6754 0.1721 0.0224
0.6982 0.1711 0.0224
0.7223 0.1701 0.0223
0.7476 0.1689 0.0223
0.7748 0.1678 0.0222
0.8032 0.1668 0.0223
0.0215 0.1641 0.0222
0.0597 0.1653 0.0222
0.0978 0.1681 0.0222
0.1351 0.1716 0.0222
0.1713 0.1751 0.0223
0.2044 0.1787 0.0223
0.2355 0.1821 0.0223
0.2660 0.1855 0.0224
0.2957 0.1889 0.0224
0.3244 0.1922 0.0224
0.3523 0.1953 0.0225
0.3792 0.1982 0.0225
0.4050 0.2007 0.0225
0.4298 0.2029 0.0225
0.4535 0.2048 0.0226
0.4762 0.2064 0.0226
0.4981 0.2077 0.0226
0.5191 0.2087 0.0226
0.5395 0.2094 0.0226
0.5595 0.2098 0.0226
0.5792 0.2101 0.0226
0.5987 0.2101 0.0226
0.6182 0.2101 0.0226
0.6378 0.2098 0.0226
0.6576 0.2094 0.0226
0.6778 0.2088 0.0226
0.6987 0.2081 0.0225
0.7205 0.2072 0.0225
0.7436 0.2061 0.0225
0.7679 0.2049 0.0224
0.7941 0.2038 0.0224
0.8211 0.2030 0.0223
0.0215 0.1887 0.0222
0.0618 0.1903 0.0222
0.1019 0.1938 0.0222
0.1413 0.1984 0.0222
0.1791 0.2029 0.0223
0.2132 0.2072 0.0223
0.2446 0.2112 0.0224
0.2754 0.2150 0.0224
0.3052 0.2185 0.0224
0.3343 0.2220 0.0225
0.3626 0.2253 0.0225
0.3903 0.2284 0.0225
0.4172 0.2311 0.0225
0.4432 0.2336 0.0226
0.4683 0.2358 0.0226
0.4924 0.2377 0.0226
0.5155 0.2393 0.0226
0.5377 0.2406 0.0226
0.5591 0.2416 0.0227
0.5798 0.2424 0.0227
0.6000 0.2429 0.0227
0.6200 0.2433 0.0227
0.6399 0.2434 0.0227
0.6598 0.2434 0.0227
0.6799 0.2431 0.0227
0.7003 0.2427 0.0227
0.7212 0.2421 0.0226
0.7430 0.2413 0.0226
0.7658 0.2404 0.0226
0.7897 0.2393 0.0226
0.8156 0.2383 0.0225
0.8418 0.2375 0.0223
0.0215 0.2133 0.0222
0.0641 0.2150 0.0222
0.1065 0.2191 0.0222
0.1480 0.2245 0.0222
0.1875 0.2299 0.0223
0.2223 0.2350 0.0223
0.2539 0.2395 0.0224
0.2845 0.2435 0.0224
0.3142 0.2472 0.0224
0.3430 0.2507 0.0225
0.3711 0.2541 0.0225
0.3988 0.2573 0.0225
0.4261 0.2603 0.0226
0.4528 0.2630 0.0226
0.4788 0.2654 0.0226
0.5041 0.2676 0.0226
0.5283 0.2695 0.0226
0.5517 0.2711 0.0227
0.5740 0.2725 0.0227
0.5955 0.2736 0.0227
0.6163 0.2746 0.0227
0.6367 0.2753 0.0228
0.6570 0.2758 0.0228
0.6773 0.2760 0.0228
0.6978 0.2761 0.0228
0.7187 0.2759 0.0228
0.7401 0.2755 0.0228
0.7623 0.2749 0.0227
0.7856 0.2742 0.0227
0.8098 0.2733 0.0227
0.8359 0.2724 0.0227
0.8620 0.2717 0.0223
0.0215 0.2383 0.0221
0.0665 0.2400 0.0221
0.1112 0.2442 0.0222
0.1548 0.2501 0.0222
0.1960 0.2562 0.0223
0.2314 0.2620 0.0223
0.2631 0.2670 0.0224
0.2937 0.2711 0.0224
0.3231 0.2748 0.0225
0.3514 0.2782 0.0225
0.3789 0.2816 0.0225
0.4062 0.2849 0.0226
0.4332 0.2881 0.0226
0.4600 0.2909 0.0226
0.4865 0.2936 0.0226
0.5125 0.2960 0.0226
0.5377 0.2982 0.0227
0.5619 0.3001 0.0227
0.5852 0.3019 0.0227
0.6075 0.3033 0.0227
0.6289 0.3047 0.0228
0.6496 0.3058 0.0228
0.6701 0.3068 0.0228
0.6905 0.3075 0.0228
0.7112 0.3080 0.0229
0.7323 0.3082 0.0229
0.7542 0.3081 0.0229
0.7769 0.3077 0.0229
0.8008 0.3072 0.0228
0.8256 0.3064 0.0228
0.8522 0.3057 0.0228
0.8791 0.3053 0.0223
0.0215 0.2640 0.0221
0.0689 0.2654 0.0221
0.1159 0.2695 0.0222
0.1615 0.2755 0.0222
0.2041 0.2820 0.0222
0.2401 0.2883 0.0223
0.2719 0.2937 0.0224
0.3025 0.2979 0.0224
0.3318 0.3014 0.0225
0.3597 0.3046 0.0225
0.3868 0.3078 0.0225
0.4133 0.3111 0.0226
0.4398 0.3144 0.0226
0.4663 0.3174 0.0226
0.4928 0.3202 0.0226
0.5191 0.3228 0.0226
0.5448 0.3253 0.0227
0.5698 0.3275 0.0227
0.5939 0.3296 0.0227
0.6170 0.3314 0.0228
0.6391 0.3331 0.0228
0.6602 0.3347 0.0228
0.6808 0.3362 0.0229
0.7010 0.3374 0.0229
0.7214 0.3385 0.0229
0.7423 0.3392 0.0229
0.7641 0.3395 0.0229
0.7870 0.3395 0.0229
0.8111 0.3391 0.0229
0.8364 0.3386 0.0229
0.8635 0.3380 0.0229
0.8915 0.3379 0.0223
0.0215 0.2904 0.0221
0.0711 0.2915 0.0221
0.1202 0.2950 0.0221
0.1676 0.3008 0.0222
0.2115 0.3076 0.0222
0.2480 0.3142 0.0223
0.2799 0.3200 0.0224
0.3106 0.3243 0.0224
0.3400 0.3275 0.0225
0.3680 0.3303 0.0225
0.3946 0.3331 0.0226
0.4206 0.3362 0.0226
0.4464 0.3395 0.0226
0.4723 0.3426 0.0226
0.4985 0.3456 0.0226
0.5247 0.3483 0.0227
0.5507 0.3509 0.0227
0.5762 0.3534 0.0227
0.6010 0.3557 0.0228
0.6249 0.3579 0.0228
0.6477 0.3600 0.0228
0.6695 0.3620 0.0229
0.6904 0.3639 0.0229
0.7106 0.3658 0.0229
0.7307 0.3674 0.0229
0.7510 0.3688 0.0229
0.7721 0.3697 0.0229
0.7944 0.3702 0.0230
0.8183 0.3702 0.0230
0.8435 0.3699 0.0230
0.8707 0.3695 0.0230
0.8994 0.3696 0.0223
0.0216 0.3174 0.0220
0.0732 0.3182 0.0220
0.1242 0.3210 0.0221
0.1730 0.3263 0.0221
0.2180 0.3330 0.0222
0.2548 0.3398 0.0223
0.2867 0.3459 0.0224
0.3177 0.3504 0.0224
0.3474 0.3534 0.0225
0.3756 0.3557 0.0225
0.4023 0.3579 0.0226
0.4280 0.3606 0.0226
0.4532 0.3637 0.0226
0.4784 0.3668 0.0226
0.5040 0.3698 0.0226
0.5298 0.3727 0.0227
0.5557 0.3753 0.0227
0.5815 0.3780 0.0227
0.6068 0.3805 0.0228
0.6313 0.3830 0.0228
0.6550 0.3854 0.0229
0.6775 0.3878 0.0229
0.6992 0.3901 0.0229
0.7198 0.3925 0.0229
0.7398 0.3948 0.0230
0.7596 0.3968 0.0230
0.7800 0.3984 0.0230
0.8015 0.3995 0.0230
0.8246 0.4001 0.0230
0.8494 0.4001 0.0230
0.8762 0.3999 0.0231
0.9049 0.4005 0.0223
0.0216 0.3447 0.0220
0.0751 0.3451 0.0220
0.1277 0.3471 0.0220
0.1779 0.3517 0.0221
0.2237 0.3581 0.0222
0.2607 0.3651 0.0222
0.2925 0.3715 0.0223
0.3236 0.3763 0.0224
0.3536 0.3792 0.0225
0.3823 0.3810 0.0225
0.4093 0.3827 0.0226
0.4351 0.3847 0.0226
0.4600 0.3874 0.0226
0.4847 0.3903 0.0226
0.5096 0.3932 0.0226
0.5349 0.3961 0.0227
0.5605 0.3988 0.0227
0.5862 0.4015 0.0227
0.6116 0.4041 0.0228
0.6366 0.4067 0.0228
0.6609 0.4094 0.0229
0.6843 0.4122 0.0229
0.7067 0.4150 0.0229
0.7281 0.4178 0.0230
0.7486 0.4206 0.0230
0.7684 0.4233 0.0230
0.7884 0.4256 0.0230
0.8092 0.4275 0.0231
0.8317 0.4287 0.0231
0.8557 0.4292 0.0231
0.8822 0.4293 0.0231
0.9103 0.4305 0.0223
0.0216 0.3722 0.0220
0.0768 0.3722 0.0220
0.1309 0.3734 0.0220
0.1823 0.3771 0.0220
0.2287 0.3829 0.0221
0.2657 0.3900 0.0222
0.2972 0.3967 0.0223
0.3283 0.4019 0.0224
0.3586 0.4050 0.0225
0.3878 0.4066 0.0225
0.4155 0.4075 0.0226
0.4417 0.4089 0.0226
0.4667 0.4109 0.0226
0.4911 0.4134 0.0226
0.5155 0.4161 0.0226
0.5402 0.4189 0.0227
0.5652 0.4216 0.0227
0.5906 0.4242 0.0227
0.6159 0.4268 0.0228
0.6411 0.4295 0.0228
0.6657 0.4323 0.0229
0.6897 0.4353 0.0229
0.7129 0.4385 0.0229
0.7351 0.4417 0.0230
0.7564 0.4450 0.0230
0.7767 0.4483 0.0231
0.7968 0.4513 0.0231
0.8175 0.4539 0.0231
0.8395 0.4558 0.0231
0.8631 0.4569 0.0232
0.8893 0.4575 0.0232
0.9166 0.4594 0.0223
0.0216 0.3995 0.0219
0.0783 0.3993 0.0219
0.1337 0.3998 0.0219
0.1862 0.4023 0.0220
0.2332 0.4074 0.0220
0.2701 0.4143 0.0221
0.3012 0.4213 0.0222
0.3320 0.4271 0.0224
0.3623 0.4306 0.0225
0.3920 0.4322 0.0225
0.4204 0.4328 0.0226
0.4474 0.4334 0.0226
0.4729 0.4347 0.0226
0.4974 0.4366 0.0226
0.5215 0.4390 0.0226
0.5456 0.4415 0.0227
0.5701 0.4440 0.0227
0.5951 0.4464 0.0227
0.6201 0.4489 0.0228
0.6452 0.4515 0.0228
0.6699 0.4544 0.0228
0.6942 0.4575 0.0229
0.7180 0.4609 0.0229
0.7409 0.4645 0.0230
0.7629 0.4683 0.0230
0.7841 0.4721 0.0231
0.8047 0.4757 0.0231
0.8256 0.4790 0.0232
0.8476 0.4815 0.0232
0.8712 0.4834 0.0232
0.8972 0.4845 0.0232
0.9240 0.4871 0.0223
0.0216 0.4269 0.0219
0.0796 0.4265 0.0219
0.1362 0.4262 0.0219
0.1896 0.4277 0.0219
0.2373 0.4319 0.0220
0.2741 0.4382 0.0221
0.3048 0.4454 0.0222
0.3351 0.4518 0.0223
0.3652 0.4561 0.0224
0.3950 0.4581 0.0225
0.4240 0.4585 0.0225
0.4519 0.4585 0.0226
0.4782 0.4590 0.0226
0.5031 0.4602 0.0226
0.5273 0.4621 0.0226
0.5512 0.4642 0.0227
0.5753 0.4665 0.0227
0.5997 0.4687 0.0227
0.6244 0.4710 0.0228
0.6492 0.4733 0.0228
0.6739 0.4760 0.0228
0.6982 0.4790 0.0229
0.7222 0.4825 0.0229
0.7455 0.4864 0.0230
0.7682 0.4906 0.0230
0.7902 0.4949 0.0231
0.8116 0.4992 0.0231
0.8331 0.5030 0.0232
0.8555 0.5063 0.0232
0.8792 0.5089 0.0233
0.9053 0.5106 0.0233
0.9318 0.5140 0.0223
0.0216 0.4541 0.0219
0.0808 0.4535 0.0219
0.1384 0.4528 0.0219
0.1927 0.4532 0.0219
0.2411 0.4562 0.0219
0.2779 0.4617 0.0220
0.3081 0.4688 0.0221
0.3379 0.4758 0.0222
0.3675 0.4811 0.0224
0.3971 0.4839 0.0225
0.4264 0.4846 0.0225
0.4550 0.4842 0.0226
0.4822 0.4840 0.0226
0.5079 0.4845 0.0226
0.5326 0.4857 0.0226
0.5566 0.4874 0.0226
0.5804 0.4893 0.0227
0.6045 0.4912 0.0227
0.6287 0.4932 0.0227
0.6533 0.4952 0.0228
0.6778 0.4975 0.0228
0.7020 0.5003 0.0229
0.7260 0.5036 0.0229
0.7495 0.5075 0.0229
0.7726 0.5120 0.0230
0.7950 0.5168 0.0231
0.8171 0.5217 0.0232
0.8394 0.5262 0.0232
0.8623 0.5302 0.0233
0.8864 0.5336 0.0233
0.9127 0.5359 0.0233
0.9429 0.5367 0.0223
0.0216 0.4813 0.0218
0.0818 0.4806 0.0218
0.1403 0.4794 0.0218
0.1954 0.4790 0.0218
0.2444 0.4807 0.0219
0.2815 0.4852 0.0219
0.3114 0.4919 0.0220
0.3406 0.4992 0.0222
0.3695 0.5055 0.0223
0.3986 0.5094 0.0224
0.4278 0.5108 0.0225
0.4567 0.5106 0.0226
0.4848 0.5099 0.0226
0.5114 0.5097 0.0226
0.5368 0.5102 0.0226
0.5613 0.5113 0.0226
0.5853 0.5127 0.0227
0.6092 0.5143 0.0227
0.6332 0.5159 0.0227
0.6574 0.5176 0.0228
0.6816 0.5195 0.0228
0.7057 0.5217 0.0229
0.7297 0.5247 0.0229
0.7532 0.5283 0.0229
0.7764 0.5328 0.0230
0.7991 0.5380 0.0231
0.8217 0.5434 0.0232
0.8445 0.5487 0.0232
0.8680 0.5535 0.0233
0.8925 0.5576 0.0233
0.9190 0.5606 0.0234
0.9491 0.5620 0.0223
0.0216 0.5084 0.0218
0.0827 0.5077 0.0218
0.1419 0.5062 0.0218
0.1978 0.5050 0.0218
0.2474 0.5055 0.0218
0.2848 0.5088 0.0219
0.3146 0.5147 0.0220
0.3433 0.5221 0.0221
0.3715 0.5293 0.0222
0.3998 0.5345 0.0224
0.4284 0.5371 0.0225
0.4574 0.5374 0.0225
0.4860 0.5366 0.0226
0.5135 0.5359 0.0226
0.5398 0.5357 0.0226
0.5650 0.5362 0.0226
0.5894 0.5371 0.0227
0.6135 0.5383 0.0227
0.6374 0.5395 0.0227
0.6614 0.5408 0.0228
0.6855 0.5421 0.0228
0.7094 0.5438 0.0228
0.7332 0.5461 0.0229
0.7566 0.5492 0.0229
0.7798 0.5535 0.0230
0.8027 0.5586 0.0230
0.8255 0.5644 0.0231
0.8487 0.5704 0.0232
0.8726 0.5760 0.0233
0.8975 0.5810 0.0234
0.9242 0.5848 0.0234
0.9542 0.5867 0.0223
0.0216 0.5356 0.0218
0.0835 0.5348 0.0218
0.1434 0.5331 0.0217
0.1998 0.5314 0.0217
0.2500 0.5308 0.0217
0.2878 0.5327 0.0218
0.3178 0.5375 0.0219
0.3462 0.5446 0.0220
0.3736 0.5524 0.0222
0.4010 0.5590 0.0223
0.4288 0.5630 0.0225
0.4573 0.5644 0.0225
0.4860 0.5639 0.0226
0.5141 0.5629 0.0226
0.5413 0.5622 0.0226
0.5674 0.5621 0.0226
0.5926 0.5625 0.0226
0.6171 0.5632 0.0227
0.6412 0.5640 0.0227
0.6652 0.5649 0.0228
0.6891 0.5657 0.0228
0.7129 0.5668 0.0228
0.7365 0.5683 0.0229
0.7599 0.5707 0.0229
0.7831 0.5743 0.0230
0.8061 0.5791 0.0230
0.8290 0.5850 0.0231
0.8523 0.5914 0.0232
0.8764 0.5977 0.0233
0.9015 0.6037 0.0234
0.9284 0.6083 0.0234
0.9584 0.6109 0.0223
0.0216 0.5628 0.0217
0.0842 0.5619 0.0217
0.1447 0.5601 0.0217
0.2015 0.5580 0.0217
0.2522 0.5566 0.0217
0.2905 0.5572 0.0217
0.3207 0.5607 0.0218
0.3491 0.5671 0.0219
0.3761 0.5751 0.0221
0.4025 0.5828 0.0222
0.4293 0.5885 0.0224
0.4569 0.5913 0.0225
0.4853 0.5917 0.0226
0.5137 0.5907 0.0226
0.5415 0.5897 0.0226
0.5685 0.5890 0.0226
0.5945 0.5889 0.0226
0.6197 0.5892 0.0227
0.6442 0.5896 0.0227
0.6684 0.5900 0.0227
0.6923 0.5903 0.0228
0.7160 0.5908 0.0228
0.7396 0.5915 0.0229
0.7629 0.5930 0.0229
0.7861 0.5957 0.0229
0.8091 0.5998 0.0230
0.8322 0.6053 0.0231
0.8556 0.6118 0.0232
0.8799 0.6187 0.0233
0.9051 0.6254 0.0234
0.9321 0.6308 0.0235
0.9620 0.6341 0.0223
0.0216 0.5901 0.0217
0.0848 0.5891 0.0217
0.1458 0.5872 0.0217
0.2030 0.5849 0.0217
0.2541 0.5830 0.0217
0.2928 0.5824 0.0217
0.3234 0.5844 0.0217
0.3520 0.5897 0.0219
0.3788 0.5975 0.0220
0.4045 0.6060 0.0222
0.4301 0.6132 0.0223
0.4567 0.6179 0.0225
0.4843 0.6195 0.0225
0.5125 0.6192 0.0226
0.5407 0.6180 0.0226
0.5683 0.6170 0.0226
0.5951 0.6164 0.0226
0.6211 0.6161 0.0226
0.6462 0.6161 0.0227
0.6708 0.6161 0.0227
0.6949 0.6160 0.0228
0.7185 0.6158 0.0228
0.7421 0.6158 0.0229
0.7654 0.6164 0.0229
0.7887 0.6181 0.0229
0.8118 0.6212 0.0230
0.8350 0.6260 0.0231
0.8586 0.6321 0.0232
0.8831 0.6389 0.0233
0.9085 0.6461 0.0233
0.9355 0.6522 0.0234
0.9655 0.6563 0.0223
0.0216 0.6175 0.0217
0.0854 0.6165 0.0217
0.1467 0.6145 0.0216
0.2042 0.6120 0.0216
0.2556 0.6097 0.0216
0.2946 0.6083 0.0216
0.3258 0.6089 0.0217
0.3549 0.6129 0.0218
0.3817 0.6200 0.0219
0.4069 0.6289 0.0221
0.4315 0.6374 0.0222
0.4568 0.6438 0.0224
0.4833 0.6472 0.0225
0.5109 0.6479 0.0226
0.5391 0.6470 0.0226
0.5672 0.6457 0.0226
0.5947 0.6447 0.0226
0.6214 0.6441 0.0226
0.6472 0.6436 0.0227
0.6722 0.6432 0.0227
0.6966 0.6426 0.0228
0.7204 0.6419 0.0228
0.7440 0.6413 0.0229
0.7673 0.6410 0.0229
0.7906 0.6416 0.0229
0.8138 0.6436 0.0230
0.8373 0.6472 0.0231
0.8612 0.6525 0.0231
0.8860 0.6588 0.0232
0.9117 0.6659 0.0233
0.9390 0.6722 0.0234
0.9689 0.6771 0.0223
0.0216 0.6449 0.0216
0.0858 0.6439 0.0216
0.1476 0.6418 0.0216
0.2053 0.6392 0.0216
0.2568 0.6367 0.0216
0.2961 0.6347 0.0216
0.3277 0.6342 0.0216
0.3575 0.6367 0.0217
0.3847 0.6427 0.0218
0.4097 0.6514 0.0220
0.4335 0.6609 0.0222
0.4575 0.6690 0.0223
0.4827 0.6743 0.0225
0.5094 0.6764 0.0225
0.5372 0.6762 0.0226
0.5654 0.6750 0.0226
0.5933 0.6737 0.0226
0.6206 0.6726 0.0226
0.6470 0.6717 0.0227
0.6726 0.6708 0.0227
0.6974 0.6699 0.0228
0.7215 0.6688 0.0228
0.7451 0.6676 0.0229
0.7684 0.6667 0.0229
0.7917 0.6663 0.0229
0.8151 0.6670 0.0230
0.8388 0.6694 0.0231
0.8632 0.6734 0.0231
0.8884 0.6787 0.0232
0.9145 0.6851 0.0233
0.9421 0.6910 0.0233
0.9721 0.6965 0.0223
0.0216 0.6724 0.0216
0.0862 0.6713 0.0216
0.1483 0.6692 0.0216
0.2062 0.6666 0.0216
0.2578 0.6641 0.0216
0.2972 0.6617 0.0216
0.3293 0.6604 0.0216
0.3597 0.6614 0.0216
0.3876 0.6660 0.0217
0.4128 0.6741 0.0219
0.4362 0.6840 0.0221
0.4590 0.6935 0.0222
0.4828 0.7007 0.0224
0.5081 0.7046 0.0225
0.5352 0.7055 0.0226
0.5632 0.7046 0.0226
0.5912 0.7032 0.0226
0.6190 0.7017 0.0226
0.6460 0.7003 0.0227
0.6721 0.6990 0.0227
0.6973 0.6977 0.0227
0.7217 0.6963 0.0228
0.7455 0.6948 0.0229
0.7688 0.6932 0.0229
0.7921 0.6920 0.0229
0.8156 0.6917 0.0230
0.8395 0.6928 0.0231
0.8642 0.6953 0.0231
0.8899 0.6993 0.0232
0.9165 0.7045 0.0233
0.9447 0.7094 0.0233
0.9749 0.7151 0.0223
0.0216 0.6999 0.0216
0.0866 0.6989 0.0216
0.1489 0.6967 0.0216
0.2070 0.6941 0.0216
0.2587 0.6916 0.0215
0.2981 0.6891 0.0215
0.3304 0.6872 0.0215
0.3615 0.6870 0.0216
0.3903 0.6901 0.0217
0.4161 0.6970 0.0218
0.4393 0.7068 0.0220
0.4613 0.7174 0.0222
0.4836 0.7263 0.0223
0.5075 0.7321 0.0225
0.5333 0.7345 0.0226
0.5607 0.7343 0.0226
0.5887 0.7328 0.0226
0.6167 0.7310 0.0226
0.6441 0.7293 0.0227
0.6708 0.7276 0.0227
0.6965 0.7259 0.0228
0.7213 0.7242 0.0228
0.7453 0.7224 0.0229
0.7686 0.7205 0.0229
0.7919 0.7188 0.0230
0.8154 0.7176 0.0230
0.8394 0.7175 0.0231
0.8643 0.7187 0.0231
0.8904 0.7211 0.0232
0.9175 0.7247 0.0232
0.9461 0.7283 0.0233
0.9769 0.7337 0.0223
0.0216 0.7276 0.0216
0.0869 0.7266 0.0216
0.1494 0.7245 0.0216
0.2076 0.7219 0.0215
0.2594 0.7194 0.0215
0.2987 0.7169 0.0215
0.3312 0.7147 0.0215
0.3629 0.7136 0.0215
0.3926 0.7151 0.0216
0.4193 0.7206 0.0217
0.4428 0.7297 0.0219
0.4643 0.7407 0.0221
0.4853 0.7512 0.0223
0.5075 0.7589 0.0224
0.5319 0.7630 0.0225
0.5583 0.7638 0.0226
0.5859 0.7625 0.0226
0.6139 0.7606 0.0226
0.6416 0.7584 0.0227
0.6688 0.7564 0.0227
0.6950 0.7544 0.0228
0.7203 0.7525 0.0228
0.7446 0.7505 0.0229
0.7681 0.7484 0.0229
0.7913 0.7464 0.0230
0.8146 0.7447 0.0230
0.8386 0.7437 0.0231
0.8636 0.7436 0.0231
0.8899 0.7447 0.0232
0.9174 0.7466 0.0232
0.9464 0.7489 0.0232
0.9776 0.7535 0.0223
0.0216 0.7555 0.0215
0.0871 0.7545 0.0215
0.1498 0.7524 0.0215
0.2081 0.7498 0.0215
0.2599 0.7474 0.0215
0.2993 0.7450 0.0215
0.3318 0.7427 0.0215
0.3638 0.7411 0.0215
0.3944 0.7413 0.0215
0.4222 0.7451 0.0216
0.4464 0.7530 0.0218
0.4678 0.7639 0.0220
0.4878 0.7753 0.0222
0.5084 0.7848 0.0224
0.5310 0.7907 0.0225
0.5561 0.7928 0.0226
0.5830 0.7921 0.0226
0.6109 0.7901 0.0227
0.6387 0.7877 0.0227
0.6663 0.7853 0.0227
0.6931 0.7830 0.0228
0.7189 0.7808 0.0228
0.7436 0.7787 0.0229
0.7673 0.7766 0.0229
0.7904 0.7745 0.0230
0.8135 0.7726 0.0230
0.8373 0.7711 0.0231
0.8623 0.7702 0.0231
0.8887 0.7701 0.0232
0.9164 0.7707 0.0232
0.9456 0.7718 0.0232
0.9773 0.7754 0.0223
0.0216 0.7835 0.0215
0.0873 0.7825 0.0215
0.1501 0.7805 0.0215
0.2085 0.7781 0.0215
