lut/adanmq/Adanmq_Fuji_Vivid_8543.cube
TITLE "Adanmq_Fuji Vivid 8543"
LUT_3D_SIZE 32
0.0214 0.0220 0.0218
0.0400 0.0220 0.0218
0.0628 0.0219 0.0218
0.0858 0.0219 0.0218
0.1079 0.0219 0.0218
0.1270 0.0219 0.0218
0.1440 0.0219 0.0219
0.1609 0.0219 0.0219
0.1776 0.0220 0.0219
0.1938 0.0220 0.0219
0.2095 0.0220 0.0219
0.2250 0.0221 0.0219
0.2403 0.0221 0.0219
0.2558 0.0221 0.0219
0.2715 0.0221 0.0219
0.2877 0.0221 0.0219
0.3046 0.0221 0.0219
0.3224 0.0221 0.0219
0.3413 0.0221 0.0219
0.3617 0.0221 0.0219
0.3838 0.0221 0.0219
0.4076 0.0220 0.0218
0.4332 0.0220 0.0218
0.4604 0.0220 0.0218
0.4893 0.0220 0.0217
0.5196 0.0219 0.0217
0.5511 0.0219 0.0217
0.5837 0.0219 0.0216
0.6170 0.0218 0.0216
0.6510 0.0218 0.0215
0.6850 0.0217 0.0215
0.7179 0.0227 0.0223
0.0214 0.0403 0.0218
0.0399 0.0400 0.0218
0.0628 0.0395 0.0218
0.0863 0.0390 0.0218
0.1096 0.0388 0.0218
0.1301 0.0387 0.0218
0.1487 0.0390 0.0219
0.1673 0.0395 0.0219
0.1857 0.0401 0.0219
0.2036 0.0407 0.0219
0.2208 0.0413 0.0219
0.2374 0.0418 0.0219
0.2537 0.0422 0.0219
0.2697 0.0425 0.0219
0.2859 0.0428 0.0219
0.3023 0.0429 0.0219
0.3191 0.0430 0.0219
0.3366 0.0430 0.0219
0.3551 0.0429 0.0219
0.3748 0.0427 0.0219
0.3958 0.0423 0.0219
0.4185 0.0419 0.0219
0.4430 0.0414 0.0218
0.4692 0.0407 0.0218
0.4971 0.0400 0.0218
0.5266 0.0392 0.0217
0.5575 0.0384 0.0217
0.5898 0.0376 0.0216
0.6229 0.0368 0.0216
0.6569 0.0360 0.0215
0.6909 0.0352 0.0215
0.7236 0.0353 0.0223
0.0214 0.0656 0.0218
0.0396 0.0652 0.0218
0.0629 0.0643 0.0218
0.0877 0.0635 0.0218
0.1132 0.0631 0.0218
0.1365 0.0630 0.0218
0.1581 0.0635 0.0218
0.1801 0.0643 0.0219
0.2020 0.0655 0.0219
0.2233 0.0667 0.0219
0.2436 0.0679 0.0219
0.2631 0.0691 0.0219
0.2816 0.0700 0.0219
0.2995 0.0707 0.0219
0.3169 0.0713 0.0219
0.3342 0.0717 0.0219
0.3515 0.0720 0.0219
0.3691 0.0721 0.0219
0.3872 0.0721 0.0219
0.4060 0.0719 0.0219
0.4257 0.0714 0.0219
0.4467 0.0708 0.0219
0.4691 0.0699 0.0219
0.4930 0.0689 0.0218
0.5187 0.0677 0.0218
0.5460 0.0663 0.0217
0.5750 0.0648 0.0217
0.6056 0.0633 0.0216
0.6376 0.0618 0.0216
0.6707 0.0602 0.0215
0.7043 0.0589 0.0215
0.7361 0.0586 0.0223
0.0214 0.0936 0.0218
0.0395 0.0932 0.0218
0.0632 0.0926 0.0218
0.0896 0.0919 0.0218
0.1178 0.0916 0.0218
0.1442 0.0919 0.0218
0.1692 0.0926 0.0218
0.1948 0.0939 0.0219
0.2206 0.0956 0.0219
0.2458 0.0974 0.0219
0.2701 0.0993 0.0219
0.2931 0.1010 0.0219
0.3149 0.1026 0.0219
0.3355 0.1039 0.0219
0.3551 0.1049 0.0219
0.3741 0.1057 0.0220
0.3927 0.1062 0.0220
0.4111 0.1065 0.0220
0.4294 0.1067 0.0220
0.4480 0.1067 0.0220
0.4671 0.1064 0.0219
0.4869 0.1058 0.0219
0.5075 0.1050 0.0219
0.5294 0.1039 0.0219
0.5526 0.1025 0.0219
0.5773 0.1009 0.0218
0.6036 0.0990 0.0218
0.6317 0.0970 0.0217
0.6614 0.0949 0.0217
0.6926 0.0927 0.0216
0.7248 0.0909 0.0215
0.7550 0.0898 0.0223
0.0214 0.1222 0.0218
0.0396 0.1222 0.0218
0.0641 0.1222 0.0218
0.0921 0.1225 0.0218
0.1227 0.1230 0.0218
0.1518 0.1240 0.0218
0.1794 0.1254 0.0219
0.2078 0.1273 0.0219
0.2365 0.1295 0.0219
0.2650 0.1319 0.0219
0.2925 0.1344 0.0219
0.3189 0.1368 0.0219
0.3440 0.1390 0.0219
0.3675 0.1408 0.0220
0.3898 0.1423 0.0220
0.4110 0.1434 0.0220
0.4314 0.1442 0.0220
0.4512 0.1447 0.0220
0.4706 0.1450 0.0220
0.4900 0.1451 0.0220
0.5094 0.1451 0.0220
0.5291 0.1448 0.0220
0.5492 0.1443 0.0220
0.5700 0.1435 0.0219
0.5918 0.1424 0.0219
0.6145 0.1409 0.0219
0.6387 0.1391 0.0218
0.6644 0.1370 0.0218
0.6918 0.1347 0.0217
0.7208 0.1323 0.0217
0.7512 0.1302 0.0216
0.7794 0.1282 0.0223
0.0214 0.1472 0.0217
0.0399 0.1477 0.0217
0.0655 0.1489 0.0218
0.0953 0.1506 0.0218
0.1283 0.1525 0.0218
0.1595 0.1547 0.0218
0.1890 0.1570 0.0219
0.2193 0.1595 0.0219
0.2500 0.1622 0.0219
0.2806 0.1651 0.0219
0.3106 0.1680 0.0219
0.3396 0.1708 0.0219
0.3674 0.1734 0.0220
0.3937 0.1757 0.0220
0.4187 0.1775 0.0220
0.4423 0.1790 0.0220
0.4648 0.1800 0.0220
0.4864 0.1806 0.0220
0.5073 0.1810 0.0221
0.5279 0.1813 0.0221
0.5483 0.1814 0.0221
0.5687 0.1815 0.0221
0.5893 0.1814 0.0220
0.6101 0.1811 0.0220
0.6315 0.1805 0.0220
0.6535 0.1796 0.0220
0.6764 0.1784 0.0219
0.7007 0.1768 0.0219
0.7265 0.1749 0.0219
0.7537 0.1728 0.0218
0.7826 0.1709 0.0218
0.8088 0.1691 0.0223
0.0214 0.1696 0.0217
0.0406 0.1707 0.0217
0.0673 0.1730 0.0218
0.0992 0.1763 0.0218
0.1344 0.1797 0.0218
0.1675 0.1831 0.0219
0.1983 0.1865 0.0219
0.2298 0.1898 0.0219
0.2616 0.1930 0.0219
0.2932 0.1962 0.0219
0.3245 0.1994 0.0219
0.3552 0.2025 0.0220
0.3849 0.2053 0.0220
0.4134 0.2079 0.0220
0.4406 0.2101 0.0220
0.4664 0.2119 0.0220
0.4910 0.2132 0.0220
0.5145 0.2141 0.0221
0.5370 0.2147 0.0221
0.5590 0.2150 0.0221
0.5805 0.2153 0.0221
0.6019 0.2155 0.0221
0.6233 0.2157 0.0221
0.6449 0.2159 0.0221
0.6668 0.2159 0.0221
0.6891 0.2158 0.0221
0.7120 0.2153 0.0220
0.7360 0.2145 0.0220
0.7612 0.2133 0.0219
0.7877 0.2119 0.0219
0.8158 0.2105 0.0219
0.8408 0.2085 0.0223
0.0214 0.1928 0.0217
0.0414 0.1942 0.0217
0.0696 0.1975 0.0217
0.1035 0.2021 0.0218
0.1409 0.2070 0.0218
0.1757 0.2118 0.0219
0.2075 0.2162 0.0219
0.2397 0.2202 0.0219
0.2719 0.2239 0.0219
0.3039 0.2275 0.0219
0.3355 0.2310 0.0220
0.3667 0.2344 0.0220
0.3974 0.2376 0.0220
0.4272 0.2404 0.0220
0.4560 0.2430 0.0220
0.4836 0.2452 0.0220
0.5099 0.2470 0.0221
0.5351 0.2483 0.0221
0.5592 0.2491 0.0221
0.5824 0.2497 0.0221
0.6049 0.2501 0.0221
0.6272 0.2504 0.0221
0.6494 0.2508 0.0222
0.6717 0.2513 0.0222
0.6944 0.2518 0.0221
0.7175 0.2522 0.0221
0.7412 0.2524 0.0221
0.7658 0.2523 0.0221
0.7914 0.2520 0.0221
0.8181 0.2513 0.0220
0.8463 0.2506 0.0220
0.8713 0.2487 0.0223
0.0214 0.2171 0.0217
0.0423 0.2186 0.0217
0.0719 0.2224 0.0217
0.1078 0.2280 0.0218
0.1474 0.2342 0.0218
0.1837 0.2402 0.0219
0.2166 0.2457 0.0219
0.2493 0.2504 0.0219
0.2817 0.2546 0.0219
0.3136 0.2584 0.0220
0.3449 0.2622 0.0220
0.3761 0.2658 0.0220
0.4069 0.2692 0.0220
0.4371 0.2724 0.0220
0.4668 0.2753 0.0220
0.4956 0.2779 0.0220
0.5233 0.2802 0.0221
0.5499 0.2820 0.0221
0.5752 0.2834 0.0221
0.5995 0.2843 0.0221
0.6230 0.2850 0.0221
0.6458 0.2855 0.0222
0.6684 0.2860 0.0222
0.6911 0.2867 0.0222
0.7142 0.2874 0.0222
0.7379 0.2882 0.0222
0.7623 0.2889 0.0222
0.7877 0.2894 0.0222
0.8142 0.2898 0.0222
0.8417 0.2900 0.0221
0.8706 0.2899 0.0221
0.8967 0.2883 0.0223
0.0214 0.2426 0.0217
0.0432 0.2440 0.0217
0.0742 0.2479 0.0217
0.1119 0.2541 0.0217
0.1534 0.2611 0.0218
0.1913 0.2682 0.0218
0.2251 0.2746 0.0219
0.2585 0.2800 0.0219
0.2912 0.2845 0.0219
0.3229 0.2885 0.0220
0.3539 0.2924 0.0220
0.3845 0.2962 0.0220
0.4149 0.2998 0.0220
0.4451 0.3032 0.0220
0.4751 0.3064 0.0220
0.5046 0.3093 0.0221
0.5332 0.3120 0.0221
0.5609 0.3144 0.0221
0.5874 0.3164 0.0221
0.6128 0.3179 0.0221
0.6370 0.3191 0.0221
0.6603 0.3200 0.0222
0.6831 0.3207 0.0222
0.7056 0.3214 0.0222
0.7285 0.3223 0.0222
0.7520 0.3232 0.0222
0.7766 0.3242 0.0222
0.8025 0.3252 0.0222
0.8296 0.3260 0.0222
0.8579 0.3267 0.0222
0.8875 0.3272 0.0222
0.9152 0.3262 0.0223
0.0214 0.2694 0.0216
0.0441 0.2705 0.0216
0.0762 0.2741 0.0217
0.1156 0.2804 0.0217
0.1588 0.2880 0.0218
0.1979 0.2959 0.0218
0.2327 0.3031 0.0219
0.2669 0.3090 0.0219
0.3001 0.3137 0.0219
0.3319 0.3178 0.0220
0.3626 0.3216 0.0220
0.3927 0.3255 0.0220
0.4226 0.3293 0.0220
0.4523 0.3329 0.0220
0.4822 0.3363 0.0220
0.5118 0.3394 0.0221
0.5410 0.3424 0.0221
0.5695 0.3453 0.0221
0.5970 0.3478 0.0221
0.6234 0.3500 0.0221
0.6486 0.3518 0.0222
0.6726 0.3532 0.0222
0.6958 0.3544 0.0222
0.7182 0.3554 0.0222
0.7406 0.3564 0.0222
0.7635 0.3574 0.0222
0.7874 0.3585 0.0222
0.8129 0.3596 0.0222
0.8399 0.3606 0.0222
0.8683 0.3616 0.0222
0.8982 0.3624 0.0222
0.9271 0.3621 0.0223
0.0214 0.2970 0.0216
0.0450 0.2978 0.0216
0.0782 0.3009 0.0216
0.1187 0.3068 0.0216
0.1633 0.3146 0.0217
0.2036 0.3232 0.0218
0.2392 0.3311 0.0218
0.2743 0.3376 0.0219
0.3082 0.3425 0.0219
0.3404 0.3465 0.0219
0.3712 0.3501 0.0220
0.4009 0.3539 0.0220
0.4302 0.3578 0.0220
0.4593 0.3615 0.0220
0.4887 0.3651 0.0220
0.5181 0.3684 0.0220
0.5474 0.3715 0.0221
0.5764 0.3745 0.0221
0.6046 0.3774 0.0221
0.6319 0.3802 0.0221
0.6581 0.3827 0.0222
0.6831 0.3849 0.0222
0.7070 0.3866 0.0222
0.7298 0.3881 0.0222
0.7522 0.3894 0.0222
0.7745 0.3906 0.0222
0.7976 0.3917 0.0222
0.8222 0.3929 0.0222
0.8485 0.3940 0.0223
0.8765 0.3950 0.0223
0.9061 0.3958 0.0223
0.9351 0.3959 0.0223
0.0214 0.3253 0.0215
0.0458 0.3258 0.0215
0.0799 0.3282 0.0215
0.1215 0.3335 0.0216
0.1671 0.3412 0.0216
0.2081 0.3501 0.0217
0.2445 0.3588 0.0218
0.2804 0.3659 0.0219
0.3152 0.3711 0.0219
0.3481 0.3749 0.0219
0.3792 0.3783 0.0219
0.4089 0.3818 0.0220
0.4378 0.3856 0.0220
0.4664 0.3893 0.0220
0.4951 0.3930 0.0220
0.5240 0.3963 0.0220
0.5531 0.3995 0.0221
0.5822 0.4026 0.0221
0.6107 0.4056 0.0221
0.6387 0.4088 0.0221
0.6658 0.4118 0.0221
0.6917 0.4147 0.0222
0.7166 0.4172 0.0222
0.7403 0.4194 0.0222
0.7631 0.4212 0.0222
0.7854 0.4227 0.0222
0.8080 0.4240 0.0223
0.8319 0.4252 0.0223
0.8575 0.4263 0.0223
0.8848 0.4272 0.0223
0.9139 0.4280 0.0223
0.9423 0.4285 0.0223
0.0214 0.3541 0.0215
0.0466 0.3543 0.0215
0.0816 0.3558 0.0215
0.1240 0.3603 0.0215
0.1702 0.3676 0.0216
0.2118 0.3767 0.0217
0.2486 0.3859 0.0217
0.2853 0.3938 0.0218
0.3208 0.3995 0.0219
0.3547 0.4034 0.0219
0.3864 0.4064 0.0219
0.4166 0.4095 0.0219
0.4454 0.4129 0.0220
0.4736 0.4166 0.0220
0.5017 0.4203 0.0220
0.5301 0.4237 0.0220
0.5586 0.4268 0.0220
0.5875 0.4298 0.0221
0.6161 0.4328 0.0221
0.6443 0.4360 0.0221
0.6720 0.4393 0.0221
0.6987 0.4427 0.0222
0.7245 0.4459 0.0222
0.7492 0.4489 0.0222
0.7728 0.4515 0.0222
0.7957 0.4536 0.0222
0.8184 0.4553 0.0223
0.8420 0.4566 0.0223
0.8671 0.4577 0.0223
0.8939 0.4585 0.0223
0.9227 0.4592 0.0223
0.9503 0.4600 0.0223
0.0214 0.3830 0.0215
0.0475 0.3830 0.0215
0.0832 0.3839 0.0215
0.1263 0.3872 0.0215
0.1729 0.3938 0.0215
0.2147 0.4027 0.0216
0.2518 0.4125 0.0217
0.2890 0.4212 0.0218
0.3253 0.4277 0.0219
0.3600 0.4319 0.0219
0.3927 0.4347 0.0219
0.4235 0.4372 0.0219
0.4527 0.4402 0.0219
0.4808 0.4436 0.0220
0.5085 0.4471 0.0220
0.5363 0.4505 0.0220
0.5643 0.4536 0.0220
0.5927 0.4565 0.0220
0.6211 0.4593 0.0221
0.6493 0.4623 0.0221
0.6772 0.4656 0.0221
0.7045 0.4692 0.0221
0.7310 0.4729 0.0222
0.7565 0.4767 0.0222
0.7811 0.4801 0.0222
0.8047 0.4830 0.0222
0.8281 0.4853 0.0223
0.8519 0.4870 0.0223
0.8769 0.4882 0.0223
0.9036 0.4891 0.0224
0.9322 0.4896 0.0224
0.9592 0.4907 0.0223
0.0214 0.4122 0.0214
0.0484 0.4120 0.0214
0.0849 0.4122 0.0214
0.1284 0.4145 0.0214
0.1754 0.4200 0.0214
0.2172 0.4284 0.0215
0.2543 0.4385 0.0216
0.2917 0.4480 0.0217
0.3286 0.4556 0.0218
0.3641 0.4605 0.0219
0.3977 0.4634 0.0219
0.4293 0.4655 0.0219
0.4592 0.4678 0.0219
0.4876 0.4707 0.0219
0.5153 0.4739 0.0219
0.5427 0.4772 0.0220
0.5702 0.4803 0.0220
0.5980 0.4830 0.0220
0.6260 0.4857 0.0220
0.6541 0.4883 0.0221
0.6820 0.4913 0.0221
0.7095 0.4948 0.0221
0.7364 0.4988 0.0221
0.7625 0.5030 0.0222
0.7878 0.5071 0.0222
0.8123 0.5109 0.0222
0.8365 0.5141 0.0223
0.8609 0.5164 0.0223
0.8864 0.5181 0.0224
0.9131 0.5192 0.0224
0.9418 0.5197 0.0224
0.9686 0.5210 0.0223
0.0214 0.4414 0.0214
0.0492 0.4410 0.0213
0.0865 0.4407 0.0213
0.1306 0.4419 0.0213
0.1778 0.4461 0.0214
0.2194 0.4538 0.0214
0.2564 0.4638 0.0215
0.2938 0.4741 0.0216
0.3309 0.4829 0.0218
0.3670 0.4889 0.0218
0.4014 0.4923 0.0219
0.4339 0.4943 0.0219
0.4645 0.4960 0.0219
0.4936 0.4982 0.0219
0.5215 0.5010 0.0219
0.5489 0.5039 0.0219
0.5760 0.5068 0.0220
0.6034 0.5095 0.0220
0.6310 0.5119 0.0220
0.6588 0.5143 0.0220
0.6866 0.5169 0.0221
0.7141 0.5200 0.0221
0.7411 0.5238 0.0221
0.7675 0.5281 0.0222
0.7934 0.5327 0.0222
0.8186 0.5373 0.0222
0.8434 0.5414 0.0223
0.8686 0.5446 0.0223
0.8946 0.5470 0.0224
0.9218 0.5486 0.0224
0.9507 0.5495 0.0225
0.9818 0.5498 0.0223
0.0214 0.4705 0.0213
0.0501 0.4701 0.0213
0.0881 0.4694 0.0213
0.1328 0.4696 0.0213
0.1801 0.4725 0.0213
0.2216 0.4790 0.0213
0.2582 0.4885 0.0215
0.2954 0.4994 0.0216
0.3326 0.5094 0.0217
0.3690 0.5168 0.0218
0.4039 0.5213 0.0218
0.4371 0.5235 0.0219
0.4685 0.5248 0.0219
0.4983 0.5264 0.0219
0.5268 0.5285 0.0219
0.5544 0.5309 0.0219
0.5816 0.5335 0.0219
0.6088 0.5360 0.0220
0.6360 0.5383 0.0220
0.6635 0.5405 0.0220
0.6910 0.5427 0.0220
0.7184 0.5453 0.0221
0.7455 0.5485 0.0221
0.7720 0.5525 0.0221
0.7981 0.5573 0.0222
0.8237 0.5623 0.0222
0.8491 0.5673 0.0223
0.8749 0.5716 0.0223
0.9014 0.5750 0.0224
0.9290 0.5774 0.0224
0.9581 0.5789 0.0225
0.9891 0.5795 0.0223
0.0214 0.4996 0.0212
0.0510 0.4991 0.0212
0.0898 0.4981 0.0212
0.1350 0.4977 0.0212
0.1825 0.4992 0.0212
0.2237 0.5042 0.0213
0.2600 0.5129 0.0214
0.2968 0.5238 0.0215
0.3339 0.5349 0.0216
0.3703 0.5440 0.0217
0.4054 0.5500 0.0218
0.4391 0.5529 0.0218
0.4711 0.5542 0.0219
0.5016 0.5552 0.0219
0.5308 0.5565 0.0219
0.5589 0.5584 0.0219
0.5864 0.5606 0.0219
0.6136 0.5628 0.0219
0.6407 0.5649 0.0220
0.6680 0.5668 0.0220
0.6952 0.5687 0.0220
0.7225 0.5707 0.0220
0.7495 0.5734 0.0221
0.7761 0.5768 0.0221
0.8023 0.5812 0.0222
0.8281 0.5864 0.0222
0.8538 0.5919 0.0222
0.8800 0.5972 0.0223
0.9069 0.6016 0.0224
0.9348 0.6052 0.0225
0.9641 0.6076 0.0225
0.9950 0.6087 0.0223
0.0214 0.5286 0.0212
0.0519 0.5280 0.0212
0.0914 0.5269 0.0212
0.1372 0.5259 0.0211
0.1851 0.5263 0.0211
0.2260 0.5297 0.0212
0.2618 0.5371 0.0213
0.2982 0.5477 0.0214
0.3349 0.5595 0.0215
0.3711 0.5702 0.0216
0.4063 0.5779 0.0218
0.4401 0.5821 0.0218
0.4725 0.5839 0.0218
0.5035 0.5845 0.0219
0.5333 0.5853 0.0219
0.5621 0.5864 0.0219
0.5901 0.5880 0.0219
0.6176 0.5899 0.0219
0.6449 0.5917 0.0219
0.6720 0.5933 0.0220
0.6992 0.5949 0.0220
0.7262 0.5965 0.0220
0.7531 0.5985 0.0221
0.7797 0.6012 0.0221
0.8061 0.6050 0.0221
0.8320 0.6099 0.0222
0.8580 0.6155 0.0222
0.8843 0.6214 0.0223
0.9115 0.6269 0.0224
0.9395 0.6317 0.0225
0.9689 0.6352 0.0225
0.9998 0.6369 0.0223
0.0214 0.5576 0.0211
0.0527 0.5569 0.0211
0.0930 0.5557 0.0211
0.1395 0.5543 0.0211
0.1877 0.5538 0.0211
0.2285 0.5557 0.0211
0.2638 0.5615 0.0212
0.2997 0.5713 0.0213
0.3358 0.5833 0.0214
0.3717 0.5952 0.0216
0.4066 0.6048 0.0217
0.4404 0.6108 0.0218
0.4729 0.6136 0.0218
0.5042 0.6143 0.0218
0.5344 0.6146 0.0218
0.5638 0.6151 0.0219
0.5925 0.6161 0.0219
0.6206 0.6174 0.0219
0.6481 0.6188 0.0219
0.6755 0.6202 0.0219
0.7026 0.6214 0.0220
0.7295 0.6226 0.0220
0.7564 0.6240 0.0220
0.7830 0.6259 0.0221
0.8094 0.6289 0.0221
0.8355 0.6331 0.0222
0.8617 0.6385 0.0222
0.8882 0.6446 0.0223
0.9156 0.6508 0.0224
0.9438 0.6567 0.0225
0.9732 0.6613 0.0225
1.0000 0.6638 0.0223
0.0214 0.5865 0.0211
0.0536 0.5859 0.0211
0.0947 0.5845 0.0211
0.1418 0.5830 0.0211
0.1904 0.5818 0.0210
0.2311 0.5825 0.0211
0.2660 0.5865 0.0211
0.3013 0.5948 0.0212
0.3369 0.6065 0.0213
0.3722 0.6193 0.0215
0.4067 0.6307 0.0216
0.4403 0.6387 0.0217
0.4727 0.6429 0.0218
0.5040 0.6443 0.0218
0.5345 0.6443 0.0218
0.5644 0.6443 0.0218
0.5936 0.6446 0.0219
0.6223 0.6454 0.0219
0.6504 0.6463 0.0219
0.6781 0.6473 0.0219
0.7054 0.6482 0.0220
0.7324 0.6490 0.0220
0.7592 0.6499 0.0220
0.7857 0.6511 0.0221
0.8122 0.6532 0.0221
0.8385 0.6566 0.0222
0.8649 0.6613 0.0222
0.8918 0.6672 0.0223
0.9193 0.6736 0.0223
0.9477 0.6801 0.0224
0.9772 0.6855 0.0225
1.0000 0.6890 0.0223
0.0215 0.6155 0.0211
0.0545 0.6148 0.0211
0.0964 0.6135 0.0210
0.1442 0.6117 0.0210
0.1932 0.6103 0.0210
0.2339 0.6099 0.0210
0.2684 0.6122 0.0210
0.3033 0.6188 0.0211
0.3383 0.6295 0.0212
0.3730 0.6427 0.0214
0.4069 0.6555 0.0215
0.4400 0.6655 0.0217
0.4721 0.6716 0.0218
0.5033 0.6741 0.0218
0.5339 0.6744 0.0218
0.5640 0.6741 0.0218
0.5937 0.6738 0.0218
0.6229 0.6739 0.0219
0.6516 0.6743 0.0219
0.6797 0.6749 0.0219
0.7074 0.6755 0.0219
0.7346 0.6759 0.0220
0.7614 0.6763 0.0220
0.7880 0.6768 0.0221
0.8145 0.6781 0.0221
0.8409 0.6805 0.0222
0.8676 0.6843 0.0222
0.8948 0.6894 0.0222
0.9227 0.6955 0.0223
0.9514 0.7021 0.0224
0.9812 0.7079 0.0225
1.0000 0.7122 0.0223
0.0215 0.6445 0.0210
0.0554 0.6438 0.0210
0.0981 0.6423 0.0210
0.1465 0.6406 0.0210
0.1960 0.6389 0.0210
0.2368 0.6378 0.0209
0.2711 0.6387 0.0210
0.3055 0.6434 0.0210
0.3400 0.6527 0.0211
0.3741 0.6654 0.0213
0.4074 0.6792 0.0215
0.4398 0.6911 0.0216
0.4714 0.6993 0.0217
0.5023 0.7034 0.0218
0.5328 0.7044 0.0218
0.5630 0.7040 0.0218
0.5930 0.7033 0.0218
0.6226 0.7028 0.0219
0.6518 0.7027 0.0219
0.6805 0.7028 0.0219
0.7086 0.7029 0.0219
0.7360 0.7030 0.0220
0.7630 0.7030 0.0220
0.7896 0.7031 0.0221
0.8162 0.7035 0.0221
0.8427 0.7049 0.0222
0.8697 0.7076 0.0222
0.8972 0.7117 0.0222
0.9255 0.7169 0.0223
0.9546 0.7230 0.0224
0.9847 0.7286 0.0225
1.0000 0.7336 0.0223
0.0215 0.6735 0.0210
0.0563 0.6728 0.0210
0.0998 0.6713 0.0210
0.1489 0.6695 0.0209
0.1989 0.6678 0.0209
0.2397 0.6663 0.0209
0.2739 0.6661 0.0209
0.3081 0.6689 0.0210
0.3421 0.6764 0.0211
0.3756 0.6881 0.0212
0.4082 0.7022 0.0214
0.4400 0.7157 0.0215
0.4710 0.7260 0.0217
0.5013 0.7321 0.0217
0.5315 0.7342 0.0218
0.5616 0.7341 0.0218
0.5917 0.7332 0.0218
0.6216 0.7321 0.0219
0.6512 0.7314 0.0219
0.6804 0.7310 0.0219
0.7089 0.7307 0.0219
0.7368 0.7305 0.0220
0.7640 0.7302 0.0220
0.7907 0.7298 0.0221
0.8173 0.7297 0.0221
0.8440 0.7302 0.0222
0.8711 0.7318 0.0222
0.8989 0.7346 0.0222
0.9276 0.7386 0.0223
0.9571 0.7437 0.0224
0.9876 0.7484 0.0224
1.0000 0.7537 0.0223
0.0215 0.7025 0.0210
0.0572 0.7018 0.0209
0.1014 0.7003 0.0209
0.1512 0.6985 0.0209
0.2017 0.6968 0.0209
0.2427 0.6952 0.0209
0.2768 0.6943 0.0209
0.3108 0.6956 0.0209
0.3446 0.7010 0.0210
0.3777 0.7112 0.0211
0.4097 0.7248 0.0213
0.4407 0.7393 0.0214
0.4709 0.7516 0.0216
0.5006 0.7598 0.0217
0.5303 0.7635 0.0218
0.5601 0.7641 0.0218
0.5902 0.7630 0.0218
0.6202 0.7617 0.0219
0.6501 0.7604 0.0219
0.6797 0.7594 0.0219
0.7086 0.7587 0.0219
0.7369 0.7581 0.0220
0.7645 0.7576 0.0220
0.7913 0.7570 0.0221
0.8180 0.7565 0.0221
0.8447 0.7563 0.0222
0.8718 0.7569 0.0222
0.8998 0.7585 0.0223
0.9287 0.7612 0.0223
0.9586 0.7648 0.0224
0.9894 0.7685 0.0224
1.0000 0.7735 0.0223
0.0215 0.7317 0.0209
0.0580 0.7309 0.0209
0.1031 0.7295 0.0209
0.1535 0.7277 0.0209
0.2044 0.7261 0.0209
0.2457 0.7245 0.0209
0.2797 0.7232 0.0208
0.3137 0.7233 0.0209
0.3474 0.7267 0.0209
0.3803 0.7350 0.0210
0.4118 0.7476 0.0211
0.4421 0.7623 0.0213
0.4714 0.7761 0.0215
0.5002 0.7864 0.0217
0.5292 0.7921 0.0218
0.5586 0.7937 0.0218
0.5885 0.7929 0.0218
0.6186 0.7913 0.0219
0.6486 0.7895 0.0219
0.6785 0.7880 0.0219
0.7079 0.7868 0.0219
0.7366 0.7859 0.0220
0.7645 0.7852 0.0220
0.7916 0.7845 0.0221
0.8183 0.7838 0.0222
0.8449 0.7833 0.0222
0.8720 0.7832 0.0222
0.9001 0.7837 0.0223
0.9291 0.7852 0.0223
0.9592 0.7874 0.0224
0.9902 0.7897 0.0224
1.0000 0.7942 0.0223
0.0215 0.7609 0.0209
0.0589 0.7602 0.0209
0.1047 0.7588 0.0209
0.1558 0.7571 0.0209
0.2072 0.7556 0.0208
0.2486 0.7540 0.0208
0.2826 0.7526 0.0208
0.3166 0.7520 0.0208
0.3503 0.7537 0.0209
0.3832 0.7599 0.0209
0.4144 0.7709 0.0211
0.4442 0.7852 0.0212
0.4727 0.7999 0.0214
0.5005 0.8121 0.0216
0.5286 0.8198 0.0217
0.5573 0.8229 0.0218
0.5868 0.8226 0.0219
0.6168 0.8208 0.0219
0.6470 0.8187 0.0219
0.6771 0.8168 0.0219
0.7069 0.8151 0.0220
0.7360 0.8139 0.0220
0.7642 0.8130 0.0221
0.7916 0.8123 0.0221
0.8184 0.8116 0.0222
0.8449 0.8109 0.0222
0.8719 0.8104 0.0223
0.8999 0.8104 0.0223
0.9289 0.8108 0.0224
0.9590 0.8118 0.0224
0.9901 0.8130 0.0224
1.0000 0.8166 0.0223
0.0215 0.7903 0.0209
0.0598 0.7896 0.0209
0.1064 0.7883 0.0208
0.1580 0.7867 0.0208
