lut/adanmq/Adanmq_Ilford_Delta_400.cube
TITLE "Adanmq_Ilford Delta 400"
LUT_3D_SIZE 32
0.0223 0.0223 0.0223
0.0282 0.0282 0.0282
0.0327 0.0327 0.0327
0.0365 0.0365 0.0365
0.0403 0.0403 0.0403
0.0441 0.0441 0.0441
0.0481 0.0481 0.0481
0.0524 0.0524 0.0524
0.0575 0.0575 0.0575
0.0633 0.0633 0.0633
0.0698 0.0698 0.0698
0.0765 0.0765 0.0765
0.0830 0.0830 0.0830
0.0892 0.0892 0.0892
0.0950 0.0950 0.0950
0.1007 0.1007 0.1007
0.1066 0.1066 0.1066
0.1127 0.1127 0.1127
0.1193 0.1193 0.1193
0.1264 0.1264 0.1264
0.1338 0.1338 0.1338
0.1414 0.1414 0.1414
0.1492 0.1492 0.1492
0.1571 0.1571 0.1571
0.1653 0.1653 0.1653
0.1739 0.1739 0.1739
0.1831 0.1831 0.1831
0.1929 0.1929 0.1929
0.2031 0.2031 0.2031
0.2138 0.2138 0.2138
0.2243 0.2243 0.2243
0.2325 0.2325 0.2325
0.0430 0.0430 0.0430
0.0488 0.0488 0.0488
0.0530 0.0530 0.0530
0.0565 0.0565 0.0565
0.0600 0.0600 0.0600
0.0636 0.0636 0.0636
0.0672 0.0672 0.0672
0.0713 0.0713 0.0713
0.0762 0.0762 0.0762
0.0820 0.0820 0.0820
0.0885 0.0885 0.0885
0.0954 0.0954 0.0954
0.1021 0.1021 0.1021
0.1085 0.1085 0.1085
0.1144 0.1144 0.1144
0.1202 0.1202 0.1202
0.1260 0.1260 0.1260
0.1322 0.1322 0.1322
0.1388 0.1388 0.1388
0.1460 0.1460 0.1460
0.1536 0.1536 0.1536
0.1614 0.1614 0.1614
0.1696 0.1696 0.1696
0.1779 0.1779 0.1779
0.1865 0.1865 0.1865
0.1955 0.1955 0.1955
0.2050 0.2050 0.2050
0.2149 0.2149 0.2149
0.2253 0.2253 0.2253
0.2360 0.2360 0.2360
0.2465 0.2465 0.2465
0.2547 0.2547 0.2547
0.0616 0.0616 0.0616
0.0670 0.0670 0.0670
0.0709 0.0709 0.0709
0.0740 0.0740 0.0740
0.0771 0.0771 0.0771
0.0804 0.0804 0.0804
0.0838 0.0838 0.0838
0.0876 0.0876 0.0876
0.0921 0.0921 0.0921
0.0975 0.0975 0.0975
0.1038 0.1038 0.1038
0.1106 0.1106 0.1106
0.1174 0.1174 0.1174
0.1239 0.1239 0.1239
0.1301 0.1301 0.1301
0.1360 0.1360 0.1360
0.1418 0.1418 0.1418
0.1480 0.1480 0.1480
0.1547 0.1547 0.1547
0.1619 0.1619 0.1619
0.1697 0.1697 0.1697
0.1780 0.1780 0.1780
0.1869 0.1869 0.1869
0.1960 0.1960 0.1960
0.2057 0.2057 0.2057
0.2157 0.2157 0.2157
0.2260 0.2260 0.2260
0.2367 0.2367 0.2367
0.2476 0.2476 0.2476
0.2588 0.2588 0.2588
0.2696 0.2696 0.2696
0.2779 0.2779 0.2779
0.0751 0.0751 0.0751
0.0806 0.0806 0.0806
0.0845 0.0845 0.0845
0.0876 0.0876 0.0876
0.0910 0.0910 0.0910
0.0945 0.0945 0.0945
0.0982 0.0982 0.0982
0.1021 0.1021 0.1021
0.1064 0.1064 0.1064
0.1113 0.1113 0.1113
0.1170 0.1170 0.1170
0.1233 0.1233 0.1233
0.1298 0.1298 0.1298
0.1363 0.1363 0.1363
0.1425 0.1425 0.1425
0.1486 0.1486 0.1486
0.1546 0.1546 0.1546
0.1609 0.1609 0.1609
0.1675 0.1675 0.1675
0.1747 0.1747 0.1747
0.1825 0.1825 0.1825
0.1911 0.1911 0.1911
0.2005 0.2005 0.2005
0.2105 0.2105 0.2105
0.2213 0.2213 0.2213
0.2325 0.2325 0.2325
0.2441 0.2441 0.2441
0.2559 0.2559 0.2559
0.2678 0.2678 0.2678
0.2800 0.2800 0.2800
0.2916 0.2916 0.2916
0.3004 0.3004 0.3004
0.0836 0.0836 0.0836
0.0895 0.0895 0.0895
0.0941 0.0941 0.0941
0.0981 0.0981 0.0981
0.1024 0.1024 0.1024
0.1068 0.1068 0.1068
0.1112 0.1112 0.1112
0.1156 0.1156 0.1156
0.1201 0.1201 0.1201
0.1248 0.1248 0.1248
0.1300 0.1300 0.1300
0.1358 0.1358 0.1358
0.1420 0.1420 0.1420
0.1483 0.1483 0.1483
0.1547 0.1547 0.1547
0.1610 0.1610 0.1610
0.1673 0.1673 0.1673
0.1738 0.1738 0.1738
0.1805 0.1805 0.1805
0.1876 0.1876 0.1876
0.1953 0.1953 0.1953
0.2037 0.2037 0.2037
0.2132 0.2132 0.2132
0.2236 0.2236 0.2236
0.2350 0.2350 0.2350
0.2470 0.2470 0.2470
0.2596 0.2596 0.2596
0.2724 0.2724 0.2724
0.2854 0.2854 0.2854
0.2988 0.2988 0.2988
0.3114 0.3114 0.3114
0.3209 0.3209 0.3209
0.0880 0.0880 0.0880
0.0944 0.0944 0.0944
0.1001 0.1001 0.1001
0.1057 0.1057 0.1057
0.1113 0.1113 0.1113
0.1168 0.1168 0.1168
0.1221 0.1221 0.1221
0.1272 0.1272 0.1272
0.1322 0.1322 0.1322
0.1372 0.1372 0.1372
0.1424 0.1424 0.1424
0.1481 0.1481 0.1481
0.1543 0.1543 0.1543
0.1607 0.1607 0.1607
0.1673 0.1673 0.1673
0.1739 0.1739 0.1739
0.1807 0.1807 0.1807
0.1875 0.1875 0.1875
0.1946 0.1946 0.1946
0.2018 0.2018 0.2018
0.2095 0.2095 0.2095
0.2177 0.2177 0.2177
0.2270 0.2270 0.2270
0.2372 0.2372 0.2372
0.2485 0.2485 0.2485
0.2607 0.2607 0.2607
0.2736 0.2736 0.2736
0.2871 0.2871 0.2871
0.3008 0.3008 0.3008
0.3152 0.3152 0.3152
0.3287 0.3287 0.3287
0.3390 0.3390 0.3390
0.0912 0.0912 0.0912
0.0981 0.0981 0.0981
0.1049 0.1049 0.1049
0.1118 0.1118 0.1118
0.1187 0.1187 0.1187
0.1252 0.1252 0.1252
0.1313 0.1313 0.1313
0.1371 0.1371 0.1371
0.1426 0.1426 0.1426
0.1481 0.1481 0.1481
0.1538 0.1538 0.1538
0.1600 0.1600 0.1600
0.1665 0.1665 0.1665
0.1734 0.1734 0.1734
0.1803 0.1803 0.1803
0.1874 0.1874 0.1874
0.1946 0.1946 0.1946
0.2022 0.2022 0.2022
0.2098 0.2098 0.2098
0.2177 0.2177 0.2177
0.2257 0.2257 0.2257
0.2340 0.2340 0.2340
0.2431 0.2431 0.2431
0.2529 0.2529 0.2529
0.2638 0.2638 0.2638
0.2757 0.2757 0.2757
0.2884 0.2884 0.2884
0.3019 0.3019 0.3019
0.3159 0.3159 0.3159
0.3308 0.3308 0.3308
0.3448 0.3448 0.3448
0.3555 0.3555 0.3555
0.0967 0.0967 0.0967
0.1037 0.1037 0.1037
0.1111 0.1111 0.1111
0.1189 0.1189 0.1189
0.1266 0.1266 0.1266
0.1338 0.1338 0.1338
0.1403 0.1403 0.1403
0.1463 0.1463 0.1463
0.1521 0.1521 0.1521
0.1581 0.1581 0.1581
0.1644 0.1644 0.1644
0.1713 0.1713 0.1713
0.1785 0.1785 0.1785
0.1860 0.1860 0.1860
0.1935 0.1935 0.1935
0.2012 0.2012 0.2012
0.2091 0.2091 0.2091
0.2173 0.2173 0.2173
0.2259 0.2259 0.2259
0.2346 0.2346 0.2346
0.2434 0.2434 0.2434
0.2523 0.2523 0.2523
0.2615 0.2615 0.2615
0.2712 0.2712 0.2712
0.2818 0.2818 0.2818
0.2932 0.2932 0.2932
0.3057 0.3057 0.3057
0.3190 0.3190 0.3190
0.3330 0.3330 0.3330
0.3479 0.3479 0.3479
0.3621 0.3621 0.3621
0.3725 0.3725 0.3725
0.1060 0.1060 0.1060
0.1129 0.1129 0.1129
0.1202 0.1202 0.1202
0.1282 0.1282 0.1282
0.1362 0.1362 0.1362
0.1437 0.1437 0.1437
0.1502 0.1502 0.1502
0.1561 0.1561 0.1561
0.1618 0.1618 0.1618
0.1679 0.1679 0.1679
0.1747 0.1747 0.1747
0.1821 0.1821 0.1821
0.1900 0.1900 0.1900
0.1982 0.1982 0.1982
0.2065 0.2065 0.2065
0.2148 0.2148 0.2148
0.2235 0.2235 0.2235
0.2325 0.2325 0.2325
0.2420 0.2420 0.2420
0.2518 0.2518 0.2518
0.2617 0.2617 0.2617
0.2714 0.2714 0.2714
0.2812 0.2812 0.2812
0.2912 0.2912 0.2912
0.3019 0.3019 0.3019
0.3133 0.3133 0.3133
0.3257 0.3257 0.3257
0.3391 0.3391 0.3391
0.3532 0.3532 0.3532
0.3681 0.3681 0.3681
0.3822 0.3822 0.3822
0.3920 0.3920 0.3920
0.1185 0.1185 0.1185
0.1251 0.1251 0.1251
0.1320 0.1320 0.1320
0.1397 0.1397 0.1397
0.1477 0.1477 0.1477
0.1552 0.1552 0.1552
0.1617 0.1617 0.1617
0.1673 0.1673 0.1673
0.1727 0.1727 0.1727
0.1787 0.1787 0.1787
0.1855 0.1855 0.1855
0.1931 0.1931 0.1931
0.2014 0.2014 0.2014
0.2102 0.2102 0.2102
0.2192 0.2192 0.2192
0.2283 0.2283 0.2283
0.2377 0.2377 0.2377
0.2475 0.2475 0.2475
0.2579 0.2579 0.2579
0.2687 0.2687 0.2687
0.2796 0.2796 0.2796
0.2904 0.2904 0.2904
0.3010 0.3010 0.3010
0.3117 0.3117 0.3117
0.3229 0.3229 0.3229
0.3348 0.3348 0.3348
0.3476 0.3476 0.3476
0.3615 0.3615 0.3615
0.3760 0.3760 0.3760
0.3912 0.3912 0.3912
0.4055 0.4055 0.4055
0.4146 0.4146 0.4146
0.1325 0.1325 0.1325
0.1388 0.1388 0.1388
0.1452 0.1452 0.1452
0.1526 0.1526 0.1526
0.1605 0.1605 0.1605
0.1681 0.1681 0.1681
0.1746 0.1746 0.1746
0.1801 0.1801 0.1801
0.1852 0.1852 0.1852
0.1908 0.1908 0.1908
0.1974 0.1974 0.1974
0.2051 0.2051 0.2051
0.2136 0.2136 0.2136
0.2227 0.2227 0.2227
0.2323 0.2323 0.2323
0.2420 0.2420 0.2420
0.2521 0.2521 0.2521
0.2627 0.2627 0.2627
0.2739 0.2739 0.2739
0.2855 0.2855 0.2855
0.2973 0.2973 0.2973
0.3090 0.3090 0.3090
0.3206 0.3206 0.3206
0.3321 0.3321 0.3321
0.3440 0.3440 0.3440
0.3566 0.3566 0.3566
0.3702 0.3702 0.3702
0.3848 0.3848 0.3848
0.4001 0.4001 0.4001
0.4160 0.4160 0.4160
0.4307 0.4307 0.4307
0.4396 0.4396 0.4396
0.1467 0.1467 0.1467
0.1528 0.1528 0.1528
0.1588 0.1588 0.1588
0.1659 0.1659 0.1659
0.1739 0.1739 0.1739
0.1818 0.1818 0.1818
0.1886 0.1886 0.1886
0.1942 0.1942 0.1942
0.1992 0.1992 0.1992
0.2046 0.2046 0.2046
0.2110 0.2110 0.2110
0.2185 0.2185 0.2185
0.2270 0.2270 0.2270
0.2363 0.2363 0.2363
0.2463 0.2463 0.2463
0.2565 0.2565 0.2565
0.2672 0.2672 0.2672
0.2784 0.2784 0.2784
0.2901 0.2901 0.2901
0.3024 0.3024 0.3024
0.3150 0.3150 0.3150
0.3276 0.3276 0.3276
0.3400 0.3400 0.3400
0.3524 0.3524 0.3524
0.3651 0.3651 0.3651
0.3783 0.3783 0.3783
0.3926 0.3926 0.3926
0.4080 0.4080 0.4080
0.4240 0.4240 0.4240
0.4406 0.4406 0.4406
0.4558 0.4558 0.4558
0.4651 0.4651 0.4651
0.1606 0.1606 0.1606
0.1667 0.1667 0.1667
0.1724 0.1724 0.1724
0.1793 0.1793 0.1793
0.1874 0.1874 0.1874
0.1957 0.1957 0.1957
0.2033 0.2033 0.2033
0.2094 0.2094 0.2094
0.2148 0.2148 0.2148
0.2201 0.2201 0.2201
0.2263 0.2263 0.2263
0.2336 0.2336 0.2336
0.2420 0.2420 0.2420
0.2514 0.2514 0.2514
0.2614 0.2614 0.2614
0.2721 0.2721 0.2721
0.2831 0.2831 0.2831
0.2947 0.2947 0.2947
0.3067 0.3067 0.3067
0.3195 0.3195 0.3195
0.3327 0.3327 0.3327
0.3461 0.3461 0.3461
0.3595 0.3595 0.3595
0.3727 0.3727 0.3727
0.3861 0.3861 0.3861
0.4000 0.4000 0.4000
0.4149 0.4149 0.4149
0.4307 0.4307 0.4307
0.4472 0.4472 0.4472
0.4642 0.4642 0.4642
0.4797 0.4797 0.4797
0.4896 0.4896 0.4896
0.1747 0.1747 0.1747
0.1806 0.1806 0.1806
0.1861 0.1861 0.1861
0.1926 0.1926 0.1926
0.2007 0.2007 0.2007
0.2097 0.2097 0.2097
0.2183 0.2183 0.2183
0.2256 0.2256 0.2256
0.2316 0.2316 0.2316
0.2372 0.2372 0.2372
0.2432 0.2432 0.2432
0.2503 0.2503 0.2503
0.2586 0.2586 0.2586
0.2679 0.2679 0.2679
0.2780 0.2780 0.2780
0.2887 0.2887 0.2887
0.3000 0.3000 0.3000
0.3117 0.3117 0.3117
0.3240 0.3240 0.3240
0.3369 0.3369 0.3369
0.3505 0.3505 0.3505
0.3646 0.3646 0.3646
0.3788 0.3788 0.3788
0.3930 0.3930 0.3930
0.4072 0.4072 0.4072
0.4217 0.4217 0.4217
0.4370 0.4370 0.4370
0.4532 0.4532 0.4532
0.4699 0.4699 0.4699
0.4869 0.4869 0.4869
0.5023 0.5023 0.5023
0.5126 0.5126 0.5126
0.1889 0.1889 0.1889
0.1948 0.1948 0.1948
0.1999 0.1999 0.1999
0.2058 0.2058 0.2058
0.2139 0.2139 0.2139
0.2234 0.2234 0.2234
0.2332 0.2332 0.2332
0.2421 0.2421 0.2421
0.2493 0.2493 0.2493
0.2556 0.2556 0.2556
0.2617 0.2617 0.2617
0.2687 0.2687 0.2687
0.2767 0.2767 0.2767
0.2857 0.2857 0.2857
0.2957 0.2957 0.2957
0.3064 0.3064 0.3064
0.3178 0.3178 0.3178
0.3297 0.3297 0.3297
0.3420 0.3420 0.3420
0.3549 0.3549 0.3549
0.3686 0.3686 0.3686
0.3829 0.3829 0.3829
0.3978 0.3978 0.3978
0.4129 0.4129 0.4129
0.4280 0.4280 0.4280
0.4432 0.4432 0.4432
0.4590 0.4590 0.4590
0.4754 0.4754 0.4754
0.4921 0.4921 0.4921
0.5090 0.5090 0.5090
0.5242 0.5242 0.5242
0.5346 0.5346 0.5346
0.2035 0.2035 0.2035
0.2092 0.2092 0.2092
0.2139 0.2139 0.2139
0.2193 0.2193 0.2193
0.2270 0.2270 0.2270
0.2368 0.2368 0.2368
0.2478 0.2478 0.2478
0.2585 0.2585 0.2585
0.2675 0.2675 0.2675
0.2750 0.2750 0.2750
0.2816 0.2816 0.2816
0.2885 0.2885 0.2885
0.2962 0.2962 0.2962
0.3050 0.3050 0.3050
0.3147 0.3147 0.3147
0.3254 0.3254 0.3254
0.3368 0.3368 0.3368
0.3488 0.3488 0.3488
0.3612 0.3612 0.3612
0.3741 0.3741 0.3741
0.3875 0.3875 0.3875
0.4017 0.4017 0.4017
0.4168 0.4168 0.4168
0.4323 0.4323 0.4323
0.4482 0.4482 0.4482
0.4643 0.4643 0.4643
0.4806 0.4806 0.4806
0.4974 0.4974 0.4974
0.5142 0.5142 0.5142
0.5310 0.5310 0.5310
0.5461 0.5461 0.5461
0.5564 0.5564 0.5564
0.2183 0.2183 0.2183
0.2239 0.2239 0.2239
0.2283 0.2283 0.2283
0.2331 0.2331 0.2331
0.2401 0.2401 0.2401
0.2499 0.2499 0.2499
0.2618 0.2618 0.2618
0.2744 0.2744 0.2744
0.2856 0.2856 0.2856
0.2949 0.2949 0.2949
0.3025 0.3025 0.3025
0.3096 0.3096 0.3096
0.3172 0.3172 0.3172
0.3257 0.3257 0.3257
0.3351 0.3351 0.3351
0.3456 0.3456 0.3456
0.3569 0.3569 0.3569
0.3690 0.3690 0.3690
0.3815 0.3815 0.3815
0.3944 0.3944 0.3944
0.4076 0.4076 0.4076
0.4214 0.4214 0.4214
0.4361 0.4361 0.4361
0.4516 0.4516 0.4516
0.4679 0.4679 0.4679
0.4846 0.4846 0.4846
0.5016 0.5016 0.5016
0.5188 0.5188 0.5188
0.5358 0.5358 0.5358
0.5528 0.5528 0.5528
0.5679 0.5679 0.5679
0.5777 0.5777 0.5777
0.2334 0.2334 0.2334
0.2390 0.2390 0.2390
0.2432 0.2432 0.2432
0.2474 0.2474 0.2474
0.2537 0.2537 0.2537
0.2631 0.2631 0.2631
0.2755 0.2755 0.2755
0.2897 0.2897 0.2897
0.3033 0.3033 0.3033
0.3148 0.3148 0.3148
0.3240 0.3240 0.3240
0.3319 0.3319 0.3319
0.3397 0.3397 0.3397
0.3480 0.3480 0.3480
0.3572 0.3572 0.3572
0.3673 0.3673 0.3673
0.3784 0.3784 0.3784
0.3905 0.3905 0.3905
0.4031 0.4031 0.4031
0.4161 0.4161 0.4161
0.4292 0.4292 0.4292
0.4426 0.4426 0.4426
0.4566 0.4566 0.4566
0.4715 0.4715 0.4715
0.4876 0.4876 0.4876
0.5044 0.5044 0.5044
0.5218 0.5218 0.5218
0.5394 0.5394 0.5394
0.5567 0.5567 0.5567
0.5739 0.5739 0.5739
0.5892 0.5892 0.5892
0.5991 0.5991 0.5991
0.2488 0.2488 0.2488
0.2544 0.2544 0.2544
0.2586 0.2586 0.2586
0.2626 0.2626 0.2626
0.2683 0.2683 0.2683
0.2769 0.2769 0.2769
0.2893 0.2893 0.2893
0.3045 0.3045 0.3045
0.3203 0.3203 0.3203
0.3344 0.3344 0.3344
0.3457 0.3457 0.3457
0.3549 0.3549 0.3549
0.3632 0.3632 0.3632
0.3716 0.3716 0.3716
0.3807 0.3807 0.3807
0.3906 0.3906 0.3906
0.4014 0.4014 0.4014
0.4133 0.4133 0.4133
0.4259 0.4259 0.4259
0.4390 0.4390 0.4390
0.4522 0.4522 0.4522
0.4653 0.4653 0.4653
0.4787 0.4787 0.4787
0.4927 0.4927 0.4927
0.5078 0.5078 0.5078
0.5241 0.5241 0.5241
0.5414 0.5414 0.5414
0.5591 0.5591 0.5591
0.5767 0.5767 0.5767
0.5940 0.5940 0.5940
0.6095 0.6095 0.6095
0.6197 0.6197 0.6197
0.2648 0.2648 0.2648
0.2705 0.2705 0.2705
0.2748 0.2748 0.2748
0.2788 0.2788 0.2788
0.2840 0.2840 0.2840
0.2918 0.2918 0.2918
0.3036 0.3036 0.3036
0.3192 0.3192 0.3192
0.3366 0.3366 0.3366
0.3532 0.3532 0.3532
0.3670 0.3670 0.3670
0.3781 0.3781 0.3781
0.3874 0.3874 0.3874
0.3962 0.3962 0.3962
0.4054 0.4054 0.4054
0.4152 0.4152 0.4152
0.4258 0.4258 0.4258
0.4374 0.4374 0.4374
0.4498 0.4498 0.4498
0.4629 0.4629 0.4629
0.4762 0.4762 0.4762
0.4893 0.4893 0.4893
0.5023 0.5023 0.5023
0.5154 0.5154 0.5154
0.5294 0.5294 0.5294
0.5445 0.5445 0.5445
0.5609 0.5609 0.5609
0.5783 0.5783 0.5783
0.5958 0.5958 0.5958
0.6133 0.6133 0.6133
0.6289 0.6289 0.6289
0.6393 0.6393 0.6393
0.2815 0.2815 0.2815
0.2873 0.2873 0.2873
0.2918 0.2918 0.2918
0.2960 0.2960 0.2960
0.3010 0.3010 0.3010
0.3079 0.3079 0.3079
0.3187 0.3187 0.3187
0.3339 0.3339 0.3339
0.3522 0.3522 0.3522
0.3710 0.3710 0.3710
0.3876 0.3876 0.3876
0.4011 0.4011 0.4011
0.4119 0.4119 0.4119
0.4214 0.4214 0.4214
0.4309 0.4309 0.4309
0.4408 0.4408 0.4408
0.4513 0.4513 0.4513
0.4626 0.4626 0.4626
0.4747 0.4747 0.4747
0.4876 0.4876 0.4876
0.5009 0.5009 0.5009
0.5141 0.5141 0.5141
0.5269 0.5269 0.5269
0.5395 0.5395 0.5395
0.5523 0.5523 0.5523
0.5660 0.5660 0.5660
0.5811 0.5811 0.5811
0.5975 0.5975 0.5975
0.6146 0.6146 0.6146
0.6319 0.6319 0.6319
0.6476 0.6476 0.6476
0.6582 0.6582 0.6582
0.2991 0.2991 0.2991
0.3049 0.3049 0.3049
0.3097 0.3097 0.3097
0.3142 0.3142 0.3142
0.3191 0.3191 0.3191
0.3253 0.3253 0.3253
0.3347 0.3347 0.3347
0.3489 0.3489 0.3489
0.3674 0.3674 0.3674
0.3879 0.3879 0.3879
0.4073 0.4073 0.4073
0.4234 0.4234 0.4234
0.4363 0.4363 0.4363
0.4470 0.4470 0.4470
0.4570 0.4570 0.4570
0.4670 0.4670 0.4670
0.4775 0.4775 0.4775
0.4886 0.4886 0.4886
0.5004 0.5004 0.5004
0.5130 0.5130 0.5130
0.5261 0.5261 0.5261
0.5392 0.5392 0.5392
0.5520 0.5520 0.5520
0.5641 0.5641 0.5641
0.5761 0.5761 0.5761
0.5885 0.5885 0.5885
0.6021 0.6021 0.6021
0.6172 0.6172 0.6172
0.6333 0.6333 0.6333
0.6503 0.6503 0.6503
0.6659 0.6659 0.6659
0.6768 0.6768 0.6768
0.3174 0.3174 0.3174
0.3234 0.3234 0.3234
0.3284 0.3284 0.3284
0.3331 0.3331 0.3331
0.3380 0.3380 0.3380
0.3437 0.3437 0.3437
0.3518 0.3518 0.3518
0.3646 0.3646 0.3646
0.3825 0.3825 0.3825
0.4040 0.4040 0.4040
0.4258 0.4258 0.4258
0.4449 0.4449 0.4449
0.4603 0.4603 0.4603
0.4725 0.4725 0.4725
0.4833 0.4833 0.4833
0.4937 0.4937 0.4937
0.5042 0.5042 0.5042
0.5152 0.5152 0.5152
0.5266 0.5266 0.5266
0.5388 0.5388 0.5388
0.5514 0.5514 0.5514
0.5643 0.5643 0.5643
0.5769 0.5769 0.5769
0.5888 0.5888 0.5888
0.6002 0.6002 0.6002
0.6117 0.6117 0.6117
0.6239 0.6239 0.6239
0.6375 0.6375 0.6375
0.6524 0.6524 0.6524
0.6685 0.6685 0.6685
0.6836 0.6836 0.6836
0.6948 0.6948 0.6948
0.3364 0.3364 0.3364
0.3425 0.3425 0.3425
0.3477 0.3477 0.3477
0.3525 0.3525 0.3525
0.3575 0.3575 0.3575
0.3629 0.3629 0.3629
0.3700 0.3700 0.3700
0.3811 0.3811 0.3811
0.3978 0.3978 0.3978
0.4194 0.4194 0.4194
0.4431 0.4431 0.4431
0.4652 0.4652 0.4652
0.4834 0.4834 0.4834
0.4977 0.4977 0.4977
0.5095 0.5095 0.5095
0.5203 0.5203 0.5203
0.5311 0.5311 0.5311
0.5419 0.5419 0.5419
0.5530 0.5530 0.5530
0.5645 0.5645 0.5645
0.5766 0.5766 0.5766
0.5889 0.5889 0.5889
0.6012 0.6012 0.6012
0.6129 0.6129 0.6129
0.6240 0.6240 0.6240
0.6349 0.6349 0.6349
0.6461 0.6461 0.6461
0.6584 0.6584 0.6584
0.6718 0.6718 0.6718
0.6866 0.6866 0.6866
0.7009 0.7009 0.7009
0.7120 0.7120 0.7120
0.3560 0.3560 0.3560
0.3621 0.3621 0.3621
0.3674 0.3674 0.3674
0.3723 0.3723 0.3723
0.3775 0.3775 0.3775
0.3829 0.3829 0.3829
0.3893 0.3893 0.3893
0.3988 0.3988 0.3988
0.4139 0.4139 0.4139
0.4348 0.4348 0.4348
0.4595 0.4595 0.4595
0.4842 0.4842 0.4842
0.5055 0.5055 0.5055
0.5223 0.5223 0.5223
0.5356 0.5356 0.5356
0.5470 0.5470 0.5470
0.5579 0.5579 0.5579
0.5685 0.5685 0.5685
0.5792 0.5792 0.5792
0.5901 0.5901 0.5901
0.6013 0.6013 0.6013
0.6130 0.6130 0.6130
0.6248 0.6248 0.6248
0.6362 0.6362 0.6362
0.6472 0.6472 0.6472
0.6578 0.6578 0.6578
0.6684 0.6684 0.6684
0.6796 0.6796 0.6796
0.6917 0.6917 0.6917
0.7050 0.7050 0.7050
0.7180 0.7180 0.7180
0.7289 0.7289 0.7289
0.3758 0.3758 0.3758
0.3820 0.3820 0.3820
0.3874 0.3874 0.3874
0.3925 0.3925 0.3925
0.3979 0.3979 0.3979
0.4035 0.4035 0.4035
0.4096 0.4096 0.4096
0.4180 0.4180 0.4180
0.4312 0.4312 0.4312
0.4507 0.4507 0.4507
0.4754 0.4754 0.4754
0.5020 0.5020 0.5020
0.5263 0.5263 0.5263
0.5460 0.5460 0.5460
0.5612 0.5612 0.5612
0.5735 0.5735 0.5735
0.5845 0.5845 0.5845
0.5949 0.5949 0.5949
0.6051 0.6051 0.6051
0.6152 0.6152 0.6152
0.6256 0.6256 0.6256
0.6364 0.6364 0.6364
0.6476 0.6476 0.6476
0.6589 0.6589 0.6589
0.6698 0.6698 0.6698
0.6804 0.6804 0.6804
0.6907 0.6907 0.6907
0.7012 0.7012 0.7012
0.7122 0.7122 0.7122
0.7240 0.7240 0.7240
0.7356 0.7356 0.7356
0.7459 0.7459 0.7459
0.3960 0.3960 0.3960
0.4022 0.4022 0.4022
0.4078 0.4078 0.4078
0.4132 0.4132 0.4132
0.4189 0.4189 0.4189
0.4248 0.4248 0.4248
0.4311 0.4311 0.4311
0.4388 0.4388 0.4388
0.4502 0.4502 0.4502
0.4677 0.4677 0.4677
0.4915 0.4915 0.4915
0.5191 0.5191 0.5191
0.5460 0.5460 0.5460
0.5687 0.5687 0.5687
0.5863 0.5863 0.5863
0.5997 0.5997 0.5997
0.6108 0.6108 0.6108
0.6210 0.6210 0.6210
0.6305 0.6305 0.6305
0.6399 0.6399 0.6399
0.6494 0.6494 0.6494
0.6594 0.6594 0.6594
0.6700 0.6700 0.6700
0.6810 0.6810 0.6810
0.6920 0.6920 0.6920
0.7027 0.7027 0.7027
0.7130 0.7130 0.7130
0.7232 0.7232 0.7232
0.7334 0.7334 0.7334
0.7440 0.7440 0.7440
0.7542 0.7542 0.7542
0.7639 0.7639 0.7639
0.4165 0.4165 0.4165
0.4229 0.4229 0.4229
0.4287 0.4287 0.4287
0.4345 0.4345 0.4345
0.4406 0.4406 0.4406
0.4469 0.4469 0.4469
0.4536 0.4536 0.4536
0.4610 0.4610 0.4610
0.4710 0.4710 0.4710
0.4864 0.4864 0.4864
0.5084 0.5084 0.5084
0.5358 0.5358 0.5358
0.5644 0.5644 0.5644
0.5901 0.5901 0.5901
0.6103 0.6103 0.6103
0.6252 0.6252 0.6252
0.6367 0.6367 0.6367
0.6465 0.6465 0.6465
0.6555 0.6555 0.6555
0.6641 0.6641 0.6641
0.6729 0.6729 0.6729
0.6821 0.6821 0.6821
0.6921 0.6921 0.6921
0.7028 0.7028 0.7028
0.7140 0.7140 0.7140
0.7249 0.7249 0.7249
0.7355 0.7355 0.7355
0.7456 0.7456 0.7456
0.7553 0.7553 0.7553
0.7650 0.7650 0.7650
0.7743 0.7743 0.7743
0.7831 0.7831 0.7831
0.4375 0.4375 0.4375
0.4441 0.4441 0.4441
0.4503 0.4503 0.4503
0.4565 0.4565 0.4565
