lut/adanmq/Adanmq_Kodak_Vision3_250D_5207.cube
TITLE "Adanmq_Kodak Vision3 250D 5207"
LUT_3D_SIZE 5
DOMAIN_MIN 0.000000 0.000000 0.000000
DOMAIN_MAX 0.903226 0.903226 0.903226
0.0214 0.0220 0.0218
0.1451 0.0219 0.0219
0.2517 0.0221 0.0219
0.3927 0.0220 0.0218
0.6021 0.0219 0.0215
0.0213 0.1646 0.0216
0.1911 0.1793 0.0218
0.3931 0.2008 0.0219
0.5639 0.2146 0.0221
0.7313 0.2215 0.0220
0.0213 0.3174 0.0213
0.2255 0.3501 0.0217
0.4402 0.3755 0.0219
0.6520 0.4081 0.0221
0.8231 0.4434 0.0224
0.0213 0.4972 0.0209
0.2277 0.5019 0.0210
0.4551 0.5486 0.0218
0.6675 0.5600 0.0220
0.8629 0.5982 0.0224
0.0213 0.6923 0.0207
0.2347 0.6826 0.0206
0.4504 0.7487 0.0216
0.6682 0.7540 0.0219
0.8660 0.7603 0.0223
0.0214 0.0216 0.1483
0.1636 0.0217 0.1709
0.3310 0.0219 0.1970
0.4890 0.0219 0.2121
0.6436 0.0219 0.1970
0.0214 0.1567 0.1537
0.1936 0.1935 0.1976
0.3995 0.2134 0.2133
0.5769 0.2371 0.2333
0.6950 0.2305 0.2179
0.0214 0.3245 0.1526
0.2162 0.3543 0.1908
0.4384 0.4214 0.2411
0.6419 0.4649 0.2608
0.8238 0.4827 0.2981
0.0213 0.5012 0.1437
0.2310 0.4886 0.1467
0.4594 0.5727 0.2403
0.6772 0.5920 0.2628
0.8500 0.6507 0.3260
0.0213 0.6867 0.1340
0.2406 0.6783 0.1328
0.4694 0.6971 0.1547
0.6799 0.7606 0.2477
0.8792 0.7742 0.2987
0.0213 0.0213 0.2618
0.1661 0.0217 0.3313
0.3722 0.0219 0.3609
0.5456 0.0221 0.4093
0.7239 0.0222 0.4128
0.0214 0.1539 0.3259
0.1982 0.1971 0.3837
0.4131 0.2327 0.4139
0.5943 0.2538 0.4232
0.7473 0.2694 0.4317
0.0214 0.3317 0.3447
0.2061 0.3888 0.4012
0.4384 0.4601 0.4533
0.6396 0.4710 0.4632
0.8167 0.4936 0.4815
0.0213 0.5080 0.3466
0.2221 0.5413 0.3772
0.4343 0.5895 0.4275
0.6583 0.6549 0.4845
0.8490 0.7019 0.5124
0.0213 0.7110 0.3368
0.2387 0.6987 0.3516
0.4788 0.7001 0.3660
0.6721 0.7834 0.4878
0.8908 0.8142 0.5381
0.0213 0.0211 0.4468
0.1867 0.0213 0.4749
0.3772 0.0221 0.5432
0.5775 0.0222 0.5347
0.7195 0.0224 0.5863
0.0213 0.1654 0.4826
0.1851 0.1899 0.5141
0.4184 0.2494 0.5845
0.6155 0.2741 0.5770
0.7529 0.2823 0.5886
0.0213 0.3444 0.5353
0.2075 0.3909 0.5703
0.4453 0.4598 0.6251
0.6520 0.4863 0.6479
0.8220 0.5161 0.6509
0.0214 0.5195 0.5371
0.2203 0.5485 0.5736
0.4454 0.6177 0.6300
0.6659 0.6768 0.6719
0.8464 0.6868 0.6856
0.0214 0.7107 0.5417
0.2249 0.7038 0.5517
0.4755 0.7559 0.6001
0.6752 0.8004 0.6428
0.8696 0.8647 0.7139
0.0212 0.0210 0.6502
0.1633 0.0210 0.6438
0.3640 0.0221 0.7349
0.5699 0.0224 0.7204
0.7686 0.0226 0.7178
0.0212 0.1755 0.6467
0.1449 0.1802 0.6435
0.3909 0.2321 0.7312
0.5800 0.2852 0.7313
0.7674 0.3002 0.7230
0.0213 0.3672 0.7228
0.1755 0.3939 0.7007
0.4184 0.4453 0.7422
0.6508 0.4955 0.7928
0.8338 0.5384 0.7931
0.0214 0.5396 0.7330
0.2292 0.5597 0.7375
0.4584 0.6165 0.7784
0.6716 0.6677 0.8216
0.8554 0.6969 0.8454
0.0214 0.7255 0.7433
0.2841 0.7298 0.7473
0.4709 0.7620 0.7849
0.6857 0.8180 0.8325
0.8798 0.8741 0.8746
