lut/adanmq/Adanmq_Fuji_Velvia_100.cube
TITLE "Adanmq_Fuji Velvia 100"
LUT_3D_SIZE 8
DOMAIN_MIN 0.000000 0.000000 0.000000
DOMAIN_MAX 0.903226 0.903226 0.903226
0.0215 0.0231 0.0227
0.1369 0.0230 0.0226
0.2299 0.0232 0.0228
0.3585 0.0234 0.0229
0.4887 0.0237 0.0231
0.6120 0.0240 0.0232
0.7379 0.0241 0.0232
0.8711 0.0242 0.0231
0.0215 0.1405 0.0226
0.1299 0.1419 0.0226
0.2011 0.1431 0.0228
0.3234 0.1534 0.0230
0.4594 0.1696 0.0232
0.5891 0.1865 0.0234
0.7106 0.2021 0.0234
0.8465 0.2145 0.0233
0.0215 0.1927 0.0225
0.1275 0.2102 0.0228
0.2069 0.2339 0.0231
0.3335 0.2543 0.0233
0.4750 0.2734 0.0236
0.5967 0.2868 0.0238
0.7093 0.2920 0.0240
0.8324 0.2992 0.0242
0.0215 0.2901 0.0225
0.1452 0.3077 0.0227
0.2339 0.3514 0.0233
0.3524 0.3770 0.0237
0.4929 0.4004 0.0240
0.6250 0.4211 0.0242
0.7299 0.4306 0.0244
0.8397 0.4310 0.0246
0.0215 0.3997 0.0225
0.1637 0.4088 0.0226
0.2576 0.4806 0.0234
0.3812 0.5093 0.0239
0.5039 0.5336 0.0243
0.6370 0.5489 0.0246
0.7530 0.5647 0.0248
0.8606 0.5764 0.0250
0.0215 0.5284 0.0224
0.1747 0.5338 0.0224
0.2815 0.5926 0.0232
0.3947 0.6469 0.0241
0.5247 0.6555 0.0244
0.6447 0.6697 0.0248
0.7628 0.6735 0.0251
0.8775 0.6942 0.0253
0.0215 0.6677 0.0224
0.1819 0.6715 0.0224
0.3066 0.6925 0.0226
0.4061 0.7670 0.0240
0.5324 0.7749 0.0243
0.6561 0.7732 0.0247
0.7633 0.7724 0.0252
0.8783 0.7721 0.0254
0.0215 0.8030 0.0223
0.1899 0.8031 0.0223
0.3245 0.8024 0.0223
0.4284 0.8575 0.0234
0.5323 0.8890 0.0243
0.6547 0.8689 0.0244
0.7615 0.8626 0.0250
0.8644 0.8510 0.0254
0.0215 0.0229 0.1451
0.1428 0.0230 0.1480
0.2393 0.0231 0.1519
0.3674 0.0233 0.1585
0.4964 0.0235 0.1704
0.6216 0.0238 0.1834
0.7522 0.0242 0.2001
0.8793 0.0243 0.2009
0.0215 0.1337 0.1365
0.1487 0.1449 0.1460
0.2220 0.1397 0.1505
0.3369 0.1487 0.1614
0.4707 0.1714 0.1757
0.5937 0.1919 0.1832
0.7152 0.2116 0.1960
0.8541 0.2235 0.2022
0.0215 0.1898 0.1333
0.1462 0.2144 0.1518
0.2220 0.2369 0.1657
0.3409 0.2523 0.1750
0.4768 0.2701 0.1942
0.5990 0.2841 0.2140
0.7079 0.2963 0.2308
0.8369 0.3132 0.2357
0.0215 0.2839 0.1442
0.1559 0.2942 0.1636
0.2477 0.3404 0.2030
0.3636 0.3723 0.2195
0.4909 0.3980 0.2314
0.6185 0.4178 0.2452
0.7216 0.4280 0.2600
0.8294 0.4357 0.2849
0.0215 0.3969 0.1569
0.1650 0.4029 0.1656
0.2745 0.4567 0.2056
0.4020 0.5017 0.2500
0.5171 0.5311 0.2765
0.6382 0.5571 0.2943
0.7500 0.5733 0.3056
0.8487 0.5830 0.3218
0.0215 0.5316 0.1675
0.1761 0.5376 0.1685
0.3002 0.5630 0.1837
0.4156 0.6320 0.2535
0.5447 0.6491 0.2844
0.6568 0.6676 0.3133
0.7682 0.6842 0.3349
0.8755 0.7005 0.3581
0.0215 0.6712 0.1692
0.1852 0.6736 0.1672
0.3190 0.6760 0.1663
0.4340 0.7223 0.2224
0.5437 0.7671 0.2937
0.6631 0.7601 0.3119
0.7749 0.7606 0.3394
0.8832 0.7743 0.3620
0.0215 0.8032 0.1651
0.1948 0.8013 0.1619
0.3315 0.7964 0.1574
0.4609 0.8039 0.1735
0.5477 0.8616 0.2782
0.6548 0.8567 0.3150
0.7737 0.8358 0.3261
0.8811 0.8348 0.3507
0.0215 0.0228 0.1878
0.1289 0.0229 0.2077
0.2360 0.0231 0.2141
0.3781 0.0233 0.2269
0.5106 0.0235 0.2312
0.6277 0.0237 0.2421
0.7559 0.0238 0.2519
0.8828 0.0240 0.2719
0.0215 0.1207 0.1832
0.1343 0.1347 0.2138
0.2270 0.1414 0.2257
0.3541 0.1543 0.2334
0.4942 0.1754 0.2396
0.6139 0.1955 0.2526
0.7340 0.2071 0.2552
0.8678 0.2197 0.2642
0.0215 0.1808 0.1857
0.1450 0.2122 0.2166
0.2171 0.2369 0.2364
0.3423 0.2442 0.2481
0.4799 0.2599 0.2619
0.6055 0.2790 0.2770
0.7194 0.3007 0.2792
0.8398 0.3105 0.2756
0.0215 0.2721 0.1957
0.1731 0.2953 0.2210
0.2337 0.3392 0.2477
0.3525 0.3721 0.2658
0.4914 0.3843 0.2693
0.6168 0.4018 0.2896
0.7357 0.4265 0.3218
0.8444 0.4425 0.3377
0.0216 0.3791 0.1960
0.1819 0.4042 0.2374
0.2731 0.4394 0.2703
0.3931 0.5079 0.3229
0.5230 0.5287 0.3288
0.6329 0.5392 0.3251
0.7511 0.5695 0.3516
0.8595 0.5917 0.3851
0.0216 0.5101 0.2058
0.1852 0.5364 0.2619
0.3026 0.5556 0.2794
0.4221 0.6235 0.3370
0.5660 0.6605 0.3800
0.6760 0.6686 0.3964
0.7647 0.6935 0.4128
0.8698 0.7193 0.4313
0.0215 0.6555 0.2347
0.1932 0.6725 0.2810
0.3245 0.6758 0.2849
0.4514 0.6986 0.3004
0.5620 0.7646 0.3631
0.6883 0.7668 0.3871
0.7811 0.7719 0.4210
0.8763 0.8049 0.4635
0.0215 0.7946 0.2625
0.2025 0.7969 0.2845
0.3395 0.7906 0.2808
0.4772 0.7835 0.2743
0.5844 0.8212 0.3126
0.6762 0.8582 0.3810
0.7892 0.8388 0.4054
0.8914 0.8443 0.4450
0.0215 0.0228 0.2417
0.1445 0.0228 0.2658
0.2246 0.0233 0.2911
0.3642 0.0234 0.2941
0.5027 0.0234 0.3187
0.6178 0.0236 0.3175
0.7380 0.0237 0.3222
0.8761 0.0236 0.3286
0.0215 0.1234 0.2439
0.1286 0.1256 0.2673
0.2165 0.1486 0.2954
0.3574 0.1677 0.3069
0.5015 0.1853 0.3236
0.6277 0.2024 0.3258
0.7395 0.2135 0.3316
0.8700 0.2102 0.3248
0.0215 0.1780 0.2508
0.1346 0.2015 0.2827
0.2112 0.2312 0.3219
0.3381 0.2466 0.3386
0.4759 0.2622 0.3482
0.6079 0.2780 0.3512
0.7292 0.2964 0.3585
0.8404 0.3048 0.3494
0.0216 0.2592 0.2585
0.1661 0.2926 0.2942
0.2318 0.3384 0.3325
0.3494 0.3673 0.3546
0.4889 0.3816 0.3674
0.6125 0.3874 0.3687
0.7220 0.4032 0.3810
0.8391 0.4222 0.3867
0.0216 0.3667 0.2729
0.1994 0.4005 0.3005
0.2649 0.4360 0.3239
0.3704 0.4948 0.3663
0.5021 0.5253 0.3896
0.6261 0.5258 0.3802
0.7380 0.5444 0.4003
0.8552 0.5727 0.4437
0.0216 0.4978 0.2768
0.2226 0.5179 0.2979
0.2917 0.5551 0.3364
0.4131 0.5982 0.3822
0.5330 0.6564 0.4449
0.6627 0.6654 0.4467
0.7608 0.6755 0.4308
0.8729 0.7123 0.4752
0.0217 0.6334 0.2686
0.2369 0.6508 0.3115
0.3250 0.6790 0.3725
0.4543 0.6862 0.3857
0.5587 0.7426 0.4533
0.6866 0.7707 0.4930
0.7930 0.7631 0.4950
0.8840 0.8065 0.5313
0.0217 0.7687 0.2693
0.2359 0.7813 0.3362
0.3459 0.7892 0.3910
0.4804 0.7837 0.3888
0.5987 0.8002 0.4034
0.6813 0.8569 0.4700
0.8038 0.8444 0.4859
0.9071 0.8526 0.5405
0.0215 0.0228 0.3062
0.1827 0.0227 0.3149
0.2356 0.0233 0.3834
0.3583 0.0236 0.3847
0.4853 0.0235 0.3849
0.5987 0.0235 0.4124
0.7055 0.0236 0.4162
0.8348 0.0236 0.4131
0.0215 0.1379 0.3099
0.1518 0.1309 0.3272
0.2141 0.1421 0.3826
0.3608 0.1835 0.4035
0.4984 0.1954 0.4100
0.6107 0.1971 0.4212
0.7129 0.2098 0.4162
0.8405 0.2128 0.4102
0.0215 0.1830 0.3303
0.1418 0.2027 0.3591
0.2108 0.2280 0.4026
0.3417 0.2566 0.4307
0.4810 0.2761 0.4421
0.6103 0.2934 0.4459
0.7253 0.3050 0.4354
0.8444 0.3147 0.4251
0.0216 0.2572 0.3382
0.1591 0.2856 0.3778
0.2343 0.3284 0.4232
0.3547 0.3649 0.4630
0.4854 0.3843 0.4779
0.6039 0.3899 0.4736
0.7116 0.3942 0.4692
0.8353 0.4098 0.4768
0.0216 0.3488 0.3435
0.1879 0.3832 0.3783
0.2648 0.4353 0.4229
0.3763 0.4914 0.4717
0.5027 0.5197 0.4956
0.6284 0.5284 0.4987
0.7385 0.5298 0.4939
0.8446 0.5465 0.5126
0.0216 0.4834 0.3643
0.2276 0.5074 0.3820
0.2958 0.5522 0.4124
0.4075 0.5964 0.4526
0.5173 0.6460 0.5024
0.6372 0.6616 0.5217
0.7522 0.6644 0.5108
0.8618 0.6858 0.5395
0.0217 0.6338 0.3806
0.2632 0.6388 0.3809
0.3357 0.6730 0.4159
0.4393 0.6964 0.4515
0.5571 0.7192 0.4962
0.6567 0.7676 0.5595
0.7731 0.7781 0.5557
0.8755 0.8103 0.5661
0.0217 0.7671 0.3758
0.2686 0.7678 0.3785
0.3680 0.7809 0.4294
0.4678 0.7904 0.4747
0.6014 0.7841 0.4858
0.6953 0.8286 0.5614
0.8015 0.8508 0.6175
0.9098 0.8628 0.6435
0.0215 0.0226 0.3925
0.2044 0.0225 0.3862
0.2715 0.0230 0.4507
0.3543 0.0236 0.4947
0.4745 0.0236 0.4763
0.5904 0.0236 0.4681
0.6962 0.0236 0.5086
0.8136 0.0237 0.5248
0.0215 0.1461 0.3879
0.1852 0.1382 0.3921
0.2455 0.1318 0.4578
0.3507 0.1843 0.5066
0.4869 0.2101 0.4967
0.6021 0.2071 0.4877
0.7014 0.2034 0.5111
0.8169 0.2202 0.5207
0.0215 0.1994 0.4268
0.1600 0.2138 0.4347
0.2252 0.2295 0.4843
0.3427 0.2546 0.5281
0.4999 0.2939 0.5473
0.6306 0.3124 0.5391
0.7168 0.3086 0.5236
0.8286 0.3198 0.5150
0.0216 0.2621 0.4423
0.1683 0.2823 0.4669
0.2384 0.3185 0.5167
0.3542 0.3535 0.5465
0.4864 0.3826 0.5678
0.6099 0.3963 0.5719
0.7170 0.4056 0.5655
0.8323 0.4144 0.5527
0.0216 0.3505 0.4446
0.1882 0.3734 0.4769
0.2607 0.4173 0.5203
0.3794 0.4692 0.5613
0.5065 0.5117 0.6023
0.6281 0.5257 0.6139
0.7348 0.5284 0.6064
0.8415 0.5364 0.6094
0.0216 0.4557 0.4447
0.2138 0.4875 0.4746
0.3004 0.5393 0.5178
0.4128 0.5914 0.5640
0.5223 0.6360 0.6100
0.6407 0.6562 0.6319
0.7567 0.6612 0.6354
0.8638 0.6694 0.6394
0.0216 0.6026 0.4648
0.2564 0.6251 0.4866
0.3468 0.6608 0.5142
0.4420 0.6988 0.5527
0.5524 0.7249 0.5869
0.6537 0.7703 0.6351
0.7708 0.7917 0.6614
0.8753 0.8030 0.6655
0.0217 0.7573 0.4910
0.2695 0.7639 0.5009
0.3874 0.7706 0.5123
0.4675 0.7989 0.5487
0.5818 0.8050 0.5754
0.7006 0.8228 0.6137
0.7954 0.8816 0.7075
0.9050 0.9001 0.7183
0.0215 0.0223 0.4913
0.2022 0.0222 0.4837
0.3077 0.0223 0.5029
0.3536 0.0234 0.5921
0.4631 0.0236 0.5827
0.5817 0.0236 0.5602
0.6994 0.0235 0.5522
0.8192 0.0236 0.6098
0.0215 0.1359 0.4823
0.1975 0.1295 0.4762
0.2987 0.1201 0.4994
0.3566 0.1694 0.5890
0.4648 0.2133 0.5849
0.5833 0.2155 0.5598
0.6993 0.2122 0.5512
0.8223 0.2198 0.6064
0.0215 0.2192 0.5153
0.1832 0.2273 0.5021
0.2565 0.2233 0.5402
0.3486 0.2376 0.6144
0.4879 0.2870 0.6358
0.6308 0.3287 0.6237
0.7330 0.3252 0.5998
0.8301 0.3174 0.6122
0.0215 0.2774 0.5641
0.1807 0.2915 0.5605
0.2500 0.3187 0.5758
0.3533 0.3445 0.6169
0.4819 0.3695 0.6392
0.6262 0.4100 0.6538
0.7513 0.4299 0.6484
0.8377 0.4197 0.6254
0.0216 0.3576 0.5667
0.1918 0.3738 0.5764
0.2700 0.4065 0.6105
0.3774 0.4455 0.6416
0.5016 0.4856 0.6639
0.6230 0.5117 0.6866
0.7390 0.5268 0.6981
0.8453 0.5365 0.6941
0.0216 0.4644 0.5719
0.2152 0.4800 0.5852
0.2989 0.5219 0.6215
0.4110 0.5665 0.6497
0.5285 0.6076 0.6876
0.6443 0.6422 0.7309
0.7607 0.6562 0.7472
0.8645 0.6670 0.7478
0.0216 0.5847 0.5686
0.2418 0.5979 0.5799
0.3399 0.6456 0.6253
0.4493 0.6877 0.6651
0.5640 0.7251 0.7071
0.6623 0.7623 0.7454
0.7784 0.7880 0.7732
0.8919 0.8035 0.7898
0.0216 0.7227 0.5773
0.2556 0.7376 0.5983
0.3806 0.7606 0.6327
0.4803 0.7873 0.6631
0.5864 0.8162 0.6985
0.6984 0.8437 0.7322
0.7993 0.8984 0.7827
0.9083 0.9181 0.8186
0.0215 0.0220 0.5991
0.1952 0.0219 0.5934
0.3182 0.0218 0.5899
0.3721 0.0229 0.6645
0.4531 0.0235 0.6900
0.5732 0.0235 0.6688
0.6951 0.0235 0.6489
0.8201 0.0235 0.6464
0.0215 0.1188 0.5919
0.1908 0.1120 0.5866
0.3136 0.1035 0.5824
0.3939 0.1325 0.6303
0.4539 0.2086 0.6821
0.5707 0.2148 0.6616
0.6930 0.2127 0.6416
0.8195 0.2117 0.6396
0.0215 0.2287 0.5982
0.1840 0.2272 0.5842
0.2946 0.2176 0.5889
0.3803 0.2116 0.6453
0.4726 0.2668 0.7146
0.5978 0.3274 0.6952
0.7071 0.3370 0.6557
0.8222 0.3321 0.6430
0.0215 0.2964 0.6697
0.1852 0.3089 0.6405
0.2720 0.3218 0.6223
0.3613 0.3222 0.6557
0.4782 0.3496 0.7163
0.6195 0.3914 0.7307
0.7487 0.4386 0.7227
0.8362 0.4353 0.6956
0.0215 0.3734 0.6918
0.1752 0.3850 0.6844
0.2789 0.4046 0.6740
0.3742 0.4368 0.6808
0.4961 0.4665 0.7155
0.6150 0.4893 0.7304
0.7403 0.5137 0.7656
0.8501 0.5351 0.7721
0.0216 0.4739 0.7014
0.1973 0.4830 0.6953
0.2954 0.5066 0.7035
0.4132 0.5494 0.7326
0.5348 0.5860 0.7579
0.6457 0.6179 0.7769
0.7576 0.6418 0.8050
0.8620 0.6588 0.8219
0.0216 0.5935 0.6984
0.2281 0.5991 0.6996
0.3343 0.6261 0.7201
0.4429 0.6658 0.7556
0.5664 0.7021 0.7826
0.6794 0.7403 0.8196
0.7907 0.7798 0.8706
0.9037 0.7997 0.8904
0.0216 0.7208 0.7024
0.2445 0.7269 0.7109
0.3680 0.7438 0.7340
0.4745 0.7772 0.7730
0.5886 0.8085 0.8079
0.7062 0.8428 0.8464
0.8139 0.8940 0.8881
0.9247 0.9224 0.9132
