lut/adanmq/Adanmq_Kodak_Vision3_250D_5207.cube
TITLE "Adanmq_Kodak Vision3 250D 5207"
LUT_3D_SIZE 8
DOMAIN_MIN 0.000000 0.000000 0.000000
DOMAIN_MAX 0.903226 0.903226 0.903226
0.0214 0.0220 0.0218
0.1014 0.0219 0.0218
0.1595 0.0219 0.0219
0.2193 0.0220 0.0219
0.2865 0.0221 0.0219
0.3686 0.0221 0.0218
0.4749 0.0220 0.0216
0.6021 0.0219 0.0215
0.0214 0.1140 0.0217
0.1054 0.1099 0.0217
0.1946 0.1103 0.0218
0.2901 0.1165 0.0219
0.3770 0.1232 0.0219
0.4579 0.1268 0.0219
0.5439 0.1280 0.0219
0.6479 0.1258 0.0216
0.0213 0.1817 0.0216
0.1171 0.1910 0.0217
0.2254 0.2060 0.0219
0.3433 0.2213 0.0219
0.4623 0.2348 0.0220
0.5618 0.2440 0.0221
0.6515 0.2501 0.0222
0.7530 0.2547 0.0221
0.0213 0.2679 0.0214
0.1281 0.2795 0.0215
0.2509 0.3053 0.0218
0.3698 0.3203 0.0219
0.4933 0.3397 0.0220
0.6127 0.3570 0.0221
0.7099 0.3724 0.0222
0.8014 0.3861 0.0223
0.0213 0.3679 0.0212
0.1297 0.3698 0.0212
0.2604 0.4048 0.0216
0.3901 0.4155 0.0218
0.5081 0.4286 0.0219
0.6291 0.4456 0.0220
0.7412 0.4673 0.0222
0.8414 0.4938 0.0225
0.0213 0.4708 0.0210
0.1277 0.4642 0.0209
0.2603 0.4927 0.0213
0.3922 0.5206 0.0217
0.5180 0.5234 0.0218
0.6370 0.5333 0.0220
0.7509 0.5473 0.0221
0.8601 0.5789 0.0224
0.0213 0.5786 0.0208
0.1287 0.5713 0.0208
0.2623 0.5790 0.0209
0.3893 0.6277 0.0215
0.5152 0.6354 0.0217
0.6406 0.6381 0.0219
0.7542 0.6425 0.0221
0.8677 0.6581 0.0223
0.0213 0.6923 0.0207
0.1324 0.6867 0.0207
0.2676 0.6831 0.0206
0.3918 0.7245 0.0212
0.5110 0.7561 0.0217
0.6371 0.7538 0.0219
0.7551 0.7564 0.0221
0.8660 0.7603 0.0223
0.0214 0.0218 0.1088
0.1042 0.0217 0.1109
0.1743 0.0218 0.1143
0.2503 0.0219 0.1189
0.3287 0.0220 0.1241
0.4097 0.0220 0.1263
0.5000 0.0219 0.1207
0.6128 0.0219 0.1051
0.0214 0.1022 0.0975
0.1075 0.1029 0.1053
0.2042 0.1059 0.1120
0.3048 0.1149 0.1194
0.3971 0.1261 0.1279
0.4730 0.1329 0.1325
0.5404 0.1327 0.1280
0.6362 0.1260 0.1116
0.0214 0.1799 0.0895
0.1168 0.1958 0.1038
0.2258 0.2171 0.1172
0.3428 0.2318 0.1253
0.4634 0.2475 0.1363
0.5694 0.2600 0.1487
0.6468 0.2627 0.1553
0.7098 0.2550 0.1426
0.0213 0.2686 0.0860
0.1289 0.2755 0.0969
0.2526 0.3133 0.1270
0.3742 0.3370 0.1406
0.4911 0.3618 0.1481
0.6084 0.3833 0.1597
0.7093 0.3961 0.1748
0.7974 0.3992 0.1862
0.0213 0.3670 0.0774
0.1298 0.3635 0.0771
0.2612 0.3994 0.1115
0.4013 0.4309 0.1440
0.5177 0.4450 0.1519
0.6296 0.4732 0.1657
0.7363 0.4964 0.1830
0.8327 0.5155 0.2065
0.0213 0.4669 0.0635
0.1284 0.4605 0.0589
0.2611 0.4753 0.0742
0.3990 0.5277 0.1290
0.5321 0.5358 0.1388
0.6432 0.5480 0.1558
0.7519 0.5735 0.1786
0.8561 0.5975 0.2062
0.0213 0.5729 0.0507
0.1304 0.5667 0.0468
0.2654 0.5638 0.0466
0.3953 0.6034 0.0898
0.5237 0.6402 0.1309
0.6454 0.6396 0.1438
0.7610 0.6495 0.1677
0.8698 0.6705 0.1882
0.0213 0.6874 0.0424
0.1347 0.6826 0.0400
0.2708 0.6783 0.0382
0.4014 0.6899 0.0535
0.5178 0.7407 0.1192
0.6383 0.7517 0.1536
0.7626 0.7511 0.1719
0.8782 0.7603 0.1825
0.0214 0.0215 0.1601
0.1031 0.0216 0.1806
0.1873 0.0218 0.1934
0.2864 0.0219 0.2156
0.3923 0.0219 0.2307
0.4823 0.0219 0.2394
0.5722 0.0220 0.2439
0.6590 0.0219 0.2293
0.0214 0.0885 0.1709
0.1106 0.0968 0.1993
0.2139 0.1074 0.2189
0.3191 0.1194 0.2285
0.4254 0.1308 0.2379
0.5124 0.1387 0.2470
0.5954 0.1422 0.2507
0.6801 0.1375 0.2350
0.0214 0.1781 0.1777
0.1151 0.2039 0.2082
0.2260 0.2307 0.2343
0.3486 0.2421 0.2431
0.4654 0.2546 0.2524
0.5726 0.2694 0.2654
0.6526 0.2773 0.2706
0.7189 0.2707 0.2575
0.0214 0.2753 0.1787
0.1232 0.2946 0.2012
0.2352 0.3404 0.2360
0.3613 0.3698 0.2563
0.4859 0.3872 0.2650
0.6027 0.4042 0.2792
0.7142 0.4176 0.2987
0.8016 0.4176 0.3067
0.0213 0.3772 0.1763
0.1269 0.3805 0.1901
0.2482 0.4030 0.2169
0.3780 0.4566 0.2699
0.5088 0.4839 0.2833
0.6222 0.5131 0.2921
0.7310 0.5373 0.3134
0.8359 0.5478 0.3380
0.0213 0.4804 0.1720
0.1292 0.4706 0.1783
0.2604 0.4719 0.1857
0.3846 0.5254 0.2502
0.5285 0.5618 0.2879
0.6497 0.5756 0.2946
0.7448 0.6124 0.3260
0.8460 0.6432 0.3566
0.0213 0.5831 0.1675
0.1326 0.5698 0.1704
0.2692 0.5665 0.1713
0.3959 0.5917 0.2006
0.5206 0.6554 0.2680
0.6586 0.6638 0.2761
0.7626 0.6750 0.3120
0.8578 0.7112 0.3622
0.0213 0.6904 0.1638
0.1378 0.6810 0.1653
0.2752 0.6786 0.1655
0.4087 0.6814 0.1690
0.5282 0.7255 0.2170
0.6508 0.7663 0.2708
0.7723 0.7656 0.2979
0.8785 0.7812 0.3373
0.0214 0.0214 0.2212
0.1075 0.0215 0.2539
0.1890 0.0218 0.2842
0.3064 0.0219 0.3027
0.4165 0.0219 0.3424
0.5190 0.0220 0.3537
0.6118 0.0221 0.3584
0.7128 0.0221 0.3600
0.0214 0.0833 0.2518
0.1145 0.0930 0.2831
0.2156 0.1153 0.3193
0.3332 0.1295 0.3318
0.4382 0.1394 0.3495
0.5420 0.1484 0.3558
0.6249 0.1541 0.3628
0.7211 0.1553 0.3633
0.0214 0.1772 0.2811
0.1192 0.2013 0.3110
0.2303 0.2360 0.3526
0.3562 0.2533 0.3688
0.4687 0.2634 0.3725
0.5755 0.2758 0.3773
0.6657 0.2879 0.3837
0.7464 0.2951 0.3852
0.0214 0.2781 0.2881
0.1220 0.3042 0.3166
0.2351 0.3556 0.3597
0.3668 0.3867 0.3833
0.4917 0.3958 0.3904
0.6021 0.4045 0.3972
0.7061 0.4182 0.4091
0.7957 0.4279 0.4128
0.0214 0.3789 0.2898
0.1230 0.4011 0.3130
0.2368 0.4348 0.3407
0.3660 0.4916 0.3803
0.4957 0.5153 0.3996
0.6167 0.5299 0.4078
0.7239 0.5444 0.4214
0.8348 0.5562 0.4451
0.0213 0.4829 0.2880
0.1255 0.4938 0.3008
0.2495 0.5050 0.3161
0.3711 0.5335 0.3512
0.4988 0.5880 0.4090
0.6341 0.6165 0.4236
0.7444 0.6490 0.4341
0.8475 0.6730 0.4614
0.0213 0.5963 0.2826
0.1284 0.5889 0.2885
0.2678 0.5867 0.2995
0.3972 0.5886 0.3114
0.5088 0.6435 0.3863
0.6454 0.6833 0.4304
0.7740 0.7022 0.4423
0.8651 0.7444 0.4798
0.0213 0.7109 0.2774
0.1331 0.6955 0.2848
0.2780 0.6886 0.2957
0.4131 0.6905 0.2997
0.5339 0.7169 0.3302
0.6422 0.7772 0.4100
0.7805 0.7877 0.4277
0.8845 0.8003 0.4715
0.0213 0.0212 0.3092
0.1155 0.0213 0.3286
0.1939 0.0218 0.3905
0.3147 0.0220 0.4009
0.4357 0.0220 0.4152
0.5255 0.0221 0.4534
0.6174 0.0222 0.4607
0.7260 0.0222 0.4584
0.0213 0.0831 0.3358
0.1133 0.0883 0.3581
0.2153 0.1139 0.4145
0.3395 0.1384 0.4288
0.4583 0.1485 0.4369
0.5460 0.1523 0.4588
0.6343 0.1595 0.4603
0.7300 0.1649 0.4600
0.0213 0.1803 0.3823
0.1166 0.1998 0.4013
0.2298 0.2350 0.4432
0.3585 0.2616 0.4679
0.4788 0.2757 0.4722
0.5767 0.2874 0.4791
0.6772 0.3014 0.4797
0.7642 0.3109 0.4837
0.0214 0.2832 0.3982
0.1209 0.3069 0.4216
0.2385 0.3528 0.4609
0.3733 0.3907 0.4993
0.4997 0.4032 0.5103
0.6053 0.4101 0.5110
0.7048 0.4240 0.5156
0.8035 0.4381 0.5192
0.0214 0.3855 0.4006
0.1238 0.4055 0.4250
0.2383 0.4456 0.4612
0.3729 0.5012 0.5004
0.5072 0.5274 0.5191
0.6238 0.5308 0.5238
0.7256 0.5383 0.5299
0.8277 0.5533 0.5431
0.0214 0.4844 0.4019
0.1264 0.4965 0.4191
0.2483 0.5303 0.4500
0.3696 0.5654 0.4745
0.5004 0.6241 0.5123
0.6233 0.6403 0.5291
0.7376 0.6538 0.5385
0.8412 0.6682 0.5554
0.0213 0.5898 0.4028
0.1242 0.5908 0.4059
0.2657 0.6212 0.4323
0.3884 0.6255 0.4442
0.5094 0.6543 0.4781
0.6253 0.7079 0.5381
0.7562 0.7397 0.5610
0.8643 0.7751 0.5740
0.0213 0.7074 0.3980
0.1226 0.7033 0.3966
0.2701 0.7093 0.4131
0.4110 0.7129 0.4281
0.5409 0.7146 0.4354
0.6473 0.7642 0.5133
0.7714 0.8075 0.5809
0.8938 0.8331 0.6034
0.0213 0.0211 0.4182
0.1094 0.0211 0.4193
0.2075 0.0215 0.4776
0.3151 0.0220 0.5187
0.4407 0.0221 0.5087
0.5506 0.0222 0.5115
0.6240 0.0222 0.5499
0.7194 0.0223 0.5602
0.0213 0.0833 0.4256
0.1025 0.0846 0.4340
0.2166 0.1043 0.4939
0.3344 0.1427 0.5354
0.4575 0.1581 0.5257
0.5636 0.1624 0.5272
0.6374 0.1636 0.5542
0.7252 0.1722 0.5569
0.0213 0.1884 0.4749
0.1044 0.2014 0.4781
0.2222 0.2322 0.5208
0.3589 0.2671 0.5607
0.4864 0.2879 0.5666
0.5987 0.3022 0.5651
0.6735 0.3070 0.5716
0.7675 0.3186 0.5692
0.0213 0.2902 0.5037
0.1153 0.3086 0.5134
0.2366 0.3496 0.5499
0.3734 0.3890 0.5818
0.5009 0.4110 0.6027
0.6148 0.4238 0.6056
0.7075 0.4375 0.6092
0.8106 0.4576 0.6071
0.0214 0.3932 0.5110
0.1230 0.4105 0.5274
0.2414 0.4504 0.5587
0.3778 0.4947 0.5922
0.5125 0.5268 0.6303
0.6329 0.5346 0.6389
0.7317 0.5430 0.6388
0.8304 0.5600 0.6447
0.0214 0.4924 0.5099
0.1379 0.5036 0.5255
0.2462 0.5346 0.5591
0.3776 0.5748 0.5911
0.5079 0.6271 0.6266
0.6354 0.6484 0.6425
0.7449 0.6497 0.6466
0.8424 0.6605 0.6569
0.0214 0.5977 0.5100
0.1403 0.5930 0.5182
0.2626 0.6193 0.5468
0.3962 0.6508 0.5760
0.5118 0.6843 0.5977
0.6300 0.7400 0.6329
0.7457 0.7562 0.6522
0.8528 0.7730 0.6683
0.0213 0.7074 0.5152
0.1257 0.7004 0.5171
0.2598 0.7109 0.5276
0.4106 0.7458 0.5597
0.5342 0.7484 0.5690
0.6503 0.7770 0.5985
0.7554 0.8312 0.6725
0.8751 0.8614 0.6956
0.0213 0.0211 0.5333
0.0923 0.0211 0.5295
0.2081 0.0212 0.5502
0.3134 0.0220 0.6237
0.4327 0.0222 0.6222
0.5514 0.0223 0.6074
0.6571 0.0224 0.6075
0.7358 0.0225 0.6486
0.0212 0.0818 0.5298
0.0842 0.0814 0.5274
0.2052 0.0887 0.5508
0.3268 0.1362 0.6243
0.4388 0.1629 0.6266
0.5537 0.1697 0.6095
0.6565 0.1746 0.6099
0.7386 0.1814 0.6464
0.0213 0.1979 0.5602
0.0831 0.2051 0.5513
0.2042 0.2226 0.5792
0.3528 0.2617 0.6462
0.4822 0.2941 0.6662
0.5966 0.3145 0.6557
0.6888 0.3197 0.6473
0.7684 0.3214 0.6615
0.0213 0.3026 0.6065
0.1012 0.3146 0.5977
0.2195 0.3459 0.6127
0.3627 0.3845 0.6545
0.5012 0.4145 0.6811
0.6195 0.4356 0.6926
0.7258 0.4530 0.6887
0.8083 0.4670 0.6887
0.0213 0.4024 0.6194
0.1180 0.4169 0.6199
0.2399 0.4494 0.6456
0.3786 0.4887 0.6739
0.5127 0.5232 0.6996
0.6325 0.5434 0.7230
0.7405 0.5583 0.7273
0.8354 0.5773 0.7301
0.0214 0.5019 0.6214
0.1416 0.5113 0.6269
0.2498 0.5404 0.6529
0.3855 0.5803 0.6781
0.5152 0.6167 0.7091
0.6393 0.6437 0.7477
0.7534 0.6501 0.7557
0.8502 0.6640 0.7587
0.0214 0.6039 0.6217
0.1706 0.6055 0.6246
0.2712 0.6242 0.6479
0.3951 0.6559 0.6796
0.5225 0.6928 0.7084
0.6373 0.7398 0.7423
0.7552 0.7591 0.7579
0.8622 0.7650 0.7676
0.0214 0.7209 0.6222
0.1656 0.7143 0.6272
0.2749 0.7145 0.6407
0.3999 0.7416 0.6697
0.5390 0.7712 0.6984
0.6519 0.8029 0.7188
0.7577 0.8545 0.7524
0.8690 0.8711 0.7742
0.0212 0.0210 0.6502
0.0736 0.0210 0.6465
0.1929 0.0211 0.6456
0.3065 0.0218 0.7082
0.4229 0.0223 0.7365
0.5406 0.0224 0.7234
0.6578 0.0225 0.7128
0.7686 0.0226 0.7178
0.0212 0.0800 0.6456
0.0644 0.0801 0.6424
0.1832 0.0816 0.6417
0.3064 0.1129 0.6861
0.4233 0.1641 0.7317
0.5372 0.1747 0.7200
0.6534 0.1824 0.7103
0.7655 0.1919 0.7168
0.0212 0.2059 0.6527
0.0552 0.2094 0.6440
0.1748 0.2157 0.6511
0.3203 0.2374 0.6990
0.4667 0.2867 0.7587
0.5683 0.3164 0.7494
0.6701 0.3278 0.7305
0.7719 0.3346 0.7300
0.0213 0.3166 0.7045
0.0750 0.3261 0.6858
0.1866 0.3461 0.6804
0.3331 0.3689 0.7119
0.4917 0.4044 0.7670
0.6168 0.4348 0.7881
0.7244 0.4656 0.7866
0.8147 0.4738 0.7762
0.0213 0.4141 0.7305
0.1066 0.4292 0.7223
0.2238 0.4506 0.7197
0.3560 0.4843 0.7370
0.4979 0.5157 0.7689
0.6260 0.5424 0.7900
0.7392 0.5698 0.8072
0.8443 0.5928 0.8065
0.0214 0.5129 0.7329
0.1394 0.5218 0.7303
0.2501 0.5439 0.7401
0.3845 0.5770 0.7654
0.5189 0.6089 0.7855
0.6400 0.6392 0.8090
0.7510 0.6594 0.8327
0.8523 0.6777 0.8368
0.0214 0.6174 0.7367
0.1664 0.6194 0.7351
0.2823 0.6330 0.7460
0.3984 0.6609 0.7703
0.5310 0.6953 0.7923
0.6488 0.7283 0.8224
0.7601 0.7529 0.8592
0.8698 0.7619 0.8681
0.0214 0.7255 0.7433
0.1859 0.7268 0.7433
0.3121 0.7319 0.7504
0.4146 0.7494 0.7718
0.5341 0.7756 0.7983
0.6578 0.8073 0.8248
0.7665 0.8526 0.8570
0.8798 0.8741 0.8746
