lut/adanmq/Adanmq_Fuji_Velvia_100.cube
TITLE "Adanmq_Fuji Velvia 100"
LUT_3D_SIZE 32
0.0215 0.0231 0.0227
0.0623 0.0231 0.0227
0.0980 0.0231 0.0227
0.1222 0.0231 0.0226
0.1369 0.0230 0.0226
0.1533 0.0230 0.0227
0.1743 0.0231 0.0227
0.2002 0.0231 0.0227
0.2299 0.0232 0.0228
0.2614 0.0232 0.0228
0.2936 0.0233 0.0228
0.3259 0.0233 0.0229
0.3585 0.0234 0.0229
0.3912 0.0234 0.0229
0.4240 0.0235 0.0230
0.4566 0.0236 0.0230
0.4887 0.0237 0.0231
0.5202 0.0237 0.0231
0.5510 0.0238 0.0231
0.5816 0.0239 0.0231
0.6120 0.0240 0.0232
0.6426 0.0240 0.0232
0.6738 0.0241 0.0232
0.7054 0.0241 0.0232
0.7379 0.0241 0.0232
0.7707 0.0242 0.0232
0.8040 0.0242 0.0232
0.8376 0.0242 0.0231
0.8711 0.0242 0.0231
0.9046 0.0242 0.0230
0.9378 0.0242 0.0230
0.9705 0.0227 0.0223
0.0215 0.0644 0.0227
0.0623 0.0641 0.0227
0.0979 0.0634 0.0226
0.1220 0.0625 0.0226
0.1364 0.0619 0.0226
0.1519 0.0618 0.0226
0.1717 0.0622 0.0227
0.1964 0.0630 0.0227
0.2248 0.0640 0.0227
0.2555 0.0650 0.0228
0.2871 0.0660 0.0228
0.3193 0.0671 0.0229
0.3519 0.0682 0.0229
0.3849 0.0696 0.0229
0.4180 0.0711 0.0230
0.4510 0.0728 0.0230
0.4836 0.0745 0.0231
0.5154 0.0763 0.0231
0.5466 0.0781 0.0231
0.5772 0.0797 0.0232
0.6076 0.0813 0.0232
0.6381 0.0827 0.0232
0.6690 0.0840 0.0232
0.7006 0.0851 0.0232
0.7330 0.0861 0.0232
0.7661 0.0867 0.0232
0.7998 0.0872 0.0231
0.8339 0.0873 0.0231
0.8680 0.0873 0.0231
0.9022 0.0872 0.0230
0.9359 0.0871 0.0230
0.9688 0.0861 0.0223
0.0215 0.1038 0.0226
0.0620 0.1033 0.0226
0.0974 0.1021 0.0226
0.1212 0.1004 0.0226
0.1349 0.0990 0.0226
0.1491 0.0981 0.0226
0.1669 0.0980 0.0227
0.1891 0.0986 0.0227
0.2154 0.0996 0.0227
0.2445 0.1010 0.0228
0.2753 0.1028 0.0228
0.3072 0.1047 0.0229
0.3399 0.1071 0.0229
0.3732 0.1097 0.0230
0.4069 0.1126 0.0230
0.4405 0.1158 0.0231
0.4738 0.1191 0.0231
0.5065 0.1226 0.0231
0.5383 0.1260 0.0232
0.5694 0.1294 0.0232
0.5999 0.1326 0.0232
0.6302 0.1356 0.0232
0.6607 0.1384 0.0232
0.6919 0.1409 0.0232
0.7241 0.1431 0.0232
0.7573 0.1450 0.0232
0.7915 0.1464 0.0232
0.8264 0.1472 0.0231
0.8616 0.1477 0.0231
0.8969 0.1477 0.0230
0.9316 0.1475 0.0230
0.9651 0.1460 0.0223
0.0215 0.1301 0.0226
0.0614 0.1299 0.0226
0.0961 0.1292 0.0226
0.1194 0.1279 0.0226
0.1326 0.1263 0.0226
0.1458 0.1250 0.0226
0.1618 0.1242 0.0227
0.1819 0.1243 0.0227
0.2063 0.1251 0.0227
0.2341 0.1266 0.0228
0.2642 0.1287 0.0228
0.2960 0.1313 0.0229
0.3288 0.1346 0.0229
0.3623 0.1382 0.0230
0.3964 0.1422 0.0230
0.4305 0.1464 0.0231
0.4644 0.1508 0.0232
0.4978 0.1553 0.0232
0.5303 0.1598 0.0233
0.5620 0.1643 0.0233
0.5929 0.1687 0.0233
0.6231 0.1729 0.0233
0.6533 0.1769 0.0233
0.6839 0.1807 0.0233
0.7155 0.1843 0.0233
0.7484 0.1876 0.0233
0.7826 0.1904 0.0232
0.8178 0.1926 0.0232
0.8537 0.1941 0.0231
0.8900 0.1949 0.0231
0.9257 0.1952 0.0230
0.9598 0.1957 0.0223
0.0215 0.1405 0.0226
0.0605 0.1410 0.0226
0.0943 0.1417 0.0226
0.1168 0.1421 0.0226
0.1299 0.1419 0.0226
0.1429 0.1416 0.0226
0.1583 0.1415 0.0227
0.1776 0.1420 0.0227
0.2011 0.1431 0.0228
0.2284 0.1449 0.0228
0.2584 0.1472 0.0229
0.2903 0.1501 0.0229
0.3234 0.1534 0.0230
0.3572 0.1571 0.0230
0.3913 0.1612 0.0231
0.4255 0.1654 0.0232
0.4594 0.1696 0.0232
0.4930 0.1740 0.0233
0.5258 0.1782 0.0233
0.5579 0.1824 0.0234
0.5891 0.1865 0.0234
0.6195 0.1905 0.0234
0.6496 0.1944 0.0235
0.6797 0.1983 0.0235
0.7106 0.2021 0.0234
0.7425 0.2057 0.0234
0.7760 0.2091 0.0234
0.8108 0.2121 0.0233
0.8465 0.2145 0.0233
0.8830 0.2163 0.0232
0.9190 0.2173 0.0231
0.9536 0.2193 0.0223
0.0215 0.1483 0.0226
0.0595 0.1494 0.0226
0.0923 0.1515 0.0226
0.1142 0.1539 0.0226
0.1275 0.1558 0.0226
0.1407 0.1573 0.0227
0.1564 0.1587 0.0227
0.1758 0.1605 0.0228
0.1993 0.1627 0.0228
0.2266 0.1653 0.0229
0.2569 0.1682 0.0229
0.2893 0.1713 0.0229
0.3229 0.1748 0.0230
0.3570 0.1786 0.0231
0.3912 0.1827 0.0232
0.4253 0.1868 0.0232
0.4590 0.1909 0.0233
0.4923 0.1949 0.0233
0.5248 0.1986 0.0234
0.5566 0.2022 0.0235
0.5878 0.2056 0.0235
0.6182 0.2090 0.0236
0.6482 0.2124 0.0236
0.6781 0.2157 0.0236
0.7084 0.2191 0.0236
0.7394 0.2225 0.0236
0.7718 0.2258 0.0236
0.8055 0.2289 0.0235
0.8404 0.2317 0.0235
0.8763 0.2342 0.0234
0.9121 0.2359 0.0233
0.9467 0.2386 0.0223
0.0215 0.1584 0.0226
0.0586 0.1597 0.0226
0.0908 0.1628 0.0226
0.1123 0.1669 0.0226
0.1259 0.1708 0.0227
0.1399 0.1744 0.0227
0.1563 0.1776 0.0228
0.1762 0.1809 0.0229
0.2001 0.1845 0.0229
0.2277 0.1882 0.0229
0.2583 0.1919 0.0230
0.2914 0.1955 0.0230
0.3256 0.1993 0.0231
0.3602 0.2033 0.0232
0.3948 0.2075 0.0232
0.4289 0.2118 0.0233
0.4624 0.2159 0.0234
0.4952 0.2197 0.0234
0.5269 0.2231 0.0235
0.5581 0.2261 0.0236
0.5885 0.2289 0.0236
0.6186 0.2315 0.0237
0.6483 0.2341 0.0237
0.6779 0.2368 0.0238
0.7078 0.2395 0.0238
0.7382 0.2422 0.0238
0.7695 0.2450 0.0238
0.8021 0.2478 0.0237
0.8358 0.2504 0.0237
0.8708 0.2530 0.0237
0.9059 0.2551 0.0236
0.9403 0.2579 0.0223
0.0215 0.1733 0.0226
0.0578 0.1744 0.0226
0.0899 0.1779 0.0226
0.1117 0.1833 0.0226
0.1259 0.1889 0.0227
0.1405 0.1942 0.0228
0.1578 0.1991 0.0229
0.1785 0.2037 0.0229
0.2028 0.2083 0.0230
0.2305 0.2130 0.0230
0.2613 0.2176 0.0231
0.2947 0.2219 0.0231
0.3295 0.2261 0.0232
0.3649 0.2304 0.0233
0.4001 0.2348 0.0233
0.4347 0.2394 0.0234
0.4682 0.2438 0.0235
0.5007 0.2478 0.0235
0.5319 0.2512 0.0236
0.5621 0.2540 0.0237
0.5915 0.2562 0.0237
0.6205 0.2581 0.0238
0.6495 0.2599 0.0238
0.6786 0.2618 0.0239
0.7081 0.2639 0.0239
0.7380 0.2660 0.0240
0.7687 0.2682 0.0240
0.8004 0.2705 0.0240
0.8332 0.2727 0.0240
0.8672 0.2750 0.0240
0.9015 0.2770 0.0239
0.9353 0.2795 0.0223
0.0215 0.1927 0.0225
0.0573 0.1937 0.0226
0.0898 0.1972 0.0226
0.1126 0.2033 0.0227
0.1275 0.2102 0.0228
0.1429 0.2171 0.0229
0.1609 0.2231 0.0229
0.1823 0.2286 0.0230
0.2069 0.2339 0.0231
0.2345 0.2393 0.0231
0.2650 0.2446 0.0232
0.2983 0.2496 0.0233
0.3335 0.2543 0.0233
0.3695 0.2589 0.0233
0.4055 0.2636 0.0234
0.4408 0.2685 0.0235
0.4750 0.2734 0.0236
0.5076 0.2779 0.0236
0.5386 0.2817 0.0237
0.5682 0.2847 0.0237
0.5967 0.2868 0.0238
0.6245 0.2883 0.0239
0.6524 0.2894 0.0239
0.6805 0.2906 0.0240
0.7093 0.2920 0.0240
0.7386 0.2936 0.0241
0.7689 0.2954 0.0241
0.8001 0.2972 0.0241
0.8324 0.2992 0.0242
0.8656 0.3012 0.0242
0.8993 0.3029 0.0242
0.9325 0.3046 0.0223
0.0215 0.2154 0.0225
0.0571 0.2160 0.0226
0.0904 0.2193 0.0226
0.1148 0.2257 0.0227
0.1307 0.2339 0.0228
0.1467 0.2421 0.0229
0.1654 0.2493 0.0230
0.1874 0.2554 0.0231
0.2124 0.2610 0.0232
0.2399 0.2668 0.0232
0.2698 0.2727 0.0233
0.3023 0.2784 0.0233
0.3372 0.2837 0.0234
0.3734 0.2886 0.0235
0.4100 0.2935 0.0235
0.4462 0.2985 0.0236
0.4812 0.3037 0.0237
0.5146 0.3088 0.0237
0.5460 0.3134 0.0238
0.5756 0.3171 0.0238
0.6036 0.3196 0.0239
0.6306 0.3211 0.0240
0.6573 0.3219 0.0240
0.6842 0.3225 0.0240
0.7118 0.3232 0.0241
0.7404 0.3243 0.0242
0.7700 0.3257 0.0242
0.8009 0.3274 0.0243
0.8329 0.3291 0.0243
0.8658 0.3310 0.0244
0.8991 0.3326 0.0244
0.9318 0.3334 0.0223
0.0215 0.2396 0.0225
0.0570 0.2399 0.0225
0.0914 0.2428 0.0226
0.1179 0.2494 0.0226
0.1350 0.2585 0.0228
0.1517 0.2682 0.0229
0.1709 0.2768 0.0230
0.1936 0.2838 0.0231
0.2191 0.2897 0.0232
0.2466 0.2955 0.0233
0.2759 0.3018 0.0234
0.3074 0.3081 0.0234
0.3412 0.3141 0.0235
0.3768 0.3195 0.0236
0.4137 0.3246 0.0236
0.4505 0.3297 0.0237
0.4864 0.3349 0.0237
0.5207 0.3404 0.0238
0.5529 0.3456 0.0239
0.5831 0.3502 0.0239
0.6113 0.3536 0.0240
0.6381 0.3557 0.0240
0.6642 0.3568 0.0241
0.6900 0.3571 0.0241
0.7164 0.3572 0.0242
0.7437 0.3576 0.0242
0.7724 0.3586 0.0243
0.8027 0.3599 0.0244
0.8343 0.3616 0.0244
0.8670 0.3634 0.0244
0.9002 0.3649 0.0245
0.9325 0.3652 0.0223
0.0215 0.2645 0.0225
0.0570 0.2646 0.0225
0.0926 0.2668 0.0226
0.1214 0.2733 0.0226
0.1400 0.2832 0.0227
0.1574 0.2946 0.0229
0.1771 0.3051 0.0230
0.2003 0.3134 0.0232
0.2264 0.3199 0.0233
0.2544 0.3257 0.0233
0.2834 0.3319 0.0234
0.3138 0.3386 0.0235
0.3461 0.3453 0.0236
0.3806 0.3514 0.0237
0.4167 0.3568 0.0237
0.4537 0.3620 0.0238
0.4903 0.3672 0.0238
0.5256 0.3726 0.0239
0.5588 0.3781 0.0240
0.5898 0.3833 0.0240
0.6186 0.3877 0.0241
0.6458 0.3909 0.0242
0.6719 0.3927 0.0242
0.6972 0.3934 0.0243
0.7227 0.3933 0.0243
0.7488 0.3932 0.0243
0.7763 0.3934 0.0244
0.8056 0.3943 0.0244
0.8365 0.3956 0.0245
0.8688 0.3972 0.0245
0.9018 0.3986 0.0246
0.9339 0.3985 0.0223
0.0215 0.2901 0.0225
0.0570 0.2899 0.0225
0.0938 0.2914 0.0225
0.1249 0.2973 0.0226
0.1452 0.3077 0.0227
0.1635 0.3207 0.0229
0.1836 0.3335 0.0230
0.2071 0.3438 0.0232
0.2339 0.3514 0.0233
0.2625 0.3573 0.0234
0.2917 0.3633 0.0235
0.3214 0.3700 0.0236
0.3524 0.3770 0.0237
0.3851 0.3838 0.0237
0.4199 0.3899 0.0238
0.4562 0.3954 0.0239
0.4929 0.4004 0.0240
0.5290 0.4055 0.0240
0.5632 0.4107 0.0241
0.5952 0.4160 0.0241
0.6250 0.4211 0.0242
0.6528 0.4254 0.0243
0.6793 0.4285 0.0243
0.7047 0.4302 0.0244
0.7299 0.4306 0.0244
0.7553 0.4304 0.0244
0.7817 0.4302 0.0245
0.8098 0.4303 0.0245
0.8397 0.4310 0.0246
0.8714 0.4321 0.0246
0.9039 0.4332 0.0247
0.9356 0.4327 0.0223
0.0215 0.3162 0.0225
0.0569 0.3158 0.0225
0.0946 0.3166 0.0225
0.1282 0.3217 0.0226
0.1504 0.3320 0.0227
0.1698 0.3463 0.0229
0.1901 0.3616 0.0230
0.2136 0.3745 0.0232
0.2407 0.3838 0.0234
0.2700 0.3903 0.0235
0.2999 0.3960 0.0236
0.3297 0.4022 0.0237
0.3597 0.4092 0.0237
0.3909 0.4164 0.0238
0.4240 0.4232 0.0239
0.4588 0.4292 0.0240
0.4949 0.4344 0.0240
0.5312 0.4391 0.0241
0.5662 0.4437 0.0242
0.5993 0.4485 0.0242
0.6300 0.4535 0.0243
0.6586 0.4584 0.0244
0.6857 0.4627 0.0244
0.7116 0.4658 0.0245
0.7370 0.4675 0.0245
0.7622 0.4680 0.0246
0.7881 0.4677 0.0246
0.8152 0.4674 0.0246
0.8441 0.4674 0.0247
0.8748 0.4679 0.0247
0.9068 0.4686 0.0248
0.9380 0.4676 0.0223
0.0215 0.3430 0.0225
0.0568 0.3425 0.0225
0.0953 0.3427 0.0225
0.1310 0.3467 0.0225
0.1553 0.3566 0.0226
0.1761 0.3716 0.0228
0.1967 0.3890 0.0230
0.2199 0.4048 0.0233
0.2468 0.4165 0.0234
0.2765 0.4243 0.0235
0.3072 0.4299 0.0236
0.3376 0.4354 0.0237
0.3675 0.4418 0.0238
0.3977 0.4488 0.0239
0.4291 0.4560 0.0240
0.4622 0.4626 0.0241
0.4969 0.4682 0.0241
0.5326 0.4729 0.0242
0.5679 0.4771 0.0243
0.6019 0.4811 0.0243
0.6336 0.4854 0.0244
0.6631 0.4901 0.0244
0.6909 0.4949 0.0245
0.7174 0.4992 0.0246
0.7433 0.5024 0.0246
0.7688 0.5042 0.0247
0.7946 0.5048 0.0247
0.8213 0.5046 0.0248
0.8494 0.5043 0.0248
0.8792 0.5042 0.0248
0.9105 0.5044 0.0248
0.9410 0.5030 0.0223
0.0215 0.3708 0.0225
0.0567 0.3704 0.0225
0.0957 0.3703 0.0225
0.1333 0.3733 0.0225
0.1598 0.3820 0.0226
0.1821 0.3969 0.0228
0.2033 0.4158 0.0230
0.2261 0.4344 0.0232
0.2523 0.4490 0.0234
0.2819 0.4587 0.0236
0.3131 0.4648 0.0237
0.3444 0.4698 0.0238
0.3749 0.4752 0.0239
0.4049 0.4815 0.0240
0.4353 0.4885 0.0240
0.4668 0.4953 0.0241
0.4998 0.5015 0.0242
0.5341 0.5065 0.0243
0.5689 0.5105 0.0244
0.6032 0.5138 0.0244
0.6359 0.5171 0.0245
0.6664 0.5209 0.0245
0.6951 0.5254 0.0246
0.7222 0.5303 0.0247
0.7486 0.5348 0.0247
0.7746 0.5383 0.0248
0.8007 0.5403 0.0248
0.8273 0.5410 0.0249
0.8551 0.5410 0.0249
0.8842 0.5407 0.0249
0.9148 0.5406 0.0250
0.9447 0.5388 0.0223
0.0215 0.3997 0.0225
0.0566 0.3995 0.0225
0.0961 0.3994 0.0225
0.1353 0.4015 0.0225
0.1637 0.4088 0.0226
0.1878 0.4228 0.0227
0.2098 0.4422 0.0229
0.2323 0.4629 0.0232
0.2576 0.4806 0.0234
0.2864 0.4928 0.0236
0.3177 0.5001 0.0237
0.3497 0.5048 0.0238
0.3812 0.5093 0.0239
0.4117 0.5146 0.0240
0.4419 0.5207 0.0241
0.4724 0.5272 0.0242
0.5039 0.5336 0.0243
0.5366 0.5390 0.0244
0.5702 0.5433 0.0245
0.6040 0.5463 0.0245
0.6370 0.5489 0.0246
0.6684 0.5516 0.0246
0.6981 0.5551 0.0247
0.7260 0.5596 0.0248
0.7530 0.5647 0.0248
0.7795 0.5694 0.0249
0.8060 0.5731 0.0249
0.8329 0.5754 0.0250
0.8606 0.5764 0.0250
0.8894 0.5766 0.0250
0.9194 0.5763 0.0251
0.9510 0.5762 0.0223
0.0215 0.4300 0.0224
0.0567 0.4300 0.0224
0.0965 0.4302 0.0224
0.1368 0.4317 0.0224
0.1671 0.4374 0.0225
0.1931 0.4497 0.0226
0.2163 0.4685 0.0229
0.2387 0.4905 0.0232
0.2630 0.5108 0.0234
0.2906 0.5258 0.0237
0.3213 0.5351 0.0238
0.3537 0.5402 0.0239
0.3861 0.5441 0.0240
0.4175 0.5481 0.0240
0.4482 0.5530 0.0241
0.4786 0.5587 0.0242
0.5091 0.5647 0.0243
0.5405 0.5704 0.0244
0.5725 0.5750 0.0245
0.6052 0.5783 0.0246
0.6378 0.5805 0.0247
0.6695 0.5823 0.0247
0.7000 0.5846 0.0248
0.7289 0.5881 0.0248
0.7567 0.5928 0.0249
0.7838 0.5981 0.0249
0.8107 0.6032 0.0250
0.8379 0.6073 0.0251
0.8657 0.6099 0.0251
0.8942 0.6112 0.0251
0.9239 0.6115 0.0251
0.9552 0.6114 0.0223
0.0215 0.4617 0.0224
0.0568 0.4619 0.0224
0.0970 0.4624 0.0224
0.1382 0.4637 0.0224
0.1700 0.4680 0.0225
0.1978 0.4781 0.0226
0.2225 0.4953 0.0228
0.2453 0.5173 0.0231
0.2688 0.5395 0.0234
0.2951 0.5573 0.0237
0.3247 0.5689 0.0238
0.3568 0.5753 0.0240
0.3897 0.5789 0.0240
0.4220 0.5820 0.0241
0.4536 0.5857 0.0242
0.4844 0.5901 0.0243
0.5149 0.5953 0.0244
0.5454 0.6006 0.0245
0.5762 0.6055 0.0246
0.6075 0.6092 0.0247
0.6391 0.6115 0.0248
0.6704 0.6129 0.0248
0.7012 0.6142 0.0249
0.7309 0.6164 0.0249
0.7596 0.6201 0.0250
0.7874 0.6251 0.0250
0.8148 0.6309 0.0251
0.8422 0.6363 0.0251
0.8701 0.6408 0.0252
0.8986 0.6439 0.0252
0.9280 0.6455 0.0252
0.9590 0.6457 0.0223
0.0215 0.4945 0.0224
0.0571 0.4949 0.0224
0.0976 0.4958 0.0224
0.1396 0.4972 0.0224
0.1725 0.5003 0.0224
0.2020 0.5081 0.0225
0.2282 0.5228 0.0227
0.2519 0.5436 0.0230
0.2750 0.5667 0.0233
0.3000 0.5869 0.0236
0.3282 0.6012 0.0238
0.3595 0.6093 0.0240
0.3924 0.6133 0.0241
0.4253 0.6158 0.0241
0.4578 0.6183 0.0242
0.4894 0.6215 0.0243
0.5203 0.6255 0.0244
0.5507 0.6301 0.0245
0.5808 0.6347 0.0246
0.6110 0.6386 0.0247
0.6414 0.6413 0.0248
0.6719 0.6427 0.0249
0.7023 0.6435 0.0249
0.7322 0.6446 0.0250
0.7616 0.6470 0.0250
0.7902 0.6510 0.0251
0.8182 0.6566 0.0251
0.8461 0.6629 0.0252
0.8741 0.6689 0.0252
0.9024 0.6739 0.0253
0.9316 0.6774 0.0253
0.9625 0.6785 0.0223
0.0215 0.5284 0.0224
0.0575 0.5289 0.0224
0.0985 0.5300 0.0224
0.1410 0.5315 0.0224
0.1747 0.5338 0.0224
0.2055 0.5395 0.0225
0.2334 0.5513 0.0226
0.2583 0.5699 0.0229
0.2815 0.5926 0.0232
0.3055 0.6146 0.0235
0.3323 0.6315 0.0238
0.3623 0.6419 0.0240
0.3947 0.6469 0.0241
0.4278 0.6493 0.0242
0.4608 0.6509 0.0242
0.4932 0.6528 0.0243
0.5247 0.6555 0.0244
0.5556 0.6591 0.0245
0.5857 0.6631 0.0246
0.6153 0.6669 0.0247
0.6447 0.6697 0.0248
0.6741 0.6714 0.0249
0.7037 0.6720 0.0250
0.7333 0.6724 0.0251
0.7628 0.6735 0.0251
0.7920 0.6763 0.0251
0.8208 0.6811 0.0252
0.8492 0.6873 0.0252
0.8775 0.6942 0.0253
0.9059 0.7010 0.0253
0.9349 0.7063 0.0254
0.9657 0.7087 0.0223
0.0215 0.5630 0.0224
0.0579 0.5636 0.0224
0.0994 0.5648 0.0224
0.1425 0.5664 0.0224
0.1765 0.5682 0.0224
0.2084 0.5720 0.0224
0.2379 0.5808 0.0225
0.2642 0.5965 0.0228
0.2881 0.6177 0.0231
0.3116 0.6404 0.0234
0.3370 0.6597 0.0237
0.3655 0.6726 0.0240
0.3969 0.6794 0.0241
0.4298 0.6821 0.0242
0.4631 0.6832 0.0242
0.4959 0.6841 0.0243
0.5280 0.6855 0.0244
0.5594 0.6878 0.0244
0.5899 0.6908 0.0245
0.6195 0.6941 0.0247
0.6484 0.6969 0.0248
0.6769 0.6987 0.0249
0.7055 0.6993 0.0251
0.7343 0.6993 0.0251
0.7635 0.6994 0.0252
0.7928 0.7009 0.0252
0.8221 0.7043 0.0252
0.8512 0.7099 0.0253
0.8801 0.7169 0.0253
0.9088 0.7247 0.0254
0.9379 0.7314 0.0254
0.9686 0.7354 0.0223
0.0215 0.5979 0.0224
0.0585 0.5986 0.0224
0.1005 0.5998 0.0224
0.1440 0.6014 0.0224
0.1783 0.6029 0.0224
0.2109 0.6053 0.0224
0.2418 0.6114 0.0225
0.2697 0.6237 0.0226
0.2946 0.6425 0.0229
0.3181 0.6649 0.0233
0.3424 0.6858 0.0237
0.3694 0.7014 0.0239
0.3994 0.7104 0.0241
0.4316 0.7141 0.0242
0.4647 0.7150 0.0243
0.4977 0.7152 0.0243
0.5303 0.7155 0.0244
0.5622 0.7165 0.0244
0.5931 0.7183 0.0245
0.6230 0.7207 0.0246
0.6518 0.7231 0.0248
0.6798 0.7248 0.0249
0.7075 0.7255 0.0251
0.7353 0.7252 0.0252
0.7637 0.7245 0.0252
0.7927 0.7247 0.0253
0.8220 0.7266 0.0253
0.8517 0.7308 0.0253
0.8812 0.7370 0.0254
0.9106 0.7448 0.0254
0.9402 0.7521 0.0254
0.9710 0.7577 0.0223
0.0215 0.6329 0.0224
0.0591 0.6335 0.0224
0.1016 0.6347 0.0224
0.1456 0.6361 0.0224
0.1801 0.6373 0.0224
0.2130 0.6389 0.0224
0.2450 0.6427 0.0224
0.2744 0.6516 0.0226
0.3008 0.6672 0.0228
0.3248 0.6882 0.0231
0.3485 0.7100 0.0235
0.3740 0.7281 0.0238
0.4024 0.7397 0.0241
0.4335 0.7450 0.0242
0.4660 0.7463 0.0243
0.4990 0.7459 0.0243
0.5317 0.7452 0.0244
0.5639 0.7450 0.0244
0.5952 0.7454 0.0245
0.6255 0.7468 0.0246
0.6544 0.7484 0.0247
0.6823 0.7499 0.0249
0.7093 0.7505 0.0250
0.7362 0.7500 0.0251
0.7636 0.7488 0.0253
0.7918 0.7478 0.0253
0.8208 0.7481 0.0254
0.8505 0.7505 0.0254
0.8806 0.7551 0.0254
0.9107 0.7618 0.0254
0.9411 0.7686 0.0254
0.9726 0.7754 0.0223
0.0215 0.6677 0.0224
0.0597 0.6683 0.0224
0.1028 0.6693 0.0224
0.1472 0.6705 0.0224
0.1819 0.6715 0.0224
0.2151 0.6725 0.0224
0.2477 0.6745 0.0224
0.2787 0.6804 0.0225
0.3066 0.6925 0.0226
0.3316 0.7110 0.0229
0.3551 0.7327 0.0233
0.3793 0.7527 0.0237
0.4061 0.7670 0.0240
0.4356 0.7746 0.0242
0.4673 0.7769 0.0243
0.4999 0.7763 0.0243
0.5324 0.7749 0.0243
0.5647 0.7734 0.0244
0.5962 0.7725 0.0244
0.6268 0.7725 0.0245
0.6561 0.7732 0.0247
0.6840 0.7741 0.0248
0.7107 0.7746 0.0250
0.7369 0.7740 0.0251
0.7633 0.7724 0.0252
0.7904 0.7705 0.0253
0.8187 0.7693 0.0254
0.8481 0.7696 0.0254
0.8783 0.7721 0.0254
0.9090 0.7768 0.0254
0.9401 0.7821 0.0254
0.9724 0.7896 0.0223
0.0215 0.7022 0.0224
0.0603 0.7027 0.0224
0.1040 0.7035 0.0224
0.1490 0.7044 0.0224
0.1837 0.7051 0.0224
0.2170 0.7057 0.0223
0.2502 0.7067 0.0223
0.2823 0.7099 0.0224
0.3119 0.7185 0.0225
0.3383 0.7339 0.0228
0.3621 0.7543 0.0232
0.3854 0.7754 0.0236
0.4105 0.7924 0.0239
0.4383 0.8025 0.0241
0.4687 0.8064 0.0243
0.5005 0.8062 0.0243
0.5328 0.8042 0.0243
0.5649 0.8017 0.0244
0.5964 0.7995 0.0244
0.6272 0.7981 0.0245
0.6567 0.7975 0.0246
0.6848 0.7977 0.0247
0.7115 0.7978 0.0249
0.7372 0.7972 0.0251
0.7628 0.7956 0.0252
0.7889 0.7931 0.0253
0.8162 0.7906 0.0254
0.8449 0.7891 0.0254
0.8748 0.7893 0.0255
0.9057 0.7914 0.0254
0.9372 0.7945 0.0254
0.9703 0.8019 0.0223
0.0215 0.7363 0.0224
0.0609 0.7366 0.0224
0.1053 0.7372 0.0224
0.1508 0.7379 0.0223
0.1856 0.7383 0.0223
0.2191 0.7386 0.0223
0.2526 0.7388 0.0223
0.2856 0.7402 0.0223
0.3167 0.7455 0.0224
0.3446 0.7573 0.0226
0.3693 0.7754 0.0229
0.3922 0.7966 0.0234
0.4157 0.8157 0.0237
0.4415 0.8287 0.0240
0.4703 0.8348 0.0242
0.5011 0.8354 0.0243
0.5328 0.8331 0.0243
0.5647 0.8298 0.0244
0.5960 0.8263 0.0244
0.6269 0.8234 0.0244
0.6566 0.8215 0.0245
0.6849 0.8206 0.0246
0.7117 0.8203 0.0248
0.7372 0.8198 0.0250
0.7622 0.8184 0.0251
0.7875 0.8158 0.0253
0.8138 0.8126 0.0254
0.8416 0.8097 0.0254
0.8709 0.8078 0.0255
0.9014 0.8074 0.0255
0.9329 0.8082 0.0254
0.9665 0.8147 0.0223
0.0215 0.7699 0.0224
0.0616 0.7701 0.0224
0.1066 0.7705 0.0223
0.1527 0.7708 0.0223
0.1877 0.7709 0.0223
0.2213 0.7709 0.0223
0.2550 0.7707 0.0223
0.2885 0.7709 0.0223
0.3208 0.7735 0.0223
0.3504 0.7817 0.0225
0.3763 0.7967 0.0228
0.3994 0.8169 0.0232
0.4217 0.8373 0.0236
0.4455 0.8530 0.0239
0.4723 0.8616 0.0242
0.5017 0.8636 0.0243
0.5326 0.8614 0.0243
0.5640 0.8574 0.0244
0.5952 0.8528 0.0244
0.6259 0.8486 0.0244
0.6558 0.8452 0.0244
0.6845 0.8432 0.0246
0.7116 0.8423 0.0247
0.7371 0.8417 0.0249
0.7617 0.8407 0.0251
0.7863 0.8385 0.0252
0.8118 0.8353 0.0253
0.8387 0.8316 0.0254
0.8673 0.8284 0.0255
0.8972 0.8260 0.0255
0.9283 0.8248 0.0255
0.9620 0.8298 0.0223
0.0215 0.8030 0.0223
0.0623 0.8031 0.0223
0.1081 0.8033 0.0223
0.1547 0.8033 0.0223
