lut/adanmq/Adanmq_Fujicolor_Pro_400H.cube
TITLE "Adanmq_Fujicolor Pro 400H"
LUT_3D_SIZE 32
0.0214 0.0223 0.0221
0.0475 0.0223 0.0221
0.0753 0.0223 0.0221
0.0978 0.0223 0.0221
0.1150 0.0223 0.0221
0.1300 0.0223 0.0221
0.1454 0.0223 0.0221
0.1621 0.0223 0.0221
0.1805 0.0223 0.0221
0.2000 0.0223 0.0221
0.2202 0.0223 0.0221
0.2407 0.0223 0.0221
0.2614 0.0223 0.0221
0.2824 0.0223 0.0221
0.3039 0.0223 0.0221
0.3260 0.0223 0.0221
0.3488 0.0223 0.0221
0.3726 0.0223 0.0221
0.3974 0.0223 0.0221
0.4233 0.0223 0.0221
0.4505 0.0223 0.0221
0.4789 0.0223 0.0221
0.5083 0.0223 0.0221
0.5386 0.0223 0.0221
0.5698 0.0223 0.0221
0.6012 0.0223 0.0221
0.6330 0.0223 0.0221
0.6649 0.0223 0.0221
0.6967 0.0223 0.0221
0.7284 0.0223 0.0221
0.7600 0.0223 0.0221
0.7920 0.0227 0.0223
0.0214 0.0482 0.0221
0.0477 0.0482 0.0221
0.0759 0.0483 0.0221
0.0992 0.0484 0.0221
0.1176 0.0487 0.0221
0.1336 0.0491 0.0221
0.1500 0.0495 0.0221
0.1675 0.0499 0.0221
0.1866 0.0503 0.0221
0.2068 0.0506 0.0221
0.2276 0.0509 0.0221
0.2487 0.0511 0.0221
0.2699 0.0514 0.0221
0.2912 0.0517 0.0221
0.3129 0.0519 0.0221
0.3350 0.0521 0.0221
0.3578 0.0523 0.0221
0.3813 0.0525 0.0221
0.4057 0.0526 0.0221
0.4311 0.0527 0.0221
0.4576 0.0527 0.0221
0.4851 0.0527 0.0221
0.5136 0.0526 0.0221
0.5431 0.0525 0.0221
0.5734 0.0523 0.0221
0.6043 0.0520 0.0221
0.6356 0.0518 0.0221
0.6673 0.0515 0.0221
0.6990 0.0511 0.0221
0.7308 0.0508 0.0221
0.7626 0.0505 0.0221
0.7946 0.0503 0.0223
0.0214 0.0797 0.0221
0.0481 0.0797 0.0221
0.0776 0.0799 0.0221
0.1028 0.0804 0.0221
0.1236 0.0812 0.0221
0.1417 0.0824 0.0221
0.1599 0.0836 0.0221
0.1791 0.0850 0.0221
0.1997 0.0862 0.0221
0.2215 0.0873 0.0221
0.2438 0.0884 0.0221
0.2662 0.0895 0.0221
0.2886 0.0905 0.0221
0.3108 0.0915 0.0221
0.3331 0.0923 0.0221
0.3556 0.0930 0.0221
0.3785 0.0937 0.0221
0.4019 0.0943 0.0221
0.4258 0.0947 0.0221
0.4504 0.0950 0.0221
0.4757 0.0952 0.0221
0.5017 0.0952 0.0221
0.5286 0.0950 0.0221
0.5561 0.0946 0.0221
0.5846 0.0940 0.0221
0.6137 0.0932 0.0221
0.6436 0.0923 0.0221
0.6741 0.0912 0.0221
0.7052 0.0901 0.0221
0.7366 0.0890 0.0221
0.7683 0.0880 0.0221
0.8000 0.0873 0.0223
0.0214 0.1098 0.0221
0.0489 0.1100 0.0221
0.0807 0.1107 0.0221
0.1086 0.1119 0.0221
0.1324 0.1134 0.0221
0.1529 0.1153 0.0221
0.1731 0.1173 0.0221
0.1942 0.1194 0.0221
0.2166 0.1214 0.0221
0.2401 0.1233 0.0221
0.2641 0.1252 0.0221
0.2884 0.1272 0.0221
0.3124 0.1290 0.0221
0.3362 0.1306 0.0221
0.3596 0.1321 0.0221
0.3828 0.1332 0.0221
0.4061 0.1342 0.0221
0.4297 0.1350 0.0221
0.4534 0.1356 0.0221
0.4775 0.1360 0.0221
0.5018 0.1364 0.0221
0.5265 0.1364 0.0221
0.5516 0.1363 0.0221
0.5771 0.1358 0.0221
0.6033 0.1351 0.0221
0.6302 0.1340 0.0221
0.6579 0.1327 0.0221
0.6865 0.1310 0.0221
0.7160 0.1292 0.0221
0.7462 0.1273 0.0221
0.7772 0.1256 0.0221
0.8082 0.1244 0.0223
0.0214 0.1382 0.0221
0.0501 0.1389 0.0221
0.0848 0.1406 0.0221
0.1159 0.1431 0.0221
0.1429 0.1458 0.0221
0.1656 0.1488 0.0221
0.1874 0.1517 0.0221
0.2100 0.1545 0.0221
0.2337 0.1572 0.0221
0.2584 0.1598 0.0221
0.2839 0.1624 0.0221
0.3098 0.1651 0.0221
0.3355 0.1676 0.0221
0.3608 0.1699 0.0221
0.3857 0.1718 0.0221
0.4100 0.1732 0.0221
0.4340 0.1742 0.0221
0.4579 0.1750 0.0221
0.4818 0.1755 0.0221
0.5057 0.1759 0.0221
0.5296 0.1762 0.0221
0.5536 0.1763 0.0221
0.5776 0.1763 0.0221
0.6016 0.1761 0.0221
0.6261 0.1755 0.0221
0.6510 0.1746 0.0221
0.6767 0.1732 0.0221
0.7033 0.1713 0.0221
0.7310 0.1692 0.0221
0.7596 0.1669 0.0221
0.7894 0.1647 0.0221
0.8192 0.1631 0.0223
0.0214 0.1645 0.0221
0.0515 0.1658 0.0221
0.0898 0.1686 0.0221
0.1245 0.1726 0.0221
0.1550 0.1767 0.0221
0.1795 0.1808 0.0221
0.2027 0.1846 0.0221
0.2264 0.1881 0.0221
0.2509 0.1913 0.0221
0.2764 0.1942 0.0221
0.3027 0.1972 0.0221
0.3296 0.2001 0.0221
0.3567 0.2030 0.0221
0.3834 0.2056 0.0221
0.4096 0.2077 0.0221
0.4352 0.2093 0.0221
0.4600 0.2103 0.0221
0.4845 0.2108 0.0221
0.5086 0.2110 0.0221
0.5325 0.2110 0.0221
0.5562 0.2110 0.0221
0.5798 0.2111 0.0221
0.6032 0.2112 0.0221
0.6265 0.2112 0.0221
0.6500 0.2111 0.0221
0.6736 0.2105 0.0221
0.6977 0.2096 0.0221
0.7228 0.2082 0.0221
0.7488 0.2064 0.0221
0.7758 0.2042 0.0221
0.8043 0.2022 0.0221
0.8329 0.2006 0.0223
0.0214 0.1915 0.0221
0.0530 0.1932 0.0221
0.0953 0.1971 0.0221
0.1340 0.2025 0.0221
0.1679 0.2080 0.0221
0.1943 0.2134 0.0221
0.2187 0.2182 0.0221
0.2433 0.2224 0.0221
0.2683 0.2261 0.0221
0.2939 0.2294 0.0221
0.3203 0.2325 0.0221
0.3476 0.2356 0.0221
0.3753 0.2386 0.0221
0.4029 0.2414 0.0221
0.4302 0.2437 0.0221
0.4568 0.2455 0.0221
0.4826 0.2466 0.0221
0.5076 0.2471 0.0221
0.5320 0.2470 0.0221
0.5559 0.2466 0.0221
0.5794 0.2461 0.0221
0.6026 0.2459 0.0221
0.6257 0.2458 0.0221
0.6486 0.2460 0.0221
0.6716 0.2461 0.0221
0.6946 0.2461 0.0221
0.7180 0.2457 0.0221
0.7421 0.2450 0.0221
0.7671 0.2438 0.0221
0.7930 0.2423 0.0221
0.8204 0.2408 0.0221
0.8482 0.2388 0.0223
0.0214 0.2205 0.0221
0.0545 0.2225 0.0221
0.1008 0.2272 0.0221
0.1436 0.2337 0.0221
0.1810 0.2406 0.0221
0.2093 0.2472 0.0221
0.2347 0.2531 0.0221
0.2602 0.2581 0.0221
0.2856 0.2623 0.0221
0.3111 0.2659 0.0221
0.3371 0.2693 0.0221
0.3640 0.2725 0.0221
0.3915 0.2756 0.0221
0.4193 0.2786 0.0221
0.4471 0.2812 0.0221
0.4744 0.2833 0.0221
0.5008 0.2847 0.0221
0.5264 0.2853 0.0221
0.5510 0.2852 0.0221
0.5748 0.2845 0.0221
0.5980 0.2836 0.0221
0.6208 0.2829 0.0221
0.6435 0.2824 0.0221
0.6660 0.2824 0.0221
0.6887 0.2826 0.0221
0.7115 0.2829 0.0221
0.7346 0.2831 0.0221
0.7584 0.2830 0.0221
0.7829 0.2826 0.0221
0.8083 0.2819 0.0221
0.8352 0.2811 0.0221
0.8629 0.2790 0.0223
0.0214 0.2513 0.0221
0.0558 0.2534 0.0221
0.1060 0.2584 0.0221
0.1527 0.2657 0.0221
0.1936 0.2736 0.0221
0.2236 0.2813 0.0221
0.2502 0.2882 0.0221
0.2765 0.2940 0.0221
0.3024 0.2987 0.0221
0.3280 0.3027 0.0221
0.3535 0.3063 0.0221
0.3796 0.3097 0.0221
0.4063 0.3130 0.0221
0.4336 0.3160 0.0221
0.4612 0.3188 0.0221
0.4886 0.3212 0.0221
0.5154 0.3230 0.0221
0.5413 0.3240 0.0221
0.5661 0.3242 0.0221
0.5899 0.3236 0.0221
0.6128 0.3226 0.0221
0.6350 0.3214 0.0221
0.6570 0.3205 0.0221
0.6788 0.3200 0.0221
0.7009 0.3200 0.0221
0.7234 0.3203 0.0221
0.7463 0.3207 0.0221
0.7700 0.3211 0.0221
0.7945 0.3214 0.0221
0.8198 0.3214 0.0221
0.8466 0.3212 0.0221
0.8748 0.3193 0.0223
0.0214 0.2833 0.0221
0.0571 0.2851 0.0221
0.1108 0.2900 0.0221
0.1612 0.2976 0.0221
0.2053 0.3062 0.0221
0.2369 0.3149 0.0221
0.2646 0.3227 0.0221
0.2918 0.3291 0.0221
0.3184 0.3343 0.0221
0.3442 0.3385 0.0221
0.3695 0.3424 0.0221
0.3948 0.3460 0.0221
0.4205 0.3494 0.0221
0.4468 0.3526 0.0221
0.4737 0.3556 0.0221
0.5006 0.3581 0.0221
0.5273 0.3603 0.0221
0.5533 0.3617 0.0221
0.5783 0.3625 0.0221
0.6022 0.3623 0.0221
0.6249 0.3615 0.0221
0.6468 0.3603 0.0221
0.6680 0.3590 0.0221
0.6889 0.3581 0.0221
0.7100 0.3576 0.0221
0.7315 0.3576 0.0221
0.7538 0.3579 0.0221
0.7771 0.3585 0.0221
0.8015 0.3590 0.0221
0.8268 0.3595 0.0221
0.8538 0.3599 0.0221
0.8829 0.3585 0.0223
0.0214 0.3156 0.0221
0.0583 0.3172 0.0221
0.1152 0.3216 0.0221
0.1691 0.3290 0.0221
0.2161 0.3380 0.0221
0.2490 0.3474 0.0221
0.2776 0.3560 0.0221
0.3058 0.3631 0.0221
0.3332 0.3685 0.0221
0.3595 0.3729 0.0221
0.3849 0.3769 0.0221
0.4097 0.3807 0.0221
0.4345 0.3843 0.0221
0.4597 0.3878 0.0221
0.4854 0.3908 0.0221
0.5114 0.3935 0.0221
0.5375 0.3958 0.0221
0.5633 0.3977 0.0221
0.5883 0.3990 0.0221
0.6123 0.3995 0.0221
0.6352 0.3993 0.0221
0.6570 0.3985 0.0221
0.6779 0.3973 0.0221
0.6981 0.3961 0.0221
0.7181 0.3951 0.0221
0.7383 0.3946 0.0221
0.7594 0.3946 0.0221
0.7817 0.3949 0.0221
0.8055 0.3954 0.0221
0.8306 0.3960 0.0221
0.8576 0.3965 0.0221
0.8873 0.3956 0.0223
0.0214 0.3479 0.0221
0.0594 0.3490 0.0221
0.1194 0.3528 0.0221
0.1764 0.3597 0.0221
0.2260 0.3687 0.0221
0.2600 0.3786 0.0221
0.2892 0.3879 0.0221
0.3181 0.3956 0.0221
0.3463 0.4014 0.0221
0.3734 0.4058 0.0221
0.3991 0.4097 0.0221
0.4239 0.4135 0.0221
0.4481 0.4173 0.0221
0.4722 0.4210 0.0221
0.4967 0.4242 0.0221
0.5216 0.4271 0.0221
0.5467 0.4295 0.0221
0.5718 0.4316 0.0221
0.5965 0.4333 0.0221
0.6206 0.4345 0.0221
0.6438 0.4350 0.0221
0.6659 0.4349 0.0221
0.6869 0.4342 0.0221
0.7069 0.4332 0.0221
0.7263 0.4320 0.0221
0.7454 0.4311 0.0221
0.7651 0.4305 0.0221
0.7861 0.4304 0.0221
0.8089 0.4305 0.0221
0.8333 0.4309 0.0221
0.8600 0.4312 0.0221
0.8896 0.4308 0.0223
0.0214 0.3799 0.0221
0.0604 0.3806 0.0221
0.1234 0.3835 0.0221
0.1832 0.3896 0.0221
0.2351 0.3983 0.0221
0.2700 0.4085 0.0221
0.2995 0.4185 0.0221
0.3289 0.4268 0.0221
0.3577 0.4330 0.0221
0.3856 0.4374 0.0221
0.4120 0.4410 0.0221
0.4370 0.4446 0.0221
0.4609 0.4484 0.0221
0.4844 0.4522 0.0221
0.5077 0.4557 0.0221
0.5314 0.4587 0.0221
0.5553 0.4613 0.0221
0.5795 0.4635 0.0221
0.6036 0.4653 0.0221
0.6274 0.4670 0.0221
0.6507 0.4682 0.0221
0.6732 0.4690 0.0221
0.6947 0.4691 0.0221
0.7150 0.4686 0.0221
0.7343 0.4677 0.0221
0.7529 0.4666 0.0221
0.7716 0.4657 0.0221
0.7914 0.4650 0.0221
0.8130 0.4646 0.0221
0.8365 0.4645 0.0221
0.8626 0.4645 0.0221
0.8918 0.4644 0.0223
0.0214 0.4116 0.0221
0.0614 0.4119 0.0221
0.1270 0.4138 0.0221
0.1895 0.4188 0.0221
0.2434 0.4269 0.0221
0.2789 0.4371 0.0221
0.3086 0.4477 0.0221
0.3381 0.4568 0.0221
0.3674 0.4635 0.0221
0.3959 0.4680 0.0221
0.4230 0.4712 0.0221
0.4486 0.4743 0.0221
0.4727 0.4779 0.0221
0.4958 0.4816 0.0221
0.5184 0.4853 0.0221
0.5410 0.4886 0.0221
0.5637 0.4913 0.0221
0.5868 0.4936 0.0221
0.6100 0.4955 0.0221
0.6333 0.4973 0.0221
0.6563 0.4989 0.0221
0.6790 0.5003 0.0221
0.7009 0.5013 0.0221
0.7217 0.5016 0.0221
0.7415 0.5013 0.0221
0.7602 0.5005 0.0221
0.7785 0.4995 0.0221
0.7975 0.4985 0.0221
0.8181 0.4976 0.0221
0.8407 0.4969 0.0221
0.8661 0.4964 0.0221
0.8947 0.4967 0.0223
0.0214 0.4428 0.0221
0.0624 0.4428 0.0221
0.1304 0.4438 0.0221
0.1952 0.4475 0.0221
0.2508 0.4547 0.0221
0.2868 0.4646 0.0221
0.3165 0.4756 0.0221
0.3460 0.4856 0.0221
0.3754 0.4931 0.0221
0.4043 0.4979 0.0221
0.4322 0.5009 0.0221
0.4585 0.5033 0.0221
0.4831 0.5062 0.0221
0.5062 0.5096 0.0221
0.5284 0.5133 0.0221
0.5502 0.5168 0.0221
0.5720 0.5198 0.0221
0.5940 0.5222 0.0221
0.6162 0.5241 0.0221
0.6387 0.5259 0.0221
0.6612 0.5276 0.0221
0.6836 0.5294 0.0221
0.7057 0.5309 0.0221
0.7270 0.5320 0.0221
0.7473 0.5326 0.0221
0.7665 0.5324 0.0221
0.7851 0.5316 0.0221
0.8039 0.5305 0.0221
0.8240 0.5293 0.0221
0.8457 0.5281 0.0221
0.8705 0.5272 0.0221
0.8984 0.5277 0.0223
0.0214 0.4737 0.0221
0.0633 0.4734 0.0221
0.1335 0.4737 0.0221
0.2003 0.4761 0.0221
0.2575 0.4820 0.0221
0.2939 0.4913 0.0221
0.3235 0.5024 0.0221
0.3527 0.5133 0.0221
0.3820 0.5218 0.0221
0.4111 0.5274 0.0221
0.4395 0.5304 0.0221
0.4666 0.5323 0.0221
0.4919 0.5343 0.0221
0.5154 0.5370 0.0221
0.5376 0.5403 0.0221
0.5589 0.5438 0.0221
0.5799 0.5470 0.0221
0.6010 0.5496 0.0221
0.6224 0.5517 0.0221
0.6440 0.5534 0.0221
0.6659 0.5550 0.0221
0.6878 0.5568 0.0221
0.7096 0.5585 0.0221
0.7309 0.5602 0.0221
0.7517 0.5615 0.0221
0.7716 0.5621 0.0221
0.7907 0.5620 0.0221
0.8098 0.5612 0.0221
0.8298 0.5601 0.0221
0.8512 0.5586 0.0221
0.8753 0.5574 0.0221
0.9027 0.5581 0.0223
0.0214 0.5041 0.0221
0.0641 0.5037 0.0221
0.1362 0.5033 0.0221
0.2047 0.5045 0.0221
0.2634 0.5090 0.0221
0.3003 0.5172 0.0221
0.3297 0.5282 0.0221
0.3586 0.5397 0.0221
0.3875 0.5495 0.0221
0.4164 0.5562 0.0221
0.4451 0.5597 0.0221
0.4728 0.5612 0.0221
0.4989 0.5624 0.0221
0.5231 0.5643 0.0221
0.5455 0.5669 0.0221
0.5667 0.5700 0.0221
0.5873 0.5731 0.0221
0.6078 0.5760 0.0221
0.6284 0.5783 0.0221
0.6493 0.5801 0.0221
0.6704 0.5816 0.0221
0.6917 0.5831 0.0221
0.7130 0.5847 0.0221
0.7341 0.5866 0.0221
0.7550 0.5884 0.0221
0.7752 0.5897 0.0221
0.7949 0.5904 0.0221
0.8146 0.5903 0.0221
0.8349 0.5895 0.0221
0.8563 0.5883 0.0221
0.8802 0.5869 0.0221
0.9095 0.5864 0.0223
0.0214 0.5342 0.0221
0.0647 0.5337 0.0221
0.1385 0.5328 0.0221
0.2086 0.5329 0.0221
0.2686 0.5358 0.0221
0.3060 0.5427 0.0221
0.3355 0.5530 0.0221
0.3640 0.5650 0.0221
0.3922 0.5760 0.0221
0.4206 0.5840 0.0221
0.4491 0.5886 0.0221
0.4773 0.5903 0.0221
0.5041 0.5908 0.0221
0.5290 0.5917 0.0221
0.5520 0.5934 0.0221
0.5734 0.5958 0.0221
0.5939 0.5987 0.0221
0.6139 0.6016 0.0221
0.6340 0.6041 0.0221
0.6544 0.6060 0.0221
0.6749 0.6076 0.0221
0.6956 0.6089 0.0221
0.7164 0.6103 0.0221
0.7370 0.6120 0.0221
0.7576 0.6139 0.0221
0.7779 0.6157 0.0221
0.7979 0.6172 0.0221
0.8181 0.6179 0.0221
0.8389 0.6179 0.0221
0.8605 0.6171 0.0221
0.8845 0.6160 0.0221
0.9137 0.6157 0.0223
0.0214 0.5638 0.0221
0.0653 0.5632 0.0221
0.1406 0.5620 0.0221
0.2120 0.5612 0.0221
0.2733 0.5626 0.0221
0.3113 0.5679 0.0221
0.3409 0.5772 0.0221
0.3691 0.5891 0.0221
0.3966 0.6011 0.0221
0.4242 0.6107 0.0221
0.4521 0.6167 0.0221
0.4801 0.6192 0.0221
0.5074 0.6195 0.0221
0.5330 0.6196 0.0221
0.5568 0.6202 0.0221
0.5788 0.6219 0.0221
0.5994 0.6242 0.0221
0.6193 0.6268 0.0221
0.6391 0.6294 0.0221
0.6590 0.6316 0.0221
0.6791 0.6332 0.0221
0.6993 0.6344 0.0221
0.7196 0.6356 0.0221
0.7397 0.6370 0.0221
0.7599 0.6388 0.0221
0.7800 0.6407 0.0221
0.8001 0.6427 0.0221
0.8206 0.6442 0.0221
0.8417 0.6450 0.0221
0.8637 0.6450 0.0221
0.8880 0.6446 0.0221
0.9172 0.6446 0.0223
0.0214 0.5931 0.0221
0.0659 0.5924 0.0221
0.1425 0.5909 0.0221
0.2151 0.5895 0.0221
0.2775 0.5896 0.0221
0.3162 0.5930 0.0221
0.3461 0.6008 0.0221
0.3742 0.6121 0.0221
0.4009 0.6248 0.0221
0.4274 0.6360 0.0221
0.4543 0.6438 0.0221
0.4817 0.6475 0.0221
0.5090 0.6482 0.0221
0.5352 0.6478 0.0221
0.5598 0.6476 0.0221
0.5825 0.6482 0.0221
0.6036 0.6498 0.0221
0.6237 0.6520 0.0221
0.6434 0.6544 0.0221
0.6630 0.6567 0.0221
0.6828 0.6585 0.0221
0.7027 0.6598 0.0221
0.7226 0.6608 0.0221
0.7424 0.6619 0.0221
0.7621 0.6634 0.0221
0.7819 0.6652 0.0221
0.8018 0.6673 0.0221
0.8223 0.6694 0.0221
0.8437 0.6709 0.0221
0.8659 0.6718 0.0221
0.8904 0.6721 0.0221
0.9198 0.6727 0.0223
0.0214 0.6220 0.0221
0.0664 0.6212 0.0221
0.1442 0.6195 0.0221
0.2179 0.6177 0.0221
0.2813 0.6167 0.0221
0.3208 0.6183 0.0221
0.3512 0.6243 0.0221
0.3792 0.6345 0.0221
0.4055 0.6472 0.0221
0.4308 0.6598 0.0221
0.4563 0.6694 0.0221
0.4825 0.6750 0.0221
0.5093 0.6767 0.0221
0.5358 0.6763 0.0221
0.5610 0.6754 0.0221
0.5846 0.6752 0.0221
0.6064 0.6758 0.0221
0.6270 0.6774 0.0221
0.6468 0.6794 0.0221
0.6663 0.6816 0.0221
0.6858 0.6836 0.0221
0.7054 0.6850 0.0221
0.7251 0.6860 0.0221
0.7447 0.6869 0.0221
0.7642 0.6880 0.0221
0.7837 0.6895 0.0221
0.8034 0.6915 0.0221
0.8238 0.6937 0.0221
0.8451 0.6957 0.0221
0.8675 0.6974 0.0221
0.8922 0.6985 0.0221
0.9216 0.6997 0.0223
0.0214 0.6505 0.0221
0.0669 0.6497 0.0221
0.1459 0.6479 0.0221
0.2206 0.6456 0.0221
0.2849 0.6439 0.0221
0.3250 0.6439 0.0221
0.3560 0.6478 0.0221
0.3844 0.6564 0.0221
0.4103 0.6687 0.0221
0.4346 0.6820 0.0221
0.4585 0.6936 0.0221
0.4832 0.7014 0.0221
0.5088 0.7047 0.0221
0.5350 0.7049 0.0221
0.5607 0.7037 0.0221
0.5850 0.7027 0.0221
0.6078 0.7025 0.0221
0.6291 0.7032 0.0221
0.6492 0.7047 0.0221
0.6687 0.7066 0.0221
0.6880 0.7085 0.0221
0.7074 0.7101 0.0221
0.7270 0.7112 0.0221
0.7465 0.7119 0.0221
0.7660 0.7127 0.0221
0.7854 0.7138 0.0221
0.8050 0.7154 0.0221
0.8251 0.7175 0.0221
0.8464 0.7197 0.0221
0.8688 0.7218 0.0221
0.8936 0.7235 0.0221
0.9230 0.7254 0.0223
0.0214 0.6788 0.0221
0.0674 0.6779 0.0221
0.1475 0.6759 0.0221
0.2232 0.6734 0.0221
0.2882 0.6711 0.0221
0.3289 0.6699 0.0221
0.3606 0.6718 0.0221
0.3895 0.6783 0.0221
0.4154 0.6894 0.0221
0.4388 0.7031 0.0221
0.4612 0.7163 0.0221
0.4840 0.7263 0.0221
0.5081 0.7318 0.0221
0.5333 0.7333 0.0221
0.5590 0.7324 0.0221
0.5841 0.7309 0.0221
0.6077 0.7298 0.0221
0.6298 0.7296 0.0221
0.6505 0.7303 0.0221
0.6703 0.7317 0.0221
0.6896 0.7334 0.0221
0.7087 0.7350 0.0221
0.7281 0.7362 0.0221
0.7476 0.7369 0.0221
0.7671 0.7375 0.0221
0.7866 0.7382 0.0221
0.8062 0.7393 0.0221
0.8264 0.7410 0.0221
0.8476 0.7430 0.0221
0.8701 0.7452 0.0221
0.8949 0.7471 0.0221
0.9243 0.7497 0.0223
0.0214 0.7068 0.0221
0.0678 0.7057 0.0221
0.1491 0.7036 0.0221
0.2256 0.7009 0.0221
0.2913 0.6983 0.0221
0.3323 0.6962 0.0221
0.3647 0.6963 0.0221
0.3944 0.7006 0.0221
0.4207 0.7100 0.0221
0.4437 0.7232 0.0221
0.4647 0.7375 0.0221
0.4855 0.7498 0.0221
0.5076 0.7577 0.0221
0.5314 0.7610 0.0221
0.5566 0.7609 0.0221
0.5819 0.7592 0.0221
0.6064 0.7575 0.0221
0.6294 0.7564 0.0221
0.6509 0.7563 0.0221
0.6711 0.7570 0.0221
0.6905 0.7582 0.0221
0.7095 0.7597 0.0221
0.7286 0.7609 0.0221
0.7479 0.7617 0.0221
0.7675 0.7622 0.0221
0.7871 0.7627 0.0221
0.8070 0.7633 0.0221
0.8274 0.7644 0.0221
0.8488 0.7660 0.0221
0.8713 0.7679 0.0221
0.8962 0.7696 0.0221
0.9257 0.7727 0.0223
0.0214 0.7345 0.0221
0.0683 0.7334 0.0221
0.1506 0.7311 0.0221
0.2279 0.7282 0.0221
0.2941 0.7254 0.0221
0.3354 0.7227 0.0221
0.3682 0.7214 0.0221
0.3989 0.7234 0.0221
0.4259 0.7307 0.0221
0.4490 0.7429 0.0221
0.4691 0.7576 0.0221
0.4880 0.7717 0.0221
0.5079 0.7823 0.0221
0.5298 0.7880 0.0221
0.5538 0.7892 0.0221
0.5790 0.7878 0.0221
0.6039 0.7856 0.0221
0.6279 0.7837 0.0221
0.6503 0.7826 0.0221
0.6711 0.7824 0.0221
0.6908 0.7830 0.0221
0.7098 0.7842 0.0221
0.7287 0.7855 0.0221
0.7477 0.7864 0.0221
0.7672 0.7870 0.0221
0.7869 0.7873 0.0221
0.8069 0.7876 0.0221
0.8277 0.7881 0.0221
0.8494 0.7890 0.0221
0.8723 0.7903 0.0221
0.8975 0.7917 0.0221
0.9270 0.7950 0.0223
0.0214 0.7619 0.0221
0.0687 0.7608 0.0221
0.1519 0.7584 0.0221
0.2300 0.7553 0.0221
0.2967 0.7523 0.0221
0.3381 0.7494 0.0221
0.3713 0.7471 0.0221
0.4028 0.7472 0.0221
0.4309 0.7521 0.0221
0.4545 0.7625 0.0221
0.4742 0.7769 0.0221
0.4917 0.7924 0.0221
0.5093 0.8054 0.0221
0.5288 0.8136 0.0221
0.5512 0.8168 0.0221
0.5756 0.8162 0.0221
0.6007 0.8138 0.0221
0.6253 0.8112 0.0221
0.6486 0.8091 0.0221
0.6704 0.8080 0.0221
0.6906 0.8079 0.0221
0.7098 0.8086 0.0221
0.7285 0.8098 0.0221
0.7472 0.8109 0.0221
0.7663 0.8117 0.0221
0.7858 0.8121 0.0221
0.8060 0.8122 0.0221
0.8271 0.8122 0.0221
0.8493 0.8125 0.0221
0.8727 0.8130 0.0221
0.8983 0.8136 0.0221
0.9281 0.8170 0.0223
0.0214 0.7893 0.0221
0.0691 0.7880 0.0221
0.1533 0.7855 0.0221
0.2320 0.7824 0.0221
0.2991 0.7793 0.0221
0.3405 0.7762 0.0221
0.3738 0.7734 0.0221
0.4060 0.7721 0.0221
0.4354 0.7746 0.0221
0.4601 0.7828 0.0221
0.4799 0.7961 0.0221
0.4964 0.8121 0.0221
0.5119 0.8271 0.0221
0.5290 0.8380 0.0221
0.5490 0.8435 0.0221
0.5721 0.8441 0.0221
0.5969 0.8419 0.0221
0.6219 0.8388 0.0221
0.6460 0.8359 0.0221
0.6688 0.8338 0.0221
0.6898 0.8328 0.0221
0.7095 0.8330 0.0221
0.7282 0.8339 0.0221
0.7465 0.8352 0.0221
0.7651 0.8364 0.0221
0.7842 0.8370 0.0221
0.8043 0.8372 0.0221
0.8256 0.8369 0.0221
0.8483 0.8366 0.0221
0.8723 0.8364 0.0221
0.8984 0.8363 0.0221
0.9286 0.8394 0.0223
0.0214 0.8165 0.0221
0.0695 0.8152 0.0221
0.1545 0.8126 0.0221
0.2338 0.8094 0.0221
0.3012 0.8063 0.0221
0.3426 0.8031 0.0221
0.3759 0.8001 0.0221
0.4085 0.7978 0.0221
0.4391 0.7984 0.0221
0.4652 0.8042 0.0221
0.4859 0.8157 0.0221
0.5020 0.8314 0.0221
0.5158 0.8477 0.0221
0.5303 0.8609 0.0221
0.5478 0.8689 0.0221
0.5689 0.8713 0.0221
0.5929 0.8697 0.0221
0.6179 0.8663 0.0221
0.6426 0.8628 0.0221
0.6663 0.8598 0.0221
0.6884 0.8579 0.0221
0.7089 0.8574 0.0221
0.7279 0.8580 0.0221
0.7460 0.8593 0.0221
0.7640 0.8609 0.0221
0.7825 0.8620 0.0221
0.8021 0.8624 0.0221
0.8234 0.8622 0.0221
0.8464 0.8616 0.0221
0.8709 0.8609 0.0221
0.8976 0.8602 0.0221
0.9283 0.8629 0.0223
0.0214 0.8436 0.0221
0.0698 0.8423 0.0221
0.1555 0.8397 0.0221
0.2354 0.8365 0.0221
