lut/adanmq/Adanmq_Ilford_FP.cube
TITLE "Adanmq_Ilford FP"
LUT_3D_SIZE 5
DOMAIN_MIN 0.000000 0.000000 0.000000
DOMAIN_MAX 0.903226 0.903226 0.903226
0.0222 0.0222 0.0222
0.0354 0.0354 0.0354
0.0542 0.0542 0.0542
0.0676 0.0676 0.0676
0.0818 0.0818 0.0818
0.0726 0.0726 0.0726
0.1022 0.1022 0.1022
0.1144 0.1144 0.1144
0.1362 0.1362 0.1362
0.1715 0.1715 0.1715
0.1240 0.1240 0.1240
0.1483 0.1483 0.1483
0.1691 0.1691 0.1691
0.2183 0.2183 0.2183
0.3286 0.3286 0.3286
0.2070 0.2070 0.2070
0.2268 0.2268 0.2268
0.2958 0.2958 0.2958
0.3723 0.3723 0.3723
0.4913 0.4913 0.4913
0.3161 0.3161 0.3161
0.3421 0.3421 0.3421
0.4677 0.4677 0.4677
0.5804 0.5804 0.5804
0.7141 0.7141 0.7141
0.0239 0.0239 0.0239
0.0740 0.0740 0.0740
0.0954 0.0954 0.0954
0.0922 0.0922 0.0922
0.1003 0.1003 0.1003
0.0911 0.0911 0.0911
0.1291 0.1291 0.1291
0.1386 0.1386 0.1386
0.1823 0.1823 0.1823
0.2491 0.2491 0.2491
0.1370 0.1370 0.1370
0.1619 0.1619 0.1619
0.2270 0.2270 0.2270
0.2846 0.2846 0.2846
0.3785 0.3785 0.3785
0.2123 0.2123 0.2123
0.2257 0.2257 0.2257
0.3451 0.3451 0.3451
0.4244 0.4244 0.4244
0.5580 0.5580 0.5580
0.3208 0.3208 0.3208
0.3608 0.3608 0.3608
0.4538 0.4538 0.4538
0.6136 0.6136 0.6136
0.7421 0.7421 0.7421
0.0506 0.0506 0.0506
0.1357 0.1357 0.1357
0.2205 0.2205 0.2205
0.2162 0.2162 0.2162
0.2176 0.2176 0.2176
0.1320 0.1320 0.1320
0.1961 0.1961 0.1961
0.2579 0.2579 0.2579
0.2917 0.2917 0.2917
0.3484 0.3484 0.3484
0.1671 0.1671 0.1671
0.2316 0.2316 0.2316
0.3471 0.3471 0.3471
0.3569 0.3569 0.3569
0.4659 0.4659 0.4659
0.2496 0.2496 0.2496
0.3046 0.3046 0.3046
0.4053 0.4053 0.4053
0.5324 0.5324 0.5324
0.6255 0.6255 0.6255
0.4089 0.4089 0.4089
0.4359 0.4359 0.4359
0.5141 0.5141 0.5141
0.6953 0.6953 0.6953
0.7996 0.7996 0.7996
0.0914 0.0914 0.0914
0.1767 0.1767 0.1767
0.3557 0.3557 0.3557
0.4297 0.4297 0.4297
0.3770 0.3770 0.3770
0.2286 0.2286 0.2286
0.3172 0.3172 0.3172
0.4057 0.4057 0.4057
0.5026 0.5026 0.5026
0.5128 0.5128 0.5128
0.2560 0.2560 0.2560
0.3618 0.3618 0.3618
0.4772 0.4772 0.4772
0.5410 0.5410 0.5410
0.5928 0.5928 0.5928
0.3245 0.3245 0.3245
0.4189 0.4189 0.4189
0.5320 0.5320 0.5320
0.6408 0.6408 0.6408
0.6937 0.6937 0.6937
0.4705 0.4705 0.4705
0.5330 0.5330 0.5330
0.6381 0.6381 0.6381
0.7483 0.7483 0.7483
0.8698 0.8698 0.8698
0.1679 0.1679 0.1679
0.2441 0.2441 0.2441
0.4207 0.4207 0.4207
0.5156 0.5156 0.5156
0.5806 0.5806 0.5806
0.3575 0.3575 0.3575
0.4430 0.4430 0.4430
0.5004 0.5004 0.5004
0.6642 0.6642 0.6642
0.7360 0.7360 0.7360
0.4123 0.4123 0.4123
0.5624 0.5624 0.5624
0.6298 0.6298 0.6298
0.6866 0.6866 0.6866
0.7776 0.7776 0.7776
0.4652 0.4652 0.4652
0.5970 0.5970 0.5970
0.6827 0.6827 0.6827
0.7605 0.7605 0.7605
0.8202 0.8202 0.8202
0.5596 0.5596 0.5596
0.6555 0.6555 0.6555
0.7647 0.7647 0.7647
0.8443 0.8443 0.8443
0.9007 0.9007 0.9007
