lut/adanmq/Adanmq_Fujifilm_Superia_Xtra_400.cube
TITLE "Adanmq_Fujifilm Superia Xtra 400"
LUT_3D_SIZE 5
DOMAIN_MIN 0.000000 0.000000 0.000000
DOMAIN_MAX 0.903226 0.903226 0.903226
0.0214 0.0223 0.0221
0.1615 0.0224 0.0220
0.3211 0.0227 0.0221
0.5410 0.0228 0.0220
0.7809 0.0226 0.0216
0.0214 0.1634 0.0220
0.1946 0.1870 0.0222
0.3790 0.2110 0.0223
0.5932 0.2216 0.0225
0.7960 0.2177 0.0223
0.0214 0.3248 0.0218
0.2455 0.3694 0.0222
0.4493 0.4113 0.0226
0.6659 0.4393 0.0227
0.8375 0.4393 0.0227
0.0215 0.5332 0.0214
0.2910 0.5603 0.0215
0.5107 0.6454 0.0224
0.7090 0.6740 0.0228
0.8795 0.6900 0.0229
0.0215 0.7697 0.0210
0.3335 0.7787 0.0208
0.5328 0.8728 0.0221
0.7403 0.8917 0.0224
0.8885 0.9043 0.0231
0.0214 0.0221 0.1590
0.1606 0.0225 0.1851
0.3263 0.0227 0.1956
0.5560 0.0227 0.1907
0.7943 0.0225 0.1752
0.0214 0.1476 0.1438
0.1784 0.1848 0.1689
0.3703 0.2003 0.1765
0.5805 0.2242 0.1892
0.7776 0.2281 0.1822
0.0215 0.3053 0.1450
0.2504 0.3418 0.1799
0.4384 0.4052 0.1996
0.6478 0.4352 0.2026
0.8327 0.4410 0.2266
0.0215 0.5215 0.1476
0.3088 0.5431 0.1626
0.5266 0.6302 0.2193
0.7346 0.6648 0.2444
0.8742 0.6945 0.2770
0.0215 0.7736 0.1528
0.3539 0.7853 0.1444
0.5931 0.8107 0.1518
0.7524 0.8754 0.2485
0.9129 0.8795 0.2976
0.0214 0.0219 0.3065
0.1385 0.0225 0.3906
0.3058 0.0229 0.4411
0.5292 0.0229 0.4730
0.7747 0.0225 0.4375
0.0214 0.1441 0.2999
0.1708 0.1800 0.3536
0.3366 0.2103 0.3939
0.5527 0.2405 0.4230
0.7770 0.2370 0.4231
0.0215 0.2746 0.2834
0.2239 0.3355 0.3345
0.3973 0.3926 0.3801
0.6265 0.4136 0.3833
0.8141 0.4301 0.4143
0.0215 0.4926 0.2867
0.2975 0.5388 0.3185
0.4895 0.6007 0.3711
0.6907 0.6562 0.4252
0.8529 0.6742 0.4349
0.0216 0.7306 0.2831
0.3612 0.7700 0.3248
0.6104 0.7971 0.3428
0.7694 0.8646 0.4785
0.9279 0.8728 0.5312
0.0213 0.0215 0.5270
0.1705 0.0218 0.5714
0.2663 0.0231 0.6974
0.4703 0.0230 0.6904
0.7178 0.0228 0.7321
0.0213 0.1545 0.5312
0.1647 0.1704 0.5723
0.2987 0.2239 0.6508
0.5048 0.2610 0.6797
0.7357 0.2618 0.7051
0.0214 0.2606 0.5040
0.2016 0.3129 0.5579
0.3683 0.3798 0.6116
0.5864 0.4143 0.6444
0.7842 0.4298 0.6659
0.0215 0.4388 0.4822
0.2772 0.5056 0.5341
0.4561 0.5876 0.5921
0.6485 0.6337 0.6361
0.8414 0.6455 0.6494
0.0216 0.7057 0.5018
0.3540 0.7425 0.5288
0.5682 0.7968 0.5803
0.7482 0.8381 0.6340
0.8930 0.8789 0.7100
0.0212 0.0210 0.7560
0.1687 0.0208 0.7540
0.2476 0.0229 0.8983
0.4417 0.0231 0.8894
0.6658 0.0230 0.8761
0.0212 0.1577 0.7539
0.1455 0.1463 0.7544
0.3002 0.1856 0.8264
0.4537 0.2929 0.8827
0.6712 0.2926 0.8649
0.0213 0.2753 0.7584
0.1652 0.3070 0.7707
0.3175 0.3523 0.7964
0.5286 0.4044 0.8459
0.7554 0.4533 0.8704
0.0214 0.4289 0.7237
0.2351 0.4658 0.7506
0.4105 0.5421 0.7914
0.6197 0.6086 0.8287
0.8210 0.6409 0.8581
0.0215 0.6647 0.7194
0.3148 0.6862 0.7381
0.5216 0.7605 0.7926
0.7228 0.8256 0.8383
0.8828 0.8713 0.8706
