lut/adanmq/Adanmq_Ilford_FP.cube
TITLE "Adanmq_Ilford FP"
LUT_3D_SIZE 8
DOMAIN_MIN 0.000000 0.000000 0.000000
DOMAIN_MAX 0.903226 0.903226 0.903226
0.0222 0.0222 0.0222
0.0322 0.0322 0.0322
0.0364 0.0364 0.0364
0.0460 0.0460 0.0460
0.0604 0.0604 0.0604
0.0665 0.0665 0.0665
0.0716 0.0716 0.0716
0.0818 0.0818 0.0818
0.0813 0.0813 0.0813
0.0828 0.0828 0.0828
0.0862 0.0862 0.0862
0.0891 0.0891 0.0891
0.0974 0.0974 0.0974
0.1056 0.1056 0.1056
0.1202 0.1202 0.1202
0.1434 0.1434 0.1434
0.0677 0.0677 0.0677
0.0922 0.0922 0.0922
0.1066 0.1066 0.1066
0.1142 0.1142 0.1142
0.1285 0.1285 0.1285
0.1447 0.1447 0.1447
0.1635 0.1635 0.1635
0.1864 0.1864 0.1864
0.1016 0.1016 0.1016
0.1180 0.1180 0.1180
0.1316 0.1316 0.1316
0.1382 0.1382 0.1382
0.1610 0.1610 0.1610
0.1881 0.1881 0.1881
0.2254 0.2254 0.2254
0.2773 0.2773 0.2773
0.1448 0.1448 0.1448
0.1530 0.1530 0.1530
0.1747 0.1747 0.1747
0.1884 0.1884 0.1884
0.2092 0.2092 0.2092
0.2384 0.2384 0.2384
0.2898 0.2898 0.2898
0.3771 0.3771 0.3771
0.1933 0.1933 0.1933
0.1979 0.1979 0.1979
0.2257 0.2257 0.2257
0.2610 0.2610 0.2610
0.2885 0.2885 0.2885
0.3314 0.3314 0.3314
0.3821 0.3821 0.3821
0.4662 0.4662 0.4662
0.2508 0.2508 0.2508
0.2550 0.2550 0.2550
0.2773 0.2773 0.2773
0.3424 0.3424 0.3424
0.3909 0.3909 0.3909
0.4441 0.4441 0.4441
0.5119 0.5119 0.5119
0.5818 0.5818 0.5818
0.3161 0.3161 0.3161
0.3253 0.3253 0.3253
0.3491 0.3491 0.3491
0.4200 0.4200 0.4200
0.5033 0.5033 0.5033
0.5648 0.5648 0.5648
0.6343 0.6343 0.6343
0.7141 0.7141 0.7141
0.0187 0.0187 0.0187
0.0380 0.0380 0.0380
0.0544 0.0544 0.0544
0.0648 0.0648 0.0648
0.0670 0.0670 0.0670
0.0745 0.0745 0.0745
0.0806 0.0806 0.0806
0.0910 0.0910 0.0910
0.0740 0.0740 0.0740
0.0873 0.0873 0.0873
0.0939 0.0939 0.0939
0.1010 0.1010 0.1010
0.1138 0.1138 0.1138
0.1326 0.1326 0.1326
0.1481 0.1481 0.1481
0.1643 0.1643 0.1643
0.0850 0.0850 0.0850
0.1085 0.1085 0.1085
0.1263 0.1263 0.1263
0.1313 0.1313 0.1313
0.1431 0.1431 0.1431
0.1641 0.1641 0.1641
0.1903 0.1903 0.1903
0.2302 0.2302 0.2302
0.1058 0.1058 0.1058
0.1164 0.1164 0.1164
0.1448 0.1448 0.1448
0.1613 0.1613 0.1613
0.1876 0.1876 0.1876
0.2178 0.2178 0.2178
0.2545 0.2545 0.2545
0.3010 0.3010 0.3010
0.1433 0.1433 0.1433
0.1493 0.1493 0.1493
0.1827 0.1827 0.1827
0.2071 0.2071 0.2071
0.2320 0.2320 0.2320
0.2738 0.2738 0.2738
0.3305 0.3305 0.3305
0.4040 0.4040 0.4040
0.1889 0.1889 0.1889
0.1933 0.1933 0.1933
0.2192 0.2192 0.2192
0.2766 0.2766 0.2766
0.3066 0.3066 0.3066
0.3570 0.3570 0.3570
0.4143 0.4143 0.4143
0.4963 0.4963 0.4963
0.2457 0.2457 0.2457
0.2515 0.2515 0.2515
0.2721 0.2721 0.2721
0.3331 0.3331 0.3331
0.4067 0.4067 0.4067
0.4627 0.4627 0.4627
0.5249 0.5249 0.5249
0.5957 0.5957 0.5957
0.3151 0.3151 0.3151
0.3284 0.3284 0.3284
0.3568 0.3568 0.3568
0.4044 0.4044 0.4044
0.5076 0.5076 0.5076
0.5849 0.5849 0.5849
0.6480 0.6480 0.6480
0.7195 0.7195 0.7195
0.0278 0.0278 0.0278
0.0595 0.0595 0.0595
0.0901 0.0901 0.0901
0.0983 0.0983 0.0983
0.1103 0.1103 0.1103
0.1064 0.1064 0.1064
0.1048 0.1048 0.1048
0.1071 0.1071 0.1071
0.0815 0.0815 0.0815
0.0987 0.0987 0.0987
0.1161 0.1161 0.1161
0.1414 0.1414 0.1414
0.1563 0.1563 0.1563
0.1646 0.1646 0.1646
0.1777 0.1777 0.1777
0.1919 0.1919 0.1919
0.0959 0.0959 0.0959
0.1240 0.1240 0.1240
0.1485 0.1485 0.1485
0.1539 0.1539 0.1539
0.1600 0.1600 0.1600
0.1901 0.1901 0.1901
0.2328 0.2328 0.2328
0.2822 0.2822 0.2822
0.1180 0.1180 0.1180
0.1338 0.1338 0.1338
0.1823 0.1823 0.1823
0.2159 0.2159 0.2159
0.2222 0.2222 0.2222
0.2498 0.2498 0.2498
0.2903 0.2903 0.2903
0.3487 0.3487 0.3487
0.1632 0.1632 0.1632
0.1675 0.1675 0.1675
0.1884 0.1884 0.1884
0.2437 0.2437 0.2437
0.2830 0.2830 0.2830
0.3227 0.3227 0.3227
0.3710 0.3710 0.3710
0.4391 0.4391 0.4391
0.2116 0.2116 0.2116
0.2065 0.2065 0.2065
0.2240 0.2240 0.2240
0.2973 0.2973 0.2973
0.3551 0.3551 0.3551
0.3998 0.3998 0.3998
0.4639 0.4639 0.4639
0.5442 0.5442 0.5442
0.2617 0.2617 0.2617
0.2618 0.2618 0.2618
0.2882 0.2882 0.2882
0.3497 0.3497 0.3497
0.4479 0.4479 0.4479
0.4927 0.4927 0.4927
0.5603 0.5603 0.5603
0.6435 0.6435 0.6435
0.3272 0.3272 0.3272
0.3405 0.3405 0.3405
0.3762 0.3762 0.3762
0.4241 0.4241 0.4241
0.5149 0.5149 0.5149
0.6051 0.6051 0.6051
0.6704 0.6704 0.6704
0.7509 0.7509 0.7509
0.0434 0.0434 0.0434
0.0788 0.0788 0.0788
0.1354 0.1354 0.1354
0.1674 0.1674 0.1674
0.1518 0.1518 0.1518
0.1832 0.1832 0.1832
0.1829 0.1829 0.1829
0.1625 0.1625 0.1625
0.1048 0.1048 0.1048
0.1307 0.1307 0.1307
0.1651 0.1651 0.1651
0.2056 0.2056 0.2056
0.2018 0.2018 0.2018
0.2365 0.2365 0.2365
0.2538 0.2538 0.2538
0.2501 0.2501 0.2501
0.1168 0.1168 0.1168
0.1599 0.1599 0.1599
0.1789 0.1789 0.1789
0.1996 0.1996 0.1996
0.2143 0.2143 0.2143
0.2431 0.2431 0.2431
0.2827 0.2827 0.2827
0.3309 0.3309 0.3309
0.1366 0.1366 0.1366
0.1616 0.1616 0.1616
0.2166 0.2166 0.2166
0.2637 0.2637 0.2637
0.2704 0.2704 0.2704
0.2838 0.2838 0.2838
0.3364 0.3364 0.3364
0.4102 0.4102 0.4102
0.1709 0.1709 0.1709
0.1940 0.1940 0.1940
0.2263 0.2263 0.2263
0.3188 0.3188 0.3188
0.3617 0.3617 0.3617
0.3719 0.3719 0.3719
0.4152 0.4152 0.4152
0.4795 0.4795 0.4795
0.2264 0.2264 0.2264
0.2477 0.2477 0.2477
0.2656 0.2656 0.2656
0.3183 0.3183 0.3183
0.4125 0.4125 0.4125
0.4684 0.4684 0.4684
0.5153 0.5153 0.5153
0.5769 0.5769 0.5769
0.3059 0.3059 0.3059
0.3138 0.3138 0.3138
0.3225 0.3225 0.3225
0.3657 0.3657 0.3657
0.4733 0.4733 0.4733
0.5529 0.5529 0.5529
0.6098 0.6098 0.6098
0.6845 0.6845 0.6845
0.3924 0.3924 0.3924
0.3931 0.3931 0.3931
0.4114 0.4114 0.4114
0.4647 0.4647 0.4647
0.5457 0.5457 0.5457
0.6545 0.6545 0.6545
0.7091 0.7091 0.7091
0.7783 0.7783 0.7783
0.0589 0.0589 0.0589
0.0902 0.0902 0.0902
0.1738 0.1738 0.1738
0.2522 0.2522 0.2522
0.2827 0.2827 0.2827
0.2445 0.2445 0.2445
0.2721 0.2721 0.2721
0.2866 0.2866 0.2866
0.1343 0.1343 0.1343
0.1628 0.1628 0.1628
0.2000 0.2000 0.2000
0.2844 0.2844 0.2844
0.3180 0.3180 0.3180
0.2891 0.2891 0.2891
0.3408 0.3408 0.3408
0.3618 0.3618 0.3618
0.1541 0.1541 0.1541
0.2082 0.2082 0.2082
0.2442 0.2442 0.2442
0.2858 0.2858 0.2858
0.3241 0.3241 0.3241
0.3331 0.3331 0.3331
0.3768 0.3768 0.3768
0.4135 0.4135 0.4135
0.1717 0.1717 0.1717
0.2188 0.2188 0.2188
0.2830 0.2830 0.2830
0.3183 0.3183 0.3183
0.3515 0.3515 0.3515
0.3659 0.3659 0.3659
0.4006 0.4006 0.4006
0.4618 0.4618 0.4618
0.2014 0.2014 0.2014
0.2396 0.2396 0.2396
0.2895 0.2895 0.2895
0.3723 0.3723 0.3723
0.4352 0.4352 0.4352
0.4420 0.4420 0.4420
0.4596 0.4596 0.4596
0.5272 0.5272 0.5272
0.2488 0.2488 0.2488
0.2782 0.2782 0.2782
0.3254 0.3254 0.3254
0.3878 0.3878 0.3878
0.4914 0.4914 0.4914
0.5343 0.5343 0.5343
0.5615 0.5615 0.5615
0.6166 0.6166 0.6166
0.3222 0.3222 0.3222
0.3536 0.3536 0.3536
0.3970 0.3970 0.3970
0.4327 0.4327 0.4327
0.5068 0.5068 0.5068
0.6055 0.6055 0.6055
0.6746 0.6746 0.6746
0.7327 0.7327 0.7327
0.4205 0.4205 0.4205
0.4547 0.4547 0.4547
0.4794 0.4794 0.4794
0.5090 0.5090 0.5090
0.5701 0.5701 0.5701
0.6804 0.6804 0.6804
0.7702 0.7702 0.7702
0.8253 0.8253 0.8253
0.0832 0.0832 0.0832
0.1165 0.1165 0.1165
0.2029 0.2029 0.2029
0.3099 0.3099 0.3099
0.3746 0.3746 0.3746
0.4032 0.4032 0.4032
0.3520 0.3520 0.3520
0.3639 0.3639 0.3639
0.1742 0.1742 0.1742
0.2097 0.2097 0.2097
0.2466 0.2466 0.2466
0.3472 0.3472 0.3472
0.4354 0.4354 0.4354
0.4529 0.4529 0.4529
0.4078 0.4078 0.4078
0.4547 0.4547 0.4547
0.2154 0.2154 0.2154
0.2747 0.2747 0.2747
0.3218 0.3218 0.3218
0.3616 0.3616 0.3616
0.4305 0.4305 0.4305
0.4761 0.4761 0.4761
0.4593 0.4593 0.4593
0.5086 0.5086 0.5086
0.2259 0.2259 0.2259
0.2863 0.2863 0.2863
0.3445 0.3445 0.3445
0.4081 0.4081 0.4081
0.4520 0.4520 0.4520
0.4908 0.4908 0.4908
0.5048 0.5048 0.5048
0.5530 0.5530 0.5530
0.2571 0.2571 0.2571
0.3117 0.3117 0.3117
0.3795 0.3795 0.3795
0.4507 0.4507 0.4507
0.4907 0.4907 0.4907
0.5265 0.5265 0.5265
0.5467 0.5467 0.5467
0.5931 0.5931 0.5931
0.2950 0.2950 0.2950
0.3431 0.3431 0.3431
0.4014 0.4014 0.4014
0.4682 0.4682 0.4682
0.5407 0.5407 0.5407
0.6027 0.6027 0.6027
0.6196 0.6196 0.6196
0.6576 0.6576 0.6576
0.3716 0.3716 0.3716
0.3978 0.3978 0.3978
0.4487 0.4487 0.4487
0.5125 0.5125 0.5125
0.5801 0.5801 0.5801
0.6673 0.6673 0.6673
0.7203 0.7203 0.7203
0.7640 0.7640 0.7640
0.4552 0.4552 0.4552
0.4879 0.4879 0.4879
0.5381 0.5381 0.5381
0.5979 0.5979 0.5979
0.6361 0.6361 0.6361
0.7067 0.7067 0.7067
0.8087 0.8087 0.8087
0.8643 0.8643 0.8643
0.1208 0.1208 0.1208
0.1593 0.1593 0.1593
0.2220 0.2220 0.2220
0.3507 0.3507 0.3507
0.4170 0.4170 0.4170
0.4706 0.4706 0.4706
0.5007 0.5007 0.5007
0.4495 0.4495 0.4495
0.2235 0.2235 0.2235
0.2649 0.2649 0.2649
0.3082 0.3082 0.3082
0.3954 0.3954 0.3954
0.5002 0.5002 0.5002
0.5599 0.5599 0.5599
0.5832 0.5832 0.5832
0.5420 0.5420 0.5420
0.2973 0.2973 0.2973
0.3566 0.3566 0.3566
0.4050 0.4050 0.4050
0.4216 0.4216 0.4216
0.4931 0.4931 0.4931
0.5778 0.5778 0.5778
0.6063 0.6063 0.6063
0.5837 0.5837 0.5837
0.3139 0.3139 0.3139
0.3852 0.3852 0.3852
0.4606 0.4606 0.4606
0.4947 0.4947 0.4947
0.5391 0.5391 0.5391
0.5938 0.5938 0.5938
0.6441 0.6441 0.6441
0.6488 0.6488 0.6488
0.3268 0.3268 0.3268
0.4034 0.4034 0.4034
0.4611 0.4611 0.4611
0.5164 0.5164 0.5164
0.5805 0.5805 0.5805
0.6219 0.6219 0.6219
0.6672 0.6672 0.6672
0.6947 0.6947 0.6947
0.3722 0.3722 0.3722
0.4310 0.4310 0.4310
0.5006 0.5006 0.5006
0.5656 0.5656 0.5656
0.6147 0.6147 0.6147
0.6480 0.6480 0.6480
0.6864 0.6864 0.6864
0.7346 0.7346 0.7346
0.4220 0.4220 0.4220
0.4688 0.4688 0.4688
0.5339 0.5339 0.5339
0.5956 0.5956 0.5956
0.6610 0.6610 0.6610
0.7151 0.7151 0.7151
0.7621 0.7621 0.7621
0.8017 0.8017 0.8017
0.5180 0.5180 0.5180
0.5503 0.5503 0.5503
0.5912 0.5912 0.5912
0.6522 0.6522 0.6522
0.7182 0.7182 0.7182
0.7761 0.7761 0.7761
0.8462 0.8462 0.8462
0.8859 0.8859 0.8859
0.1679 0.1679 0.1679
0.2096 0.2096 0.2096
0.2577 0.2577 0.2577
0.3678 0.3678 0.3678
0.4520 0.4520 0.4520
0.5030 0.5030 0.5030
0.5528 0.5528 0.5528
0.5806 0.5806 0.5806
0.2752 0.2752 0.2752
0.3190 0.3190 0.3190
0.3674 0.3674 0.3674
0.4381 0.4381 0.4381
0.5398 0.5398 0.5398
0.5991 0.5991 0.5991
0.6487 0.6487 0.6487
0.6753 0.6753 0.6753
0.3791 0.3791 0.3791
0.4330 0.4330 0.4330
0.4819 0.4819 0.4819
0.5008 0.5008 0.5008
0.5377 0.5377 0.5377
0.6452 0.6452 0.6452
0.7171 0.7171 0.7171
0.7465 0.7465 0.7465
0.4114 0.4114 0.4114
0.4877 0.4877 0.4877
0.5679 0.5679 0.5679
0.5892 0.5892 0.5892
0.5884 0.5884 0.5884
0.6411 0.6411 0.6411
0.7203 0.7203 0.7203
0.7540 0.7540 0.7540
0.4070 0.4070 0.4070
0.5011 0.5011 0.5011
0.5887 0.5887 0.5887
0.6387 0.6387 0.6387
0.6649 0.6649 0.6649
0.7045 0.7045 0.7045
0.7564 0.7564 0.7564
0.8019 0.8019 0.8019
0.4462 0.4462 0.4462
0.5189 0.5189 0.5189
0.6114 0.6114 0.6114
0.6503 0.6503 0.6503
0.6950 0.6950 0.6950
0.7447 0.7447 0.7447
0.7764 0.7764 0.7764
0.8177 0.8177 0.8177
0.5049 0.5049 0.5049
0.5617 0.5617 0.5617
0.6345 0.6345 0.6345
0.6979 0.6979 0.6979
0.7541 0.7541 0.7541
0.7892 0.7892 0.7892
0.8040 0.8040 0.8040
0.8363 0.8363 0.8363
0.5596 0.5596 0.5596
0.6106 0.6106 0.6106
0.6711 0.6711 0.6711
0.7344 0.7344 0.7344
0.7923 0.7923 0.7923
0.8348 0.8348 0.8348
0.8726 0.8726 0.8726
0.9007 0.9007 0.9007
