lut/adanmq/Adanmq_Kodak_T-Maxx_100.cube
TITLE "Adanmq_Kodak T-Maxx 100"
LUT_3D_SIZE 32
0.0223 0.0223 0.0223
0.0281 0.0281 0.0281
0.0326 0.0326 0.0326
0.0362 0.0362 0.0362
0.0396 0.0396 0.0396
0.0431 0.0431 0.0431
0.0468 0.0468 0.0468
0.0505 0.0505 0.0505
0.0544 0.0544 0.0544
0.0582 0.0582 0.0582
0.0620 0.0620 0.0620
0.0657 0.0657 0.0657
0.0693 0.0693 0.0693
0.0728 0.0728 0.0728
0.0764 0.0764 0.0764
0.0799 0.0799 0.0799
0.0833 0.0833 0.0833
0.0868 0.0868 0.0868
0.0902 0.0902 0.0902
0.0936 0.0936 0.0936
0.0968 0.0968 0.0968
0.0999 0.0999 0.0999
0.1029 0.1029 0.1029
0.1058 0.1058 0.1058
0.1086 0.1086 0.1086
0.1114 0.1114 0.1114
0.1142 0.1142 0.1142
0.1172 0.1172 0.1172
0.1204 0.1204 0.1204
0.1238 0.1238 0.1238
0.1277 0.1277 0.1277
0.1336 0.1336 0.1336
0.0414 0.0414 0.0414
0.0472 0.0472 0.0472
0.0516 0.0516 0.0516
0.0550 0.0550 0.0550
0.0583 0.0583 0.0583
0.0616 0.0616 0.0616
0.0651 0.0651 0.0651
0.0688 0.0688 0.0688
0.0725 0.0725 0.0725
0.0763 0.0763 0.0763
0.0800 0.0800 0.0800
0.0838 0.0838 0.0838
0.0875 0.0875 0.0875
0.0911 0.0911 0.0911
0.0947 0.0947 0.0947
0.0983 0.0983 0.0983
0.1018 0.1018 0.1018
0.1053 0.1053 0.1053
0.1088 0.1088 0.1088
0.1123 0.1123 0.1123
0.1157 0.1157 0.1157
0.1191 0.1191 0.1191
0.1223 0.1223 0.1223
0.1254 0.1254 0.1254
0.1284 0.1284 0.1284
0.1314 0.1314 0.1314
0.1345 0.1345 0.1345
0.1376 0.1376 0.1376
0.1411 0.1411 0.1411
0.1446 0.1446 0.1446
0.1487 0.1487 0.1487
0.1546 0.1546 0.1546
0.0576 0.0576 0.0576
0.0633 0.0633 0.0633
0.0676 0.0676 0.0676
0.0709 0.0709 0.0709
0.0740 0.0740 0.0740
0.0771 0.0771 0.0771
0.0803 0.0803 0.0803
0.0837 0.0837 0.0837
0.0872 0.0872 0.0872
0.0908 0.0908 0.0908
0.0945 0.0945 0.0945
0.0981 0.0981 0.0981
0.1019 0.1019 0.1019
0.1057 0.1057 0.1057
0.1094 0.1094 0.1094
0.1131 0.1131 0.1131
0.1167 0.1167 0.1167
0.1203 0.1203 0.1203
0.1239 0.1239 0.1239
0.1276 0.1276 0.1276
0.1313 0.1313 0.1313
0.1350 0.1350 0.1350
0.1387 0.1387 0.1387
0.1424 0.1424 0.1424
0.1461 0.1461 0.1461
0.1498 0.1498 0.1498
0.1534 0.1534 0.1534
0.1573 0.1573 0.1573
0.1613 0.1613 0.1613
0.1654 0.1654 0.1654
0.1700 0.1700 0.1700
0.1762 0.1762 0.1762
0.0703 0.0703 0.0703
0.0761 0.0761 0.0761
0.0804 0.0804 0.0804
0.0838 0.0838 0.0838
0.0869 0.0869 0.0869
0.0899 0.0899 0.0899
0.0930 0.0930 0.0930
0.0962 0.0962 0.0962
0.0994 0.0994 0.0994
0.1027 0.1027 0.1027
0.1061 0.1061 0.1061
0.1096 0.1096 0.1096
0.1133 0.1133 0.1133
0.1171 0.1171 0.1171
0.1209 0.1209 0.1209
0.1247 0.1247 0.1247
0.1285 0.1285 0.1285
0.1322 0.1322 0.1322
0.1360 0.1360 0.1360
0.1398 0.1398 0.1398
0.1437 0.1437 0.1437
0.1478 0.1478 0.1478
0.1520 0.1520 0.1520
0.1563 0.1563 0.1563
0.1609 0.1609 0.1609
0.1654 0.1654 0.1654
0.1702 0.1702 0.1702
0.1750 0.1750 0.1750
0.1800 0.1800 0.1800
0.1851 0.1851 0.1851
0.1906 0.1906 0.1906
0.1972 0.1972 0.1972
0.0813 0.0813 0.0813
0.0872 0.0872 0.0872
0.0918 0.0918 0.0918
0.0954 0.0954 0.0954
0.0987 0.0987 0.0987
0.1019 0.1019 0.1019
0.1050 0.1050 0.1050
0.1081 0.1081 0.1081
0.1112 0.1112 0.1112
0.1143 0.1143 0.1143
0.1174 0.1174 0.1174
0.1207 0.1207 0.1207
0.1242 0.1242 0.1242
0.1279 0.1279 0.1279
0.1318 0.1318 0.1318
0.1357 0.1357 0.1357
0.1397 0.1397 0.1397
0.1436 0.1436 0.1436
0.1476 0.1476 0.1476
0.1515 0.1515 0.1515
0.1556 0.1556 0.1556
0.1599 0.1599 0.1599
0.1644 0.1644 0.1644
0.1693 0.1693 0.1693
0.1745 0.1745 0.1745
0.1799 0.1799 0.1799
0.1855 0.1855 0.1855
0.1914 0.1914 0.1914
0.1975 0.1975 0.1975
0.2038 0.2038 0.2038
0.2103 0.2103 0.2103
0.2175 0.2175 0.2175
0.0910 0.0910 0.0910
0.0969 0.0969 0.0969
0.1018 0.1018 0.1018
0.1058 0.1058 0.1058
0.1094 0.1094 0.1094
0.1128 0.1128 0.1128
0.1161 0.1161 0.1161
0.1193 0.1193 0.1193
0.1225 0.1225 0.1225
0.1256 0.1256 0.1256
0.1286 0.1286 0.1286
0.1317 0.1317 0.1317
0.1350 0.1350 0.1350
0.1386 0.1386 0.1386
0.1425 0.1425 0.1425
0.1466 0.1466 0.1466
0.1509 0.1509 0.1509
0.1552 0.1552 0.1552
0.1595 0.1595 0.1595
0.1637 0.1637 0.1637
0.1680 0.1680 0.1680
0.1725 0.1725 0.1725
0.1773 0.1773 0.1773
0.1824 0.1824 0.1824
0.1880 0.1880 0.1880
0.1939 0.1939 0.1939
0.2002 0.2002 0.2002
0.2070 0.2070 0.2070
0.2141 0.2141 0.2141
0.2216 0.2216 0.2216
0.2292 0.2292 0.2292
0.2370 0.2370 0.2370
0.1000 0.1000 0.1000
0.1060 0.1060 0.1060
0.1110 0.1110 0.1110
0.1153 0.1153 0.1153
0.1193 0.1193 0.1193
0.1229 0.1229 0.1229
0.1264 0.1264 0.1264
0.1298 0.1298 0.1298
0.1331 0.1331 0.1331
0.1364 0.1364 0.1364
0.1395 0.1395 0.1395
0.1427 0.1427 0.1427
0.1460 0.1460 0.1460
0.1496 0.1496 0.1496
0.1536 0.1536 0.1536
0.1579 0.1579 0.1579
0.1625 0.1625 0.1625
0.1673 0.1673 0.1673
0.1721 0.1721 0.1721
0.1769 0.1769 0.1769
0.1816 0.1816 0.1816
0.1865 0.1865 0.1865
0.1915 0.1915 0.1915
0.1969 0.1969 0.1969
0.2027 0.2027 0.2027
0.2089 0.2089 0.2089
0.2156 0.2156 0.2156
0.2230 0.2230 0.2230
0.2309 0.2309 0.2309
0.2394 0.2394 0.2394
0.2481 0.2481 0.2481
0.2563 0.2563 0.2563
0.1089 0.1089 0.1089
0.1147 0.1147 0.1147
0.1198 0.1198 0.1198
0.1244 0.1244 0.1244
0.1287 0.1287 0.1287
0.1326 0.1326 0.1326
0.1363 0.1363 0.1363
0.1398 0.1398 0.1398
0.1433 0.1433 0.1433
0.1469 0.1469 0.1469
0.1504 0.1504 0.1504
0.1538 0.1538 0.1538
0.1573 0.1573 0.1573
0.1610 0.1610 0.1610
0.1652 0.1652 0.1652
0.1698 0.1698 0.1698
0.1748 0.1748 0.1748
0.1801 0.1801 0.1801
0.1855 0.1855 0.1855
0.1910 0.1910 0.1910
0.1964 0.1964 0.1964
0.2018 0.2018 0.2018
0.2074 0.2074 0.2074
0.2131 0.2131 0.2131
0.2192 0.2192 0.2192
0.2257 0.2257 0.2257
0.2328 0.2328 0.2328
0.2407 0.2407 0.2407
0.2492 0.2492 0.2492
0.2586 0.2586 0.2586
0.2680 0.2680 0.2680
0.2763 0.2763 0.2763
0.1179 0.1179 0.1179
0.1237 0.1237 0.1237
0.1287 0.1287 0.1287
0.1335 0.1335 0.1335
0.1381 0.1381 0.1381
0.1424 0.1424 0.1424
0.1462 0.1462 0.1462
0.1498 0.1498 0.1498
0.1534 0.1534 0.1534
0.1573 0.1573 0.1573
0.1612 0.1612 0.1612
0.1650 0.1650 0.1650
0.1689 0.1689 0.1689
0.1730 0.1730 0.1730
0.1774 0.1774 0.1774
0.1823 0.1823 0.1823
0.1877 0.1877 0.1877
0.1935 0.1935 0.1935
0.1995 0.1995 0.1995
0.2057 0.2057 0.2057
0.2118 0.2118 0.2118
0.2180 0.2180 0.2180
0.2243 0.2243 0.2243
0.2307 0.2307 0.2307
0.2374 0.2374 0.2374
0.2445 0.2445 0.2445
0.2521 0.2521 0.2521
0.2606 0.2606 0.2606
0.2698 0.2698 0.2698
0.2799 0.2799 0.2799
0.2899 0.2899 0.2899
0.2980 0.2980 0.2980
0.1271 0.1271 0.1271
0.1328 0.1328 0.1328
0.1378 0.1378 0.1378
0.1427 0.1427 0.1427
0.1478 0.1478 0.1478
0.1524 0.1524 0.1524
0.1565 0.1565 0.1565
0.1602 0.1602 0.1602
0.1640 0.1640 0.1640
0.1680 0.1680 0.1680
0.1723 0.1723 0.1723
0.1767 0.1767 0.1767
0.1810 0.1810 0.1810
0.1855 0.1855 0.1855
0.1902 0.1902 0.1902
0.1953 0.1953 0.1953
0.2011 0.2011 0.2011
0.2073 0.2073 0.2073
0.2138 0.2138 0.2138
0.2206 0.2206 0.2206
0.2275 0.2275 0.2275
0.2346 0.2346 0.2346
0.2418 0.2418 0.2418
0.2491 0.2491 0.2491
0.2567 0.2567 0.2567
0.2647 0.2647 0.2647
0.2732 0.2732 0.2732
0.2824 0.2824 0.2824
0.2924 0.2924 0.2924
0.3031 0.3031 0.3031
0.3137 0.3137 0.3137
0.3215 0.3215 0.3215
0.1368 0.1368 0.1368
0.1423 0.1423 0.1423
0.1471 0.1471 0.1471
0.1522 0.1522 0.1522
0.1578 0.1578 0.1578
0.1630 0.1630 0.1630
0.1676 0.1676 0.1676
0.1716 0.1716 0.1716
0.1754 0.1754 0.1754
0.1795 0.1795 0.1795
0.1841 0.1841 0.1841
0.1889 0.1889 0.1889
0.1938 0.1938 0.1938
0.1987 0.1987 0.1987
0.2037 0.2037 0.2037
0.2091 0.2091 0.2091
0.2150 0.2150 0.2150
0.2214 0.2214 0.2214
0.2284 0.2284 0.2284
0.2358 0.2358 0.2358
0.2435 0.2435 0.2435
0.2514 0.2514 0.2514
0.2596 0.2596 0.2596
0.2680 0.2680 0.2680
0.2767 0.2767 0.2767
0.2857 0.2857 0.2857
0.2953 0.2953 0.2953
0.3056 0.3056 0.3056
0.3164 0.3164 0.3164
0.3279 0.3279 0.3279
0.3389 0.3389 0.3389
0.3465 0.3465 0.3465
0.1469 0.1469 0.1469
0.1523 0.1523 0.1523
0.1570 0.1570 0.1570
0.1621 0.1621 0.1621
0.1682 0.1682 0.1682
0.1742 0.1742 0.1742
0.1795 0.1795 0.1795
0.1840 0.1840 0.1840
0.1880 0.1880 0.1880
0.1922 0.1922 0.1922
0.1968 0.1968 0.1968
0.2020 0.2020 0.2020
0.2073 0.2073 0.2073
0.2128 0.2128 0.2128
0.2182 0.2182 0.2182
0.2237 0.2237 0.2237
0.2297 0.2297 0.2297
0.2362 0.2362 0.2362
0.2434 0.2434 0.2434
0.2513 0.2513 0.2513
0.2597 0.2597 0.2597
0.2687 0.2687 0.2687
0.2778 0.2778 0.2778
0.2873 0.2873 0.2873
0.2970 0.2970 0.2970
0.3072 0.3072 0.3072
0.3179 0.3179 0.3179
0.3293 0.3293 0.3293
0.3410 0.3410 0.3410
0.3532 0.3532 0.3532
0.3647 0.3647 0.3647
0.3722 0.3722 0.3722
0.1576 0.1576 0.1576
0.1629 0.1629 0.1629
0.1674 0.1674 0.1674
0.1725 0.1725 0.1725
0.1789 0.1789 0.1789
0.1858 0.1858 0.1858
0.1922 0.1922 0.1922
0.1975 0.1975 0.1975
0.2019 0.2019 0.2019
0.2061 0.2061 0.2061
0.2108 0.2108 0.2108
0.2160 0.2160 0.2160
0.2217 0.2217 0.2217
0.2276 0.2276 0.2276
0.2335 0.2335 0.2335
0.2394 0.2394 0.2394
0.2455 0.2455 0.2455
0.2520 0.2520 0.2520
0.2592 0.2592 0.2592
0.2674 0.2674 0.2674
0.2765 0.2765 0.2765
0.2862 0.2862 0.2862
0.2965 0.2965 0.2965
0.3069 0.3069 0.3069
0.3177 0.3177 0.3177
0.3290 0.3290 0.3290
0.3408 0.3408 0.3408
0.3533 0.3533 0.3533
0.3660 0.3660 0.3660
0.3789 0.3789 0.3789
0.3909 0.3909 0.3909
0.3983 0.3983 0.3983
0.1689 0.1689 0.1689
0.1741 0.1741 0.1741
0.1783 0.1783 0.1783
0.1834 0.1834 0.1834
0.1901 0.1901 0.1901
0.1977 0.1977 0.1977
0.2053 0.2053 0.2053
0.2117 0.2117 0.2117
0.2168 0.2168 0.2168
0.2213 0.2213 0.2213
0.2259 0.2259 0.2259
0.2311 0.2311 0.2311
0.2370 0.2370 0.2370
0.2433 0.2433 0.2433
0.2498 0.2498 0.2498
0.2563 0.2563 0.2563
0.2627 0.2627 0.2627
0.2694 0.2694 0.2694
0.2765 0.2765 0.2765
0.2846 0.2846 0.2846
0.2939 0.2939 0.2939
0.3043 0.3043 0.3043
0.3153 0.3153 0.3153
0.3267 0.3267 0.3267
0.3385 0.3385 0.3385
0.3508 0.3508 0.3508
0.3637 0.3637 0.3637
0.3773 0.3773 0.3773
0.3911 0.3911 0.3911
0.4050 0.4050 0.4050
0.4175 0.4175 0.4175
0.4248 0.4248 0.4248
0.1808 0.1808 0.1808
0.1860 0.1860 0.1860
0.1901 0.1901 0.1901
0.1948 0.1948 0.1948
0.2015 0.2015 0.2015
0.2098 0.2098 0.2098
0.2185 0.2185 0.2185
0.2263 0.2263 0.2263
0.2325 0.2325 0.2325
0.2376 0.2376 0.2376
0.2422 0.2422 0.2422
0.2473 0.2473 0.2473
0.2533 0.2533 0.2533
0.2600 0.2600 0.2600
0.2671 0.2671 0.2671
0.2743 0.2743 0.2743
0.2814 0.2814 0.2814
0.2885 0.2885 0.2885
0.2957 0.2957 0.2957
0.3036 0.3036 0.3036
0.3126 0.3126 0.3126
0.3229 0.3229 0.3229
0.3344 0.3344 0.3344
0.3466 0.3466 0.3466
0.3593 0.3593 0.3593
0.3726 0.3726 0.3726
0.3866 0.3866 0.3866
0.4013 0.4013 0.4013
0.4163 0.4163 0.4163
0.4314 0.4314 0.4314
0.4448 0.4448 0.4448
0.4519 0.4519 0.4519
0.1935 0.1935 0.1935
0.1987 0.1987 0.1987
0.2026 0.2026 0.2026
0.2069 0.2069 0.2069
0.2135 0.2135 0.2135
0.2221 0.2221 0.2221
0.2318 0.2318 0.2318
0.2411 0.2411 0.2411
0.2488 0.2488 0.2488
0.2547 0.2547 0.2547
0.2598 0.2598 0.2598
0.2650 0.2650 0.2650
0.2711 0.2711 0.2711
0.2780 0.2780 0.2780
0.2856 0.2856 0.2856
0.2936 0.2936 0.2936
0.3015 0.3015 0.3015
0.3093 0.3093 0.3093
0.3169 0.3169 0.3169
0.3247 0.3247 0.3247
0.3333 0.3333 0.3333
0.3430 0.3430 0.3430
0.3543 0.3543 0.3543
0.3667 0.3667 0.3667
0.3802 0.3802 0.3802
0.3944 0.3944 0.3944
0.4094 0.4094 0.4094
0.4253 0.4253 0.4253
0.4415 0.4415 0.4415
0.4579 0.4579 0.4579
0.4724 0.4724 0.4724
0.4796 0.4796 0.4796
0.2069 0.2069 0.2069
0.2121 0.2121 0.2121
0.2159 0.2159 0.2159
0.2200 0.2200 0.2200
0.2261 0.2261 0.2261
0.2347 0.2347 0.2347
0.2450 0.2450 0.2450
0.2557 0.2557 0.2557
0.2650 0.2650 0.2650
0.2725 0.2725 0.2725
0.2785 0.2785 0.2785
0.2842 0.2842 0.2842
0.2904 0.2904 0.2904
0.2975 0.2975 0.2975
0.3054 0.3054 0.3054
0.3139 0.3139 0.3139
0.3227 0.3227 0.3227
0.3314 0.3314 0.3314
0.3398 0.3398 0.3398
0.3478 0.3478 0.3478
0.3561 0.3561 0.3561
0.3652 0.3652 0.3652
0.3756 0.3756 0.3756
0.3877 0.3877 0.3877
0.4013 0.4013 0.4013
0.4161 0.4161 0.4161
0.4321 0.4321 0.4321
0.4490 0.4490 0.4490
0.4663 0.4663 0.4663
0.4838 0.4838 0.4838
0.4995 0.4995 0.4995
0.5094 0.5094 0.5094
0.2210 0.2210 0.2210
0.2263 0.2263 0.2263
0.2302 0.2302 0.2302
0.2340 0.2340 0.2340
0.2396 0.2396 0.2396
0.2477 0.2477 0.2477
0.2583 0.2583 0.2583
0.2701 0.2701 0.2701
0.2813 0.2813 0.2813
0.2907 0.2907 0.2907
0.2982 0.2982 0.2982
0.3048 0.3048 0.3048
0.3113 0.3113 0.3113
0.3186 0.3186 0.3186
0.3266 0.3266 0.3266
0.3354 0.3354 0.3354
0.3448 0.3448 0.3448
0.3543 0.3543 0.3543
0.3637 0.3637 0.3637
0.3726 0.3726 0.3726
0.3811 0.3811 0.3811
0.3898 0.3898 0.3898
0.3994 0.3994 0.3994
0.4105 0.4105 0.4105
0.4236 0.4236 0.4236
0.4385 0.4385 0.4385
0.4549 0.4549 0.4549
0.4725 0.4725 0.4725
0.4906 0.4906 0.4906
0.5090 0.5090 0.5090
0.5256 0.5256 0.5256
0.5358 0.5358 0.5358
0.2359 0.2359 0.2359
0.2412 0.2412 0.2412
0.2452 0.2452 0.2452
0.2490 0.2490 0.2490
0.2540 0.2540 0.2540
0.2615 0.2615 0.2615
0.2719 0.2719 0.2719
0.2844 0.2844 0.2844
0.2973 0.2973 0.2973
0.3089 0.3089 0.3089
0.3184 0.3184 0.3184
0.3263 0.3263 0.3263
0.3335 0.3335 0.3335
0.3410 0.3410 0.3410
0.3492 0.3492 0.3492
0.3581 0.3581 0.3581
0.3677 0.3677 0.3677
0.3779 0.3779 0.3779
0.3882 0.3882 0.3882
0.3982 0.3982 0.3982
0.4077 0.4077 0.4077
0.4167 0.4167 0.4167
0.4258 0.4258 0.4258
0.4360 0.4360 0.4360
0.4479 0.4479 0.4479
0.4620 0.4620 0.4620
0.4782 0.4782 0.4782
0.4960 0.4960 0.4960
0.5145 0.5145 0.5145
0.5336 0.5336 0.5336
0.5507 0.5507 0.5507
0.5611 0.5611 0.5611
0.2515 0.2515 0.2515
0.2569 0.2569 0.2569
0.2611 0.2611 0.2611
0.2648 0.2648 0.2648
0.2694 0.2694 0.2694
0.2761 0.2761 0.2761
0.2859 0.2859 0.2859
0.2987 0.2987 0.2987
0.3131 0.3131 0.3131
0.3269 0.3269 0.3269
0.3387 0.3387 0.3387
0.3483 0.3483 0.3483
0.3565 0.3565 0.3565
0.3645 0.3645 0.3645
0.3728 0.3728 0.3728
0.3818 0.3818 0.3818
0.3915 0.3915 0.3915
0.4020 0.4020 0.4020
0.4131 0.4131 0.4131
0.4242 0.4242 0.4242
0.4349 0.4349 0.4349
0.4449 0.4449 0.4449
0.4544 0.4544 0.4544
0.4640 0.4640 0.4640
0.4749 0.4749 0.4749
0.4877 0.4877 0.4877
0.5029 0.5029 0.5029
0.5202 0.5202 0.5202
0.5387 0.5387 0.5387
0.5580 0.5580 0.5580
0.5756 0.5756 0.5756
0.5860 0.5860 0.5860
0.2677 0.2677 0.2677
0.2732 0.2732 0.2732
0.2775 0.2775 0.2775
0.2813 0.2813 0.2813
0.2857 0.2857 0.2857
0.2917 0.2917 0.2917
0.3008 0.3008 0.3008
0.3135 0.3135 0.3135
0.3288 0.3288 0.3288
0.3446 0.3446 0.3446
0.3587 0.3587 0.3587
0.3703 0.3703 0.3703
0.3799 0.3799 0.3799
0.3885 0.3885 0.3885
0.3972 0.3972 0.3972
0.4064 0.4064 0.4064
0.4162 0.4162 0.4162
0.4269 0.4269 0.4269
0.4383 0.4383 0.4383
0.4502 0.4502 0.4502
0.4621 0.4621 0.4621
0.4734 0.4734 0.4734
0.4840 0.4840 0.4840
0.4939 0.4939 0.4939
0.5042 0.5042 0.5042
0.5159 0.5159 0.5159
0.5297 0.5297 0.5297
0.5460 0.5460 0.5460
0.5639 0.5639 0.5639
0.5830 0.5830 0.5830
0.6007 0.6007 0.6007
0.6111 0.6111 0.6111
0.2846 0.2846 0.2846
0.2901 0.2901 0.2901
0.2945 0.2945 0.2945
0.2985 0.2985 0.2985
0.3029 0.3029 0.3029
0.3084 0.3084 0.3084
0.3167 0.3167 0.3167
0.3288 0.3288 0.3288
0.3445 0.3445 0.3445
0.3619 0.3619 0.3619
0.3782 0.3782 0.3782
0.3920 0.3920 0.3920
0.4032 0.4032 0.4032
0.4128 0.4128 0.4128
0.4221 0.4221 0.4221
0.4316 0.4316 0.4316
0.4417 0.4417 0.4417
0.4524 0.4524 0.4524
0.4640 0.4640 0.4640
0.4763 0.4763 0.4763
0.4890 0.4890 0.4890
0.5016 0.5016 0.5016
0.5136 0.5136 0.5136
0.5246 0.5246 0.5246
0.5353 0.5353 0.5353
0.5464 0.5464 0.5464
0.5591 0.5591 0.5591
0.5739 0.5739 0.5739
0.5907 0.5907 0.5907
0.6092 0.6092 0.6092
0.6266 0.6266 0.6266
0.6368 0.6368 0.6368
0.3019 0.3019 0.3019
0.3075 0.3075 0.3075
0.3121 0.3121 0.3121
0.3164 0.3164 0.3164
0.3210 0.3210 0.3210
0.3264 0.3264 0.3264
0.3340 0.3340 0.3340
0.3453 0.3453 0.3453
0.3607 0.3607 0.3607
0.3789 0.3789 0.3789
0.3971 0.3971 0.3971
0.4132 0.4132 0.4132
0.4264 0.4264 0.4264
0.4373 0.4373 0.4373
0.4473 0.4473 0.4473
0.4573 0.4573 0.4573
0.4676 0.4676 0.4676
0.4785 0.4785 0.4785
0.4901 0.4901 0.4901
0.5025 0.5025 0.5025
0.5157 0.5157 0.5157
0.5292 0.5292 0.5292
0.5425 0.5425 0.5425
0.5550 0.5550 0.5550
0.5668 0.5668 0.5668
0.5783 0.5783 0.5783
0.5905 0.5905 0.5905
0.6042 0.6042 0.6042
0.6196 0.6196 0.6196
0.6369 0.6369 0.6369
0.6534 0.6534 0.6534
0.6631 0.6631 0.6631
0.3196 0.3196 0.3196
0.3254 0.3254 0.3254
0.3303 0.3303 0.3303
0.3350 0.3350 0.3350
0.3401 0.3401 0.3401
0.3456 0.3456 0.3456
0.3527 0.3527 0.3527
0.3629 0.3629 0.3629
0.3775 0.3775 0.3775
0.3957 0.3957 0.3957
0.4153 0.4153 0.4153
0.4336 0.4336 0.4336
0.4490 0.4490 0.4490
0.4616 0.4616 0.4616
0.4726 0.4726 0.4726
0.4831 0.4831 0.4831
0.4938 0.4938 0.4938
0.5048 0.5048 0.5048
0.5165 0.5165 0.5165
0.5289 0.5289 0.5289
0.5422 0.5422 0.5422
0.5562 0.5562 0.5562
0.5705 0.5705 0.5705
0.5844 0.5844 0.5844
0.5977 0.5977 0.5977
0.6103 0.6103 0.6103
0.6229 0.6229 0.6229
0.6360 0.6360 0.6360
0.6503 0.6503 0.6503
0.6660 0.6660 0.6660
0.6812 0.6812 0.6812
0.6901 0.6901 0.6901
0.3382 0.3382 0.3382
0.3441 0.3441 0.3441
0.3494 0.3494 0.3494
0.3546 0.3546 0.3546
0.3601 0.3601 0.3601
0.3660 0.3660 0.3660
0.3728 0.3728 0.3728
0.3820 0.3820 0.3820
0.3953 0.3953 0.3953
0.4129 0.4129 0.4129
0.4331 0.4331 0.4331
0.4533 0.4533 0.4533
0.4711 0.4711 0.4711
0.4858 0.4858 0.4858
0.4980 0.4980 0.4980
0.5091 0.5091 0.5091
0.5202 0.5202 0.5202
0.5315 0.5315 0.5315
0.5432 0.5432 0.5432
0.5556 0.5556 0.5556
0.5688 0.5688 0.5688
0.5830 0.5830 0.5830
0.5978 0.5978 0.5978
0.6128 0.6128 0.6128
0.6276 0.6276 0.6276
0.6417 0.6417 0.6417
0.6552 0.6552 0.6552
0.6685 0.6685 0.6685
0.6821 0.6821 0.6821
0.6964 0.6964 0.6964
0.7100 0.7100 0.7100
0.7180 0.7180 0.7180
0.3575 0.3575 0.3575
0.3637 0.3637 0.3637
0.3694 0.3694 0.3694
0.3751 0.3751 0.3751
0.3811 0.3811 0.3811
0.3873 0.3873 0.3873
0.3940 0.3940 0.3940
0.4024 0.4024 0.4024
0.4143 0.4143 0.4143
0.4306 0.4306 0.4306
0.4508 0.4508 0.4508
0.4724 0.4724 0.4724
0.4924 0.4924 0.4924
0.5093 0.5093 0.5093
0.5232 0.5232 0.5232
0.5353 0.5353 0.5353
0.5467 0.5467 0.5467
0.5583 0.5583 0.5583
0.5701 0.5701 0.5701
0.5825 0.5825 0.5825
0.5956 0.5956 0.5956
0.6097 0.6097 0.6097
0.6248 0.6248 0.6248
0.6405 0.6405 0.6405
0.6564 0.6564 0.6564
0.6718 0.6718 0.6718
0.6866 0.6866 0.6866
0.7006 0.7006 0.7006
0.7139 0.7139 0.7139
0.7272 0.7272 0.7272
0.7396 0.7396 0.7396
0.7466 0.7466 0.7466
0.3778 0.3778 0.3778
0.3842 0.3842 0.3842
0.3903 0.3903 0.3903
0.3965 0.3965 0.3965
0.4028 0.4028 0.4028
0.4094 0.4094 0.4094
0.4163 0.4163 0.4163
0.4240 0.4240 0.4240
0.4345 0.4345 0.4345
0.4493 0.4493 0.4493
0.4687 0.4687 0.4687
0.4910 0.4910 0.4910
0.5130 0.5130 0.5130
0.5323 0.5323 0.5323
0.5482 0.5482 0.5482
0.5615 0.5615 0.5615
0.5735 0.5735 0.5735
0.5854 0.5854 0.5854
0.5973 0.5973 0.5973
0.6097 0.6097 0.6097
0.6228 0.6228 0.6228
0.6367 0.6367 0.6367
0.6519 0.6519 0.6519
0.6679 0.6679 0.6679
0.6845 0.6845 0.6845
0.7010 0.7010 0.7010
0.7168 0.7168 0.7168
0.7314 0.7314 0.7314
0.7450 0.7450 0.7450
0.7577 0.7577 0.7577
0.7692 0.7692 0.7692
0.7757 0.7757 0.7757
0.3990 0.3990 0.3990
0.4055 0.4055 0.4055
0.4120 0.4120 0.4120
0.4185 0.4185 0.4185
0.4252 0.4252 0.4252
0.4320 0.4320 0.4320
0.4391 0.4391 0.4391
0.4466 0.4466 0.4466
0.4559 0.4559 0.4559
0.4692 0.4692 0.4692
0.4873 0.4873 0.4873
0.5095 0.5095 0.5095
0.5329 0.5329 0.5329
0.5546 0.5546 0.5546
0.5727 0.5727 0.5727
0.5875 0.5875 0.5875
0.6004 0.6004 0.6004
0.6126 0.6126 0.6126
0.6248 0.6248 0.6248
0.6373 0.6373 0.6373
0.6503 0.6503 0.6503
0.6641 0.6641 0.6641
0.6791 0.6791 0.6791
0.6952 0.6952 0.6952
0.7122 0.7122 0.7122
0.7292 0.7292 0.7292
0.7457 0.7457 0.7457
0.7609 0.7609 0.7609
0.7746 0.7746 0.7746
0.7871 0.7871 0.7871
0.7980 0.7980 0.7980
0.8044 0.8044 0.8044
0.4208 0.4208 0.4208
0.4275 0.4275 0.4275
0.4342 0.4342 0.4342
0.4410 0.4410 0.4410
