lut/adanmq/Adanmq_Fujicolor_Pro_400H.cube
TITLE "Adanmq_Fujicolor Pro 400H"
LUT_3D_SIZE 5
DOMAIN_MIN 0.000000 0.000000 0.000000
DOMAIN_MAX 0.903226 0.903226 0.903226
0.0214 0.0223 0.0221
0.1621 0.0223 0.0221
0.3039 0.0223 0.0221
0.4789 0.0223 0.0221
0.6967 0.0223 0.0221
0.0214 0.2205 0.0221
0.2602 0.2581 0.0221
0.4471 0.2812 0.0221
0.6208 0.2829 0.0221
0.7829 0.2826 0.0221
0.0214 0.4428 0.0221
0.3460 0.4856 0.0221
0.5284 0.5133 0.0221
0.6836 0.5294 0.0221
0.8240 0.5293 0.0221
0.0214 0.6505 0.0221
0.3844 0.6564 0.0221
0.5607 0.7037 0.0221
0.7074 0.7101 0.0221
0.8464 0.7197 0.0221
0.0214 0.8436 0.0221
0.4105 0.8245 0.0221
0.5476 0.8931 0.0221
0.7079 0.8819 0.0221
0.8440 0.8875 0.0221
0.0214 0.0223 0.1867
0.1582 0.0223 0.2217
0.2821 0.0223 0.2423
0.4610 0.0223 0.2335
0.6833 0.0223 0.2076
0.0214 0.1888 0.1658
0.2283 0.2200 0.1963
0.4099 0.2412 0.2093
0.5691 0.2538 0.2266
0.7218 0.2462 0.2213
0.0214 0.4042 0.1640
0.3354 0.4375 0.1976
0.4932 0.4704 0.2280
0.6424 0.4897 0.2343
0.8066 0.4920 0.2634
0.0214 0.6210 0.1587
0.3959 0.6203 0.1704
0.5585 0.6652 0.2438
0.7127 0.6777 0.2645
0.8288 0.7025 0.3087
0.0214 0.8236 0.1538
0.4128 0.8075 0.1462
0.6142 0.8065 0.1588
0.7101 0.8579 0.2586
0.8611 0.8535 0.3093
0.0214 0.0223 0.3515
0.1356 0.0223 0.4348
0.2778 0.0223 0.4710
0.4424 0.0223 0.5120
0.6633 0.0223 0.4821
0.0214 0.1673 0.3322
0.2147 0.2026 0.3857
0.3653 0.2247 0.4220
0.5037 0.2402 0.4487
0.6904 0.2438 0.4652
0.0214 0.3431 0.3119
0.3004 0.3996 0.3652
0.4552 0.4325 0.4043
0.6279 0.4451 0.4144
0.7816 0.4559 0.4406
0.0214 0.5665 0.3139
0.3803 0.5904 0.3408
0.5352 0.6218 0.3951
0.6752 0.6558 0.4473
0.8064 0.6795 0.4605
0.0214 0.7685 0.3003
0.4145 0.7784 0.3363
0.6076 0.7773 0.3589
0.7270 0.8266 0.4851
0.8700 0.8395 0.5382
0.0214 0.0223 0.5406
0.1845 0.0223 0.5753
0.2375 0.0223 0.6858
0.4197 0.0223 0.6685
0.6128 0.0223 0.7165
0.0214 0.1659 0.5302
0.2066 0.1805 0.5587
0.3125 0.2205 0.6329
0.4563 0.2415 0.6497
0.6401 0.2489 0.6797
0.0214 0.3080 0.5026
0.2725 0.3492 0.5503
0.4227 0.3975 0.5993
0.5966 0.4150 0.6261
0.7333 0.4334 0.6375
0.0214 0.4985 0.4848
0.3649 0.5392 0.5291
0.5093 0.5924 0.5844
0.6481 0.6222 0.6194
0.8030 0.6345 0.6354
0.0214 0.7271 0.4984
0.4338 0.7336 0.5159
0.5838 0.7682 0.5633
0.7187 0.8021 0.6119
0.8452 0.8458 0.6831
0.0214 0.0223 0.7382
0.2013 0.0223 0.7268
0.2129 0.0223 0.8681
0.3851 0.0223 0.8451
0.5875 0.0223 0.8242
0.0214 0.1655 0.7233
0.1872 0.1546 0.7123
0.3275 0.1835 0.7826
0.3932 0.2567 0.8311
0.5876 0.2555 0.8107
0.0214 0.3049 0.7184
0.2311 0.3241 0.7160
0.3775 0.3550 0.7436
0.5319 0.3887 0.7881
0.6807 0.4315 0.8092
0.0214 0.4694 0.6865
0.3244 0.4894 0.7021
0.4667 0.5381 0.7417
0.6202 0.5842 0.7822
0.7846 0.6117 0.8074
0.0214 0.6869 0.6916
0.3895 0.6861 0.6958
0.5576 0.7310 0.7449
0.6984 0.7871 0.7947
0.8415 0.8337 0.8317
