lut/adanmq/Adanmq_Kodak_Vision3_250D_5207.cube
TITLE "Adanmq_Kodak Vision3 250D 5207"
LUT_3D_SIZE 32
0.0214 0.0220 0.0218
0.0396 0.0220 0.0218
0.0614 0.0219 0.0218
0.0823 0.0219 0.0218
0.1014 0.0219 0.0218
0.1172 0.0219 0.0218
0.1311 0.0219 0.0218
0.1451 0.0219 0.0219
0.1595 0.0219 0.0219
0.1740 0.0219 0.0219
0.1888 0.0220 0.0219
0.2038 0.0220 0.0219
0.2193 0.0220 0.0219
0.2352 0.0220 0.0219
0.2517 0.0221 0.0219
0.2687 0.0221 0.0219
0.2865 0.0221 0.0219
0.3052 0.0221 0.0219
0.3250 0.0221 0.0219
0.3460 0.0221 0.0218
0.3686 0.0221 0.0218
0.3927 0.0220 0.0218
0.4186 0.0220 0.0217
0.4459 0.0220 0.0217
0.4749 0.0220 0.0216
0.5051 0.0219 0.0216
0.5365 0.0219 0.0216
0.5689 0.0219 0.0215
0.6021 0.0219 0.0215
0.6360 0.0218 0.0214
0.6699 0.0218 0.0214
0.7027 0.0227 0.0223
0.0214 0.0400 0.0218
0.0393 0.0397 0.0218
0.0610 0.0392 0.0218
0.0822 0.0385 0.0218
0.1018 0.0381 0.0218
0.1185 0.0379 0.0218
0.1334 0.0379 0.0218
0.1486 0.0381 0.0218
0.1641 0.0385 0.0219
0.1798 0.0390 0.0219
0.1956 0.0395 0.0219
0.2116 0.0400 0.0219
0.2277 0.0405 0.0219
0.2441 0.0409 0.0219
0.2609 0.0413 0.0219
0.2781 0.0415 0.0219
0.2959 0.0417 0.0219
0.3145 0.0418 0.0219
0.3339 0.0419 0.0219
0.3544 0.0418 0.0218
0.3762 0.0417 0.0218
0.3995 0.0414 0.0218
0.4243 0.0410 0.0217
0.4508 0.0406 0.0217
0.4789 0.0401 0.0217
0.5084 0.0395 0.0216
0.5393 0.0389 0.0216
0.5715 0.0383 0.0215
0.6045 0.0376 0.0215
0.6383 0.0370 0.0214
0.6723 0.0365 0.0214
0.7051 0.0367 0.0223
0.0214 0.0644 0.0218
0.0388 0.0638 0.0218
0.0604 0.0627 0.0218
0.0819 0.0614 0.0218
0.1027 0.0605 0.0218
0.1210 0.0599 0.0218
0.1381 0.0597 0.0218
0.1556 0.0599 0.0218
0.1736 0.0604 0.0218
0.1918 0.0612 0.0218
0.2100 0.0621 0.0219
0.2281 0.0631 0.0219
0.2460 0.0641 0.0219
0.2639 0.0650 0.0219
0.2817 0.0658 0.0219
0.2997 0.0665 0.0219
0.3179 0.0670 0.0219
0.3366 0.0674 0.0219
0.3557 0.0677 0.0219
0.3756 0.0678 0.0219
0.3963 0.0678 0.0219
0.4181 0.0676 0.0218
0.4412 0.0672 0.0218
0.4657 0.0667 0.0217
0.4919 0.0660 0.0217
0.5196 0.0652 0.0216
0.5489 0.0642 0.0216
0.5796 0.0632 0.0215
0.6117 0.0621 0.0215
0.6448 0.0611 0.0215
0.6784 0.0602 0.0214
0.7107 0.0601 0.0223
0.0214 0.0899 0.0217
0.0384 0.0892 0.0217
0.0597 0.0878 0.0217
0.0817 0.0862 0.0217
0.1039 0.0849 0.0217
0.1242 0.0841 0.0218
0.1436 0.0837 0.0218
0.1638 0.0839 0.0218
0.1847 0.0844 0.0218
0.2060 0.0853 0.0218
0.2272 0.0865 0.0219
0.2483 0.0878 0.0219
0.2689 0.0893 0.0219
0.2890 0.0908 0.0219
0.3087 0.0921 0.0219
0.3281 0.0933 0.0219
0.3474 0.0943 0.0219
0.3666 0.0951 0.0219
0.3860 0.0957 0.0219
0.4057 0.0961 0.0219
0.4258 0.0964 0.0219
0.4465 0.0966 0.0219
0.4682 0.0966 0.0219
0.4909 0.0963 0.0218
0.5149 0.0959 0.0218
0.5403 0.0952 0.0217
0.5673 0.0943 0.0216
0.5960 0.0933 0.0216
0.6262 0.0922 0.0215
0.6577 0.0909 0.0215
0.6901 0.0899 0.0215
0.7211 0.0894 0.0223
0.0214 0.1140 0.0217
0.0380 0.1133 0.0217
0.0594 0.1122 0.0217
0.0819 0.1109 0.0217
0.1054 0.1099 0.0217
0.1275 0.1093 0.0218
0.1488 0.1092 0.0218
0.1713 0.1096 0.0218
0.1946 0.1103 0.0218
0.2185 0.1115 0.0218
0.2426 0.1129 0.0219
0.2666 0.1146 0.0219
0.2901 0.1165 0.0219
0.3129 0.1183 0.0219
0.3349 0.1202 0.0219
0.3562 0.1218 0.0219
0.3770 0.1232 0.0219
0.3974 0.1244 0.0219
0.4175 0.1254 0.0219
0.4377 0.1262 0.0219
0.4579 0.1268 0.0219
0.4785 0.1274 0.0219
0.4995 0.1277 0.0219
0.5212 0.1280 0.0219
0.5439 0.1280 0.0219
0.5677 0.1278 0.0218
0.5929 0.1274 0.0217
0.6197 0.1267 0.0217
0.6479 0.1258 0.0216
0.6775 0.1248 0.0216
0.7084 0.1239 0.0215
0.7377 0.1232 0.0223
0.0214 0.1330 0.0217
0.0379 0.1327 0.0217
0.0594 0.1323 0.0217
0.0827 0.1319 0.0217
0.1075 0.1319 0.0217
0.1311 0.1321 0.0218
0.1540 0.1328 0.0218
0.1781 0.1338 0.0218
0.2033 0.1351 0.0218
0.2293 0.1367 0.0218
0.2557 0.1386 0.0219
0.2823 0.1406 0.0219
0.3085 0.1428 0.0219
0.3340 0.1450 0.0219
0.3585 0.1471 0.0219
0.3821 0.1491 0.0219
0.4047 0.1509 0.0219
0.4266 0.1523 0.0220
0.4478 0.1536 0.0220
0.4687 0.1546 0.0220
0.4895 0.1556 0.0220
0.5104 0.1564 0.0220
0.5317 0.1571 0.0220
0.5533 0.1577 0.0220
0.5756 0.1582 0.0219
0.5987 0.1585 0.0219
0.6228 0.1587 0.0219
0.6483 0.1586 0.0218
0.6751 0.1583 0.0217
0.7033 0.1578 0.0217
0.7328 0.1573 0.0216
0.7602 0.1572 0.0223
0.0214 0.1487 0.0216
0.0378 0.1488 0.0216
0.0598 0.1493 0.0217
0.0841 0.1502 0.0217
0.1102 0.1514 0.0217
0.1352 0.1529 0.0218
0.1593 0.1545 0.0218
0.1846 0.1564 0.0218
0.2110 0.1584 0.0218
0.2384 0.1607 0.0219
0.2664 0.1632 0.0219
0.2949 0.1657 0.0219
0.3233 0.1683 0.0219
0.3511 0.1708 0.0219
0.3780 0.1733 0.0219
0.4039 0.1757 0.0219
0.4285 0.1777 0.0220
0.4521 0.1795 0.0220
0.4746 0.1811 0.0220
0.4965 0.1824 0.0220
0.5180 0.1835 0.0220
0.5395 0.1845 0.0220
0.5611 0.1855 0.0220
0.5831 0.1863 0.0220
0.6056 0.1872 0.0220
0.6288 0.1879 0.0220
0.6529 0.1885 0.0220
0.6780 0.1889 0.0219
0.7043 0.1892 0.0219
0.7318 0.1894 0.0218
0.7607 0.1894 0.0218
0.7868 0.1893 0.0223
0.0213 0.1646 0.0216
0.0379 0.1650 0.0216
0.0605 0.1662 0.0216
0.0860 0.1684 0.0217
0.1135 0.1709 0.0217
0.1398 0.1737 0.0218
0.1650 0.1765 0.0218
0.1911 0.1793 0.0218
0.2183 0.1821 0.0219
0.2463 0.1852 0.0219
0.2752 0.1884 0.0219
0.3047 0.1916 0.0219
0.3345 0.1948 0.0219
0.3641 0.1978 0.0219
0.3931 0.2008 0.0219
0.4210 0.2035 0.0220
0.4476 0.2060 0.0220
0.4729 0.2083 0.0220
0.4969 0.2102 0.0220
0.5198 0.2119 0.0221
0.5420 0.2133 0.0221
0.5639 0.2146 0.0221
0.5859 0.2158 0.0221
0.6082 0.2169 0.0221
0.6312 0.2180 0.0221
0.6548 0.2189 0.0221
0.6793 0.2199 0.0221
0.7047 0.2207 0.0220
0.7313 0.2215 0.0220
0.7588 0.2221 0.0220
0.7877 0.2226 0.0219
0.8136 0.2225 0.0223
0.0213 0.1817 0.0216
0.0380 0.1822 0.0216
0.0613 0.1841 0.0216
0.0881 0.1872 0.0216
0.1171 0.1910 0.0217
0.1447 0.1951 0.0217
0.1707 0.1989 0.0218
0.1977 0.2025 0.0218
0.2254 0.2060 0.0219
0.2538 0.2097 0.0219
0.2829 0.2135 0.0219
0.3128 0.2174 0.0219
0.3433 0.2213 0.0219
0.3739 0.2249 0.0219
0.4043 0.2285 0.0220
0.4339 0.2318 0.0220
0.4623 0.2348 0.0220
0.4892 0.2376 0.0220
0.5147 0.2400 0.0220
0.5388 0.2421 0.0221
0.5618 0.2440 0.0221
0.5841 0.2457 0.0221
0.6062 0.2473 0.0221
0.6285 0.2487 0.0221
0.6515 0.2501 0.0222
0.6753 0.2514 0.0222
0.7001 0.2526 0.0221
0.7260 0.2537 0.0221
0.7530 0.2547 0.0221
0.7811 0.2557 0.0221
0.8104 0.2565 0.0221
0.8369 0.2564 0.0223
0.0213 0.2006 0.0215
0.0380 0.2011 0.0215
0.0620 0.2032 0.0216
0.0901 0.2071 0.0216
0.1206 0.2120 0.0217
0.1494 0.2172 0.0217
0.1765 0.2220 0.0218
0.2043 0.2263 0.0218
0.2325 0.2302 0.0219
0.2611 0.2341 0.0219
0.2902 0.2383 0.0219
0.3200 0.2427 0.0219
0.3506 0.2471 0.0219
0.3816 0.2514 0.0220
0.4128 0.2555 0.0220
0.4436 0.2593 0.0220
0.4735 0.2629 0.0220
0.5020 0.2662 0.0220
0.5290 0.2693 0.0221
0.5544 0.2720 0.0221
0.5784 0.2744 0.0221
0.6013 0.2766 0.0221
0.6234 0.2787 0.0222
0.6454 0.2806 0.0222
0.6679 0.2824 0.0222
0.6913 0.2842 0.0222
0.7158 0.2857 0.0222
0.7417 0.2871 0.0222
0.7689 0.2884 0.0222
0.7973 0.2896 0.0222
0.8270 0.2906 0.0222
0.8547 0.2904 0.0223
0.0213 0.2215 0.0215
0.0380 0.2219 0.0215
0.0626 0.2240 0.0215
0.0919 0.2283 0.0216
0.1238 0.2340 0.0216
0.1537 0.2401 0.0217
0.1817 0.2459 0.0218
0.2104 0.2507 0.0218
0.2394 0.2548 0.0219
0.2684 0.2587 0.0219
0.2975 0.2629 0.0219
0.3269 0.2674 0.0219
0.3572 0.2722 0.0219
0.3881 0.2769 0.0220
0.4196 0.2815 0.0220
0.4511 0.2858 0.0220
0.4820 0.2899 0.0220
0.5119 0.2937 0.0220
0.5403 0.2973 0.0221
0.5672 0.3006 0.0221
0.5925 0.3036 0.0221
0.6163 0.3064 0.0222
0.6389 0.3091 0.0222
0.6609 0.3116 0.0222
0.6828 0.3141 0.0222
0.7053 0.3164 0.0222
0.7288 0.3185 0.0222
0.7539 0.3204 0.0222
0.7806 0.3220 0.0222
0.8087 0.3233 0.0222
0.8383 0.3243 0.0222
0.8668 0.3243 0.0223
0.0213 0.2441 0.0215
0.0379 0.2443 0.0215
0.0629 0.2461 0.0215
0.0932 0.2504 0.0215
0.1263 0.2566 0.0216
0.1573 0.2636 0.0216
0.1862 0.2701 0.0217
0.2158 0.2756 0.0218
0.2456 0.2799 0.0218
0.2753 0.2836 0.0219
0.3045 0.2874 0.0219
0.3338 0.2917 0.0219
0.3635 0.2965 0.0219
0.3940 0.3014 0.0220
0.4252 0.3063 0.0220
0.4569 0.3110 0.0220
0.4884 0.3155 0.0220
0.5193 0.3197 0.0220
0.5489 0.3238 0.0221
0.5772 0.3276 0.0221
0.6039 0.3312 0.0221
0.6290 0.3346 0.0222
0.6526 0.3378 0.0222
0.6751 0.3410 0.0222
0.6969 0.3442 0.0222
0.7187 0.3473 0.0222
0.7413 0.3501 0.0222
0.7652 0.3526 0.0223
0.7909 0.3547 0.0223
0.8181 0.3563 0.0223
0.8471 0.3574 0.0223
0.8756 0.3576 0.0223
0.0213 0.2679 0.0214
0.0377 0.2678 0.0214
0.0630 0.2692 0.0214
0.0941 0.2731 0.0215
0.1281 0.2795 0.0215
0.1599 0.2871 0.0216
0.1897 0.2946 0.0217
0.2202 0.3008 0.0218
0.2509 0.3053 0.0218
0.2814 0.3088 0.0219
0.3112 0.3120 0.0219
0.3405 0.3158 0.0219
0.3698 0.3203 0.0219
0.3996 0.3251 0.0219
0.4303 0.3301 0.0220
0.4616 0.3350 0.0220
0.4933 0.3397 0.0220
0.5247 0.3442 0.0220
0.5553 0.3486 0.0221
0.5847 0.3528 0.0221
0.6127 0.3570 0.0221
0.6391 0.3609 0.0222
0.6640 0.3648 0.0222
0.6875 0.3686 0.0222
0.7099 0.3724 0.0222
0.7317 0.3763 0.0223
0.7537 0.3800 0.0223
0.7767 0.3833 0.0223
0.8014 0.3861 0.0223
0.8277 0.3882 0.0223
0.8561 0.3896 0.0223
0.8838 0.3902 0.0223
0.0213 0.2924 0.0214
0.0375 0.2921 0.0213
0.0629 0.2929 0.0214
0.0945 0.2962 0.0214
0.1293 0.3024 0.0215
0.1618 0.3104 0.0215
0.1922 0.3187 0.0216
0.2234 0.3257 0.0217
0.2550 0.3308 0.0218
0.2864 0.3341 0.0218
0.3171 0.3369 0.0219
0.3468 0.3399 0.0219
0.3760 0.3438 0.0219
0.4053 0.3482 0.0219
0.4352 0.3530 0.0220
0.4659 0.3579 0.0220
0.4973 0.3627 0.0220
0.5288 0.3674 0.0220
0.5598 0.3720 0.0220
0.5901 0.3765 0.0221
0.6190 0.3810 0.0221
0.6467 0.3854 0.0222
0.6729 0.3898 0.0222
0.6976 0.3943 0.0222
0.7210 0.3988 0.0222
0.7434 0.4033 0.0223
0.7655 0.4078 0.0223
0.7882 0.4121 0.0223
0.8123 0.4157 0.0224
0.8380 0.4186 0.0224
0.8659 0.4206 0.0224
0.8928 0.4218 0.0223
0.0213 0.3174 0.0213
0.0372 0.3169 0.0213
0.0626 0.3169 0.0213
0.0945 0.3194 0.0213
0.1299 0.3250 0.0214
0.1630 0.3331 0.0215
0.1938 0.3421 0.0215
0.2255 0.3501 0.0217
0.2578 0.3560 0.0217
0.2902 0.3596 0.0218
0.3217 0.3619 0.0218
0.3522 0.3642 0.0219
0.3817 0.3673 0.0219
0.4108 0.3711 0.0219
0.4402 0.3755 0.0219
0.4702 0.3802 0.0220
0.5008 0.3849 0.0220
0.5321 0.3896 0.0220
0.5632 0.3942 0.0220
0.5938 0.3987 0.0221
0.6235 0.4034 0.0221
0.6520 0.4081 0.0221
0.6793 0.4131 0.0222
0.7052 0.4181 0.0222
0.7298 0.4232 0.0222
0.7532 0.4284 0.0223
0.7760 0.4337 0.0223
0.7990 0.4388 0.0224
0.8231 0.4434 0.0224
0.8486 0.4473 0.0224
0.8763 0.4501 0.0225
0.9026 0.4522 0.0223
0.0213 0.3426 0.0212
0.0368 0.3419 0.0212
0.0621 0.3413 0.0212
0.0942 0.3427 0.0212
0.1300 0.3475 0.0213
0.1635 0.3553 0.0214
0.1947 0.3648 0.0215
0.2268 0.3738 0.0216
0.2596 0.3807 0.0217
0.2925 0.3850 0.0218
0.3250 0.3873 0.0218
0.3564 0.3890 0.0218
0.3865 0.3911 0.0219
0.4159 0.3942 0.0219
0.4450 0.3980 0.0219
0.4745 0.4023 0.0219
0.5044 0.4067 0.0220
0.5351 0.4112 0.0220
0.5659 0.4157 0.0220
0.5967 0.4202 0.0220
0.6267 0.4248 0.0221
0.6558 0.4296 0.0221
0.6839 0.4348 0.0222
0.7107 0.4403 0.0222
0.7364 0.4460 0.0222
0.7609 0.4519 0.0223
0.7847 0.4579 0.0223
0.8085 0.4639 0.0224
0.8330 0.4694 0.0225
0.8588 0.4744 0.0225
0.8866 0.4781 0.0225
0.9127 0.4814 0.0223
0.0213 0.3679 0.0212
0.0364 0.3671 0.0212
0.0615 0.3660 0.0211
0.0937 0.3663 0.0211
0.1297 0.3698 0.0212
0.1636 0.3770 0.0213
0.1951 0.3866 0.0214
0.2274 0.3965 0.0215
0.2604 0.4048 0.0216
0.2938 0.4102 0.0217
0.3268 0.4129 0.0218
0.3591 0.4142 0.0218
0.3901 0.4155 0.0218
0.4200 0.4177 0.0219
0.4494 0.4208 0.0219
0.4786 0.4245 0.0219
0.5081 0.4286 0.0219
0.5382 0.4328 0.0220
0.5685 0.4370 0.0220
0.5990 0.4412 0.0220
0.6291 0.4456 0.0220
0.6586 0.4503 0.0221
0.6872 0.4555 0.0221
0.7147 0.4611 0.0222
0.7412 0.4673 0.0222
0.7667 0.4738 0.0223
0.7914 0.4806 0.0223
0.8161 0.4874 0.0224
0.8414 0.4938 0.0225
0.8676 0.4998 0.0225
0.8956 0.5044 0.0226
0.9264 0.5061 0.0223
0.0213 0.3933 0.0211
0.0360 0.3924 0.0211
0.0608 0.3909 0.0211
0.0930 0.3902 0.0211
0.1292 0.3924 0.0211
0.1634 0.3984 0.0212
0.1952 0.4077 0.0213
0.2275 0.4183 0.0215
0.2607 0.4280 0.0216
0.2942 0.4348 0.0217
0.3276 0.4385 0.0218
0.3604 0.4399 0.0218
0.3922 0.4407 0.0218
0.4229 0.4420 0.0218
0.4528 0.4443 0.0219
0.4823 0.4474 0.0219
0.5117 0.4509 0.0219
0.5413 0.4547 0.0219
0.5712 0.4585 0.0220
0.6012 0.4624 0.0220
0.6311 0.4664 0.0220
0.6606 0.4707 0.0221
0.6896 0.4756 0.0221
0.7176 0.4812 0.0221
0.7447 0.4875 0.0222
0.7709 0.4945 0.0222
0.7965 0.5019 0.0223
0.8220 0.5095 0.0224
0.8480 0.5167 0.0225
0.8748 0.5236 0.0226
0.9030 0.5290 0.0226
0.9337 0.5313 0.0223
0.0213 0.4190 0.0211
0.0356 0.4180 0.0211
0.0601 0.4162 0.0211
0.0922 0.4147 0.0210
0.1286 0.4156 0.0210
0.1631 0.4201 0.0211
0.1951 0.4286 0.0212
0.2275 0.4394 0.0214
0.2606 0.4502 0.0215
0.2941 0.4588 0.0216
0.3276 0.4640 0.0217
0.3607 0.4661 0.0218
0.3930 0.4667 0.0218
0.4244 0.4673 0.0218
0.4550 0.4687 0.0218
0.4851 0.4710 0.0219
0.5147 0.4740 0.0219
0.5443 0.4774 0.0219
0.5739 0.4808 0.0219
0.6035 0.4842 0.0220
0.6331 0.4877 0.0220
0.6624 0.4915 0.0220
0.6914 0.4959 0.0221
0.7197 0.5010 0.0221
0.7473 0.5072 0.0222
0.7741 0.5143 0.0222
0.8004 0.5221 0.0223
0.8265 0.5304 0.0224
0.8530 0.5384 0.0225
0.8802 0.5461 0.0226
0.9087 0.5522 0.0226
0.9394 0.5552 0.0223
0.0213 0.4447 0.0210
0.0353 0.4437 0.0210
0.0595 0.4417 0.0210
0.0916 0.4398 0.0210
0.1281 0.4394 0.0210
0.1628 0.4424 0.0210
0.1949 0.4496 0.0211
0.2275 0.4601 0.0212
0.2604 0.4717 0.0214
0.2938 0.4820 0.0215
0.3272 0.4890 0.0217
0.3603 0.4925 0.0217
0.3929 0.4934 0.0218
0.4247 0.4936 0.0218
0.4559 0.4942 0.0218
0.4866 0.4958 0.0218
0.5169 0.4981 0.0219
0.5468 0.5009 0.0219
0.5764 0.5039 0.0219
0.6058 0.5070 0.0219
0.6350 0.5100 0.0220
0.6641 0.5131 0.0220
0.6930 0.5168 0.0221
0.7214 0.5213 0.0221
0.7493 0.5269 0.0221
0.7766 0.5337 0.0222
0.8033 0.5417 0.0222
0.8300 0.5504 0.0223
0.8569 0.5591 0.0225
0.8844 0.5675 0.0226
0.9131 0.5743 0.0226
0.9438 0.5779 0.0223
0.0213 0.4708 0.0210
0.0350 0.4698 0.0210
0.0591 0.4677 0.0209
0.0911 0.4654 0.0209
0.1277 0.4642 0.0209
0.1626 0.4656 0.0209
0.1949 0.4711 0.0210
0.2275 0.4808 0.0211
0.2603 0.4927 0.0213
0.2935 0.5044 0.0215
0.3266 0.5134 0.0216
0.3596 0.5187 0.0217
0.3922 0.5206 0.0217
0.4242 0.5208 0.0218
0.4559 0.5209 0.0218
0.4871 0.5217 0.0218
0.5180 0.5234 0.0218
0.5485 0.5256 0.0219
0.5784 0.5282 0.0219
0.6080 0.5308 0.0219
0.6370 0.5333 0.0220
0.6658 0.5359 0.0220
0.6944 0.5388 0.0220
0.7227 0.5425 0.0221
0.7509 0.5473 0.0221
0.7784 0.5535 0.0222
0.8057 0.5611 0.0222
0.8328 0.5698 0.0223
0.8601 0.5789 0.0224
0.8879 0.5880 0.0225
0.9168 0.5954 0.0226
0.9474 0.5997 0.0223
0.0213 0.4972 0.0209
0.0348 0.4962 0.0209
0.0588 0.4941 0.0209
0.0908 0.4917 0.0209
0.1275 0.4898 0.0208
0.1627 0.4899 0.0209
0.1951 0.4937 0.0209
0.2277 0.5019 0.0210
0.2604 0.5135 0.0212
0.2933 0.5261 0.0214
0.3261 0.5371 0.0215
0.3588 0.5445 0.0216
0.3912 0.5480 0.0217
0.4233 0.5488 0.0217
0.4551 0.5486 0.0218
0.4867 0.5489 0.0218
0.5181 0.5498 0.0218
0.5492 0.5515 0.0218
0.5797 0.5536 0.0219
0.6096 0.5558 0.0219
0.6388 0.5579 0.0219
0.6675 0.5600 0.0220
0.6958 0.5622 0.0220
0.7239 0.5650 0.0221
0.7520 0.5688 0.0221
0.7798 0.5741 0.0222
0.8074 0.5809 0.0222
0.8350 0.5892 0.0223
0.8629 0.5982 0.0224
0.8911 0.6076 0.0225
0.9202 0.6155 0.0226
0.9508 0.6206 0.0223
0.0213 0.5240 0.0209
0.0347 0.5230 0.0209
0.0587 0.5209 0.0208
0.0908 0.5185 0.0208
0.1277 0.5164 0.0208
0.1630 0.5155 0.0208
0.1956 0.5175 0.0208
0.2282 0.5240 0.0209
0.2608 0.5346 0.0211
0.2934 0.5476 0.0213
0.3258 0.5601 0.0215
0.3582 0.5697 0.0216
0.3904 0.5752 0.0217
0.4223 0.5772 0.0217
0.4541 0.5773 0.0217
0.4858 0.5771 0.0217
0.5175 0.5775 0.0218
0.5490 0.5785 0.0218
0.5801 0.5801 0.0218
0.6105 0.5820 0.0219
0.6401 0.5838 0.0219
0.6688 0.5854 0.0220
0.6971 0.5871 0.0220
0.7250 0.5891 0.0221
0.7529 0.5919 0.0221
0.7808 0.5960 0.0221
0.8087 0.6017 0.0222
0.8368 0.6091 0.0222
0.8651 0.6175 0.0223
0.8939 0.6267 0.0224
0.9234 0.6347 0.0225
0.9541 0.6404 0.0223
0.0213 0.5511 0.0208
0.0347 0.5501 0.0208
0.0588 0.5481 0.0208
0.0910 0.5457 0.0208
0.1281 0.5435 0.0208
0.1635 0.5420 0.0208
0.1962 0.5426 0.0208
0.2289 0.5471 0.0208
0.2614 0.5563 0.0210
0.2938 0.5690 0.0211
0.3259 0.5824 0.0213
0.3579 0.5940 0.0215
0.3897 0.6018 0.0216
0.4213 0.6055 0.0217
0.4530 0.6064 0.0217
0.4847 0.6061 0.0217
0.5164 0.6060 0.0217
0.5482 0.6065 0.0218
0.5797 0.6076 0.0218
0.6106 0.6090 0.0218
0.6407 0.6105 0.0219
0.6698 0.6119 0.0219
0.6981 0.6132 0.0220
0.7259 0.6146 0.0221
0.7537 0.6164 0.0221
0.7814 0.6194 0.0222
0.8094 0.6239 0.0222
0.8379 0.6299 0.0222
0.8668 0.6373 0.0223
0.8961 0.6456 0.0224
0.9262 0.6530 0.0225
0.9571 0.6592 0.0223
0.0213 0.5786 0.0208
0.0348 0.5777 0.0208
0.0590 0.5758 0.0208
0.0914 0.5735 0.0208
0.1287 0.5713 0.0208
0.1643 0.5695 0.0207
0.1971 0.5690 0.0207
0.2298 0.5717 0.0208
0.2623 0.5790 0.0209
0.2945 0.5906 0.0210
0.3263 0.6045 0.0212
0.3579 0.6177 0.0214
0.3893 0.6277 0.0215
0.4206 0.6335 0.0216
0.4520 0.6357 0.0217
0.4836 0.6358 0.0217
0.5152 0.6354 0.0217
0.5471 0.6354 0.0218
0.5787 0.6359 0.0218
0.6101 0.6369 0.0218
0.6406 0.6381 0.0219
0.6702 0.6393 0.0219
0.6988 0.6403 0.0220
0.7266 0.6413 0.0221
0.7542 0.6425 0.0221
0.7818 0.6445 0.0222
0.8098 0.6477 0.0222
0.8384 0.6523 0.0222
0.8677 0.6581 0.0223
0.8976 0.6651 0.0224
0.9282 0.6714 0.0224
0.9595 0.6776 0.0223
0.0213 0.6065 0.0208
0.0350 0.6056 0.0208
0.0594 0.6038 0.0208
0.0920 0.6016 0.0207
0.1294 0.5995 0.0207
0.1652 0.5977 0.0207
0.1981 0.5965 0.0207
0.2308 0.5976 0.0207
0.2634 0.6029 0.0208
0.2955 0.6130 0.0209
0.3271 0.6265 0.0211
0.3583 0.6407 0.0213
0.3893 0.6528 0.0215
0.4201 0.6609 0.0216
0.4512 0.6648 0.0217
0.4825 0.6657 0.0217
0.5140 0.6653 0.0217
0.5458 0.6649 0.0217
0.5775 0.6650 0.0218
0.6091 0.6655 0.0218
0.6401 0.6663 0.0219
0.6701 0.6673 0.0219
0.6991 0.6682 0.0220
0.7271 0.6690 0.0220
0.7546 0.6699 0.0221
0.7820 0.6711 0.0222
0.8099 0.6732 0.0222
0.8385 0.6764 0.0222
0.8679 0.6807 0.0223
0.8982 0.6859 0.0223
0.9292 0.6908 0.0224
0.9609 0.6965 0.0223
0.0213 0.6348 0.0207
0.0352 0.6339 0.0207
0.0598 0.6322 0.0207
0.0927 0.6302 0.0207
0.1303 0.6282 0.0207
0.1662 0.6264 0.0207
0.1992 0.6250 0.0207
0.2321 0.6249 0.0207
0.2647 0.6283 0.0207
0.2969 0.6364 0.0208
0.3283 0.6488 0.0210
0.3592 0.6634 0.0212
0.3897 0.6772 0.0214
0.4201 0.6875 0.0215
0.4507 0.6935 0.0216
0.4816 0.6956 0.0217
0.5129 0.6956 0.0217
0.5445 0.6950 0.0218
0.5762 0.6946 0.0218
0.6079 0.6946 0.0218
0.6392 0.6951 0.0219
0.6696 0.6958 0.0219
0.6990 0.6967 0.0220
0.7273 0.6974 0.0220
0.7549 0.6982 0.0221
0.7821 0.6991 0.0222
0.8098 0.7004 0.0222
0.8382 0.7024 0.0223
0.8676 0.7052 0.0223
0.8979 0.7088 0.0223
0.9291 0.7122 0.0224
0.9612 0.7169 0.0223
0.0213 0.6634 0.0207
0.0355 0.6626 0.0207
0.0603 0.6610 0.0207
0.0934 0.6591 0.0207
0.1313 0.6573 0.0207
0.1673 0.6556 0.0207
0.2004 0.6541 0.0207
0.2333 0.6533 0.0207
0.2661 0.6550 0.0207
0.2984 0.6611 0.0208
0.3298 0.6719 0.0209
0.3605 0.6862 0.0211
0.3905 0.7010 0.0213
0.4203 0.7133 0.0215
0.4504 0.7215 0.0216
0.4809 0.7252 0.0217
0.5119 0.7259 0.0217
0.5434 0.7253 0.0218
0.5749 0.7246 0.0218
0.6067 0.7242 0.0218
0.6381 0.7242 0.0219
0.6689 0.7247 0.0219
0.6987 0.7254 0.0220
0.7273 0.7263 0.0221
0.7550 0.7271 0.0221
0.7822 0.7279 0.0222
0.8095 0.7288 0.0222
0.8377 0.7301 0.0223
0.8668 0.7319 0.0223
0.8971 0.7341 0.0223
0.9282 0.7362 0.0224
0.9606 0.7398 0.0223
0.0213 0.6923 0.0207
0.0358 0.6916 0.0207
0.0609 0.6901 0.0207
0.0943 0.6883 0.0207
