lut/adanmq/Adanmq_Fuji_Eterna_8553.cube
TITLE "Adanmq_Fuji Eterna 8553"
LUT_3D_SIZE 32
0.0215 0.0226 0.0223
0.0548 0.0226 0.0223
0.0869 0.0226 0.0223
0.1165 0.0226 0.0224
0.1440 0.0227 0.0224
0.1697 0.0227 0.0224
0.1944 0.0227 0.0224
0.2181 0.0228 0.0225
0.2408 0.0228 0.0225
0.2625 0.0228 0.0225
0.2834 0.0229 0.0225
0.3037 0.0229 0.0225
0.3237 0.0229 0.0225
0.3436 0.0229 0.0225
0.3636 0.0229 0.0225
0.3839 0.0229 0.0225
0.4046 0.0229 0.0225
0.4259 0.0229 0.0225
0.4479 0.0229 0.0225
0.4706 0.0229 0.0225
0.4939 0.0229 0.0225
0.5179 0.0229 0.0225
0.5425 0.0229 0.0225
0.5677 0.0229 0.0224
0.5935 0.0229 0.0224
0.6198 0.0229 0.0224
0.6468 0.0228 0.0223
0.6744 0.0228 0.0223
0.7025 0.0228 0.0223
0.7311 0.0228 0.0222
0.7605 0.0228 0.0222
0.7916 0.0227 0.0223
0.0215 0.0529 0.0223
0.0550 0.0529 0.0223
0.0874 0.0530 0.0223
0.1177 0.0532 0.0224
0.1462 0.0536 0.0224
0.1731 0.0542 0.0224
0.1989 0.0549 0.0224
0.2238 0.0557 0.0225
0.2477 0.0565 0.0225
0.2704 0.0572 0.0225
0.2921 0.0577 0.0225
0.3132 0.0582 0.0225
0.3337 0.0585 0.0225
0.3538 0.0587 0.0226
0.3739 0.0588 0.0226
0.3941 0.0588 0.0226
0.4146 0.0588 0.0226
0.4356 0.0587 0.0226
0.4570 0.0587 0.0225
0.4790 0.0586 0.0225
0.5015 0.0585 0.0225
0.5247 0.0584 0.0225
0.5485 0.0583 0.0225
0.5729 0.0582 0.0225
0.5980 0.0581 0.0224
0.6237 0.0580 0.0224
0.6502 0.0578 0.0224
0.6775 0.0576 0.0223
0.7056 0.0573 0.0223
0.7341 0.0569 0.0222
0.7635 0.0566 0.0222
0.7946 0.0564 0.0223
0.0215 0.0839 0.0223
0.0552 0.0840 0.0223
0.0884 0.0845 0.0223
0.1202 0.0853 0.0224
0.1508 0.0863 0.0224
0.1798 0.0876 0.0224
0.2079 0.0892 0.0225
0.2350 0.0909 0.0225
0.2611 0.0926 0.0225
0.2860 0.0942 0.0225
0.3096 0.0956 0.0225
0.3322 0.0967 0.0226
0.3539 0.0975 0.0226
0.3750 0.0981 0.0226
0.3957 0.0985 0.0226
0.4161 0.0987 0.0226
0.4366 0.0988 0.0226
0.4572 0.0987 0.0226
0.4779 0.0986 0.0226
0.4989 0.0985 0.0226
0.5203 0.0983 0.0226
0.5420 0.0980 0.0226
0.5643 0.0977 0.0225
0.5870 0.0974 0.0225
0.6105 0.0971 0.0225
0.6348 0.0967 0.0224
0.6599 0.0962 0.0224
0.6861 0.0956 0.0223
0.7133 0.0950 0.0223
0.7414 0.0943 0.0223
0.7705 0.0936 0.0222
0.8012 0.0930 0.0223
0.0215 0.1134 0.0223
0.0558 0.1140 0.0223
0.0900 0.1153 0.0223
0.1236 0.1171 0.0224
0.1565 0.1191 0.0224
0.1878 0.1214 0.0224
0.2181 0.1240 0.0225
0.2475 0.1267 0.0225
0.2760 0.1295 0.0225
0.3033 0.1320 0.0225
0.3292 0.1343 0.0226
0.3539 0.1363 0.0226
0.3774 0.1379 0.0226
0.3999 0.1391 0.0226
0.4217 0.1400 0.0226
0.4430 0.1405 0.0226
0.4638 0.1409 0.0226
0.4844 0.1411 0.0226
0.5048 0.1411 0.0226
0.5253 0.1409 0.0226
0.5457 0.1407 0.0226
0.5664 0.1404 0.0226
0.5873 0.1399 0.0226
0.6085 0.1394 0.0226
0.6303 0.1387 0.0226
0.6528 0.1380 0.0225
0.6762 0.1371 0.0225
0.7008 0.1361 0.0224
0.7266 0.1350 0.0224
0.7534 0.1338 0.0223
0.7817 0.1327 0.0223
0.8114 0.1315 0.0223
0.0215 0.1417 0.0223
0.0566 0.1428 0.0223
0.0920 0.1452 0.0223
0.1273 0.1484 0.0224
0.1622 0.1517 0.0224
0.1953 0.1552 0.0225
0.2271 0.1588 0.0225
0.2581 0.1625 0.0225
0.2883 0.1661 0.0225
0.3174 0.1695 0.0226
0.3452 0.1726 0.0226
0.3718 0.1754 0.0226
0.3972 0.1777 0.0226
0.4214 0.1796 0.0226
0.4446 0.1811 0.0226
0.4670 0.1822 0.0227
0.4887 0.1830 0.0227
0.5098 0.1834 0.0227
0.5306 0.1837 0.0227
0.5510 0.1838 0.0227
0.5714 0.1837 0.0227
0.5917 0.1835 0.0227
0.6120 0.1831 0.0227
0.6324 0.1825 0.0226
0.6533 0.1818 0.0226
0.6745 0.1808 0.0226
0.6966 0.1796 0.0226
0.7198 0.1783 0.0225
0.7441 0.1767 0.0225
0.7696 0.1750 0.0224
0.7969 0.1735 0.0224
0.8254 0.1719 0.0223
0.0215 0.1689 0.0223
0.0577 0.1706 0.0223
0.0945 0.1741 0.0223
0.1316 0.1787 0.0224
0.1682 0.1832 0.0224
0.2026 0.1877 0.0225
0.2352 0.1921 0.0225
0.2672 0.1963 0.0225
0.2982 0.2004 0.0226
0.3283 0.2042 0.0226
0.3574 0.2077 0.0226
0.3855 0.2109 0.0226
0.4125 0.2137 0.0226
0.4383 0.2161 0.0227
0.4631 0.2180 0.0227
0.4868 0.2195 0.0227
0.5096 0.2207 0.0227
0.5317 0.2216 0.0227
0.5530 0.2222 0.0227
0.5740 0.2226 0.0228
0.5946 0.2229 0.0228
0.6151 0.2229 0.0228
0.6355 0.2228 0.0228
0.6559 0.2225 0.0227
0.6765 0.2220 0.0227
0.6973 0.2211 0.0227
0.7188 0.2200 0.0227
0.7411 0.2186 0.0226
0.7646 0.2169 0.0226
0.7891 0.2151 0.0225
0.8155 0.2134 0.0225
0.8428 0.2118 0.0223
0.0215 0.1958 0.0223
0.0591 0.1978 0.0223
0.0975 0.2022 0.0224
0.1364 0.2078 0.0224
0.1746 0.2134 0.0225
0.2100 0.2187 0.0225
0.2430 0.2236 0.0225
0.2752 0.2282 0.0226
0.3065 0.2323 0.0226
0.3369 0.2363 0.0226
0.3665 0.2400 0.0226
0.3954 0.2433 0.0226
0.4234 0.2463 0.0227
0.4504 0.2489 0.0227
0.4766 0.2511 0.0227
0.5016 0.2530 0.0227
0.5257 0.2545 0.0227
0.5488 0.2557 0.0228
0.5710 0.2567 0.0228
0.5926 0.2574 0.0228
0.6137 0.2580 0.0228
0.6345 0.2585 0.0228
0.6554 0.2588 0.0228
0.6761 0.2589 0.0228
0.6970 0.2588 0.0228
0.7181 0.2583 0.0228
0.7397 0.2575 0.0228
0.7619 0.2564 0.0227
0.7852 0.2549 0.0227
0.8094 0.2532 0.0227
0.8354 0.2515 0.0226
0.8620 0.2499 0.0223
0.0215 0.2227 0.0223
0.0608 0.2248 0.0223
0.1009 0.2296 0.0223
0.1415 0.2361 0.0224
0.1813 0.2426 0.0225
0.2174 0.2487 0.0225
0.2507 0.2541 0.0226
0.2829 0.2589 0.0226
0.3140 0.2631 0.0226
0.3442 0.2670 0.0226
0.3736 0.2708 0.0226
0.4026 0.2742 0.0227
0.4310 0.2773 0.0227
0.4587 0.2800 0.0227
0.4858 0.2824 0.0227
0.5119 0.2846 0.0227
0.5371 0.2864 0.0228
0.5612 0.2879 0.0228
0.5843 0.2892 0.0228
0.6066 0.2902 0.0228
0.6282 0.2912 0.0229
0.6495 0.2921 0.0229
0.6706 0.2928 0.0229
0.6917 0.2934 0.0229
0.7130 0.2938 0.0229
0.7346 0.2938 0.0229
0.7566 0.2935 0.0229
0.7794 0.2928 0.0229
0.8030 0.2917 0.0228
0.8275 0.2903 0.0228
0.8538 0.2888 0.0228
0.8804 0.2874 0.0223
0.0215 0.2498 0.0223
0.0625 0.2518 0.0223
0.1045 0.2567 0.0223
0.1468 0.2636 0.0224
0.1881 0.2707 0.0225
0.2249 0.2774 0.0225
0.2583 0.2833 0.0226
0.2905 0.2882 0.0226
0.3214 0.2924 0.0226
0.3511 0.2963 0.0226
0.3800 0.2999 0.0227
0.4086 0.3034 0.0227
0.4368 0.3066 0.0227
0.4647 0.3095 0.0227
0.4922 0.3120 0.0228
0.5191 0.3143 0.0228
0.5451 0.3163 0.0228
0.5702 0.3181 0.0228
0.5941 0.3196 0.0228
0.6171 0.3210 0.0229
0.6392 0.3223 0.0229
0.6608 0.3235 0.0229
0.6820 0.3246 0.0229
0.7031 0.3257 0.0229
0.7245 0.3265 0.0229
0.7463 0.3271 0.0229
0.7688 0.3273 0.0229
0.7920 0.3271 0.0229
0.8162 0.3265 0.0229
0.8413 0.3254 0.0229
0.8681 0.3244 0.0229
0.8955 0.3234 0.0223
0.0215 0.2772 0.0223
0.0643 0.2790 0.0223
0.1080 0.2835 0.0223
0.1519 0.2903 0.0224
0.1945 0.2978 0.0224
0.2320 0.3049 0.0225
0.2656 0.3112 0.0226
0.2979 0.3162 0.0226
0.3287 0.3203 0.0226
0.3581 0.3239 0.0227
0.3865 0.3275 0.0227
0.4144 0.3310 0.0227
0.4421 0.3343 0.0227
0.4697 0.3372 0.0228
0.4973 0.3399 0.0228
0.5244 0.3423 0.0228
0.5511 0.3445 0.0228
0.5769 0.3465 0.0228
0.6017 0.3483 0.0229
0.6255 0.3499 0.0229
0.6482 0.3514 0.0229
0.6700 0.3529 0.0229
0.6912 0.3543 0.0229
0.7121 0.3557 0.0229
0.7332 0.3570 0.0230
0.7546 0.3580 0.0230
0.7769 0.3587 0.0230
0.8002 0.3590 0.0230
0.8247 0.3589 0.0230
0.8503 0.3584 0.0230
0.8776 0.3577 0.0230
0.9061 0.3574 0.0223
0.0215 0.3051 0.0222
0.0661 0.3063 0.0223
0.1114 0.3102 0.0223
0.1567 0.3167 0.0223
0.2004 0.3241 0.0224
0.2384 0.3316 0.0225
0.2723 0.3381 0.0226
0.3049 0.3432 0.0226
0.3358 0.3472 0.0226
0.3651 0.3505 0.0227
0.3931 0.3538 0.0227
0.4204 0.3572 0.0227
0.4475 0.3604 0.0227
0.4746 0.3635 0.0228
0.5018 0.3663 0.0228
0.5290 0.3688 0.0228
0.5559 0.3711 0.0228
0.5823 0.3733 0.0228
0.6078 0.3753 0.0229
0.6323 0.3772 0.0229
0.6558 0.3789 0.0229
0.6782 0.3807 0.0229
0.6997 0.3823 0.0229
0.7204 0.3840 0.0230
0.7410 0.3856 0.0230
0.7617 0.3870 0.0230
0.7832 0.3882 0.0230
0.8059 0.3889 0.0230
0.8302 0.3892 0.0230
0.8558 0.3892 0.0231
0.8832 0.3889 0.0231
0.9125 0.3893 0.0223
0.0215 0.3331 0.0222
0.0679 0.3340 0.0222
0.1147 0.3370 0.0223
0.1612 0.3427 0.0223
0.2057 0.3499 0.0224
0.2440 0.3575 0.0225
0.2781 0.3644 0.0225
0.3109 0.3696 0.0226
0.3422 0.3734 0.0226
0.3717 0.3763 0.0227
0.3997 0.3791 0.0227
0.4267 0.3822 0.0227
0.4532 0.3854 0.0227
0.4797 0.3886 0.0228
0.5063 0.3914 0.0228
0.5332 0.3940 0.0228
0.5601 0.3964 0.0228
0.5867 0.3986 0.0229
0.6127 0.4008 0.0229
0.6379 0.4029 0.0229
0.6622 0.4049 0.0229
0.6854 0.4069 0.0229
0.7075 0.4088 0.0230
0.7285 0.4107 0.0230
0.7488 0.4126 0.0230
0.7689 0.4144 0.0230
0.7896 0.4159 0.0230
0.8115 0.4171 0.0231
0.8350 0.4178 0.0231
0.8601 0.4182 0.0231
0.8874 0.4183 0.0231
0.9167 0.4195 0.0223
0.0215 0.3613 0.0222
0.0695 0.3617 0.0222
0.1177 0.3638 0.0222
0.1653 0.3685 0.0223
0.2104 0.3753 0.0223
0.2489 0.3830 0.0224
0.2829 0.3901 0.0225
0.3160 0.3956 0.0226
0.3477 0.3993 0.0226
0.3777 0.4018 0.0227
0.4060 0.4040 0.0227
0.4330 0.4066 0.0227
0.4592 0.4096 0.0227
0.4851 0.4127 0.0228
0.5111 0.4156 0.0228
0.5375 0.4183 0.0228
0.5640 0.4207 0.0228
0.5906 0.4229 0.0229
0.6168 0.4251 0.0229
0.6425 0.4273 0.0229
0.6674 0.4295 0.0229
0.6913 0.4317 0.0229
0.7142 0.4339 0.0230
0.7359 0.4361 0.0230
0.7566 0.4383 0.0230
0.7766 0.4403 0.0230
0.7967 0.4422 0.0231
0.8178 0.4437 0.0231
0.8405 0.4449 0.0231
0.8650 0.4457 0.0231
0.8920 0.4460 0.0232
0.9207 0.4480 0.0223
0.0215 0.3894 0.0222
0.0711 0.3894 0.0222
0.1206 0.3906 0.0222
0.1690 0.3942 0.0222
0.2146 0.4003 0.0223
0.2530 0.4078 0.0224
0.2869 0.4153 0.0225
0.3201 0.4212 0.0226
0.3521 0.4251 0.0226
0.3827 0.4273 0.0227
0.4116 0.4289 0.0227
0.4390 0.4308 0.0227
0.4652 0.4333 0.0227
0.4908 0.4361 0.0228
0.5163 0.4391 0.0228
0.5420 0.4417 0.0228
0.5681 0.4442 0.0228
0.5943 0.4464 0.0229
0.6204 0.4485 0.0229
0.6463 0.4506 0.0229
0.6715 0.4529 0.0229
0.6960 0.4553 0.0229
0.7197 0.4578 0.0230
0.7422 0.4603 0.0230
0.7636 0.4627 0.0230
0.7841 0.4650 0.0231
0.8042 0.4672 0.0231
0.8249 0.4691 0.0231
0.8471 0.4706 0.0232
0.8711 0.4717 0.0232
0.8976 0.4723 0.0232
0.9257 0.4750 0.0223
0.0215 0.4173 0.0222
0.0725 0.4170 0.0222
0.1232 0.4173 0.0222
0.1725 0.4197 0.0222
0.2184 0.4249 0.0222
0.2567 0.4321 0.0223
0.2902 0.4398 0.0224
0.3233 0.4463 0.0225
0.3555 0.4507 0.0226
0.3866 0.4529 0.0226
0.4162 0.4541 0.0227
0.4443 0.4552 0.0227
0.4709 0.4570 0.0227
0.4966 0.4594 0.0228
0.5218 0.4621 0.0228
0.5470 0.4648 0.0228
0.5724 0.4672 0.0228
0.5982 0.4693 0.0228
0.6240 0.4713 0.0229
0.6498 0.4733 0.0229
0.6751 0.4755 0.0229
0.6999 0.4780 0.0229
0.7241 0.4806 0.0230
0.7473 0.4833 0.0230
0.7696 0.4861 0.0231
0.7908 0.4888 0.0231
0.8114 0.4912 0.0231
0.8323 0.4934 0.0232
0.8544 0.4952 0.0232
0.8781 0.4965 0.0232
0.9044 0.4974 0.0232
0.9317 0.5008 0.0223
0.0216 0.4450 0.0221
0.0739 0.4445 0.0221
0.1256 0.4440 0.0221
0.1757 0.4452 0.0221
0.2220 0.4493 0.0222
0.2600 0.4559 0.0223
0.2931 0.4638 0.0224
0.3258 0.4710 0.0225
0.3580 0.4761 0.0226
0.3894 0.4788 0.0226
0.4197 0.4798 0.0227
0.4485 0.4803 0.0227
0.4759 0.4812 0.0227
0.5020 0.4830 0.0227
0.5272 0.4853 0.0228
0.5522 0.4877 0.0228
0.5772 0.4901 0.0228
0.6024 0.4922 0.0228
0.6278 0.4940 0.0229
0.6533 0.4958 0.0229
0.6785 0.4978 0.0229
0.7034 0.5001 0.0229
0.7278 0.5027 0.0230
0.7515 0.5056 0.0230
0.7744 0.5087 0.0231
0.7964 0.5117 0.0231
0.8178 0.5146 0.0231
0.8393 0.5171 0.0232
0.8617 0.5192 0.0232
0.8854 0.5208 0.0232
0.9115 0.5218 0.0233
0.9385 0.5258 0.0223
0.0216 0.4724 0.0221
0.0751 0.4717 0.0221
0.1278 0.4706 0.0221
0.1786 0.4707 0.0221
0.2252 0.4735 0.0221
0.2630 0.4793 0.0222
0.2957 0.4870 0.0223
0.3279 0.4948 0.0224
0.3599 0.5010 0.0225
0.3913 0.5046 0.0226
0.4220 0.5059 0.0226
0.4516 0.5060 0.0227
0.4798 0.5062 0.0227
0.5066 0.5071 0.0227
0.5323 0.5088 0.0227
0.5573 0.5109 0.0228
0.5820 0.5130 0.0228
0.6069 0.5150 0.0228
0.6318 0.5167 0.0229
0.6569 0.5183 0.0229
0.6819 0.5200 0.0229
0.7067 0.5219 0.0229
0.7311 0.5244 0.0230
0.7549 0.5273 0.0230
0.7783 0.5306 0.0230
0.8009 0.5340 0.0231
0.8231 0.5373 0.0231
0.8453 0.5403 0.0232
0.8683 0.5427 0.0232
0.8923 0.5447 0.0233
0.9185 0.5461 0.0233
0.9487 0.5466 0.0223
0.0216 0.4995 0.0221
0.0761 0.4986 0.0220
0.1297 0.4971 0.0220
0.1811 0.4962 0.0220
0.2281 0.4977 0.0221
0.2658 0.5023 0.0221
0.2981 0.5096 0.0222
0.3299 0.5179 0.0224
0.3614 0.5252 0.0225
0.3926 0.5301 0.0226
0.4234 0.5322 0.0226
0.4536 0.5324 0.0227
0.4826 0.5320 0.0227
0.5102 0.5322 0.0227
0.5366 0.5331 0.0227
0.5619 0.5346 0.0227
0.5868 0.5364 0.0228
0.6114 0.5382 0.0228
0.6360 0.5398 0.0228
0.6607 0.5412 0.0229
0.6854 0.5425 0.0229
0.7099 0.5440 0.0229
0.7342 0.5461 0.0229
0.7581 0.5487 0.0230
0.7816 0.5520 0.0230
0.8046 0.5556 0.0231
0.8274 0.5594 0.0231
0.8502 0.5630 0.0232
0.8738 0.5660 0.0232
0.8983 0.5685 0.0233
0.9248 0.5702 0.0233
0.9548 0.5712 0.0223
0.0216 0.5264 0.0220
0.0771 0.5254 0.0220
0.1314 0.5236 0.0220
0.1834 0.5218 0.0220
0.2307 0.5220 0.0220
0.2685 0.5253 0.0221
0.3004 0.5318 0.0222
0.3318 0.5402 0.0223
0.3627 0.5486 0.0224
0.3935 0.5550 0.0225
0.4241 0.5584 0.0226
0.4545 0.5593 0.0226
0.4841 0.5588 0.0227
0.5125 0.5582 0.0227
0.5397 0.5583 0.0227
0.5657 0.5592 0.0227
0.5909 0.5605 0.0228
0.6156 0.5619 0.0228
0.6400 0.5633 0.0228
0.6644 0.5645 0.0229
0.6888 0.5655 0.0229
0.7131 0.5666 0.0229
0.7372 0.5681 0.0229
0.7610 0.5703 0.0230
0.7846 0.5732 0.0230
0.8078 0.5769 0.0231
0.8309 0.5810 0.0231
0.8542 0.5851 0.0232
0.8783 0.5888 0.0232
0.9033 0.5920 0.0233
0.9301 0.5943 0.0233
0.9601 0.5957 0.0223
0.0216 0.5531 0.0220
0.0779 0.5520 0.0220
0.1329 0.5499 0.0220
0.1853 0.5477 0.0219
0.2330 0.5467 0.0219
0.2709 0.5485 0.0220
0.3027 0.5539 0.0221
0.3337 0.5621 0.0222
0.3641 0.5712 0.0223
0.3944 0.5791 0.0225
0.4245 0.5842 0.0226
0.4547 0.5863 0.0226
0.4846 0.5861 0.0227
0.5135 0.5852 0.0227
0.5415 0.5846 0.0227
0.5683 0.5847 0.0227
0.5940 0.5853 0.0227
0.6190 0.5863 0.0228
0.6435 0.5874 0.0228
0.6678 0.5883 0.0228
0.6920 0.5890 0.0229
0.7161 0.5897 0.0229
0.7400 0.5907 0.0229
0.7638 0.5922 0.0230
0.7873 0.5947 0.0230
0.8106 0.5980 0.0230
0.8339 0.6021 0.0231
0.8575 0.6066 0.0232
0.8820 0.6110 0.0232
0.9073 0.6150 0.0233
0.9344 0.6180 0.0233
0.9645 0.6200 0.0223
0.0216 0.5796 0.0219
0.0786 0.5785 0.0219
0.1341 0.5763 0.0219
0.1870 0.5737 0.0219
0.2350 0.5719 0.0219
0.2731 0.5723 0.0219
0.3049 0.5762 0.0220
0.3357 0.5836 0.0221
0.3657 0.5931 0.0222
0.3953 0.6023 0.0224
0.4248 0.6093 0.0225
0.4545 0.6130 0.0226
0.4843 0.6138 0.0226
0.5135 0.6129 0.0227
0.5421 0.6118 0.0227
0.5696 0.6111 0.0227
0.5960 0.6111 0.0227
0.6216 0.6115 0.0227
0.6464 0.6121 0.0228
0.6707 0.6127 0.0228
0.6948 0.6132 0.0229
0.7187 0.6135 0.0229
0.7425 0.6139 0.0229
0.7662 0.6148 0.0229
0.7897 0.6165 0.0230
0.8131 0.6193 0.0230
0.8365 0.6231 0.0231
0.8604 0.6277 0.0232
0.8851 0.6325 0.0232
0.9107 0.6372 0.0233
0.9381 0.6409 0.0233
0.9682 0.6435 0.0223
0.0216 0.6062 0.0219
0.0792 0.6050 0.0219
0.1353 0.6027 0.0219
0.1885 0.5999 0.0219
0.2368 0.5975 0.0219
0.2750 0.5967 0.0219
0.3070 0.5991 0.0219
0.3378 0.6053 0.0220
0.3675 0.6146 0.0222
0.3965 0.6248 0.0223
0.4253 0.6335 0.0225
0.4543 0.6392 0.0226
0.4835 0.6414 0.0226
0.5128 0.6411 0.0226
0.5416 0.6397 0.0227
0.5697 0.6385 0.0227
0.5968 0.6378 0.0227
0.6229 0.6375 0.0227
0.6482 0.6376 0.0228
0.6728 0.6378 0.0228
0.6970 0.6380 0.0228
0.7208 0.6379 0.0229
0.7446 0.6379 0.0229
0.7682 0.6381 0.0229
0.7917 0.6391 0.0230
0.8152 0.6410 0.0230
0.8388 0.6443 0.0231
0.8629 0.6485 0.0231
0.8879 0.6533 0.0232
0.9138 0.6585 0.0233
0.9414 0.6627 0.0233
0.9715 0.6662 0.0223
0.0216 0.6328 0.0219
0.0797 0.6316 0.0219
0.1363 0.6292 0.0219
0.1898 0.6263 0.0219
0.2384 0.6237 0.0218
0.2768 0.6219 0.0218
0.3089 0.6228 0.0219
0.3399 0.6275 0.0219
0.3695 0.6360 0.0221
0.3981 0.6466 0.0222
0.4261 0.6569 0.0224
0.4542 0.6646 0.0225
0.4827 0.6686 0.0226
0.5115 0.6694 0.0226
0.5404 0.6682 0.0227
0.5688 0.6666 0.0227
0.5964 0.6652 0.0227
0.6232 0.6643 0.0227
0.6490 0.6638 0.0227
0.6740 0.6636 0.0228
0.6984 0.6634 0.0228
0.7223 0.6631 0.0229
0.7460 0.6626 0.0229
0.7696 0.6623 0.0229
0.7932 0.6624 0.0230
0.8167 0.6635 0.0230
0.8406 0.6659 0.0231
0.8650 0.6694 0.0231
0.8903 0.6739 0.0232
0.9166 0.6790 0.0233
0.9444 0.6835 0.0233
0.9746 0.6876 0.0223
0.0216 0.6595 0.0219
0.0802 0.6583 0.0219
0.1371 0.6559 0.0218
0.1910 0.6529 0.0218
0.2398 0.6501 0.0218
0.2783 0.6478 0.0218
0.3107 0.6473 0.0218
0.3420 0.6503 0.0219
0.3717 0.6576 0.0220
0.3999 0.6680 0.0221
0.4273 0.6793 0.0223
0.4544 0.6889 0.0225
0.4820 0.6951 0.0226
0.5101 0.6974 0.0226
0.5386 0.6969 0.0226
0.5671 0.6951 0.0227
0.5951 0.6933 0.0227
0.6224 0.6917 0.0227
0.6487 0.6907 0.0227
0.6743 0.6899 0.0227
0.6990 0.6893 0.0228
0.7231 0.6887 0.0229
0.7469 0.6879 0.0229
0.7704 0.6871 0.0229
0.7940 0.6866 0.0230
0.8177 0.6868 0.0230
0.8417 0.6881 0.0231
0.8665 0.6907 0.0231
0.8922 0.6943 0.0232
0.9189 0.6988 0.0232
0.9471 0.7031 0.0233
0.9774 0.7078 0.0223
0.0216 0.6863 0.0218
0.0807 0.6851 0.0218
0.1380 0.6827 0.0218
0.1921 0.6797 0.0218
0.2411 0.6769 0.0218
0.2797 0.6743 0.0218
0.3122 0.6728 0.0218
0.3438 0.6741 0.0218
0.3738 0.6797 0.0219
0.4021 0.6893 0.0220
0.4289 0.7010 0.0222
0.4551 0.7122 0.0224
0.4816 0.7205 0.0225
0.5087 0.7248 0.0226
0.5366 0.7254 0.0226
0.5649 0.7239 0.0226
0.5931 0.7218 0.0227
0.6208 0.7197 0.0227
0.6476 0.7180 0.0227
0.6737 0.7168 0.0227
0.6988 0.7158 0.0228
0.7233 0.7148 0.0228
0.7472 0.7138 0.0229
0.7707 0.7127 0.0229
0.7942 0.7116 0.0230
0.8180 0.7110 0.0230
0.8422 0.7113 0.0231
0.8673 0.7127 0.0231
0.8933 0.7152 0.0232
0.9205 0.7187 0.0232
0.9490 0.7222 0.0232
0.9796 0.7272 0.0223
0.0216 0.7133 0.0218
0.0811 0.7121 0.0218
0.1387 0.7097 0.0218
0.1931 0.7068 0.0218
0.2422 0.7039 0.0218
0.2809 0.7012 0.0217
0.3136 0.6991 0.0217
0.3455 0.6990 0.0218
0.3760 0.7027 0.0218
0.4044 0.7110 0.0219
0.4309 0.7224 0.0221
0.4564 0.7347 0.0223
0.4817 0.7449 0.0224
0.5076 0.7513 0.0226
0.5346 0.7535 0.0226
0.5625 0.7527 0.0226
0.5906 0.7505 0.0227
0.6185 0.7480 0.0227
0.6458 0.7458 0.0227
0.6724 0.7440 0.0227
0.6981 0.7426 0.0228
0.7229 0.7413 0.0228
0.7470 0.7401 0.0229
0.7705 0.7388 0.0229
0.7940 0.7374 0.0230
0.8177 0.7362 0.0230
0.8420 0.7356 0.0231
0.8673 0.7358 0.0231
0.8937 0.7371 0.0231
0.9212 0.7393 0.0232
0.9501 0.7417 0.0232
0.9811 0.7465 0.0223
0.0216 0.7404 0.0218
0.0815 0.7393 0.0218
0.1394 0.7369 0.0218
0.1940 0.7340 0.0217
0.2432 0.7313 0.0217
0.2819 0.7285 0.0217
0.3146 0.7261 0.0217
0.3469 0.7249 0.0217
0.3778 0.7268 0.0218
0.4067 0.7333 0.0219
0.4332 0.7438 0.0220
0.4581 0.7565 0.0222
0.4823 0.7683 0.0224
0.5070 0.7768 0.0225
0.5328 0.7810 0.0226
0.5599 0.7813 0.0226
0.5877 0.7793 0.0227
0.6157 0.7766 0.0227
0.6434 0.7740 0.0227
0.6705 0.7716 0.0227
0.6968 0.7697 0.0228
0.7220 0.7681 0.0228
0.7465 0.7667 0.0229
0.7701 0.7653 0.0229
0.7935 0.7638 0.0230
0.8170 0.7622 0.0230
0.8412 0.7610 0.0231
0.8666 0.7603 0.0231
0.8932 0.7603 0.0231
0.9210 0.7612 0.0232
0.9502 0.7624 0.0232
0.9816 0.7666 0.0223
0.0216 0.7678 0.0217
0.0818 0.7667 0.0217
0.1400 0.7644 0.0217
0.1948 0.7616 0.0217
0.2441 0.7588 0.0217
0.2828 0.7562 0.0217
0.3155 0.7536 0.0217
0.3479 0.7517 0.0217
0.3794 0.7521 0.0217
0.4089 0.7566 0.0218
0.4357 0.7657 0.0219
0.4603 0.7780 0.0221
0.4836 0.7909 0.0223
0.5069 0.8013 0.0224
0.5314 0.8076 0.0226
0.5575 0.8094 0.0226
0.5848 0.8080 0.0227
0.6127 0.8052 0.0227
0.6406 0.8022 0.0227
0.6682 0.7994 0.0227
0.6950 0.7971 0.0228
0.7209 0.7952 0.0228
0.7458 0.7936 0.0229
0.7695 0.7921 0.0229
0.7928 0.7906 0.0230
0.8162 0.7889 0.0230
0.8401 0.7874 0.0231
0.8654 0.7860 0.0231
0.8920 0.7852 0.0231
0.9200 0.7850 0.0232
0.9494 0.7852 0.0232
0.9811 0.7885 0.0223
0.0216 0.7954 0.0217
0.0822 0.7943 0.0217
0.1406 0.7921 0.0217
0.1955 0.7893 0.0217
