lut/adanmq/Adanmq_Fuji_Astia_100.cube
TITLE "Adanmq_Fuji Astia 100"
LUT_3D_SIZE 5
DOMAIN_MIN 0.000000 0.000000 0.000000
DOMAIN_MAX 0.903226 0.903226 0.903226
0.0215 0.0228 0.0223
0.1799 0.0228 0.0224
0.3933 0.0229 0.0224
0.5951 0.0230 0.0222
0.7881 0.0228 0.0218
0.0214 0.1555 0.0222
0.1778 0.1898 0.0225
0.3908 0.2264 0.0226
0.5943 0.2481 0.0228
0.7801 0.2594 0.0227
0.0214 0.3426 0.0219
0.2263 0.4021 0.0225
0.4304 0.4463 0.0230
0.6423 0.4824 0.0233
0.8060 0.5013 0.0236
0.0215 0.5528 0.0216
0.2629 0.5751 0.0219
0.4701 0.6620 0.0231
0.6644 0.6846 0.0237
0.8350 0.7013 0.0241
0.0215 0.7772 0.0215
0.2991 0.7802 0.0215
0.4796 0.8748 0.0231
0.6749 0.8617 0.0236
0.8354 0.8543 0.0244
0.0215 0.0225 0.1402
0.1978 0.0227 0.1632
0.4282 0.0229 0.1757
0.6170 0.0228 0.1694
0.7919 0.0227 0.1609
0.0215 0.1476 0.1341
0.2163 0.2094 0.1902
0.4115 0.2250 0.2045
0.6204 0.2614 0.2282
0.7850 0.2568 0.1930
0.0215 0.3343 0.1541
0.2453 0.3804 0.2126
0.4592 0.4629 0.2743
0.6501 0.4976 0.2802
0.8210 0.5251 0.3337
0.0215 0.5474 0.1717
0.2833 0.5604 0.2029
0.5056 0.6649 0.3137
0.6914 0.6816 0.3384
0.8346 0.7217 0.3887
0.0215 0.7786 0.1961
0.3169 0.7819 0.2077
0.5543 0.7968 0.2321
0.6865 0.8444 0.3263
0.8641 0.8332 0.3784
0.0215 0.0225 0.2558
0.2001 0.0228 0.3248
0.4272 0.0231 0.3391
0.6217 0.0231 0.3690
0.8002 0.0228 0.3482
0.0215 0.1502 0.2716
0.1909 0.1960 0.3408
0.4244 0.2477 0.3859
0.6414 0.2813 0.4016
0.8008 0.2749 0.3765
0.0216 0.3181 0.3059
0.2474 0.3919 0.3776
0.4524 0.4685 0.4418
0.6584 0.4851 0.4487
0.8250 0.5080 0.4681
0.0216 0.5336 0.3368
0.2987 0.5770 0.3713
0.4980 0.6441 0.4466
0.6941 0.7027 0.5084
0.8439 0.7368 0.5231
0.0217 0.7602 0.3335
0.3459 0.7774 0.3944
0.5711 0.7828 0.4325
0.7231 0.8455 0.5548
0.8838 0.8394 0.5868
0.0215 0.0222 0.4172
0.2606 0.0223 0.4410
0.4209 0.0234 0.5301
0.6216 0.0236 0.5255
0.7736 0.0236 0.5725
0.0215 0.1870 0.4398
0.2097 0.1993 0.4794
0.4323 0.2738 0.5785
0.6498 0.3179 0.5895
0.7829 0.3061 0.5687
0.0216 0.3296 0.4880
0.2489 0.3841 0.5487
0.4587 0.4632 0.6159
0.6681 0.5011 0.6480
0.8196 0.5075 0.6369
0.0216 0.5085 0.4950
0.3070 0.5708 0.5561
0.5077 0.6548 0.6318
0.6898 0.7062 0.6773
0.8479 0.7121 0.6867
0.0217 0.7515 0.5383
0.3816 0.7660 0.5669
0.5595 0.8061 0.6141
0.7384 0.8390 0.6648
0.8804 0.8878 0.7227
0.0215 0.0219 0.6123
0.2843 0.0218 0.6123
0.4087 0.0235 0.7346
0.6060 0.0239 0.7333
0.8009 0.0241 0.7374
0.0215 0.2087 0.6179
0.2788 0.2089 0.6289
0.4379 0.2485 0.7372
0.6088 0.3388 0.7529
0.7899 0.3479 0.7390
0.0215 0.3675 0.7203
0.2820 0.4023 0.7178
0.4470 0.4437 0.7478
0.6625 0.5068 0.8007
0.8263 0.5351 0.7985
0.0216 0.5342 0.7228
0.3019 0.5684 0.7409
0.5188 0.6424 0.7905
0.6971 0.6944 0.8228
0.8538 0.7182 0.8472
0.0217 0.7405 0.7327
0.3679 0.7553 0.7459
0.5696 0.8035 0.7982
0.7406 0.8480 0.8395
0.8891 0.9007 0.8815
