lut/adanmq/Adanmq_Fujifilm_Superia_Xtra_400.cube
TITLE "Adanmq_Fujifilm Superia Xtra 400"
LUT_3D_SIZE 32
0.0214 0.0223 0.0221
0.0456 0.0223 0.0220
0.0720 0.0223 0.0220
0.0958 0.0223 0.0220
0.1158 0.0223 0.0220
0.1316 0.0223 0.0220
0.1461 0.0223 0.0220
0.1615 0.0224 0.0220
0.1789 0.0225 0.0221
0.1984 0.0226 0.0221
0.2200 0.0226 0.0221
0.2433 0.0226 0.0221
0.2681 0.0227 0.0221
0.2940 0.0227 0.0221
0.3211 0.0227 0.0221
0.3494 0.0227 0.0221
0.3789 0.0228 0.0221
0.4097 0.0228 0.0221
0.4414 0.0228 0.0221
0.4740 0.0228 0.0221
0.5073 0.0228 0.0221
0.5410 0.0228 0.0220
0.5751 0.0228 0.0220
0.6093 0.0228 0.0219
0.6436 0.0228 0.0219
0.6779 0.0227 0.0218
0.7122 0.0227 0.0218
0.7465 0.0226 0.0217
0.7809 0.0226 0.0216
0.8154 0.0225 0.0215
0.8495 0.0225 0.0215
0.8825 0.0227 0.0223
0.0214 0.0465 0.0220
0.0454 0.0464 0.0220
0.0717 0.0461 0.0220
0.0955 0.0461 0.0220
0.1157 0.0462 0.0220
0.1318 0.0468 0.0220
0.1468 0.0476 0.0220
0.1627 0.0488 0.0220
0.1804 0.0502 0.0221
0.2003 0.0515 0.0221
0.2220 0.0527 0.0221
0.2454 0.0537 0.0221
0.2701 0.0544 0.0221
0.2959 0.0549 0.0221
0.3229 0.0554 0.0221
0.3511 0.0558 0.0222
0.3805 0.0561 0.0222
0.4111 0.0565 0.0221
0.4426 0.0569 0.0221
0.4750 0.0572 0.0221
0.5079 0.0573 0.0221
0.5412 0.0574 0.0220
0.5749 0.0573 0.0220
0.6087 0.0570 0.0219
0.6427 0.0565 0.0219
0.6767 0.0558 0.0218
0.7109 0.0550 0.0218
0.7452 0.0541 0.0217
0.7797 0.0530 0.0216
0.8143 0.0519 0.0215
0.8485 0.0509 0.0215
0.8816 0.0506 0.0223
0.0214 0.0758 0.0220
0.0452 0.0755 0.0220
0.0713 0.0750 0.0220
0.0951 0.0746 0.0220
0.1156 0.0747 0.0220
0.1325 0.0754 0.0220
0.1483 0.0766 0.0220
0.1652 0.0782 0.0220
0.1838 0.0800 0.0221
0.2043 0.0820 0.0221
0.2266 0.0837 0.0221
0.2502 0.0852 0.0221
0.2750 0.0865 0.0221
0.3008 0.0876 0.0221
0.3278 0.0885 0.0222
0.3560 0.0894 0.0222
0.3852 0.0904 0.0222
0.4156 0.0912 0.0222
0.4468 0.0921 0.0222
0.4787 0.0928 0.0222
0.5110 0.0934 0.0221
0.5436 0.0937 0.0221
0.5765 0.0937 0.0220
0.6094 0.0934 0.0220
0.6425 0.0929 0.0219
0.6758 0.0920 0.0219
0.7094 0.0908 0.0218
0.7435 0.0893 0.0217
0.7777 0.0876 0.0216
0.8123 0.0857 0.0216
0.8467 0.0839 0.0215
0.8799 0.0832 0.0223
0.0214 0.1028 0.0220
0.0453 0.1024 0.0220
0.0714 0.1020 0.0219
0.0954 0.1017 0.0219
0.1165 0.1020 0.0219
0.1342 0.1027 0.0220
0.1509 0.1040 0.0220
0.1688 0.1056 0.0220
0.1884 0.1074 0.0220
0.2098 0.1092 0.0221
0.2328 0.1110 0.0221
0.2571 0.1126 0.0221
0.2823 0.1142 0.0221
0.3085 0.1157 0.0222
0.3356 0.1173 0.0222
0.3638 0.1187 0.0222
0.3931 0.1202 0.0222
0.4234 0.1216 0.0222
0.4544 0.1229 0.0222
0.4859 0.1241 0.0222
0.5177 0.1250 0.0222
0.5496 0.1257 0.0222
0.5815 0.1261 0.0221
0.6134 0.1261 0.0221
0.6454 0.1257 0.0220
0.6777 0.1249 0.0219
0.7103 0.1238 0.0219
0.7435 0.1223 0.0218
0.7772 0.1205 0.0217
0.8114 0.1183 0.0216
0.8455 0.1162 0.0215
0.8786 0.1156 0.0223
0.0214 0.1237 0.0220
0.0461 0.1237 0.0219
0.0728 0.1238 0.0219
0.0973 0.1243 0.0219
0.1190 0.1252 0.0219
0.1373 0.1266 0.0219
0.1548 0.1283 0.0220
0.1735 0.1301 0.0220
0.1939 0.1320 0.0220
0.2160 0.1338 0.0221
0.2397 0.1356 0.0221
0.2647 0.1373 0.0221
0.2907 0.1391 0.0221
0.3175 0.1409 0.0222
0.3452 0.1428 0.0222
0.3738 0.1446 0.0222
0.4033 0.1465 0.0222
0.4336 0.1482 0.0223
0.4645 0.1498 0.0223
0.4958 0.1511 0.0223
0.5271 0.1523 0.0223
0.5584 0.1531 0.0222
0.5897 0.1537 0.0222
0.6207 0.1539 0.0222
0.6517 0.1537 0.0221
0.6829 0.1532 0.0221
0.7144 0.1524 0.0220
0.7466 0.1512 0.0219
0.7793 0.1496 0.0218
0.8126 0.1476 0.0217
0.8461 0.1457 0.0216
0.8788 0.1456 0.0223
0.0214 0.1378 0.0219
0.0473 0.1382 0.0219
0.0751 0.1392 0.0219
0.1006 0.1408 0.0219
0.1231 0.1429 0.0219
0.1420 0.1452 0.0220
0.1601 0.1476 0.0220
0.1794 0.1500 0.0220
0.2004 0.1524 0.0221
0.2231 0.1547 0.0221
0.2474 0.1568 0.0221
0.2731 0.1589 0.0221
0.2999 0.1609 0.0222
0.3276 0.1628 0.0222
0.3561 0.1648 0.0222
0.3854 0.1668 0.0222
0.4154 0.1686 0.0223
0.4459 0.1704 0.0223
0.4767 0.1720 0.0223
0.5077 0.1734 0.0223
0.5386 0.1745 0.0223
0.5693 0.1753 0.0223
0.5998 0.1758 0.0223
0.6301 0.1760 0.0223
0.6603 0.1759 0.0222
0.6905 0.1755 0.0222
0.7211 0.1749 0.0221
0.7522 0.1741 0.0220
0.7838 0.1729 0.0219
0.8161 0.1714 0.0219
0.8488 0.1698 0.0218
0.8807 0.1708 0.0223
0.0214 0.1498 0.0220
0.0488 0.1504 0.0219
0.0782 0.1522 0.0219
0.1050 0.1549 0.0219
0.1286 0.1581 0.0220
0.1481 0.1614 0.0220
0.1668 0.1648 0.0220
0.1866 0.1681 0.0221
0.2081 0.1713 0.0221
0.2312 0.1745 0.0222
0.2559 0.1775 0.0222
0.2821 0.1803 0.0222
0.3095 0.1827 0.0222
0.3381 0.1849 0.0222
0.3676 0.1869 0.0222
0.3978 0.1889 0.0223
0.4285 0.1908 0.0223
0.4594 0.1925 0.0223
0.4902 0.1941 0.0224
0.5208 0.1954 0.0224
0.5511 0.1964 0.0224
0.5811 0.1971 0.0224
0.6109 0.1974 0.0224
0.6403 0.1974 0.0224
0.6698 0.1971 0.0224
0.6992 0.1967 0.0223
0.7289 0.1962 0.0223
0.7591 0.1954 0.0222
0.7898 0.1945 0.0221
0.8211 0.1932 0.0220
0.8529 0.1920 0.0220
0.8843 0.1932 0.0223
0.0214 0.1634 0.0220
0.0503 0.1641 0.0220
0.0812 0.1663 0.0220
0.1097 0.1698 0.0220
0.1346 0.1739 0.0220
0.1549 0.1783 0.0220
0.1741 0.1827 0.0221
0.1946 0.1870 0.0222
0.2166 0.1911 0.0222
0.2401 0.1953 0.0222
0.2649 0.1995 0.0222
0.2913 0.2032 0.0222
0.3193 0.2063 0.0222
0.3486 0.2088 0.0223
0.3790 0.2110 0.0223
0.4102 0.2130 0.0223
0.4416 0.2151 0.0223
0.4731 0.2170 0.0224
0.5040 0.2187 0.0224
0.5344 0.2201 0.0224
0.5641 0.2211 0.0224
0.5932 0.2216 0.0225
0.6220 0.2217 0.0225
0.6504 0.2214 0.0225
0.6790 0.2210 0.0225
0.7077 0.2203 0.0224
0.7366 0.2196 0.0224
0.7660 0.2187 0.0223
0.7960 0.2177 0.0223
0.8264 0.2165 0.0222
0.8575 0.2153 0.0222
0.8885 0.2165 0.0223
0.0214 0.1803 0.0220
0.0514 0.1809 0.0220
0.0839 0.1830 0.0220
0.1140 0.1870 0.0220
0.1403 0.1919 0.0220
0.1616 0.1972 0.0221
0.1816 0.2025 0.0222
0.2028 0.2076 0.0222
0.2254 0.2126 0.0222
0.2493 0.2176 0.0223
0.2743 0.2226 0.0223
0.3008 0.2271 0.0223
0.3290 0.2310 0.0223
0.3587 0.2340 0.0223
0.3898 0.2365 0.0223
0.4217 0.2388 0.0224
0.4540 0.2411 0.0224
0.4860 0.2434 0.0224
0.5173 0.2455 0.0224
0.5478 0.2473 0.0225
0.5771 0.2484 0.0225
0.6054 0.2490 0.0225
0.6331 0.2490 0.0225
0.6603 0.2485 0.0225
0.6877 0.2477 0.0225
0.7153 0.2467 0.0225
0.7434 0.2456 0.0225
0.7721 0.2445 0.0225
0.8014 0.2433 0.0224
0.8313 0.2419 0.0224
0.8618 0.2406 0.0223
0.8927 0.2415 0.0223
0.0214 0.2007 0.0219
0.0521 0.2010 0.0219
0.0858 0.2029 0.0220
0.1175 0.2070 0.0220
0.1453 0.2125 0.0220
0.1677 0.2187 0.0221
0.1886 0.2249 0.0222
0.2107 0.2307 0.0222
0.2342 0.2361 0.0223
0.2587 0.2415 0.0223
0.2840 0.2469 0.0224
0.3105 0.2521 0.0224
0.3386 0.2565 0.0224
0.3684 0.2601 0.0224
0.3998 0.2631 0.0224
0.4322 0.2657 0.0224
0.4650 0.2684 0.0224
0.4977 0.2711 0.0225
0.5296 0.2738 0.0225
0.5603 0.2761 0.0225
0.5897 0.2778 0.0225
0.6176 0.2788 0.0225
0.6444 0.2790 0.0225
0.6704 0.2784 0.0226
0.6964 0.2773 0.0226
0.7226 0.2759 0.0226
0.7494 0.2743 0.0226
0.7772 0.2727 0.0226
0.8057 0.2712 0.0225
0.8350 0.2695 0.0225
0.8652 0.2681 0.0225
0.8961 0.2686 0.0223
0.0214 0.2236 0.0219
0.0524 0.2237 0.0219
0.0871 0.2253 0.0219
0.1203 0.2294 0.0220
0.1496 0.2355 0.0220
0.1731 0.2426 0.0221
0.1950 0.2497 0.0222
0.2181 0.2561 0.0223
0.2426 0.2618 0.0223
0.2679 0.2673 0.0224
0.2938 0.2728 0.0224
0.3204 0.2782 0.0224
0.3484 0.2831 0.0225
0.3779 0.2873 0.0225
0.4091 0.2907 0.0225
0.4416 0.2938 0.0225
0.4748 0.2968 0.0225
0.5080 0.2999 0.0225
0.5404 0.3031 0.0225
0.5717 0.3061 0.0225
0.6015 0.3086 0.0226
0.6295 0.3102 0.0226
0.6561 0.3109 0.0226
0.6813 0.3105 0.0226
0.7060 0.3093 0.0226
0.7306 0.3075 0.0226
0.7559 0.3054 0.0226
0.7822 0.3033 0.0226
0.8097 0.3012 0.0226
0.8383 0.2993 0.0226
0.8679 0.2976 0.0226
0.8986 0.2976 0.0223
0.0214 0.2478 0.0219
0.0527 0.2477 0.0219
0.0883 0.2490 0.0219
0.1229 0.2531 0.0219
0.1537 0.2598 0.0220
0.1783 0.2679 0.0221
0.2011 0.2762 0.0222
0.2253 0.2834 0.0223
0.2507 0.2896 0.0223
0.2771 0.2949 0.0224
0.3037 0.3002 0.0224
0.3307 0.3056 0.0225
0.3585 0.3109 0.0225
0.3876 0.3155 0.0225
0.4183 0.3195 0.0225
0.4505 0.3229 0.0225
0.4836 0.3262 0.0225
0.5170 0.3296 0.0226
0.5498 0.3331 0.0226
0.5817 0.3367 0.0226
0.6121 0.3399 0.0226
0.6407 0.3425 0.0226
0.6676 0.3440 0.0226
0.6927 0.3443 0.0226
0.7167 0.3432 0.0226
0.7400 0.3412 0.0226
0.7637 0.3386 0.0226
0.7884 0.3358 0.0226
0.8145 0.3331 0.0226
0.8419 0.3306 0.0226
0.8708 0.3288 0.0226
0.9010 0.3283 0.0223
0.0214 0.2727 0.0219
0.0530 0.2724 0.0219
0.0894 0.2734 0.0219
0.1256 0.2776 0.0219
0.1578 0.2847 0.0220
0.1835 0.2939 0.0221
0.2072 0.3034 0.0222
0.2322 0.3118 0.0222
0.2586 0.3186 0.0223
0.2860 0.3241 0.0224
0.3136 0.3292 0.0224
0.3412 0.3344 0.0225
0.3691 0.3397 0.0225
0.3978 0.3448 0.0225
0.4279 0.3493 0.0226
0.4594 0.3532 0.0226
0.4920 0.3568 0.0226
0.5252 0.3602 0.0226
0.5581 0.3638 0.0226
0.5903 0.3677 0.0226
0.6211 0.3716 0.0226
0.6505 0.3750 0.0226
0.6781 0.3776 0.0226
0.7037 0.3789 0.0226
0.7278 0.3785 0.0226
0.7506 0.3767 0.0226
0.7731 0.3738 0.0226
0.7962 0.3702 0.0226
0.8207 0.3668 0.0226
0.8468 0.3636 0.0226
0.8748 0.3612 0.0226
0.9042 0.3602 0.0223
0.0214 0.2983 0.0218
0.0534 0.2980 0.0218
0.0907 0.2987 0.0218
0.1282 0.3025 0.0219
0.1621 0.3099 0.0219
0.1889 0.3199 0.0220
0.2133 0.3308 0.0221
0.2389 0.3407 0.0222
0.2662 0.3485 0.0223
0.2947 0.3545 0.0224
0.3235 0.3594 0.0224
0.3520 0.3643 0.0225
0.3802 0.3696 0.0225
0.4087 0.3750 0.0225
0.4382 0.3800 0.0226
0.4689 0.3844 0.0226
0.5007 0.3883 0.0226
0.5333 0.3918 0.0226
0.5658 0.3953 0.0226
0.5979 0.3991 0.0226
0.6290 0.4032 0.0226
0.6588 0.4073 0.0226
0.6871 0.4109 0.0227
0.7136 0.4134 0.0227
0.7382 0.4142 0.0227
0.7612 0.4132 0.0227
0.7833 0.4105 0.0227
0.8054 0.4066 0.0227
0.8286 0.4023 0.0227
0.8532 0.3981 0.0227
0.8802 0.3949 0.0227
0.9086 0.3932 0.0223
0.0214 0.3248 0.0218
0.0538 0.3244 0.0218
0.0919 0.3247 0.0218
0.1309 0.3279 0.0218
0.1663 0.3351 0.0219
0.1943 0.3457 0.0219
0.2193 0.3579 0.0221
0.2455 0.3694 0.0222
0.2734 0.3788 0.0223
0.3029 0.3857 0.0224
0.3329 0.3908 0.0224
0.3626 0.3955 0.0225
0.3916 0.4005 0.0225
0.4203 0.4059 0.0225
0.4493 0.4113 0.0226
0.4792 0.4163 0.0226
0.5100 0.4206 0.0226
0.5416 0.4243 0.0226
0.5734 0.4277 0.0226
0.6050 0.4312 0.0226
0.6360 0.4351 0.0227
0.6659 0.4393 0.0227
0.6946 0.4435 0.0227
0.7218 0.4471 0.0227
0.7474 0.4493 0.0227
0.7710 0.4497 0.0227
0.7933 0.4478 0.0227
0.8151 0.4440 0.0227
0.8375 0.4393 0.0227
0.8610 0.4342 0.0227
0.8870 0.4301 0.0227
0.9142 0.4273 0.0223
0.0215 0.3522 0.0217
0.0542 0.3518 0.0217
0.0931 0.3518 0.0217
0.1334 0.3542 0.0217
0.1704 0.3608 0.0218
0.1996 0.3714 0.0219
0.2253 0.3846 0.0220
0.2520 0.3979 0.0221
0.2804 0.4091 0.0222
0.3105 0.4174 0.0223
0.3415 0.4232 0.0224
0.3725 0.4278 0.0224
0.4026 0.4325 0.0225
0.4319 0.4377 0.0225
0.4609 0.4432 0.0226
0.4901 0.4486 0.0226
0.5199 0.4534 0.0226
0.5504 0.4575 0.0226
0.5813 0.4610 0.0227
0.6121 0.4643 0.0227
0.6425 0.4677 0.0227
0.6722 0.4716 0.0227
0.7010 0.4758 0.0227
0.7286 0.4800 0.0227
0.7548 0.4835 0.0227
0.7794 0.4853 0.0227
0.8023 0.4848 0.0227
0.8244 0.4820 0.0227
0.8466 0.4775 0.0227
0.8694 0.4719 0.0227
0.8946 0.4668 0.0227
0.9210 0.4628 0.0223
0.0215 0.3805 0.0217
0.0546 0.3800 0.0217
0.0941 0.3798 0.0217
0.1357 0.3814 0.0216
0.1743 0.3870 0.0217
0.2047 0.3972 0.0218
0.2313 0.4109 0.0219
0.2584 0.4257 0.0221
0.2870 0.4390 0.0222
0.3174 0.4492 0.0223
0.3492 0.4562 0.0224
0.3814 0.4611 0.0224
0.4127 0.4655 0.0225
0.4429 0.4703 0.0225
0.4723 0.4756 0.0225
0.5012 0.4811 0.0226
0.5302 0.4864 0.0226
0.5597 0.4910 0.0226
0.5895 0.4948 0.0227
0.6194 0.4980 0.0227
0.6491 0.5011 0.0227
0.6783 0.5043 0.0227
0.7068 0.5081 0.0227
0.7344 0.5123 0.0227
0.7609 0.5164 0.0228
0.7860 0.5194 0.0228
0.8097 0.5205 0.0228
0.8324 0.5192 0.0228
0.8549 0.5156 0.0228
0.8777 0.5104 0.0228
0.9026 0.5051 0.0228
0.9321 0.5030 0.0223
0.0215 0.4096 0.0216
0.0550 0.4092 0.0216
0.0952 0.4088 0.0216
0.1378 0.4097 0.0216
0.1780 0.4142 0.0216
0.2098 0.4235 0.0217
0.2372 0.4371 0.0218
0.2647 0.4530 0.0220
0.2934 0.4683 0.0221
0.3239 0.4807 0.0223
0.3561 0.4894 0.0224
0.3890 0.4950 0.0224
0.4215 0.4994 0.0224
0.4528 0.5037 0.0225
0.4828 0.5087 0.0225
0.5120 0.5140 0.0226
0.5406 0.5194 0.0226
0.5693 0.5244 0.0226
0.5980 0.5287 0.0227
0.6269 0.5322 0.0227
0.6558 0.5351 0.0227
0.6843 0.5379 0.0227
0.7124 0.5410 0.0227
0.7396 0.5446 0.0228
0.7660 0.5485 0.0228
0.7913 0.5522 0.0228
0.8156 0.5547 0.0228
0.8390 0.5551 0.0228
0.8620 0.5532 0.0228
0.8852 0.5492 0.0228
0.9101 0.5447 0.0228
0.9395 0.5424 0.0223
0.0215 0.4394 0.0216
0.0555 0.4392 0.0216
0.0963 0.4388 0.0215
0.1399 0.4393 0.0215
0.1815 0.4425 0.0215
0.2147 0.4505 0.0216
0.2432 0.4635 0.0217
0.2712 0.4798 0.0219
0.2999 0.4967 0.0221
0.3302 0.5114 0.0222
0.3622 0.5222 0.0223
0.3954 0.5292 0.0224
0.4288 0.5338 0.0224
0.4611 0.5379 0.0224
0.4921 0.5423 0.0225
0.5218 0.5473 0.0225
0.5505 0.5525 0.0226
0.5787 0.5577 0.0226
0.6066 0.5624 0.0227
0.6346 0.5664 0.0227
0.6627 0.5695 0.0227
0.6905 0.5721 0.0228
0.7179 0.5746 0.0228
0.7447 0.5774 0.0228
0.7707 0.5808 0.0228
0.7959 0.5844 0.0228
0.8203 0.5876 0.0228
0.8441 0.5894 0.0228
0.8677 0.5895 0.0228
0.8915 0.5875 0.0228
0.9168 0.5845 0.0228
0.9461 0.5825 0.0223
0.0215 0.4700 0.0215
0.0561 0.4698 0.0215
0.0975 0.4696 0.0215
0.1422 0.4699 0.0215
0.1851 0.4722 0.0215
0.2196 0.4786 0.0215
0.2492 0.4903 0.0216
0.2778 0.5064 0.0218
0.3065 0.5243 0.0219
0.3364 0.5410 0.0221
0.3679 0.5541 0.0223
0.4010 0.5630 0.0224
0.4347 0.5684 0.0224
0.4679 0.5725 0.0224
0.4998 0.5764 0.0225
0.5303 0.5808 0.0225
0.5594 0.5857 0.0225
0.5875 0.5908 0.0226
0.6151 0.5957 0.0226
0.6424 0.6001 0.0227
0.6696 0.6037 0.0227
0.6967 0.6064 0.0228
0.7234 0.6087 0.0228
0.7497 0.6109 0.0228
0.7753 0.6135 0.0228
0.8001 0.6165 0.0228
0.8244 0.6198 0.0228
0.8483 0.6226 0.0228
0.8723 0.6242 0.0228
0.8966 0.6243 0.0229
0.9225 0.6233 0.0229
0.9518 0.6220 0.0223
0.0215 0.5012 0.0215
0.0568 0.5012 0.0215
0.0991 0.5012 0.0214
0.1447 0.5015 0.0214
0.1887 0.5031 0.0214
0.2244 0.5079 0.0214
0.2551 0.5179 0.0215
0.2844 0.5331 0.0216
0.3132 0.5513 0.0218
0.3427 0.5696 0.0220
0.3735 0.5850 0.0222
0.4060 0.5960 0.0223
0.4396 0.6028 0.0224
0.4732 0.6072 0.0224
0.5059 0.6108 0.0224
0.5373 0.6147 0.0224
0.5671 0.6190 0.0225
0.5956 0.6237 0.0225
0.6230 0.6286 0.0226
0.6500 0.6332 0.0226
0.6765 0.6373 0.0227
0.7029 0.6405 0.0228
0.7290 0.6429 0.0228
0.7547 0.6449 0.0228
0.7798 0.6468 0.0228
0.8042 0.6491 0.0229
0.8282 0.6519 0.0229
0.8520 0.6549 0.0229
0.8761 0.6576 0.0229
0.9008 0.6594 0.0229
0.9270 0.6602 0.0229
0.9566 0.6598 0.0223
0.0215 0.5332 0.0214
0.0577 0.5333 0.0214
0.1009 0.5335 0.0214
0.1474 0.5340 0.0213
0.1924 0.5352 0.0213
0.2292 0.5387 0.0213
0.2609 0.5467 0.0214
0.2910 0.5603 0.0215
0.3201 0.5780 0.0217
0.3492 0.5972 0.0219
0.3793 0.6145 0.0221
0.4109 0.6278 0.0223
0.4439 0.6365 0.0224
0.4775 0.6417 0.0224
0.5107 0.6454 0.0224
0.5428 0.6488 0.0224
0.5734 0.6525 0.0224
0.6025 0.6567 0.0225
0.6303 0.6613 0.0226
0.6571 0.6659 0.0226
0.6832 0.6703 0.0227
0.7090 0.6740 0.0228
0.7345 0.6769 0.0228
0.7596 0.6789 0.0229
0.7842 0.6806 0.0229
0.8082 0.6823 0.0229
0.8318 0.6845 0.0229
0.8554 0.6871 0.0229
0.8795 0.6900 0.0229
0.9043 0.6927 0.0229
0.9308 0.6947 0.0229
0.9605 0.6952 0.0223
0.0215 0.5659 0.0214
0.0588 0.5661 0.0213
0.1030 0.5665 0.0213
0.1504 0.5672 0.0213
0.1962 0.5683 0.0212
0.2338 0.5708 0.0212
0.2665 0.5769 0.0213
0.2976 0.5883 0.0214
0.3272 0.6048 0.0215
0.3561 0.6241 0.0218
0.3854 0.6429 0.0220
0.4160 0.6584 0.0222
0.4480 0.6693 0.0223
0.4811 0.6758 0.0224
0.5144 0.6798 0.0224
0.5470 0.6830 0.0224
0.5784 0.6863 0.0224
0.6083 0.6899 0.0224
0.6366 0.6940 0.0225
0.6636 0.6984 0.0226
0.6895 0.7028 0.0226
0.7148 0.7068 0.0227
0.7397 0.7101 0.0228
0.7642 0.7126 0.0229
0.7883 0.7143 0.0229
0.8119 0.7158 0.0229
0.8353 0.7173 0.0229
0.8587 0.7194 0.0229
0.8827 0.7218 0.0229
0.9076 0.7245 0.0229
0.9342 0.7269 0.0229
0.9639 0.7281 0.0223
0.0215 0.5990 0.0213
0.0600 0.5993 0.0213
0.1052 0.5999 0.0212
0.1536 0.6009 0.0212
0.2002 0.6019 0.0212
0.2384 0.6038 0.0211
0.2719 0.6082 0.0212
0.3039 0.6174 0.0212
0.3342 0.6320 0.0214
0.3633 0.6505 0.0216
0.3919 0.6701 0.0219
0.4214 0.6876 0.0221
0.4522 0.7007 0.0222
0.4844 0.7090 0.0223
0.5174 0.7139 0.0224
0.5502 0.7172 0.0224
0.5822 0.7201 0.0224
0.6129 0.7232 0.0224
0.6419 0.7266 0.0224
0.6693 0.7306 0.0225
0.6953 0.7347 0.0226
0.7202 0.7388 0.0227
0.7445 0.7425 0.0228
0.7683 0.7454 0.0229
0.7919 0.7474 0.0229
0.8151 0.7488 0.0229
0.8382 0.7501 0.0229
0.8616 0.7514 0.0229
0.8856 0.7532 0.0229
0.9105 0.7553 0.0229
0.9372 0.7574 0.0229
0.9669 0.7588 0.0223
0.0215 0.6326 0.0212
0.0612 0.6330 0.0212
0.1076 0.6338 0.0212
0.1569 0.6349 0.0211
0.2043 0.6361 0.0211
0.2430 0.6377 0.0211
0.2772 0.6408 0.0211
0.3102 0.6477 0.0211
0.3414 0.6599 0.0213
0.3707 0.6770 0.0215
0.3990 0.6966 0.0217
0.4274 0.7155 0.0220
0.4568 0.7308 0.0222
0.4877 0.7412 0.0223
0.5200 0.7475 0.0223
0.5527 0.7511 0.0223
0.5851 0.7539 0.0224
0.6165 0.7565 0.0224
0.6462 0.7594 0.0224
0.6742 0.7627 0.0225
0.7004 0.7664 0.0225
0.7252 0.7702 0.0226
0.7489 0.7740 0.0227
0.7720 0.7772 0.0228
0.7949 0.7796 0.0229
0.8176 0.7813 0.0229
0.8405 0.7823 0.0230
0.8638 0.7833 0.0230
0.8880 0.7843 0.0229
0.9131 0.7855 0.0229
0.9399 0.7869 0.0229
0.9697 0.7883 0.0223
0.0215 0.6665 0.0212
0.0626 0.6670 0.0211
0.1101 0.6679 0.0211
0.1604 0.6692 0.0211
0.2085 0.6705 0.0211
0.2477 0.6720 0.0211
0.2824 0.6743 0.0210
0.3163 0.6792 0.0211
0.3485 0.6888 0.0211
0.3784 0.7038 0.0213
0.4065 0.7226 0.0215
0.4340 0.7422 0.0218
0.4620 0.7595 0.0220
0.4914 0.7723 0.0222
0.5225 0.7803 0.0223
0.5549 0.7848 0.0223
0.5873 0.7876 0.0223
0.6192 0.7899 0.0223
0.6496 0.7921 0.0224
0.6783 0.7947 0.0224
0.7049 0.7978 0.0225
0.7296 0.8011 0.0226
0.7529 0.8047 0.0227
0.7752 0.8080 0.0228
0.7973 0.8108 0.0229
0.8193 0.8127 0.0229
0.8419 0.8138 0.0230
0.8651 0.8145 0.0230
0.8895 0.8149 0.0230
0.9148 0.8154 0.0230
0.9419 0.8159 0.0229
0.9720 0.8172 0.0223
0.0215 0.7007 0.0211
0.0639 0.7013 0.0211
0.1127 0.7024 0.0211
0.1641 0.7037 0.0211
0.2130 0.7051 0.0210
0.2525 0.7065 0.0210
0.2876 0.7083 0.0210
0.3222 0.7117 0.0210
0.3554 0.7188 0.0210
0.3862 0.7313 0.0212
0.4145 0.7486 0.0214
0.4413 0.7683 0.0216
0.4679 0.7870 0.0219
0.4957 0.8021 0.0221
0.5254 0.8122 0.0222
0.5568 0.8180 0.0223
0.5891 0.8211 0.0223
0.6213 0.8231 0.0223
0.6522 0.8248 0.0223
0.6816 0.8267 0.0224
0.7088 0.8289 0.0224
0.7337 0.8317 0.0225
0.7566 0.8348 0.0226
0.7782 0.8380 0.0227
0.7993 0.8409 0.0229
0.8205 0.8431 0.0229
0.8424 0.8444 0.0230
0.8655 0.8450 0.0230
0.8900 0.8451 0.0230
0.9156 0.8449 0.0230
0.9431 0.8448 0.0230
0.9734 0.8460 0.0223
0.0215 0.7352 0.0211
0.0654 0.7357 0.0211
0.1155 0.7369 0.0210
0.1679 0.7383 0.0210
0.2176 0.7397 0.0210
0.2575 0.7411 0.0209
0.2929 0.7427 0.0209
0.3280 0.7450 0.0209
0.3620 0.7499 0.0209
0.3938 0.7598 0.0210
0.4226 0.7749 0.0212
0.4491 0.7939 0.0215
0.4746 0.8136 0.0218
0.5007 0.8307 0.0220
0.5287 0.8431 0.0222
0.5589 0.8505 0.0222
0.5906 0.8542 0.0223
0.6228 0.8561 0.0223
0.6542 0.8573 0.0223
0.6841 0.8585 0.0223
0.7120 0.8599 0.0224
0.7373 0.8618 0.0225
0.7601 0.8644 0.0226
0.7811 0.8673 0.0227
0.8011 0.8702 0.0228
0.8213 0.8726 0.0229
0.8424 0.8742 0.0230
0.8651 0.8748 0.0230
0.8895 0.8748 0.0231
0.9154 0.8744 0.0230
0.9432 0.8739 0.0230
0.9740 0.8748 0.0223
0.0215 0.7697 0.0210
0.0669 0.7703 0.0210
0.1183 0.7715 0.0210
0.1719 0.7729 0.0210
