lut/adanmq/Adanmq_Kodak_Portra_400.cube
TITLE "Adanmq_Kodak Portra 400"
LUT_3D_SIZE 5
DOMAIN_MIN 0.000000 0.000000 0.000000
DOMAIN_MAX 0.903226 0.903226 0.903226
0.0214 0.0221 0.0218
0.1352 0.0222 0.0219
0.2666 0.0225 0.0220
0.4440 0.0226 0.0219
0.6598 0.0223 0.0216
0.0214 0.1294 0.0216
0.1405 0.1381 0.0219
0.2873 0.1507 0.0220
0.4791 0.1588 0.0222
0.6815 0.1559 0.0222
0.0213 0.2809 0.0215
0.1618 0.2997 0.0218
0.3196 0.3121 0.0222
0.5301 0.3268 0.0224
0.7334 0.3371 0.0225
0.0213 0.4962 0.0211
0.1882 0.5105 0.0212
0.3508 0.5400 0.0220
0.5567 0.5541 0.0224
0.7682 0.5760 0.0226
0.0213 0.7389 0.0208
0.2090 0.7480 0.0206
0.3691 0.7791 0.0217
0.5874 0.7905 0.0220
0.7753 0.8051 0.0228
0.0214 0.0218 0.1372
0.1369 0.0222 0.1639
0.2728 0.0224 0.1874
0.4529 0.0225 0.1975
0.6605 0.0223 0.1840
0.0214 0.1277 0.1196
0.1689 0.1790 0.1668
0.3020 0.1593 0.1567
0.5009 0.1872 0.1861
0.6843 0.2025 0.1951
0.0214 0.2840 0.1160
0.1938 0.3128 0.1566
0.3584 0.3580 0.1813
0.5457 0.3622 0.1846
0.7430 0.3672 0.2149
0.0214 0.5068 0.1251
0.2055 0.5195 0.1404
0.4058 0.5737 0.1972
0.6079 0.5800 0.2212
0.7764 0.5972 0.2524
0.0213 0.7482 0.1346
0.2191 0.7538 0.1300
0.4508 0.7674 0.1394
0.6150 0.7935 0.2164
0.8128 0.8061 0.2729
0.0214 0.0217 0.2932
0.1181 0.0222 0.3699
0.2719 0.0226 0.4222
0.4601 0.0226 0.4605
0.6757 0.0224 0.4479
0.0214 0.1398 0.2846
0.1591 0.1727 0.3423
0.3268 0.2109 0.3862
0.4966 0.2339 0.4117
0.7059 0.2598 0.4552
0.0215 0.3046 0.2773
0.1993 0.3519 0.3352
0.3906 0.4133 0.3934
0.5658 0.3715 0.3600
0.7556 0.3946 0.4045
0.0215 0.5294 0.2787
0.2440 0.5623 0.3219
0.4126 0.5879 0.3630
0.6297 0.6329 0.4271
0.7921 0.6410 0.4324
0.0215 0.7718 0.2883
0.2562 0.7675 0.3232
0.4798 0.7670 0.3358
0.6672 0.8173 0.4582
0.8568 0.8336 0.5172
0.0213 0.0216 0.5237
0.1711 0.0219 0.5652
0.2549 0.0231 0.6707
0.4611 0.0233 0.6592
0.6658 0.0230 0.6971
0.0214 0.1852 0.5362
0.1681 0.1928 0.5683
0.3107 0.2542 0.6255
0.5013 0.3024 0.6336
0.6849 0.2926 0.6679
0.0215 0.3465 0.5300
0.2004 0.3753 0.5726
0.3727 0.4258 0.6125
0.6006 0.4511 0.6305
0.7568 0.4634 0.6293
0.0215 0.5557 0.5227
0.2603 0.5848 0.5664
0.4355 0.6262 0.6103
0.6436 0.6627 0.6399
0.8065 0.6318 0.6201
0.0215 0.7821 0.5336
0.3048 0.7830 0.5529
0.5139 0.8069 0.5959
0.6849 0.8262 0.6237
0.8565 0.8669 0.6937
0.0213 0.0217 0.7635
0.1946 0.0219 0.7651
0.2533 0.0233 0.8691
0.4559 0.0238 0.8502
0.6779 0.0242 0.8329
0.0213 0.2338 0.7667
0.1879 0.2553 0.7681
0.3297 0.2682 0.8144
0.4724 0.3606 0.8361
0.6813 0.3883 0.8195
0.0214 0.4257 0.7889
0.2297 0.4748 0.7885
0.3553 0.4630 0.7902
0.5753 0.5200 0.8138
0.7595 0.5752 0.8216
0.0215 0.6053 0.7662
0.2816 0.6316 0.7884
0.4275 0.6459 0.8023
0.6279 0.6735 0.8242
0.8252 0.6917 0.8386
0.0216 0.7982 0.7704
0.3515 0.8082 0.7801
0.5209 0.8236 0.8111
0.6967 0.8470 0.8417
0.8671 0.8766 0.8624
