lut/adanmq/Adanmq_Fuji_Eterna_8553.cube
TITLE "Adanmq_Fuji Eterna 8553"
LUT_3D_SIZE 5
DOMAIN_MIN 0.000000 0.000000 0.000000
DOMAIN_MAX 0.903226 0.903226 0.903226
0.0215 0.0226 0.0223
0.2181 0.0228 0.0225
0.3636 0.0229 0.0225
0.5179 0.0229 0.0225
0.7025 0.0228 0.0223
0.0215 0.2227 0.0223
0.2829 0.2589 0.0226
0.4858 0.2824 0.0227
0.6495 0.2921 0.0229
0.8030 0.2917 0.0228
0.0215 0.4173 0.0222
0.3233 0.4463 0.0225
0.5218 0.4621 0.0228
0.6999 0.4780 0.0229
0.8544 0.4952 0.0232
0.0216 0.6062 0.0219
0.3378 0.6053 0.0220
0.5416 0.6397 0.0227
0.7208 0.6379 0.0229
0.8879 0.6533 0.0232
0.0216 0.7954 0.0217
0.3487 0.7793 0.0216
0.5304 0.8332 0.0225
0.7196 0.8225 0.0228
0.8906 0.8116 0.0231
0.0215 0.0223 0.1882
0.2360 0.0226 0.2178
0.4230 0.0228 0.2372
0.5830 0.0229 0.2535
0.7158 0.0228 0.2319
0.0215 0.2071 0.2083
0.2806 0.2632 0.2495
0.4842 0.2812 0.2618
0.6504 0.2930 0.2716
0.7657 0.2831 0.2544
0.0215 0.4111 0.2087
0.3161 0.4392 0.2407
0.5140 0.4860 0.2785
0.6908 0.5164 0.2920
0.8560 0.5171 0.3148
0.0216 0.6021 0.2014
0.3457 0.5833 0.1976
0.5391 0.6415 0.2701
0.7285 0.6514 0.2933
0.8773 0.6897 0.3430
0.0216 0.7838 0.1883
0.3495 0.7664 0.1821
0.5613 0.7724 0.1978
0.7242 0.8208 0.2900
0.9025 0.8179 0.3337
0.0215 0.0221 0.3221
0.2307 0.0226 0.3904
0.4424 0.0229 0.4113
0.6143 0.0230 0.4527
0.7789 0.0231 0.4604
0.0215 0.1954 0.3877
0.2733 0.2579 0.4453
0.4797 0.2855 0.4661
0.6551 0.3028 0.4798
0.7919 0.3029 0.4813
0.0216 0.3940 0.4092
0.3030 0.4614 0.4635
0.5082 0.5192 0.5077
0.6913 0.5196 0.5152
0.8529 0.5312 0.5319
0.0216 0.5998 0.4138
0.3343 0.6231 0.4395
0.5213 0.6571 0.4778
0.7050 0.7047 0.5260
0.8695 0.7363 0.5601
0.0216 0.8036 0.4042
0.3473 0.7790 0.4053
0.5612 0.7672 0.4126
0.7206 0.8383 0.5272
0.9087 0.8552 0.5914
0.0214 0.0219 0.5013
0.2235 0.0222 0.5275
0.4288 0.0229 0.5901
0.6177 0.0230 0.5776
0.7554 0.0231 0.6281
0.0214 0.1880 0.5339
0.2426 0.2278 0.5729
0.4599 0.2834 0.6361
0.6414 0.2985 0.6269
0.7828 0.2990 0.6403
0.0215 0.3877 0.5979
0.2907 0.4383 0.6261
0.4977 0.5012 0.6775
0.6908 0.5171 0.6970
0.8450 0.5347 0.7097
0.0217 0.5792 0.6080
0.3318 0.6169 0.6372
0.5187 0.6758 0.6883
0.7023 0.7183 0.7223
0.8661 0.7176 0.7414
0.0216 0.7863 0.6103
0.3453 0.7829 0.6177
0.5449 0.8190 0.6651
0.7190 0.8479 0.6993
0.8856 0.8986 0.7684
0.0214 0.0218 0.6965
0.2029 0.0217 0.6863
0.4019 0.0228 0.7770
0.5922 0.0229 0.7565
0.7764 0.0230 0.7460
0.0214 0.1813 0.6880
0.1946 0.1797 0.6799
0.4301 0.2412 0.7731
0.5923 0.2809 0.7662
0.7683 0.2784 0.7476
0.0215 0.3893 0.7732
0.2427 0.4005 0.7412
0.4475 0.4506 0.7810
0.6561 0.4944 0.8306
0.8296 0.5226 0.8271
0.0216 0.5734 0.7953
0.3127 0.5928 0.7900
0.5014 0.6435 0.8212
0.6876 0.6873 0.8590
0.8645 0.7052 0.8795
0.0217 0.7764 0.8113
0.3573 0.7753 0.8096
0.5265 0.8076 0.8394
0.7154 0.8544 0.8777
0.8873 0.8943 0.9046
