lut/adanmq/Adanmq_Fuji_Provia_100.cube
TITLE "Adanmq_Fuji Provia 100"
LUT_3D_SIZE 32
0.0214 0.0223 0.0220
0.0522 0.0223 0.0220
0.0834 0.0223 0.0219
0.1100 0.0223 0.0219
0.1306 0.0223 0.0219
0.1507 0.0223 0.0219
0.1728 0.0223 0.0219
0.1978 0.0223 0.0219
0.2257 0.0223 0.0219
0.2553 0.0223 0.0219
0.2854 0.0224 0.0219
0.3153 0.0224 0.0219
0.3447 0.0225 0.0219
0.3736 0.0226 0.0219
0.4022 0.0226 0.0220
0.4305 0.0227 0.0220
0.4585 0.0227 0.0220
0.4863 0.0227 0.0220
0.5140 0.0227 0.0220
0.5419 0.0227 0.0219
0.5700 0.0227 0.0219
0.5985 0.0227 0.0219
0.6276 0.0227 0.0219
0.6573 0.0227 0.0219
0.6875 0.0227 0.0218
0.7180 0.0227 0.0217
0.7489 0.0227 0.0217
0.7800 0.0227 0.0216
0.8113 0.0227 0.0215
0.8429 0.0226 0.0215
0.8746 0.0226 0.0214
0.9068 0.0227 0.0223
0.0214 0.0471 0.0219
0.0524 0.0468 0.0219
0.0837 0.0464 0.0219
0.1105 0.0459 0.0219
0.1312 0.0455 0.0219
0.1513 0.0453 0.0219
0.1731 0.0453 0.0219
0.1978 0.0454 0.0219
0.2253 0.0457 0.0219
0.2545 0.0462 0.0219
0.2842 0.0472 0.0219
0.3138 0.0486 0.0219
0.3431 0.0503 0.0219
0.3721 0.0520 0.0219
0.4009 0.0535 0.0220
0.4295 0.0547 0.0220
0.4577 0.0555 0.0220
0.4857 0.0559 0.0220
0.5133 0.0562 0.0220
0.5409 0.0562 0.0219
0.5688 0.0562 0.0219
0.5972 0.0561 0.0219
0.6261 0.0560 0.0219
0.6556 0.0559 0.0219
0.6858 0.0558 0.0218
0.7164 0.0556 0.0218
0.7473 0.0554 0.0217
0.7785 0.0551 0.0216
0.8100 0.0547 0.0216
0.8418 0.0544 0.0215
0.8737 0.0541 0.0214
0.9059 0.0539 0.0223
0.0214 0.0756 0.0219
0.0526 0.0752 0.0219
0.0842 0.0744 0.0219
0.1113 0.0733 0.0219
0.1322 0.0724 0.0219
0.1524 0.0718 0.0219
0.1739 0.0715 0.0219
0.1980 0.0716 0.0219
0.2248 0.0721 0.0219
0.2532 0.0730 0.0219
0.2823 0.0747 0.0219
0.3114 0.0773 0.0219
0.3405 0.0805 0.0219
0.3696 0.0840 0.0220
0.3987 0.0873 0.0220
0.4278 0.0901 0.0220
0.4565 0.0921 0.0220
0.4847 0.0934 0.0220
0.5125 0.0940 0.0220
0.5400 0.0943 0.0220
0.5676 0.0943 0.0220
0.5956 0.0943 0.0220
0.6243 0.0942 0.0219
0.6536 0.0942 0.0219
0.6836 0.0942 0.0219
0.7139 0.0940 0.0218
0.7447 0.0937 0.0217
0.7760 0.0932 0.0217
0.8076 0.0926 0.0216
0.8395 0.0919 0.0215
0.8718 0.0912 0.0215
0.9042 0.0905 0.0223
0.0215 0.1032 0.0219
0.0529 0.1028 0.0219
0.0845 0.1018 0.0219
0.1118 0.1003 0.0219
0.1329 0.0990 0.0219
0.1534 0.0981 0.0219
0.1750 0.0978 0.0219
0.1988 0.0982 0.0219
0.2248 0.0991 0.0219
0.2524 0.1006 0.0219
0.2809 0.1029 0.0219
0.3096 0.1063 0.0219
0.3384 0.1106 0.0220
0.3675 0.1155 0.0220
0.3969 0.1205 0.0220
0.4264 0.1248 0.0220
0.4558 0.1282 0.0220
0.4846 0.1305 0.0221
0.5127 0.1318 0.0221
0.5404 0.1325 0.0221
0.5680 0.1328 0.0221
0.5958 0.1331 0.0220
0.6242 0.1334 0.0220
0.6531 0.1338 0.0220
0.6826 0.1342 0.0219
0.7126 0.1344 0.0219
0.7430 0.1342 0.0219
0.7739 0.1338 0.0218
0.8053 0.1330 0.0217
0.8372 0.1321 0.0216
0.8695 0.1311 0.0215
0.9021 0.1304 0.0223
0.0215 0.1263 0.0218
0.0531 0.1261 0.0218
0.0843 0.1252 0.0218
0.1112 0.1238 0.0218
0.1328 0.1227 0.0218
0.1541 0.1223 0.0219
0.1763 0.1228 0.0219
0.2002 0.1241 0.0219
0.2259 0.1260 0.0219
0.2530 0.1283 0.0219
0.2810 0.1312 0.0219
0.3094 0.1348 0.0219
0.3381 0.1393 0.0220
0.3672 0.1444 0.0220
0.3968 0.1497 0.0220
0.4266 0.1545 0.0221
0.4563 0.1584 0.0221
0.4857 0.1612 0.0221
0.5143 0.1629 0.0222
0.5424 0.1640 0.0222
0.5703 0.1647 0.0222
0.5981 0.1654 0.0222
0.6264 0.1662 0.0222
0.6549 0.1671 0.0221
0.6839 0.1680 0.0221
0.7132 0.1687 0.0220
0.7429 0.1691 0.0220
0.7732 0.1689 0.0219
0.8041 0.1685 0.0219
0.8356 0.1677 0.0218
0.8677 0.1668 0.0217
0.9002 0.1660 0.0223
0.0215 0.1445 0.0217
0.0531 0.1445 0.0218
0.0835 0.1442 0.0218
0.1097 0.1438 0.0218
0.1320 0.1436 0.0218
0.1545 0.1443 0.0219
0.1779 0.1461 0.0219
0.2025 0.1489 0.0219
0.2283 0.1524 0.0219
0.2552 0.1562 0.0219
0.2828 0.1601 0.0219
0.3111 0.1643 0.0220
0.3398 0.1690 0.0220
0.3689 0.1741 0.0220
0.3985 0.1794 0.0221
0.4284 0.1844 0.0221
0.4584 0.1886 0.0222
0.4881 0.1917 0.0222
0.5172 0.1939 0.0222
0.5458 0.1953 0.0223
0.5740 0.1965 0.0223
0.6020 0.1977 0.0223
0.6302 0.1990 0.0223
0.6584 0.2004 0.0223
0.6868 0.2018 0.0222
0.7153 0.2030 0.0222
0.7442 0.2039 0.0222
0.7737 0.2043 0.0221
0.8038 0.2043 0.0220
0.8347 0.2039 0.0220
0.8662 0.2033 0.0219
0.8986 0.2023 0.0223
0.0215 0.1567 0.0217
0.0525 0.1571 0.0217
0.0820 0.1581 0.0218
0.1079 0.1594 0.0218
0.1311 0.1612 0.0219
0.1552 0.1639 0.0219
0.1802 0.1677 0.0219
0.2058 0.1724 0.0219
0.2320 0.1778 0.0219
0.2588 0.1833 0.0219
0.2862 0.1887 0.0220
0.3143 0.1939 0.0220
0.3430 0.1991 0.0220
0.3722 0.2044 0.0221
0.4020 0.2099 0.0221
0.4319 0.2150 0.0222
0.4619 0.2195 0.0222
0.4917 0.2230 0.0223
0.5210 0.2255 0.0223
0.5500 0.2275 0.0224
0.5785 0.2292 0.0224
0.6067 0.2309 0.0224
0.6347 0.2326 0.0225
0.6625 0.2345 0.0224
0.6903 0.2363 0.0224
0.7181 0.2379 0.0224
0.7462 0.2393 0.0224
0.7748 0.2403 0.0223
0.8041 0.2408 0.0223
0.8342 0.2410 0.0222
0.8651 0.2409 0.0222
0.8972 0.2398 0.0223
0.0214 0.1649 0.0217
0.0514 0.1657 0.0217
0.0803 0.1681 0.0217
0.1065 0.1718 0.0218
0.1311 0.1763 0.0219
0.1567 0.1817 0.0219
0.1832 0.1880 0.0219
0.2099 0.1949 0.0220
0.2365 0.2022 0.0220
0.2631 0.2094 0.0220
0.2901 0.2163 0.0220
0.3180 0.2228 0.0221
0.3467 0.2288 0.0221
0.3762 0.2345 0.0221
0.4062 0.2402 0.0222
0.4363 0.2457 0.0222
0.4664 0.2505 0.0223
0.4963 0.2545 0.0224
0.5258 0.2575 0.0224
0.5549 0.2601 0.0225
0.5835 0.2623 0.0225
0.6115 0.2645 0.0226
0.6392 0.2668 0.0226
0.6665 0.2690 0.0226
0.6937 0.2712 0.0226
0.7209 0.2732 0.0226
0.7482 0.2750 0.0226
0.7760 0.2764 0.0225
0.8046 0.2774 0.0225
0.8340 0.2782 0.0225
0.8643 0.2786 0.0224
0.8961 0.2776 0.0223
0.0214 0.1724 0.0216
0.0500 0.1736 0.0217
0.0788 0.1771 0.0217
0.1062 0.1830 0.0218
0.1323 0.1905 0.0219
0.1594 0.1989 0.0219
0.1870 0.2079 0.0220
0.2143 0.2171 0.0220
0.2409 0.2262 0.0221
0.2672 0.2349 0.0221
0.2938 0.2430 0.0221
0.3214 0.2505 0.0221
0.3502 0.2573 0.0222
0.3800 0.2637 0.0222
0.4104 0.2698 0.0222
0.4409 0.2757 0.0223
0.4712 0.2811 0.0224
0.5013 0.2856 0.0224
0.5310 0.2893 0.0225
0.5602 0.2924 0.0226
0.5888 0.2952 0.0226
0.6166 0.2979 0.0226
0.6438 0.3007 0.0227
0.6704 0.3035 0.0227
0.6969 0.3061 0.0227
0.7233 0.3084 0.0227
0.7500 0.3105 0.0227
0.7772 0.3122 0.0227
0.8051 0.3136 0.0227
0.8339 0.3148 0.0227
0.8637 0.3157 0.0226
0.8953 0.3149 0.0223
0.0214 0.1829 0.0217
0.0488 0.1842 0.0217
0.0780 0.1884 0.0217
0.1071 0.1958 0.0218
0.1348 0.2056 0.0219
0.1629 0.2168 0.0219
0.1910 0.2285 0.0220
0.2184 0.2401 0.0221
0.2448 0.2508 0.0221
0.2707 0.2605 0.0222
0.2968 0.2692 0.0222
0.3242 0.2773 0.0222
0.3530 0.2846 0.0223
0.3831 0.2915 0.0223
0.4140 0.2981 0.0223
0.4450 0.3045 0.0224
0.4757 0.3105 0.0224
0.5062 0.3157 0.0225
0.5363 0.3201 0.0226
0.5658 0.3239 0.0226
0.5943 0.3272 0.0227
0.6219 0.3305 0.0227
0.6487 0.3338 0.0228
0.6746 0.3371 0.0228
0.7003 0.3403 0.0228
0.7259 0.3431 0.0228
0.7518 0.3455 0.0228
0.7783 0.3475 0.0228
0.8058 0.3492 0.0229
0.8340 0.3506 0.0229
0.8635 0.3517 0.0229
0.8949 0.3511 0.0223
0.0214 0.1992 0.0217
0.0479 0.2003 0.0217
0.0779 0.2043 0.0217
0.1092 0.2121 0.0218
0.1381 0.2232 0.0218
0.1668 0.2365 0.0219
0.1950 0.2507 0.0220
0.2221 0.2643 0.0221
0.2481 0.2764 0.0222
0.2737 0.2867 0.0222
0.2996 0.2955 0.0223
0.3268 0.3035 0.0223
0.3556 0.3109 0.0224
0.3859 0.3179 0.0224
0.4170 0.3249 0.0224
0.4483 0.3318 0.0225
0.4796 0.3384 0.0225
0.5106 0.3444 0.0226
0.5413 0.3496 0.0226
0.5712 0.3540 0.0227
0.6001 0.3580 0.0228
0.6277 0.3618 0.0228
0.6542 0.3657 0.0229
0.6797 0.3695 0.0229
0.7046 0.3733 0.0229
0.7293 0.3767 0.0229
0.7544 0.3797 0.0229
0.7801 0.3821 0.0230
0.8069 0.3839 0.0230
0.8348 0.3855 0.0230
0.8639 0.3867 0.0230
0.8950 0.3863 0.0223
0.0214 0.2215 0.0217
0.0476 0.2223 0.0217
0.0786 0.2255 0.0217
0.1117 0.2327 0.0217
0.1416 0.2441 0.0218
0.1705 0.2585 0.0219
0.1985 0.2744 0.0220
0.2253 0.2898 0.0221
0.2511 0.3030 0.0222
0.2766 0.3136 0.0223
0.3026 0.3220 0.0224
0.3299 0.3293 0.0224
0.3587 0.3362 0.0224
0.3888 0.3431 0.0225
0.4198 0.3502 0.0225
0.4511 0.3575 0.0226
0.4826 0.3647 0.0226
0.5141 0.3714 0.0226
0.5454 0.3773 0.0227
0.5760 0.3824 0.0228
0.6055 0.3869 0.0228
0.6335 0.3913 0.0229
0.6601 0.3957 0.0229
0.6854 0.4002 0.0230
0.7098 0.4047 0.0230
0.7339 0.4089 0.0230
0.7581 0.4126 0.0231
0.7831 0.4156 0.0231
0.8092 0.4179 0.0231
0.8366 0.4197 0.0231
0.8654 0.4209 0.0231
0.8959 0.4207 0.0223
0.0214 0.2486 0.0216
0.0479 0.2491 0.0216
0.0797 0.2513 0.0216
0.1141 0.2571 0.0217
0.1447 0.2677 0.0218
0.1736 0.2824 0.0219
0.2014 0.2993 0.0220
0.2281 0.3159 0.0221
0.2540 0.3300 0.0222
0.2799 0.3406 0.0223
0.3064 0.3484 0.0224
0.3340 0.3547 0.0225
0.3627 0.3609 0.0225
0.3924 0.3675 0.0225
0.4228 0.3746 0.0226
0.4537 0.3822 0.0226
0.4849 0.3897 0.0226
0.5167 0.3968 0.0227
0.5484 0.4031 0.0228
0.5797 0.4086 0.0228
0.6099 0.4136 0.0229
0.6386 0.4185 0.0229
0.6656 0.4236 0.0230
0.6912 0.4289 0.0230
0.7156 0.4342 0.0231
0.7393 0.4393 0.0231
0.7630 0.4439 0.0232
0.7874 0.4477 0.0232
0.8129 0.4508 0.0232
0.8398 0.4531 0.0233
0.8684 0.4546 0.0233
0.8982 0.4546 0.0223
0.0214 0.2780 0.0216
0.0484 0.2782 0.0216
0.0810 0.2794 0.0216
0.1163 0.2838 0.0216
0.1472 0.2932 0.0217
0.1762 0.3074 0.0218
0.2040 0.3247 0.0220
0.2307 0.3420 0.0221
0.2570 0.3567 0.0222
0.2836 0.3675 0.0223
0.3109 0.3747 0.0224
0.3389 0.3801 0.0225
0.3677 0.3854 0.0225
0.3968 0.3916 0.0226
0.4263 0.3986 0.0226
0.4563 0.4062 0.0226
0.4869 0.4138 0.0227
0.5185 0.4210 0.0227
0.5504 0.4273 0.0228
0.5823 0.4329 0.0229
0.6132 0.4382 0.0229
0.6425 0.4435 0.0230
0.6703 0.4492 0.0230
0.6963 0.4553 0.0231
0.7211 0.4616 0.0232
0.7449 0.4677 0.0232
0.7685 0.4733 0.0233
0.7925 0.4782 0.0233
0.8177 0.4821 0.0233
0.8443 0.4852 0.0234
0.8727 0.4873 0.0234
0.9019 0.4878 0.0223
0.0214 0.3076 0.0216
0.0490 0.3075 0.0216
0.0822 0.3081 0.0216
0.1182 0.3113 0.0216
0.1494 0.3193 0.0216
0.1784 0.3327 0.0218
0.2062 0.3498 0.0219
0.2331 0.3676 0.0221
0.2599 0.3828 0.0222
0.2872 0.3939 0.0223
0.3153 0.4009 0.0224
0.3440 0.4056 0.0225
0.3729 0.4103 0.0225
0.4016 0.4159 0.0226
0.4303 0.4227 0.0226
0.4594 0.4301 0.0227
0.4892 0.4376 0.0227
0.5202 0.4446 0.0228
0.5519 0.4507 0.0228
0.5839 0.4561 0.0229
0.6153 0.4612 0.0229
0.6453 0.4667 0.0230
0.6736 0.4729 0.0230
0.7003 0.4797 0.0231
0.7256 0.4869 0.0232
0.7499 0.4941 0.0233
0.7737 0.5007 0.0234
0.7979 0.5066 0.0234
0.8231 0.5116 0.0235
0.8497 0.5158 0.0235
0.8781 0.5187 0.0235
0.9067 0.5200 0.0223
0.0214 0.3369 0.0215
0.0495 0.3367 0.0215
0.0832 0.3369 0.0215
0.1197 0.3390 0.0215
0.1512 0.3456 0.0216
0.1804 0.3579 0.0217
0.2082 0.3746 0.0219
0.2353 0.3926 0.0220
0.2624 0.4087 0.0222
0.2903 0.4204 0.0223
0.3190 0.4277 0.0224
0.3484 0.4321 0.0225
0.3776 0.4362 0.0225
0.4063 0.4412 0.0226
0.4346 0.4475 0.0226
0.4630 0.4546 0.0227
0.4920 0.4618 0.0227
0.5222 0.4684 0.0228
0.5534 0.4741 0.0228
0.5852 0.4791 0.0229
0.6167 0.4839 0.0229
0.6470 0.4892 0.0230
0.6758 0.4955 0.0230
0.7030 0.5027 0.0231
0.7289 0.5106 0.0232
0.7538 0.5186 0.0233
0.7782 0.5263 0.0234
0.8028 0.5333 0.0235
0.8283 0.5394 0.0236
0.8551 0.5446 0.0236
0.8838 0.5485 0.0236
0.9123 0.5511 0.0223
0.0214 0.3659 0.0215
0.0499 0.3657 0.0215
0.0840 0.3655 0.0215
0.1209 0.3667 0.0215
0.1527 0.3718 0.0215
0.1822 0.3828 0.0216
0.2101 0.3989 0.0218
0.2372 0.4172 0.0220
0.2644 0.4342 0.0222
0.2925 0.4472 0.0223
0.3216 0.4553 0.0224
0.3515 0.4599 0.0224
0.3813 0.4634 0.0225
0.4103 0.4678 0.0225
0.4388 0.4735 0.0226
0.4669 0.4799 0.0227
0.4954 0.4866 0.0227
0.5248 0.4928 0.0228
0.5553 0.4981 0.0228
0.5865 0.5026 0.0229
0.6176 0.5070 0.0229
0.6480 0.5118 0.0230
0.6771 0.5177 0.0230
0.7047 0.5249 0.0231
0.7311 0.5330 0.0232
0.7565 0.5415 0.0233
0.7815 0.5500 0.0234
0.8066 0.5580 0.0235
0.8327 0.5651 0.0236
0.8599 0.5715 0.0237
0.8889 0.5763 0.0237
0.9200 0.5781 0.0223
0.0214 0.3949 0.0215
0.0503 0.3946 0.0215
0.0847 0.3941 0.0214
0.1220 0.3946 0.0214
0.1541 0.3983 0.0215
0.1840 0.4078 0.0215
0.2121 0.4229 0.0217
0.2391 0.4414 0.0219
0.2661 0.4596 0.0221
0.2940 0.4741 0.0222
0.3232 0.4837 0.0224
0.3534 0.4890 0.0224
0.3838 0.4923 0.0225
0.4135 0.4959 0.0225
0.4424 0.5005 0.0226
0.4708 0.5061 0.0226
0.4992 0.5121 0.0227
0.5280 0.5179 0.0228
0.5577 0.5229 0.0228
0.5880 0.5272 0.0229
0.6185 0.5311 0.0229
0.6486 0.5352 0.0230
0.6777 0.5404 0.0230
0.7056 0.5468 0.0231
0.7323 0.5546 0.0232
0.7582 0.5632 0.0233
0.7837 0.5722 0.0234
0.8094 0.5809 0.0236
0.8359 0.5889 0.0237
0.8636 0.5962 0.0237
0.8928 0.6018 0.0238
0.9240 0.6042 0.0223
0.0214 0.4239 0.0214
0.0506 0.4235 0.0214
0.0853 0.4229 0.0214
0.1229 0.4228 0.0214
0.1554 0.4251 0.0214
0.1857 0.4329 0.0215
0.2141 0.4468 0.0216
0.2412 0.4651 0.0218
0.2679 0.4844 0.0220
0.2954 0.5008 0.0222
0.3242 0.5123 0.0224
0.3544 0.5188 0.0224
0.3852 0.5221 0.0225
0.4157 0.5250 0.0225
0.4453 0.5286 0.0226
0.4743 0.5332 0.0226
0.5028 0.5384 0.0227
0.5315 0.5436 0.0228
0.5604 0.5484 0.0228
0.5899 0.5525 0.0229
0.6195 0.5561 0.0229
0.6490 0.5597 0.0230
0.6780 0.5639 0.0230
0.7059 0.5693 0.0231
0.7330 0.5761 0.0232
0.7592 0.5842 0.0233
0.7850 0.5931 0.0234
0.8112 0.6023 0.0235
0.8381 0.6110 0.0237
0.8661 0.6190 0.0237
0.8955 0.6253 0.0238
0.9268 0.6283 0.0223
0.0214 0.4530 0.0214
0.0508 0.4526 0.0214
0.0858 0.4519 0.0213
0.1238 0.4514 0.0213
0.1567 0.4526 0.0213
0.1875 0.4585 0.0214
0.2164 0.4707 0.0215
0.2436 0.4883 0.0217
0.2701 0.5082 0.0219
0.2971 0.5265 0.0222
0.3254 0.5402 0.0223
0.3552 0.5485 0.0224
0.3861 0.5525 0.0225
0.4169 0.5550 0.0226
0.4473 0.5576 0.0226
0.4770 0.5610 0.0226
0.5060 0.5651 0.0227
0.5348 0.5697 0.0228
0.5633 0.5742 0.0228
0.5920 0.5783 0.0229
0.6208 0.5818 0.0229
0.6496 0.5849 0.0230
0.6781 0.5882 0.0230
0.7060 0.5923 0.0231
0.7332 0.5978 0.0232
0.7597 0.6049 0.0233
0.7859 0.6133 0.0234
0.8123 0.6224 0.0235
0.8396 0.6315 0.0236
0.8678 0.6401 0.0237
0.8973 0.6468 0.0238
0.9286 0.6505 0.0223
0.0214 0.4823 0.0213
0.0511 0.4819 0.0213
0.0864 0.4811 0.0213
0.1247 0.4804 0.0213
0.1579 0.4808 0.0213
0.1893 0.4848 0.0213
0.2189 0.4949 0.0214
0.2465 0.5112 0.0216
0.2730 0.5311 0.0219
0.2994 0.5508 0.0221
0.3269 0.5669 0.0223
0.3560 0.5775 0.0224
0.3865 0.5829 0.0225
0.4176 0.5854 0.0226
0.4485 0.5872 0.0226
0.4788 0.5895 0.0226
0.5084 0.5926 0.0227
0.5375 0.5963 0.0227
0.5660 0.6002 0.0228
0.5943 0.6041 0.0229
0.6225 0.6074 0.0229
0.6505 0.6103 0.0230
0.6784 0.6129 0.0231
0.7059 0.6160 0.0231
0.7331 0.6201 0.0232
0.7598 0.6258 0.0233
0.7863 0.6332 0.0233
0.8132 0.6417 0.0234
0.8407 0.6507 0.0236
0.8691 0.6596 0.0237
0.8988 0.6668 0.0238
0.9301 0.6712 0.0223
0.0214 0.5119 0.0213
0.0515 0.5115 0.0213
0.0871 0.5107 0.0213
0.1257 0.5098 0.0212
0.1592 0.5097 0.0212
0.1912 0.5120 0.0213
0.2216 0.5198 0.0213
0.2499 0.5340 0.0215
0.2765 0.5531 0.0217
0.3025 0.5738 0.0220
0.3291 0.5921 0.0222
0.3572 0.6053 0.0224
0.3870 0.6127 0.0225
0.4178 0.6159 0.0226
0.4489 0.6173 0.0226
0.4797 0.6187 0.0226
0.5099 0.6206 0.0227
0.5395 0.6233 0.0227
0.5683 0.6265 0.0228
0.5965 0.6298 0.0229
0.6242 0.6330 0.0229
0.6516 0.6356 0.0230
0.6789 0.6379 0.0231
0.7060 0.6401 0.0232
0.7329 0.6430 0.0232
0.7597 0.6473 0.0233
0.7865 0.6532 0.0233
0.8137 0.6607 0.0234
0.8416 0.6690 0.0235
0.8703 0.6778 0.0236
0.9002 0.6851 0.0237
0.9314 0.6904 0.0223
0.0214 0.5417 0.0212
0.0518 0.5414 0.0212
0.0879 0.5406 0.0212
0.1268 0.5397 0.0212
0.1606 0.5392 0.0212
0.1931 0.5402 0.0212
0.2243 0.5456 0.0213
0.2535 0.5572 0.0214
0.2805 0.5749 0.0216
0.3063 0.5957 0.0219
0.3321 0.6157 0.0221
0.3590 0.6316 0.0223
0.3877 0.6415 0.0225
0.4179 0.6462 0.0226
0.4489 0.6478 0.0226
0.4800 0.6484 0.0226
0.5106 0.6493 0.0227
0.5407 0.6509 0.0227
0.5700 0.6531 0.0228
0.5984 0.6558 0.0228
0.6260 0.6584 0.0229
0.6530 0.6608 0.0230
0.6797 0.6628 0.0231
0.7062 0.6645 0.0232
0.7328 0.6664 0.0232
0.7594 0.6693 0.0233
0.7864 0.6737 0.0233
0.8139 0.6797 0.0234
0.8422 0.6869 0.0235
0.8713 0.6949 0.0236
0.9016 0.7020 0.0237
0.9329 0.7080 0.0223
0.0214 0.5718 0.0212
0.0523 0.5714 0.0212
0.0888 0.5707 0.0212
0.1282 0.5698 0.0212
0.1622 0.5691 0.0212
0.1951 0.5693 0.0212
0.2271 0.5725 0.0212
0.2572 0.5814 0.0213
0.2849 0.5967 0.0215
0.3108 0.6168 0.0217
0.3359 0.6379 0.0220
0.3617 0.6562 0.0222
0.3890 0.6689 0.0224
0.4182 0.6757 0.0226
0.4487 0.6780 0.0226
0.4798 0.6784 0.0226
0.5107 0.6784 0.0226
0.5413 0.6789 0.0227
0.5710 0.6800 0.0227
0.5998 0.6817 0.0228
0.6275 0.6838 0.0229
0.6544 0.6858 0.0230
0.6807 0.6875 0.0231
0.7066 0.6888 0.0232
0.7327 0.6900 0.0233
0.7591 0.6918 0.0233
0.7860 0.6946 0.0234
0.8138 0.6989 0.0234
0.8425 0.7045 0.0235
0.8721 0.7113 0.0235
0.9028 0.7175 0.0236
0.9343 0.7240 0.0223
0.0214 0.6021 0.0212
0.0528 0.6018 0.0212
0.0898 0.6011 0.0212
0.1297 0.6002 0.0211
0.1639 0.5995 0.0211
0.1971 0.5992 0.0211
0.2298 0.6007 0.0211
0.2610 0.6068 0.0212
0.2896 0.6193 0.0214
0.3159 0.6378 0.0216
0.3406 0.6591 0.0219
0.3653 0.6793 0.0222
0.3911 0.6948 0.0224
0.4190 0.7041 0.0225
0.4486 0.7079 0.0226
0.4794 0.7083 0.0226
0.5105 0.7077 0.0227
0.5413 0.7071 0.0227
0.5715 0.7071 0.0227
0.6007 0.7078 0.0228
0.6287 0.7091 0.0229
0.6557 0.7106 0.0229
0.6817 0.7121 0.0231
0.7073 0.7131 0.0232
0.7328 0.7139 0.0233
0.7588 0.7147 0.0233
0.7855 0.7162 0.0234
0.8133 0.7188 0.0234
0.8423 0.7226 0.0235
0.8724 0.7276 0.0235
0.9034 0.7324 0.0235
0.9353 0.7391 0.0223
0.0214 0.6327 0.0211
0.0534 0.6323 0.0211
0.0910 0.6317 0.0211
0.1315 0.6309 0.0211
0.1658 0.6302 0.0211
0.1993 0.6296 0.0211
0.2325 0.6300 0.0211
0.2646 0.6337 0.0211
0.2944 0.6432 0.0213
0.3214 0.6592 0.0215
0.3460 0.6798 0.0217
0.3698 0.7011 0.0220
0.3942 0.7191 0.0223
0.4204 0.7310 0.0225
0.4489 0.7368 0.0226
0.4791 0.7380 0.0226
0.5100 0.7370 0.0227
0.5410 0.7356 0.0227
0.5715 0.7344 0.0227
0.6012 0.7340 0.0228
0.6297 0.7343 0.0228
0.6568 0.7352 0.0229
0.6828 0.7364 0.0230
0.7080 0.7373 0.0232
0.7331 0.7378 0.0233
0.7585 0.7381 0.0234
0.7849 0.7386 0.0234
0.8126 0.7396 0.0235
0.8417 0.7416 0.0235
0.8720 0.7446 0.0235
0.9033 0.7477 0.0235
0.9355 0.7541 0.0223
0.0215 0.6634 0.0211
0.0540 0.6631 0.0211
0.0923 0.6625 0.0211
0.1334 0.6617 0.0211
0.1679 0.6610 0.0211
0.2015 0.6604 0.0211
0.2351 0.6602 0.0211
0.2680 0.6621 0.0211
0.2990 0.6686 0.0212
0.3271 0.6817 0.0214
0.3521 0.7005 0.0216
0.3753 0.7220 0.0219
0.3984 0.7418 0.0222
0.4229 0.7565 0.0224
0.4498 0.7646 0.0226
0.4789 0.7671 0.0226
0.5095 0.7662 0.0226
0.5405 0.7640 0.0227
0.5713 0.7618 0.0227
0.6014 0.7603 0.0227
0.6303 0.7595 0.0228
0.6579 0.7597 0.0229
0.6840 0.7604 0.0230
0.7090 0.7612 0.0231
0.7336 0.7617 0.0233
0.7585 0.7618 0.0234
0.7845 0.7617 0.0234
0.8119 0.7616 0.0235
0.8408 0.7621 0.0235
0.8711 0.7631 0.0235
0.9026 0.7646 0.0235
0.9350 0.7701 0.0223
0.0215 0.6943 0.0211
0.0548 0.6940 0.0211
0.0938 0.6934 0.0211
0.1355 0.6927 0.0211
0.1702 0.6921 0.0211
0.2040 0.6915 0.0211
0.2378 0.6910 0.0211
0.2712 0.6916 0.0211
0.3033 0.6956 0.0211
0.3326 0.7055 0.0212
0.3585 0.7219 0.0215
0.3815 0.7425 0.0217
0.4035 0.7634 0.0220
0.4262 0.7804 0.0223
0.4514 0.7911 0.0225
0.4792 0.7953 0.0226
0.5091 0.7948 0.0226
0.5400 0.7922 0.0227
0.5709 0.7892 0.0227
0.6014 0.7865 0.0227
0.6309 0.7847 0.0228
0.6588 0.7840 0.0229
0.6853 0.7842 0.0229
0.7102 0.7849 0.0231
0.7345 0.7856 0.0232
0.7589 0.7858 0.0233
0.7842 0.7855 0.0234
0.8112 0.7848 0.0235
0.8398 0.7842 0.0236
0.8700 0.7839 0.0236
0.9014 0.7839 0.0236
0.9339 0.7884 0.0223
0.0215 0.7253 0.0211
0.0556 0.7250 0.0211
0.0954 0.7245 0.0211
0.1378 0.7239 0.0211
