lut/adanmq/Adanmq_Polaroid_600.cube
TITLE "Adanmq_Polaroid 600"
LUT_3D_SIZE 32
0.1180 0.0732 0.0447
0.1458 0.0724 0.0438
0.1682 0.0710 0.0422
0.1867 0.0699 0.0407
0.2044 0.0697 0.0398
0.2226 0.0705 0.0395
0.2427 0.0722 0.0394
0.2652 0.0742 0.0393
0.2901 0.0761 0.0392
0.3162 0.0775 0.0390
0.3424 0.0782 0.0388
0.3681 0.0782 0.0389
0.3932 0.0778 0.0392
0.4179 0.0774 0.0394
0.4428 0.0772 0.0394
0.4680 0.0773 0.0391
0.4934 0.0777 0.0385
0.5191 0.0784 0.0376
0.5445 0.0790 0.0365
0.5700 0.0796 0.0352
0.5954 0.0800 0.0338
0.6209 0.0802 0.0322
0.6467 0.0802 0.0306
0.6728 0.0800 0.0288
0.6994 0.0796 0.0269
0.7266 0.0790 0.0248
0.7545 0.0781 0.0224
0.7832 0.0770 0.0196
0.8126 0.0759 0.0166
0.8428 0.0748 0.0131
0.8737 0.0739 0.0100
0.9056 0.0737 0.0088
0.1178 0.1026 0.0444
0.1456 0.1018 0.0436
0.1679 0.1004 0.0422
0.1865 0.0991 0.0408
0.2041 0.0986 0.0401
0.2221 0.0991 0.0400
0.2417 0.1003 0.0401
0.2637 0.1020 0.0403
0.2879 0.1037 0.0403
0.3134 0.1049 0.0402
0.3391 0.1055 0.0402
0.3644 0.1055 0.0403
0.3893 0.1051 0.0407
0.4139 0.1047 0.0411
0.4386 0.1044 0.0413
0.4637 0.1045 0.0410
0.4890 0.1048 0.0405
0.5145 0.1054 0.0395
0.5399 0.1059 0.0382
0.5653 0.1064 0.0366
0.5906 0.1067 0.0348
0.6161 0.1068 0.0329
0.6418 0.1068 0.0308
0.6679 0.1065 0.0286
0.6946 0.1061 0.0263
0.7219 0.1054 0.0238
0.7500 0.1046 0.0211
0.7789 0.1035 0.0182
0.8087 0.1023 0.0150
0.8391 0.1011 0.0116
0.8703 0.1002 0.0084
0.9024 0.1000 0.0073
0.1181 0.1305 0.0442
0.1458 0.1298 0.0435
0.1681 0.1285 0.0423
0.1866 0.1271 0.0412
0.2040 0.1263 0.0408
0.2215 0.1262 0.0410
0.2403 0.1267 0.0415
0.2611 0.1277 0.0420
0.2840 0.1288 0.0422
0.3083 0.1298 0.0424
0.3331 0.1303 0.0426
0.3579 0.1304 0.0432
0.3823 0.1302 0.0440
0.4065 0.1299 0.0448
0.4310 0.1297 0.0454
0.4558 0.1296 0.0456
0.4808 0.1298 0.0453
0.5059 0.1301 0.0443
0.5311 0.1303 0.0429
0.5563 0.1305 0.0410
0.5814 0.1305 0.0387
0.6067 0.1303 0.0361
0.6324 0.1301 0.0332
0.6585 0.1298 0.0302
0.6853 0.1292 0.0269
0.7128 0.1286 0.0236
0.7411 0.1277 0.0201
0.7704 0.1267 0.0165
0.8006 0.1255 0.0128
0.8316 0.1243 0.0090
0.8633 0.1232 0.0056
0.8960 0.1234 0.0044
0.1203 0.1546 0.0448
0.1478 0.1543 0.0442
0.1698 0.1535 0.0431
0.1880 0.1524 0.0422
0.2050 0.1515 0.0420
0.2219 0.1510 0.0425
0.2396 0.1509 0.0433
0.2591 0.1513 0.0440
0.2806 0.1520 0.0446
0.3038 0.1528 0.0450
0.3277 0.1535 0.0454
0.3519 0.1539 0.0463
0.3760 0.1541 0.0476
0.3999 0.1541 0.0490
0.4240 0.1541 0.0503
0.4482 0.1540 0.0511
0.4727 0.1540 0.0514
0.4974 0.1539 0.0509
0.5221 0.1538 0.0498
0.5470 0.1535 0.0480
0.5719 0.1530 0.0455
0.5970 0.1525 0.0425
0.6226 0.1519 0.0391
0.6486 0.1512 0.0352
0.6754 0.1505 0.0310
0.7029 0.1498 0.0267
0.7314 0.1489 0.0222
0.7610 0.1480 0.0177
0.7915 0.1468 0.0131
0.8230 0.1455 0.0085
0.8550 0.1444 0.0044
0.8881 0.1449 0.0028
0.1246 0.1759 0.0464
0.1520 0.1760 0.0459
0.1738 0.1760 0.0450
0.1915 0.1756 0.0442
0.2079 0.1751 0.0440
0.2240 0.1745 0.0446
0.2407 0.1742 0.0456
0.2591 0.1744 0.0466
0.2796 0.1751 0.0473
0.3019 0.1762 0.0477
0.3252 0.1774 0.0482
0.3491 0.1784 0.0492
0.3731 0.1791 0.0506
0.3968 0.1795 0.0523
0.4206 0.1796 0.0541
0.4443 0.1796 0.0555
0.4682 0.1795 0.0565
0.4922 0.1793 0.0569
0.5163 0.1789 0.0565
0.5407 0.1782 0.0554
0.5652 0.1773 0.0535
0.5901 0.1763 0.0507
0.6155 0.1752 0.0472
0.6414 0.1741 0.0432
0.6681 0.1731 0.0386
0.6956 0.1722 0.0337
0.7240 0.1712 0.0286
0.7536 0.1702 0.0233
0.7841 0.1691 0.0180
0.8157 0.1678 0.0125
0.8479 0.1666 0.0079
0.8810 0.1673 0.0054
0.1307 0.1954 0.0486
0.1581 0.1959 0.0482
0.1797 0.1967 0.0475
0.1970 0.1973 0.0469
0.2128 0.1974 0.0469
0.2280 0.1971 0.0477
0.2439 0.1970 0.0489
0.2614 0.1974 0.0501
0.2811 0.1985 0.0509
0.3028 0.2002 0.0514
0.3258 0.2022 0.0518
0.3496 0.2039 0.0524
0.3735 0.2052 0.0535
0.3973 0.2060 0.0550
0.4208 0.2064 0.0567
0.4441 0.2064 0.0584
0.4674 0.2063 0.0598
0.4907 0.2060 0.0610
0.5141 0.2055 0.0616
0.5377 0.2047 0.0616
0.5617 0.2036 0.0607
0.5862 0.2022 0.0589
0.6113 0.2007 0.0561
0.6370 0.1992 0.0525
0.6635 0.1977 0.0482
0.6909 0.1964 0.0434
0.7191 0.1952 0.0381
0.7485 0.1941 0.0327
0.7788 0.1929 0.0271
0.8102 0.1916 0.0213
0.8422 0.1904 0.0164
0.8752 0.1911 0.0129
0.1375 0.2148 0.0509
0.1651 0.2156 0.0507
0.1868 0.2171 0.0502
0.2038 0.2185 0.0499
0.2191 0.2192 0.0502
0.2337 0.2195 0.0513
0.2488 0.2199 0.0529
0.2658 0.2208 0.0544
0.2850 0.2225 0.0556
0.3063 0.2251 0.0562
0.3290 0.2279 0.0564
0.3528 0.2305 0.0565
0.3768 0.2324 0.0568
0.4005 0.2335 0.0574
0.4240 0.2340 0.0584
0.4470 0.2340 0.0596
0.4698 0.2339 0.0610
0.4925 0.2336 0.0625
0.5152 0.2332 0.0639
0.5381 0.2325 0.0649
0.5613 0.2315 0.0653
0.5851 0.2301 0.0649
0.6096 0.2284 0.0636
0.6349 0.2265 0.0612
0.6612 0.2246 0.0578
0.6883 0.2229 0.0537
0.7163 0.2213 0.0490
0.7454 0.2199 0.0440
0.7755 0.2185 0.0387
0.8065 0.2171 0.0333
0.8383 0.2158 0.0286
0.8710 0.2164 0.0244
0.1440 0.2358 0.0525
0.1719 0.2366 0.0524
0.1939 0.2384 0.0522
0.2110 0.2404 0.0523
0.2260 0.2418 0.0532
0.2402 0.2428 0.0548
0.2550 0.2437 0.0568
0.2716 0.2451 0.0589
0.2906 0.2475 0.0606
0.3116 0.2508 0.0616
0.3341 0.2545 0.0619
0.3577 0.2578 0.0616
0.3817 0.2603 0.0610
0.4055 0.2617 0.0604
0.4289 0.2622 0.0600
0.4519 0.2622 0.0600
0.4744 0.2620 0.0606
0.4967 0.2617 0.0617
0.5189 0.2615 0.0632
0.5411 0.2611 0.0649
0.5636 0.2603 0.0664
0.5865 0.2592 0.0675
0.6102 0.2576 0.0678
0.6348 0.2557 0.0670
0.6605 0.2537 0.0652
0.6873 0.2516 0.0625
0.7151 0.2497 0.0590
0.7439 0.2478 0.0549
0.7738 0.2462 0.0506
0.8045 0.2445 0.0460
0.8359 0.2432 0.0420
0.8684 0.2435 0.0377
0.1491 0.2590 0.0531
0.1776 0.2598 0.0529
0.2003 0.2615 0.0529
0.2178 0.2638 0.0536
0.2329 0.2658 0.0550
0.2471 0.2673 0.0572
0.2618 0.2688 0.0598
0.2783 0.2706 0.0625
0.2971 0.2734 0.0648
0.3178 0.2771 0.0665
0.3400 0.2813 0.0674
0.3632 0.2854 0.0672
0.3870 0.2884 0.0661
0.4108 0.2902 0.0644
0.4343 0.2908 0.0625
0.4574 0.2907 0.0608
0.4800 0.2903 0.0598
0.5022 0.2900 0.0597
0.5241 0.2898 0.0605
0.5460 0.2896 0.0620
0.5678 0.2892 0.0640
0.5900 0.2885 0.0661
0.6128 0.2873 0.0679
0.6364 0.2857 0.0690
0.6612 0.2839 0.0691
0.6873 0.2818 0.0681
0.7147 0.2796 0.0662
0.7433 0.2775 0.0635
0.7730 0.2755 0.0604
0.8036 0.2737 0.0570
0.8349 0.2721 0.0540
0.8670 0.2723 0.0503
0.1526 0.2843 0.0524
0.1816 0.2848 0.0522
0.2053 0.2863 0.0523
0.2237 0.2886 0.0533
0.2392 0.2910 0.0552
0.2536 0.2931 0.0578
0.2685 0.2950 0.0609
0.2851 0.2971 0.0641
0.3038 0.2999 0.0671
0.3243 0.3036 0.0696
0.3460 0.3080 0.0714
0.3688 0.3124 0.0720
0.3922 0.3160 0.0713
0.4159 0.3183 0.0692
0.4396 0.3193 0.0662
0.4628 0.3193 0.0629
0.4856 0.3189 0.0600
0.5080 0.3183 0.0581
0.5300 0.3180 0.0574
0.5518 0.3178 0.0578
0.5734 0.3175 0.0593
0.5950 0.3171 0.0616
0.6169 0.3164 0.0642
0.6395 0.3154 0.0668
0.6633 0.3140 0.0688
0.6884 0.3123 0.0698
0.7150 0.3102 0.0697
0.7433 0.3081 0.0687
0.7728 0.3059 0.0670
0.8033 0.3039 0.0649
0.8347 0.3022 0.0628
0.8667 0.3021 0.0601
0.1548 0.3106 0.0507
0.1845 0.3109 0.0503
0.2092 0.3120 0.0503
0.2287 0.3142 0.0513
0.2450 0.3170 0.0535
0.2598 0.3196 0.0565
0.2748 0.3220 0.0600
0.2915 0.3242 0.0635
0.3102 0.3267 0.0668
0.3305 0.3299 0.0699
0.3519 0.3341 0.0727
0.3741 0.3386 0.0746
0.3970 0.3428 0.0750
0.4205 0.3458 0.0737
0.4443 0.3475 0.0706
0.4678 0.3479 0.0664
0.4909 0.3475 0.0619
0.5137 0.3467 0.0580
0.5359 0.3461 0.0552
0.5579 0.3456 0.0538
0.5795 0.3452 0.0540
0.6010 0.3449 0.0554
0.6225 0.3446 0.0580
0.6443 0.3441 0.0613
0.6670 0.3433 0.0647
0.6909 0.3421 0.0676
0.7165 0.3405 0.0696
0.7439 0.3386 0.0704
0.7730 0.3366 0.0702
0.8035 0.3345 0.0692
0.8349 0.3328 0.0681
0.8668 0.3327 0.0664
0.1563 0.3370 0.0482
0.1864 0.3370 0.0477
0.2124 0.3377 0.0473
0.2331 0.3398 0.0482
0.2503 0.3428 0.0504
0.2656 0.3461 0.0536
0.2807 0.3490 0.0572
0.2973 0.3513 0.0607
0.3159 0.3534 0.0641
0.3361 0.3560 0.0674
0.3572 0.3594 0.0707
0.3790 0.3637 0.0739
0.4014 0.3683 0.0761
0.4246 0.3721 0.0765
0.4483 0.3748 0.0747
0.4721 0.3760 0.0707
0.4957 0.3760 0.0654
0.5189 0.3752 0.0598
0.5416 0.3742 0.0548
0.5638 0.3732 0.0511
0.5857 0.3725 0.0492
0.6074 0.3721 0.0491
0.6289 0.3718 0.0507
0.6503 0.3716 0.0537
0.6723 0.3713 0.0577
0.6951 0.3707 0.0620
0.7195 0.3697 0.0659
0.7459 0.3684 0.0689
0.7743 0.3667 0.0705
0.8044 0.3649 0.0710
0.8358 0.3633 0.0708
0.8675 0.3634 0.0699
0.1572 0.3630 0.0451
0.1878 0.3627 0.0444
0.2150 0.3630 0.0437
0.2372 0.3649 0.0441
0.2554 0.3680 0.0461
0.2711 0.3718 0.0493
0.2861 0.3753 0.0530
0.3025 0.3780 0.0565
0.3208 0.3799 0.0596
0.3409 0.3817 0.0626
0.3619 0.3842 0.0659
0.3833 0.3879 0.0699
0.4053 0.3924 0.0737
0.4281 0.3969 0.0764
0.4517 0.4006 0.0768
0.4757 0.4029 0.0746
0.4998 0.4038 0.0698
0.5236 0.4033 0.0634
0.5468 0.4022 0.0566
0.5695 0.4008 0.0506
0.5918 0.3996 0.0462
0.6138 0.3988 0.0438
0.6355 0.3983 0.0435
0.6571 0.3981 0.0453
0.6788 0.3980 0.0489
0.7010 0.3979 0.0538
0.7244 0.3975 0.0592
0.7497 0.3968 0.0642
0.7771 0.3957 0.0681
0.8065 0.3944 0.0706
0.8375 0.3931 0.0716
0.8688 0.3936 0.0716
0.1577 0.3886 0.0416
0.1888 0.3881 0.0407
0.2171 0.3879 0.0395
0.2409 0.3892 0.0393
0.2603 0.3924 0.0410
0.2763 0.3966 0.0441
0.2912 0.4007 0.0479
0.3069 0.4039 0.0514
0.3247 0.4059 0.0542
0.3445 0.4072 0.0567
0.3655 0.4087 0.0594
0.3870 0.4114 0.0632
0.4087 0.4153 0.0679
0.4311 0.4200 0.0726
0.4544 0.4245 0.0758
0.4786 0.4281 0.0763
0.5031 0.4302 0.0735
0.5275 0.4306 0.0678
0.5514 0.4298 0.0603
0.5747 0.4282 0.0525
0.5975 0.4266 0.0456
0.6198 0.4253 0.0406
0.6419 0.4244 0.0378
0.6638 0.4239 0.0374
0.6857 0.4238 0.0396
0.7078 0.4239 0.0441
0.7307 0.4240 0.0501
0.7552 0.4238 0.0568
0.7817 0.4234 0.0628
0.8102 0.4226 0.0677
0.8406 0.4218 0.0707
0.8711 0.4229 0.0720
0.1579 0.4138 0.0376
0.1893 0.4130 0.0366
0.2187 0.4123 0.0350
0.2441 0.4130 0.0342
0.2647 0.4158 0.0354
0.2814 0.4202 0.0383
0.2960 0.4250 0.0421
0.3108 0.4290 0.0457
0.3277 0.4314 0.0485
0.3471 0.4326 0.0504
0.3680 0.4333 0.0522
0.3897 0.4347 0.0551
0.4114 0.4377 0.0596
0.4335 0.4419 0.0653
0.4565 0.4468 0.0709
0.4805 0.4514 0.0746
0.5053 0.4548 0.0750
0.5304 0.4565 0.0716
0.5551 0.4565 0.0649
0.5792 0.4553 0.0564
0.6026 0.4534 0.0476
0.6254 0.4516 0.0399
0.6479 0.4502 0.0343
0.6703 0.4494 0.0313
0.6925 0.4490 0.0313
0.7148 0.4491 0.0342
0.7377 0.4494 0.0398
0.7618 0.4496 0.0471
0.7876 0.4497 0.0549
0.8154 0.4496 0.0622
0.8452 0.4493 0.0676
0.8748 0.4512 0.0707
0.1578 0.4388 0.0333
0.1893 0.4379 0.0322
0.2196 0.4366 0.0303
0.2466 0.4364 0.0290
0.2688 0.4387 0.0296
0.2863 0.4430 0.0321
0.3006 0.4484 0.0359
0.3145 0.4533 0.0397
0.3301 0.4565 0.0426
0.3485 0.4579 0.0442
0.3693 0.4582 0.0451
0.3912 0.4585 0.0467
0.4132 0.4602 0.0501
0.4352 0.4634 0.0555
0.4579 0.4680 0.0623
0.4817 0.4730 0.0687
0.5065 0.4776 0.0727
0.5321 0.4808 0.0728
0.5576 0.4821 0.0688
0.5827 0.4817 0.0612
0.6070 0.4801 0.0517
0.6305 0.4780 0.0420
0.6535 0.4761 0.0337
0.6762 0.4748 0.0277
0.6988 0.4741 0.0248
0.7216 0.4739 0.0254
0.7447 0.4742 0.0295
0.7688 0.4746 0.0364
0.7944 0.4751 0.0449
0.8217 0.4755 0.0540
0.8509 0.4757 0.0616
0.8797 0.4785 0.0672
0.1574 0.4636 0.0288
0.1891 0.4626 0.0276
0.2199 0.4608 0.0255
0.2483 0.4598 0.0237
0.2722 0.4612 0.0236
0.2909 0.4651 0.0257
0.3054 0.4707 0.0293
0.3183 0.4765 0.0333
0.3324 0.4809 0.0365
0.3494 0.4831 0.0381
0.3695 0.4834 0.0385
0.3915 0.4830 0.0388
0.4139 0.4833 0.0405
0.4362 0.4852 0.0446
0.4587 0.4888 0.0511
0.4821 0.4936 0.0589
0.5067 0.4987 0.0659
0.5325 0.5031 0.0700
0.5587 0.5060 0.0699
0.5847 0.5069 0.0651
0.6101 0.5061 0.0567
0.6345 0.5042 0.0463
0.6583 0.5020 0.0359
0.6815 0.5002 0.0271
0.7045 0.4990 0.0212
0.7276 0.4985 0.0189
0.7512 0.4986 0.0205
0.7755 0.4991 0.0258
0.8012 0.4999 0.0338
0.8283 0.5006 0.0435
0.8572 0.5012 0.0524
0.8884 0.5015 0.0559
0.1567 0.4885 0.0241
0.1885 0.4873 0.0229
0.2197 0.4852 0.0206
0.2492 0.4834 0.0184
0.2750 0.4837 0.0176
0.2952 0.4869 0.0190
0.3103 0.4924 0.0223
0.3225 0.4988 0.0265
0.3350 0.5044 0.0301
0.3501 0.5078 0.0321
0.3689 0.5088 0.0323
0.3906 0.5082 0.0317
0.4134 0.5075 0.0317
0.4361 0.5079 0.0339
0.4587 0.5101 0.0390
0.4819 0.5140 0.0465
0.5062 0.5189 0.0551
0.5318 0.5241 0.0626
0.5583 0.5282 0.0667
0.5852 0.5307 0.0661
0.6116 0.5312 0.0606
0.6373 0.5300 0.0514
0.6620 0.5279 0.0403
0.6859 0.5257 0.0294
0.7095 0.5240 0.0205
0.7330 0.5230 0.0150
0.7569 0.5229 0.0137
0.7816 0.5233 0.0164
0.8075 0.5241 0.0227
0.8346 0.5251 0.0316
0.8634 0.5260 0.0403
0.8943 0.5267 0.0444
0.1559 0.5134 0.0192
0.1877 0.5121 0.0180
0.2191 0.5097 0.0157
0.2495 0.5072 0.0131
0.2769 0.5065 0.0117
0.2990 0.5085 0.0124
0.3153 0.5136 0.0152
0.3273 0.5203 0.0192
0.3383 0.5271 0.0232
0.3513 0.5320 0.0258
0.3682 0.5341 0.0264
0.3889 0.5339 0.0254
0.4117 0.5326 0.0242
0.4349 0.5318 0.0244
0.4580 0.5325 0.0274
0.4811 0.5350 0.0334
0.5051 0.5391 0.0418
0.5304 0.5442 0.0511
0.5568 0.5491 0.0588
0.5841 0.5529 0.0628
0.6115 0.5549 0.0617
0.6382 0.5549 0.0555
0.6642 0.5535 0.0455
0.6891 0.5513 0.0339
0.7135 0.5492 0.0228
0.7375 0.5478 0.0143
0.7618 0.5472 0.0096
0.7868 0.5474 0.0092
0.8130 0.5482 0.0128
0.8402 0.5493 0.0196
0.8691 0.5504 0.0270
0.8998 0.5514 0.0312
0.1549 0.5383 0.0142
0.1866 0.5370 0.0130
0.2182 0.5343 0.0107
0.2491 0.5314 0.0079
0.2779 0.5297 0.0059
0.3021 0.5305 0.0057
0.3200 0.5346 0.0078
0.3326 0.5413 0.0116
0.3426 0.5489 0.0159
0.3535 0.5553 0.0192
0.3679 0.5590 0.0204
0.3868 0.5598 0.0197
0.4092 0.5586 0.0178
0.4327 0.5569 0.0165
0.4562 0.5562 0.0172
0.4797 0.5572 0.0209
0.5035 0.5599 0.0279
0.5284 0.5643 0.0372
0.5546 0.5693 0.0470
0.5819 0.5739 0.0548
0.6098 0.5773 0.0584
0.6375 0.5787 0.0567
0.6646 0.5783 0.0497
0.6907 0.5766 0.0391
0.7161 0.5744 0.0271
0.7409 0.5726 0.0163
0.7658 0.5716 0.0084
0.7913 0.5715 0.0047
0.8177 0.5721 0.0051
0.8452 0.5733 0.0090
0.8741 0.5744 0.0143
0.9047 0.5758 0.0180
0.1537 0.5633 0.0091
0.1855 0.5619 0.0079
0.2170 0.5592 0.0055
0.2482 0.5559 0.0027
0.2780 0.5534 0.0011
0.3043 0.5530 0.0009
0.3244 0.5559 0.0013
0.3382 0.5620 0.0038
0.3479 0.5700 0.0080
0.3569 0.5777 0.0119
0.3687 0.5832 0.0141
0.3853 0.5855 0.0140
0.4062 0.5850 0.0122
0.4296 0.5831 0.0099
0.4536 0.5813 0.0088
0.4775 0.5808 0.0102
0.5014 0.5820 0.0148
0.5261 0.5850 0.0227
0.5519 0.5894 0.0328
0.5790 0.5943 0.0429
0.6070 0.5985 0.0506
0.6352 0.6013 0.0537
0.6632 0.6021 0.0511
0.6905 0.6013 0.0434
0.7170 0.5995 0.0323
0.7428 0.5974 0.0203
0.7685 0.5960 0.0099
0.7946 0.5955 0.0030
0.8215 0.5959 0.0010
0.8493 0.5970 0.0015
0.8784 0.5982 0.0037
0.9091 0.5999 0.0063
0.1524 0.5885 0.0039
0.1841 0.5871 0.0027
0.2156 0.5842 0.0012
0.2469 0.5807 0.0008
0.2774 0.5778 0.0006
0.3054 0.5762 0.0005
0.3280 0.5777 0.0005
0.3438 0.5828 0.0006
0.3539 0.5907 0.0013
0.3618 0.5993 0.0042
0.3711 0.6065 0.0072
0.3847 0.6107 0.0081
0.4035 0.6114 0.0068
0.4261 0.6098 0.0043
0.4502 0.6075 0.0023
0.4746 0.6058 0.0021
0.4989 0.6055 0.0038
0.5236 0.6071 0.0092
0.5492 0.6103 0.0180
0.5759 0.6147 0.0287
0.6036 0.6192 0.0389
0.6320 0.6229 0.0462
0.6605 0.6249 0.0484
0.6886 0.6252 0.0449
0.7161 0.6240 0.0363
0.7430 0.6221 0.0249
0.7697 0.6204 0.0133
0.7967 0.6195 0.0038
0.8243 0.6196 0.0008
0.8527 0.6204 0.0007
0.8822 0.6216 0.0007
0.9130 0.6237 0.0011
0.1509 0.6139 0.0009
0.1826 0.6124 0.0008
0.2141 0.6095 0.0006
0.2453 0.6060 0.0004
0.2763 0.6026 0.0002
0.3056 0.6002 0.0002
0.3306 0.6003 0.0002
0.3489 0.6040 0.0002
0.3604 0.6112 0.0003
0.3679 0.6204 0.0006
0.3751 0.6290 0.0012
0.3857 0.6351 0.0022
0.4017 0.6375 0.0019
0.4226 0.6369 0.0009
0.4464 0.6345 0.0007
0.4711 0.6320 0.0006
0.4959 0.6305 0.0006
0.5208 0.6305 0.0009
0.5463 0.6323 0.0046
0.5727 0.6357 0.0139
0.6001 0.6399 0.0249
0.6284 0.6439 0.0349
0.6570 0.6469 0.0414
0.6855 0.6482 0.0424
0.7137 0.6479 0.0377
0.7415 0.6464 0.0285
0.7692 0.6447 0.0172
0.7972 0.6434 0.0062
0.8257 0.6430 0.0008
0.8549 0.6436 0.0005
0.8851 0.6446 0.0003
0.9161 0.6471 0.0011
0.1493 0.6393 0.0005
0.1810 0.6379 0.0004
0.2124 0.6349 0.0003
0.2436 0.6313 0.0002
0.2747 0.6279 0.0002
0.3049 0.6249 0.0002
0.3321 0.6237 0.0002
0.3532 0.6259 0.0002
0.3669 0.6320 0.0002
0.3749 0.6410 0.0002
0.3807 0.6506 0.0004
0.3886 0.6585 0.0006
0.4013 0.6629 0.0006
0.4198 0.6637 0.0006
0.4425 0.6618 0.0004
0.4672 0.6590 0.0002
0.4924 0.6565 0.0002
0.5177 0.6552 0.0002
0.5433 0.6556 0.0004
0.5696 0.6577 0.0020
0.5968 0.6611 0.0104
0.6247 0.6649 0.0214
0.6532 0.6684 0.0307
0.6818 0.6705 0.0358
0.7104 0.6710 0.0353
0.7387 0.6701 0.0294
0.7671 0.6686 0.0198
0.7960 0.6671 0.0088
0.8254 0.6662 0.0012
0.8556 0.6663 0.0004
0.8865 0.6669 0.0002
0.9182 0.6697 0.0011
0.1476 0.6650 0.0002
0.1792 0.6635 0.0002
0.2106 0.6606 0.0002
0.2418 0.6570 0.0002
0.2729 0.6535 0.0002
0.3036 0.6503 0.0002
0.3324 0.6481 0.0002
0.3563 0.6487 0.0002
0.3729 0.6533 0.0002
0.3825 0.6615 0.0002
0.3878 0.6716 0.0002
0.3933 0.6810 0.0002
0.4027 0.6875 0.0002
0.4181 0.6900 0.0002
0.4390 0.6892 0.0002
0.4631 0.6864 0.0002
0.4885 0.6833 0.0002
0.5143 0.6810 0.0002
0.5402 0.6800 0.0002
0.5666 0.6807 0.0002
0.5937 0.6830 0.0010
0.6214 0.6863 0.0073
0.6496 0.6897 0.0178
0.6780 0.6924 0.0257
0.7066 0.6936 0.0289
0.7351 0.6934 0.0268
0.7639 0.6921 0.0199
0.7933 0.6905 0.0102
0.8235 0.6892 0.0015
0.8544 0.6887 0.0003
0.8861 0.6888 0.0002
0.9185 0.6918 0.0011
0.1458 0.6908 0.0002
0.1774 0.6894 0.0002
0.2087 0.6865 0.0002
0.2399 0.6829 0.0002
0.2709 0.6794 0.0002
0.3018 0.6761 0.0002
0.3317 0.6733 0.0002
0.3581 0.6726 0.0002
0.3779 0.6754 0.0002
0.3899 0.6824 0.0002
0.3958 0.6923 0.0002
0.3998 0.7027 0.0002
0.4061 0.7111 0.0002
0.4180 0.7156 0.0002
0.4363 0.7162 0.0002
0.4592 0.7140 0.0002
0.4845 0.7107 0.0002
0.5106 0.7075 0.0002
0.5370 0.7053 0.0002
0.5637 0.7047 0.0002
0.5908 0.7057 0.0002
0.6184 0.7082 0.0005
0.6464 0.7113 0.0047
0.6746 0.7141 0.0135
0.7029 0.7159 0.0195
0.7313 0.7163 0.0206
0.7602 0.7154 0.0169
0.7897 0.7138 0.0094
0.8201 0.7122 0.0015
0.8515 0.7111 0.0003
0.8836 0.7105 0.0002
0.9168 0.7136 0.0011
0.1440 0.7169 0.0002
0.1755 0.7155 0.0002
0.2068 0.7126 0.0002
0.2379 0.7091 0.0002
0.2689 0.7057 0.0002
0.2998 0.7024 0.0002
0.3303 0.6993 0.0002
0.3586 0.6975 0.0002
0.3816 0.6987 0.0002
0.3967 0.7041 0.0002
0.4043 0.7131 0.0002
0.4077 0.7240 0.0002
0.4114 0.7338 0.0002
0.4198 0.7403 0.0002
0.4348 0.7427 0.0002
0.4558 0.7415 0.0002
0.4805 0.7382 0.0002
0.5068 0.7345 0.0002
0.5336 0.7314 0.0002
0.5607 0.7296 0.0002
0.5881 0.7294 0.0002
0.6157 0.7307 0.0002
0.6437 0.7332 0.0003
0.6717 0.7360 0.0021
0.6998 0.7382 0.0082
0.7279 0.7391 0.0118
0.7564 0.7387 0.0109
0.7857 0.7373 0.0060
0.8160 0.7355 0.0009
0.8474 0.7339 0.0003
0.8795 0.7327 0.0002
0.9134 0.7356 0.0011
0.1420 0.7433 0.0002
0.1736 0.7418 0.0002
0.2048 0.7390 0.0002
0.2358 0.7356 0.0002
0.2668 0.7323 0.0002
0.2977 0.7291 0.0002
0.3285 0.7259 0.0002
0.3580 0.7235 0.0002
0.3838 0.7231 0.0002
0.4023 0.7267 0.0002
0.4124 0.7345 0.0002
0.4164 0.7451 0.0002
0.4184 0.7558 0.0002
0.4235 0.7642 0.0002
0.4348 0.7684 0.0002
0.4532 0.7685 0.0002
0.4768 0.7657 0.0002
0.5030 0.7617 0.0002
0.5301 0.7580 0.0002
0.5577 0.7551 0.0002
0.5855 0.7537 0.0002
0.6135 0.7540 0.0002
0.6416 0.7558 0.0002
0.6695 0.7583 0.0002
0.6973 0.7607 0.0008
0.7250 0.7621 0.0020
0.7531 0.7622 0.0028
0.7820 0.7612 0.0013
0.8119 0.7595 0.0006
0.8430 0.7576 0.0002
0.8748 0.7560 0.0002
0.9088 0.7586 0.0011
0.1400 0.7698 0.0002
0.1716 0.7685 0.0002
0.2028 0.7657 0.0002
0.2337 0.7624 0.0002
