lut/adanmq/Adanmq_Fuji_Astia_100.cube
TITLE "Adanmq_Fuji Astia 100"
LUT_3D_SIZE 8
DOMAIN_MIN 0.000000 0.000000 0.000000
DOMAIN_MAX 0.903226 0.903226 0.903226
0.0215 0.0228 0.0223
0.1202 0.0227 0.0223
0.2079 0.0228 0.0224
0.3315 0.0229 0.0224
0.4533 0.0229 0.0224
0.5675 0.0229 0.0223
0.6769 0.0229 0.0221
0.7881 0.0228 0.0218
0.0215 0.1179 0.0222
0.1142 0.1180 0.0222
0.1958 0.1207 0.0223
0.3164 0.1327 0.0225
0.4384 0.1449 0.0226
0.5548 0.1527 0.0226
0.6649 0.1592 0.0224
0.7779 0.1581 0.0220
0.0214 0.1766 0.0221
0.1157 0.1959 0.0223
0.2118 0.2255 0.0226
0.3319 0.2479 0.0227
0.4602 0.2698 0.0228
0.5752 0.2823 0.0229
0.6770 0.2883 0.0229
0.7814 0.2945 0.0229
0.0214 0.2839 0.0220
0.1367 0.3056 0.0222
0.2438 0.3501 0.0226
0.3574 0.3743 0.0229
0.4824 0.3980 0.0230
0.6059 0.4186 0.0231
0.7034 0.4304 0.0233
0.7935 0.4324 0.0233
0.0214 0.4018 0.0218
0.1532 0.4089 0.0219
0.2644 0.4708 0.0226
0.3880 0.4934 0.0229
0.5033 0.5173 0.0232
0.6216 0.5352 0.0233
0.7234 0.5543 0.0236
0.8180 0.5679 0.0239
0.0214 0.5220 0.0216
0.1659 0.5210 0.0216
0.2838 0.5722 0.0222
0.4030 0.6242 0.0230
0.5282 0.6357 0.0232
0.6360 0.6535 0.0235
0.7349 0.6609 0.0237
0.8322 0.6786 0.0240
0.0215 0.6471 0.0215
0.1795 0.6473 0.0215
0.3099 0.6675 0.0218
0.4134 0.7462 0.0229
0.5366 0.7599 0.0233
0.6478 0.7625 0.0235
0.7387 0.7658 0.0240
0.8397 0.7639 0.0242
0.0215 0.7772 0.0215
0.1948 0.7787 0.0215
0.3333 0.7823 0.0216
0.4366 0.8430 0.0225
0.5342 0.8798 0.0233
0.6495 0.8643 0.0235
0.7393 0.8611 0.0240
0.8354 0.8543 0.0244
0.0215 0.0226 0.1127
0.1288 0.0226 0.1146
0.2240 0.0227 0.1160
0.3495 0.0228 0.1187
0.4676 0.0228 0.1186
0.5796 0.0229 0.1170
0.6832 0.0229 0.1128
0.7877 0.0229 0.0982
0.0215 0.1109 0.1023
0.1400 0.1261 0.1134
0.2194 0.1201 0.1151
0.3349 0.1312 0.1217
0.4591 0.1504 0.1295
0.5697 0.1588 0.1282
0.6675 0.1606 0.1218
0.7757 0.1577 0.1039
0.0215 0.1742 0.0985
0.1408 0.2039 0.1180
0.2325 0.2327 0.1321
0.3473 0.2517 0.1387
0.4737 0.2751 0.1525
0.5913 0.2909 0.1697
0.6863 0.2932 0.1743
0.7786 0.2892 0.1487
0.0215 0.2804 0.1052
0.1482 0.2950 0.1232
0.2613 0.3464 0.1642
0.3789 0.3801 0.1819
0.4924 0.4065 0.1858
0.6115 0.4277 0.1992
0.7092 0.4380 0.2160
0.7985 0.4398 0.2266
0.0214 0.3991 0.1102
0.1581 0.4023 0.1158
0.2851 0.4546 0.1644
0.4147 0.4960 0.2050
0.5225 0.5207 0.2201
0.6287 0.5479 0.2323
0.7272 0.5656 0.2476
0.8153 0.5780 0.2701
0.0215 0.5206 0.1081
0.1713 0.5208 0.1069
0.3039 0.5440 0.1281
0.4257 0.6162 0.2024
0.5477 0.6329 0.2176
0.6500 0.6508 0.2424
0.7411 0.6675 0.2608
0.8336 0.6828 0.2904
0.0215 0.6473 0.1029
0.1864 0.6486 0.1028
0.3249 0.6529 0.1072
0.4434 0.7050 0.1656
0.5464 0.7541 0.2242
0.6587 0.7505 0.2408
0.7548 0.7512 0.2660
0.8442 0.7610 0.2829
0.0215 0.7786 0.1031
0.2027 0.7801 0.1054
0.3436 0.7814 0.1090
0.4760 0.7961 0.1301
0.5523 0.8557 0.2177
0.6500 0.8535 0.2540
0.7590 0.8356 0.2689
0.8536 0.8356 0.2854
0.0215 0.0225 0.1523
0.1198 0.0226 0.1737
0.2280 0.0228 0.1843
0.3660 0.0228 0.1969
0.4919 0.0229 0.2015
0.5951 0.0228 0.1961
0.6952 0.0227 0.1873
0.7948 0.0227 0.1819
0.0215 0.0987 0.1462
0.1306 0.1175 0.1812
0.2348 0.1296 0.2011
0.3523 0.1378 0.2057
0.4817 0.1551 0.2132
0.5913 0.1676 0.2192
0.6896 0.1680 0.2109
0.7930 0.1611 0.1890
0.0215 0.1675 0.1524
0.1448 0.2053 0.1891
0.2400 0.2405 0.2209
0.3548 0.2498 0.2310
0.4791 0.2680 0.2432
0.6003 0.2903 0.2621
0.6989 0.3020 0.2609
0.7898 0.2955 0.2327
0.0215 0.2744 0.1689
0.1716 0.3029 0.1997
0.2514 0.3495 0.2335
0.3750 0.3897 0.2644
0.4999 0.4057 0.2655
0.6179 0.4256 0.2838
0.7270 0.4467 0.3178
0.8184 0.4516 0.3243
0.0215 0.3910 0.1761
0.1838 0.4111 0.2114
0.2877 0.4411 0.2464
0.4132 0.5103 0.3162
0.5360 0.5342 0.3220
0.6325 0.5500 0.3115
0.7324 0.5782 0.3395
0.8315 0.5964 0.3756
0.0215 0.5128 0.1833
0.1871 0.5245 0.2186
0.3127 0.5377 0.2371
0.4376 0.6089 0.3170
0.5746 0.6505 0.3621
0.6740 0.6569 0.3654
0.7438 0.6810 0.3828
0.8344 0.7058 0.4094
0.0215 0.6420 0.1983
0.1984 0.6510 0.2282
0.3355 0.6567 0.2389
0.4671 0.6851 0.2717
0.5721 0.7530 0.3431
0.6826 0.7552 0.3491
0.7666 0.7560 0.3868
0.8448 0.7836 0.4360
0.0215 0.7764 0.2181
0.2140 0.7812 0.2365
0.3557 0.7823 0.2423
0.4985 0.7830 0.2478
0.6024 0.8203 0.2936
0.6690 0.8505 0.3436
0.7696 0.8322 0.3665
0.8666 0.8371 0.4139
0.0215 0.0225 0.2162
0.1342 0.0225 0.2424
0.2238 0.0229 0.2790
0.3612 0.0230 0.2856
0.4914 0.0229 0.3088
0.6029 0.0230 0.3115
0.6981 0.0229 0.2994
0.8026 0.0226 0.2859
0.0215 0.1036 0.2186
0.1191 0.1065 0.2443
0.2218 0.1351 0.2855
0.3610 0.1554 0.3013
0.4917 0.1671 0.3166
0.6121 0.1835 0.3231
0.7001 0.1827 0.3162
0.8002 0.1653 0.2934
0.0215 0.1656 0.2298
0.1304 0.1939 0.2669
0.2305 0.2355 0.3181
0.3589 0.2580 0.3413
0.4818 0.2733 0.3480
0.6051 0.2924 0.3558
0.7097 0.3091 0.3629
0.7956 0.3062 0.3464
0.0215 0.2634 0.2493
0.1646 0.3011 0.2890
0.2514 0.3537 0.3355
0.3745 0.3902 0.3663
0.5045 0.4061 0.3785
0.6201 0.4154 0.3821
0.7211 0.4311 0.3967
0.8150 0.4432 0.3977
0.0216 0.3821 0.2729
0.2089 0.4185 0.3082
0.2917 0.4513 0.3327
0.3946 0.5112 0.3786
0.5223 0.5428 0.4061
0.6355 0.5494 0.3978
0.7329 0.5653 0.4144
0.8359 0.5883 0.4563
0.0216 0.5044 0.2798
0.2274 0.5237 0.3012
0.3152 0.5510 0.3302
0.4342 0.5905 0.3769
0.5511 0.6558 0.4522
0.6734 0.6709 0.4589
0.7492 0.6841 0.4400
0.8439 0.7167 0.4840
0.0216 0.6309 0.2758
0.2379 0.6410 0.3032
0.3406 0.6620 0.3450
0.4743 0.6718 0.3644
0.5778 0.7316 0.4518
0.6999 0.7667 0.5051
0.7909 0.7616 0.4983
0.8572 0.7935 0.5300
0.0217 0.7616 0.2787
0.2452 0.7729 0.3238
0.3659 0.7838 0.3668
0.5055 0.7837 0.3752
0.6249 0.8014 0.4040
0.6945 0.8508 0.4796
0.7881 0.8356 0.4727
0.8782 0.8396 0.5309
0.0215 0.0224 0.2991
0.1666 0.0223 0.3084
0.2360 0.0229 0.3823
0.3631 0.0232 0.3887
0.4882 0.0232 0.3915
0.5913 0.0231 0.4192
0.6875 0.0232 0.4231
0.7934 0.0232 0.4132
0.0215 0.1200 0.3034
0.1374 0.1131 0.3191
0.2169 0.1317 0.3811
0.3659 0.1766 0.4083
0.4971 0.1904 0.4173
0.6006 0.1865 0.4284
0.6941 0.1964 0.4257
0.7925 0.1899 0.4097
0.0215 0.1732 0.3247
0.1342 0.1965 0.3537
0.2249 0.2338 0.4041
0.3608 0.2715 0.4388
0.4949 0.2962 0.4544
0.6104 0.3108 0.4608
0.7192 0.3251 0.4592
0.8051 0.3137 0.4334
0.0215 0.2654 0.3438
0.1560 0.2953 0.3789
0.2563 0.3481 0.4303
0.3815 0.3919 0.4777
0.5106 0.4128 0.4958
0.6215 0.4221 0.4952
0.7178 0.4298 0.4939
0.8181 0.4385 0.4960
0.0216 0.3742 0.3629
0.1934 0.4042 0.3930
0.2902 0.4554 0.4395
0.4031 0.5135 0.4892
0.5286 0.5443 0.5155
0.6457 0.5540 0.5212
0.7380 0.5557 0.5164
0.8296 0.5704 0.5331
0.0216 0.4965 0.3809
0.2334 0.5153 0.3993
0.3195 0.5591 0.4320
0.4352 0.6007 0.4688
0.5416 0.6587 0.5199
0.6553 0.6771 0.5416
0.7470 0.6805 0.5305
0.8396 0.6948 0.5563
0.0217 0.6293 0.3958
0.2647 0.6332 0.3988
0.3542 0.6670 0.4275
0.4686 0.6885 0.4580
0.5847 0.7164 0.5068
0.6735 0.7679 0.5783
0.7742 0.7784 0.5744
0.8527 0.8058 0.5796
0.0217 0.7607 0.3970
0.2759 0.7623 0.4006
0.3866 0.7759 0.4367
0.4971 0.7872 0.4729
0.6314 0.7852 0.4921
0.7130 0.8243 0.5780
0.8010 0.8411 0.6295
0.8885 0.8491 0.6425
0.0215 0.0222 0.3925
0.1850 0.0222 0.3869
0.2668 0.0227 0.4545
0.3617 0.0233 0.5048
0.4833 0.0234 0.4960
0.5960 0.0235 0.4977
0.6794 0.0234 0.5294
0.7760 0.0236 0.5416
0.0215 0.1299 0.3890
0.1682 0.1233 0.3930
0.2419 0.1247 0.4595
0.3585 0.1809 0.5164
0.4918 0.2111 0.5184
0.6029 0.2126 0.5185
0.6830 0.2023 0.5316
0.7747 0.2192 0.5404
0.0215 0.1952 0.4287
0.1475 0.2099 0.4358
0.2282 0.2350 0.4874
0.3580 0.2745 0.5392
0.5096 0.3226 0.5732
0.6311 0.3421 0.5772
0.7002 0.3241 0.5500
0.7897 0.3286 0.5366
0.0215 0.2763 0.4526
0.1631 0.2975 0.4729
0.2609 0.3446 0.5273
0.3809 0.3874 0.5643
0.5117 0.4213 0.5945
0.6336 0.4391 0.6056
0.7194 0.4419 0.5978
0.8110 0.4422 0.5803
0.0216 0.3786 0.4656
0.1938 0.4008 0.4921
0.2893 0.4505 0.5383
0.4106 0.5030 0.5832
0.5337 0.5419 0.6254
0.6522 0.5564 0.6384
0.7420 0.5620 0.6334
0.8280 0.5691 0.6351
0.0216 0.4812 0.4678
0.2265 0.5080 0.4958
0.3244 0.5571 0.5407
0.4426 0.6081 0.5868
0.5489 0.6555 0.6281
0.6612 0.6770 0.6477
0.7591 0.6801 0.6507
0.8434 0.6841 0.6558
0.0217 0.6113 0.4845
0.2670 0.6273 0.5093
0.3676 0.6615 0.5360
0.4739 0.7002 0.5743
0.5861 0.7305 0.6066
0.6702 0.7783 0.6455
0.7674 0.7912 0.6656
0.8528 0.7990 0.6689
0.0217 0.7563 0.5158
0.2831 0.7619 0.5274
0.4088 0.7699 0.5381
0.5027 0.7982 0.5704
0.6203 0.8031 0.5956
0.7236 0.8201 0.6264
0.7874 0.8665 0.7049
0.8834 0.8817 0.7059
0.0215 0.0220 0.4957
0.1877 0.0220 0.4905
0.2999 0.0222 0.5140
0.3612 0.0233 0.6124
0.4726 0.0236 0.6164
0.5896 0.0237 0.6099
0.6977 0.0238 0.6131
0.7811 0.0238 0.6523
0.0215 0.1245 0.4899
0.1862 0.1209 0.4873
0.2927 0.1176 0.5139
0.3646 0.1726 0.6101
0.4731 0.2182 0.6227
0.5889 0.2293 0.6150
0.6934 0.2325 0.6158
0.7799 0.2368 0.6535
0.0215 0.2214 0.5264
0.1774 0.2302 0.5182
0.2560 0.2326 0.5583
0.3620 0.2634 0.6373
0.4986 0.3197 0.6761
0.6263 0.3642 0.6880
0.7163 0.3592 0.6666
0.7903 0.3410 0.6569
0.0215 0.2999 0.5791
0.1804 0.3159 0.5812
0.2624 0.3458 0.6027
0.3756 0.3824 0.6494
0.5061 0.4177 0.6825
0.6379 0.4601 0.7136
0.7415 0.4804 0.7115
0.8074 0.4546 0.6712
0.0216 0.3888 0.5835
0.2005 0.4061 0.5965
0.2984 0.4476 0.6392
0.4138 0.4930 0.6749
0.5321 0.5330 0.7009
0.6471 0.5576 0.7244
0.7508 0.5752 0.7363
0.8332 0.5766 0.7279
0.0216 0.4910 0.5880
0.2293 0.5079 0.6049
0.3272 0.5542 0.6475
0.4466 0.6028 0.6799
0.5590 0.6426 0.7138
0.6632 0.6692 0.7474
0.7656 0.6790 0.7583
0.8510 0.6888 0.7592
0.0217 0.6019 0.5915
0.2626 0.6151 0.6059
0.3680 0.6602 0.6472
0.4820 0.7009 0.6839
0.5936 0.7376 0.7176
0.6770 0.7734 0.7469
0.7727 0.7910 0.7647
0.8683 0.7968 0.7754
0.0217 0.7379 0.6060
0.2795 0.7489 0.6269
0.4096 0.7668 0.6573
0.5177 0.7904 0.6826
0.6236 0.8135 0.7089
0.7208 0.8372 0.7310
0.7881 0.8844 0.7643
0.8802 0.8979 0.7895
0.0215 0.0219 0.6123
0.1879 0.0218 0.6114
0.3147 0.0218 0.6155
0.3783 0.0229 0.6999
0.4612 0.0237 0.7390
0.5773 0.0238 0.7343
0.6918 0.0240 0.7310
0.8009 0.0241 0.7374
0.0215 0.1162 0.6116
0.1874 0.1143 0.6133
0.3145 0.1130 0.6199
0.4018 0.1477 0.6771
0.4615 0.2220 0.7368
0.5723 0.2367 0.7333
0.6853 0.2451 0.7303
0.7944 0.2520 0.7368
0.0215 0.2367 0.6280
0.1866 0.2401 0.6253
0.3025 0.2400 0.6433
0.3955 0.2459 0.7021
0.4881 0.3055 0.7695
0.5937 0.3645 0.7746
0.6938 0.3784 0.7559
0.7905 0.3775 0.7432
0.0215 0.3276 0.7062
0.1980 0.3427 0.6934
0.2893 0.3588 0.6898
0.3803 0.3661 0.7188
0.5027 0.4042 0.7748
0.6285 0.4525 0.8050
0.7380 0.5013 0.8209
0.8125 0.4852 0.7803
0.0216 0.4066 0.7181
0.1960 0.4278 0.7274
0.3108 0.4527 0.7339
0.4013 0.4876 0.7431
0.5233 0.5233 0.7761
0.6387 0.5511 0.7924
0.7497 0.5777 0.8217
0.8390 0.5836 0.8192
0.0216 0.5059 0.7210
0.2114 0.5200 0.7261
0.3235 0.5508 0.7465
0.4493 0.5952 0.7764
0.5668 0.6328 0.7976
0.6666 0.6636 0.8129
0.7609 0.6805 0.8322
0.8498 0.6920 0.8423
0.0216 0.6190 0.7262
0.2450 0.6278 0.7295
0.3614 0.6570 0.7507
0.4824 0.6974 0.7834
0.5997 0.7321 0.8046
0.6941 0.7619 0.8289
0.7776 0.7834 0.8584
0.8751 0.7941 0.8708
0.0217 0.7405 0.7327
0.2717 0.7466 0.7375
0.3991 0.7604 0.7514
0.5146 0.7904 0.7838
0.6248 0.8148 0.8103
0.7218 0.8394 0.8333
0.7938 0.8780 0.8598
0.8891 0.9007 0.8815
