lut/adanmq/Adanmq_Ilford_Delta_3200.cube
TITLE "Adanmq_Ilford Delta 3200"
LUT_3D_SIZE 32
0.0223 0.0223 0.0223
0.0274 0.0274 0.0274
0.0304 0.0304 0.0304
0.0323 0.0323 0.0323
0.0340 0.0340 0.0340
0.0358 0.0358 0.0358
0.0379 0.0379 0.0379
0.0410 0.0410 0.0410
0.0451 0.0451 0.0451
0.0502 0.0502 0.0502
0.0560 0.0560 0.0560
0.0617 0.0617 0.0617
0.0672 0.0672 0.0672
0.0721 0.0721 0.0721
0.0768 0.0768 0.0768
0.0815 0.0815 0.0815
0.0865 0.0865 0.0865
0.0921 0.0921 0.0921
0.0981 0.0981 0.0981
0.1047 0.1047 0.1047
0.1118 0.1118 0.1118
0.1193 0.1193 0.1193
0.1274 0.1274 0.1274
0.1362 0.1362 0.1362
0.1457 0.1457 0.1457
0.1557 0.1557 0.1557
0.1662 0.1662 0.1662
0.1772 0.1772 0.1772
0.1884 0.1884 0.1884
0.2004 0.2004 0.2004
0.2120 0.2120 0.2120
0.2206 0.2206 0.2206
0.0420 0.0420 0.0420
0.0469 0.0469 0.0469
0.0497 0.0497 0.0497
0.0512 0.0512 0.0512
0.0526 0.0526 0.0526
0.0541 0.0541 0.0541
0.0560 0.0560 0.0560
0.0587 0.0587 0.0587
0.0626 0.0626 0.0626
0.0676 0.0676 0.0676
0.0733 0.0733 0.0733
0.0791 0.0791 0.0791
0.0846 0.0846 0.0846
0.0897 0.0897 0.0897
0.0945 0.0945 0.0945
0.0993 0.0993 0.0993
0.1044 0.1044 0.1044
0.1100 0.1100 0.1100
0.1162 0.1162 0.1162
0.1230 0.1230 0.1230
0.1303 0.1303 0.1303
0.1381 0.1381 0.1381
0.1465 0.1465 0.1465
0.1556 0.1556 0.1556
0.1654 0.1654 0.1654
0.1758 0.1758 0.1758
0.1866 0.1866 0.1866
0.1978 0.1978 0.1978
0.2094 0.2094 0.2094
0.2216 0.2216 0.2216
0.2335 0.2335 0.2335
0.2423 0.2423 0.2423
0.0586 0.0586 0.0586
0.0633 0.0633 0.0633
0.0656 0.0656 0.0656
0.0667 0.0667 0.0667
0.0679 0.0679 0.0679
0.0691 0.0691 0.0691
0.0707 0.0707 0.0707
0.0731 0.0731 0.0731
0.0765 0.0765 0.0765
0.0809 0.0809 0.0809
0.0861 0.0861 0.0861
0.0916 0.0916 0.0916
0.0971 0.0971 0.0971
0.1024 0.1024 0.1024
0.1074 0.1074 0.1074
0.1125 0.1125 0.1125
0.1179 0.1179 0.1179
0.1238 0.1238 0.1238
0.1303 0.1303 0.1303
0.1373 0.1373 0.1373
0.1450 0.1450 0.1450
0.1533 0.1533 0.1533
0.1624 0.1624 0.1624
0.1721 0.1721 0.1721
0.1827 0.1827 0.1827
0.1938 0.1938 0.1938
0.2055 0.2055 0.2055
0.2176 0.2176 0.2176
0.2300 0.2300 0.2300
0.2431 0.2431 0.2431
0.2556 0.2556 0.2556
0.2646 0.2646 0.2646
0.0691 0.0691 0.0691
0.0739 0.0739 0.0739
0.0764 0.0764 0.0764
0.0778 0.0778 0.0778
0.0793 0.0793 0.0793
0.0809 0.0809 0.0809
0.0827 0.0827 0.0827
0.0850 0.0850 0.0850
0.0879 0.0879 0.0879
0.0916 0.0916 0.0916
0.0960 0.0960 0.0960
0.1010 0.1010 0.1010
0.1062 0.1062 0.1062
0.1116 0.1116 0.1116
0.1170 0.1170 0.1170
0.1227 0.1227 0.1227
0.1286 0.1286 0.1286
0.1349 0.1349 0.1349
0.1417 0.1417 0.1417
0.1491 0.1491 0.1491
0.1571 0.1571 0.1571
0.1659 0.1659 0.1659
0.1754 0.1754 0.1754
0.1858 0.1858 0.1858
0.1971 0.1971 0.1971
0.2091 0.2091 0.2091
0.2218 0.2218 0.2218
0.2350 0.2350 0.2350
0.2486 0.2486 0.2486
0.2629 0.2629 0.2629
0.2764 0.2764 0.2764
0.2860 0.2860 0.2860
0.0740 0.0740 0.0740
0.0792 0.0792 0.0792
0.0827 0.0827 0.0827
0.0853 0.0853 0.0853
0.0879 0.0879 0.0879
0.0905 0.0905 0.0905
0.0930 0.0930 0.0930
0.0955 0.0955 0.0955
0.0984 0.0984 0.0984
0.1017 0.1017 0.1017
0.1057 0.1057 0.1057
0.1104 0.1104 0.1104
0.1155 0.1155 0.1155
0.1211 0.1211 0.1211
0.1270 0.1270 0.1270
0.1333 0.1333 0.1333
0.1399 0.1399 0.1399
0.1468 0.1468 0.1468
0.1541 0.1541 0.1541
0.1618 0.1618 0.1618
0.1700 0.1700 0.1700
0.1790 0.1790 0.1790
0.1887 0.1887 0.1887
0.1992 0.1992 0.1992
0.2108 0.2108 0.2108
0.2232 0.2232 0.2232
0.2365 0.2365 0.2365
0.2506 0.2506 0.2506
0.2652 0.2652 0.2652
0.2805 0.2805 0.2805
0.2949 0.2949 0.2949
0.3052 0.3052 0.3052
0.0749 0.0749 0.0749
0.0807 0.0807 0.0807
0.0855 0.0855 0.0855
0.0898 0.0898 0.0898
0.0938 0.0938 0.0938
0.0974 0.0974 0.0974
0.1007 0.1007 0.1007
0.1039 0.1039 0.1039
0.1071 0.1071 0.1071
0.1107 0.1107 0.1107
0.1150 0.1150 0.1150
0.1199 0.1199 0.1199
0.1254 0.1254 0.1254
0.1315 0.1315 0.1315
0.1380 0.1380 0.1380
0.1450 0.1450 0.1450
0.1522 0.1522 0.1522
0.1598 0.1598 0.1598
0.1677 0.1677 0.1677
0.1759 0.1759 0.1759
0.1845 0.1845 0.1845
0.1935 0.1935 0.1935
0.2033 0.2033 0.2033
0.2137 0.2137 0.2137
0.2251 0.2251 0.2251
0.2376 0.2376 0.2376
0.2510 0.2510 0.2510
0.2654 0.2654 0.2654
0.2804 0.2804 0.2804
0.2962 0.2962 0.2962
0.3111 0.3111 0.3111
0.3220 0.3220 0.3220
0.0752 0.0752 0.0752
0.0815 0.0815 0.0815
0.0874 0.0874 0.0874
0.0930 0.0930 0.0930
0.0983 0.0983 0.0983
0.1028 0.1028 0.1028
0.1067 0.1067 0.1067
0.1104 0.1104 0.1104
0.1142 0.1142 0.1142
0.1186 0.1186 0.1186
0.1237 0.1237 0.1237
0.1295 0.1295 0.1295
0.1359 0.1359 0.1359
0.1427 0.1427 0.1427
0.1500 0.1500 0.1500
0.1576 0.1576 0.1576
0.1655 0.1655 0.1655
0.1738 0.1738 0.1738
0.1823 0.1823 0.1823
0.1912 0.1912 0.1912
0.2004 0.2004 0.2004
0.2099 0.2099 0.2099
0.2199 0.2199 0.2199
0.2303 0.2303 0.2303
0.2416 0.2416 0.2416
0.2538 0.2538 0.2538
0.2669 0.2669 0.2669
0.2810 0.2810 0.2810
0.2958 0.2958 0.2958
0.3114 0.3114 0.3114
0.3262 0.3262 0.3262
0.3373 0.3373 0.3373
0.0784 0.0784 0.0784
0.0848 0.0848 0.0848
0.0911 0.0911 0.0911
0.0974 0.0974 0.0974
0.1032 0.1032 0.1032
0.1083 0.1083 0.1083
0.1126 0.1126 0.1126
0.1166 0.1166 0.1166
0.1210 0.1210 0.1210
0.1262 0.1262 0.1262
0.1323 0.1323 0.1323
0.1392 0.1392 0.1392
0.1466 0.1466 0.1466
0.1543 0.1543 0.1543
0.1624 0.1624 0.1624
0.1706 0.1706 0.1706
0.1791 0.1791 0.1791
0.1881 0.1881 0.1881
0.1973 0.1973 0.1973
0.2070 0.2070 0.2070
0.2171 0.2171 0.2171
0.2275 0.2275 0.2275
0.2382 0.2382 0.2382
0.2492 0.2492 0.2492
0.2607 0.2607 0.2607
0.2728 0.2728 0.2728
0.2856 0.2856 0.2856
0.2993 0.2993 0.2993
0.3135 0.3135 0.3135
0.3285 0.3285 0.3285
0.3428 0.3428 0.3428
0.3534 0.3534 0.3534
0.0856 0.0856 0.0856
0.0919 0.0919 0.0919
0.0979 0.0979 0.0979
0.1041 0.1041 0.1041
0.1101 0.1101 0.1101
0.1154 0.1154 0.1154
0.1200 0.1200 0.1200
0.1244 0.1244 0.1244
0.1291 0.1291 0.1291
0.1349 0.1349 0.1349
0.1416 0.1416 0.1416
0.1493 0.1493 0.1493
0.1575 0.1575 0.1575
0.1660 0.1660 0.1660
0.1747 0.1747 0.1747
0.1835 0.1835 0.1835
0.1926 0.1926 0.1926
0.2021 0.2021 0.2021
0.2121 0.2121 0.2121
0.2228 0.2228 0.2228
0.2339 0.2339 0.2339
0.2454 0.2454 0.2454
0.2573 0.2573 0.2573
0.2693 0.2693 0.2693
0.2816 0.2816 0.2816
0.2941 0.2941 0.2941
0.3071 0.3071 0.3071
0.3205 0.3205 0.3205
0.3344 0.3344 0.3344
0.3488 0.3488 0.3488
0.3625 0.3625 0.3625
0.3722 0.3722 0.3722
0.0959 0.0959 0.0959
0.1018 0.1018 0.1018
0.1074 0.1074 0.1074
0.1132 0.1132 0.1132
0.1192 0.1192 0.1192
0.1248 0.1248 0.1248
0.1298 0.1298 0.1298
0.1344 0.1344 0.1344
0.1395 0.1395 0.1395
0.1454 0.1454 0.1454
0.1524 0.1524 0.1524
0.1604 0.1604 0.1604
0.1690 0.1690 0.1690
0.1779 0.1779 0.1779
0.1870 0.1870 0.1870
0.1962 0.1962 0.1962
0.2058 0.2058 0.2058
0.2159 0.2159 0.2159
0.2267 0.2267 0.2267
0.2382 0.2382 0.2382
0.2504 0.2504 0.2504
0.2630 0.2630 0.2630
0.2762 0.2762 0.2762
0.2895 0.2895 0.2895
0.3030 0.3030 0.3030
0.3165 0.3165 0.3165
0.3301 0.3301 0.3301
0.3439 0.3439 0.3439
0.3579 0.3579 0.3579
0.3721 0.3721 0.3721
0.3855 0.3855 0.3855
0.3943 0.3943 0.3943
0.1075 0.1075 0.1075
0.1132 0.1132 0.1132
0.1183 0.1183 0.1183
0.1238 0.1238 0.1238
0.1300 0.1300 0.1300
0.1362 0.1362 0.1362
0.1418 0.1418 0.1418
0.1470 0.1470 0.1470
0.1523 0.1523 0.1523
0.1582 0.1582 0.1582
0.1651 0.1651 0.1651
0.1730 0.1730 0.1730
0.1816 0.1816 0.1816
0.1907 0.1907 0.1907
0.2000 0.2000 0.2000
0.2095 0.2095 0.2095
0.2194 0.2194 0.2194
0.2301 0.2301 0.2301
0.2415 0.2415 0.2415
0.2538 0.2538 0.2538
0.2669 0.2669 0.2669
0.2805 0.2805 0.2805
0.2947 0.2947 0.2947
0.3091 0.3091 0.3091
0.3239 0.3239 0.3239
0.3387 0.3387 0.3387
0.3534 0.3534 0.3534
0.3682 0.3682 0.3682
0.3827 0.3827 0.3827
0.3973 0.3973 0.3973
0.4108 0.4108 0.4108
0.4191 0.4191 0.4191
0.1193 0.1193 0.1193
0.1248 0.1248 0.1248
0.1296 0.1296 0.1296
0.1352 0.1352 0.1352
0.1418 0.1418 0.1418
0.1488 0.1488 0.1488
0.1554 0.1554 0.1554
0.1614 0.1614 0.1614
0.1670 0.1670 0.1670
0.1729 0.1729 0.1729
0.1797 0.1797 0.1797
0.1874 0.1874 0.1874
0.1958 0.1958 0.1958
0.2048 0.2048 0.2048
0.2141 0.2141 0.2141
0.2238 0.2238 0.2238
0.2340 0.2340 0.2340
0.2450 0.2450 0.2450
0.2570 0.2570 0.2570
0.2700 0.2700 0.2700
0.2837 0.2837 0.2837
0.2981 0.2981 0.2981
0.3129 0.3129 0.3129
0.3281 0.3281 0.3281
0.3438 0.3438 0.3438
0.3597 0.3597 0.3597
0.3759 0.3759 0.3759
0.3919 0.3919 0.3919
0.4075 0.4075 0.4075
0.4229 0.4229 0.4229
0.4366 0.4366 0.4366
0.4450 0.4450 0.4450
0.1310 0.1310 0.1310
0.1364 0.1364 0.1364
0.1412 0.1412 0.1412
0.1468 0.1468 0.1468
0.1539 0.1539 0.1539
0.1620 0.1620 0.1620
0.1698 0.1698 0.1698
0.1769 0.1769 0.1769
0.1832 0.1832 0.1832
0.1892 0.1892 0.1892
0.1957 0.1957 0.1957
0.2031 0.2031 0.2031
0.2113 0.2113 0.2113
0.2202 0.2202 0.2202
0.2296 0.2296 0.2296
0.2395 0.2395 0.2395
0.2499 0.2499 0.2499
0.2612 0.2612 0.2612
0.2734 0.2734 0.2734
0.2867 0.2867 0.2867
0.3009 0.3009 0.3009
0.3158 0.3158 0.3158
0.3311 0.3311 0.3311
0.3467 0.3467 0.3467
0.3630 0.3630 0.3630
0.3799 0.3799 0.3799
0.3972 0.3972 0.3972
0.4147 0.4147 0.4147
0.4315 0.4315 0.4315
0.4478 0.4478 0.4478
0.4620 0.4620 0.4620
0.4706 0.4706 0.4706
0.1429 0.1429 0.1429
0.1483 0.1483 0.1483
0.1529 0.1529 0.1529
0.1584 0.1584 0.1584
0.1660 0.1660 0.1660
0.1751 0.1751 0.1751
0.1845 0.1845 0.1845
0.1929 0.1929 0.1929
0.2002 0.2002 0.2002
0.2065 0.2065 0.2065
0.2129 0.2129 0.2129
0.2200 0.2200 0.2200
0.2280 0.2280 0.2280
0.2368 0.2368 0.2368
0.2463 0.2463 0.2463
0.2565 0.2565 0.2565
0.2672 0.2672 0.2672
0.2787 0.2787 0.2787
0.2909 0.2909 0.2909
0.3042 0.3042 0.3042
0.3185 0.3185 0.3185
0.3336 0.3336 0.3336
0.3493 0.3493 0.3493
0.3653 0.3653 0.3653
0.3819 0.3819 0.3819
0.3993 0.3993 0.3993
0.4175 0.4175 0.4175
0.4362 0.4362 0.4362
0.4543 0.4543 0.4543
0.4717 0.4717 0.4717
0.4866 0.4866 0.4866
0.4956 0.4956 0.4956
0.1553 0.1553 0.1553
0.1606 0.1606 0.1606
0.1649 0.1649 0.1649
0.1702 0.1702 0.1702
0.1779 0.1779 0.1779
0.1878 0.1878 0.1878
0.1987 0.1987 0.1987
0.2089 0.2089 0.2089
0.2175 0.2175 0.2175
0.2246 0.2246 0.2246
0.2310 0.2310 0.2310
0.2379 0.2379 0.2379
0.2456 0.2456 0.2456
0.2543 0.2543 0.2543
0.2640 0.2640 0.2640
0.2745 0.2745 0.2745
0.2856 0.2856 0.2856
0.2973 0.2973 0.2973
0.3095 0.3095 0.3095
0.3226 0.3226 0.3226
0.3366 0.3366 0.3366
0.3516 0.3516 0.3516
0.3674 0.3674 0.3674
0.3837 0.3837 0.3837
0.4007 0.4007 0.4007
0.4184 0.4184 0.4184
0.4371 0.4371 0.4371
0.4566 0.4566 0.4566
0.4759 0.4759 0.4759
0.4946 0.4946 0.4946
0.5106 0.5106 0.5106
0.5200 0.5200 0.5200
0.1680 0.1680 0.1680
0.1733 0.1733 0.1733
0.1774 0.1774 0.1774
0.1822 0.1822 0.1822
0.1897 0.1897 0.1897
0.2001 0.2001 0.2001
0.2123 0.2123 0.2123
0.2244 0.2244 0.2244
0.2348 0.2348 0.2348
0.2430 0.2430 0.2430
0.2500 0.2500 0.2500
0.2568 0.2568 0.2568
0.2643 0.2643 0.2643
0.2730 0.2730 0.2730
0.2827 0.2827 0.2827
0.2934 0.2934 0.2934
0.3049 0.3049 0.3049
0.3169 0.3169 0.3169
0.3293 0.3293 0.3293
0.3421 0.3421 0.3421
0.3556 0.3556 0.3556
0.3701 0.3701 0.3701
0.3857 0.3857 0.3857
0.4022 0.4022 0.4022
0.4194 0.4194 0.4194
0.4374 0.4374 0.4374
0.4564 0.4564 0.4564
0.4764 0.4764 0.4764
0.4966 0.4966 0.4966
0.5165 0.5165 0.5165
0.5337 0.5337 0.5337
0.5440 0.5440 0.5440
0.1813 0.1813 0.1813
0.1866 0.1866 0.1866
0.1905 0.1905 0.1905
0.1948 0.1948 0.1948
0.2018 0.2018 0.2018
0.2121 0.2121 0.2121
0.2252 0.2252 0.2252
0.2391 0.2391 0.2391
0.2516 0.2516 0.2516
0.2617 0.2617 0.2617
0.2697 0.2697 0.2697
0.2768 0.2768 0.2768
0.2843 0.2843 0.2843
0.2927 0.2927 0.2927
0.3023 0.3023 0.3023
0.3131 0.3131 0.3131
0.3247 0.3247 0.3247
0.3371 0.3371 0.3371
0.3498 0.3498 0.3498
0.3626 0.3626 0.3626
0.3758 0.3758 0.3758
0.3897 0.3897 0.3897
0.4047 0.4047 0.4047
0.4208 0.4208 0.4208
0.4380 0.4380 0.4380
0.4562 0.4562 0.4562
0.4753 0.4753 0.4753
0.4956 0.4956 0.4956
0.5162 0.5162 0.5162
0.5371 0.5371 0.5371
0.5555 0.5555 0.5555
0.5664 0.5664 0.5664
0.1951 0.1951 0.1951
0.2004 0.2004 0.2004
0.2043 0.2043 0.2043
0.2082 0.2082 0.2082
0.2144 0.2144 0.2144
0.2243 0.2243 0.2243
0.2377 0.2377 0.2377
0.2531 0.2531 0.2531
0.2678 0.2678 0.2678
0.2802 0.2802 0.2802
0.2898 0.2898 0.2898
0.2978 0.2978 0.2978
0.3055 0.3055 0.3055
0.3138 0.3138 0.3138
0.3232 0.3232 0.3232
0.3337 0.3337 0.3337
0.3453 0.3453 0.3453
0.3578 0.3578 0.3578
0.3708 0.3708 0.3708
0.3840 0.3840 0.3840
0.3973 0.3973 0.3973
0.4107 0.4107 0.4107
0.4249 0.4249 0.4249
0.4403 0.4403 0.4403
0.4570 0.4570 0.4570
0.4749 0.4749 0.4749
0.4941 0.4941 0.4941
0.5142 0.5142 0.5142
0.5350 0.5350 0.5350
0.5563 0.5563 0.5563
0.5753 0.5753 0.5753
0.5868 0.5868 0.5868
0.2096 0.2096 0.2096
0.2149 0.2149 0.2149
0.2188 0.2188 0.2188
0.2226 0.2226 0.2226
0.2282 0.2282 0.2282
0.2372 0.2372 0.2372
0.2503 0.2503 0.2503
0.2665 0.2665 0.2665
0.2834 0.2834 0.2834
0.2982 0.2982 0.2982
0.3101 0.3101 0.3101
0.3194 0.3194 0.3194
0.3277 0.3277 0.3277
0.3361 0.3361 0.3361
0.3452 0.3452 0.3452
0.3554 0.3554 0.3554
0.3666 0.3666 0.3666
0.3791 0.3791 0.3791
0.3923 0.3923 0.3923
0.4060 0.4060 0.4060
0.4195 0.4195 0.4195
0.4330 0.4330 0.4330
0.4467 0.4467 0.4467
0.4611 0.4611 0.4611
0.4769 0.4769 0.4769
0.4941 0.4941 0.4941
0.5127 0.5127 0.5127
0.5327 0.5327 0.5327
0.5532 0.5532 0.5532
0.5744 0.5744 0.5744
0.5934 0.5934 0.5934
0.6052 0.6052 0.6052
0.2248 0.2248 0.2248
0.2302 0.2302 0.2302
0.2343 0.2343 0.2343
0.2381 0.2381 0.2381
0.2431 0.2431 0.2431
0.2511 0.2511 0.2511
0.2634 0.2634 0.2634
0.2798 0.2798 0.2798
0.2982 0.2982 0.2982
0.3156 0.3156 0.3156
0.3301 0.3301 0.3301
0.3414 0.3414 0.3414
0.3505 0.3505 0.3505
0.3591 0.3591 0.3591
0.3681 0.3681 0.3681
0.3779 0.3779 0.3779
0.3889 0.3889 0.3889
0.4010 0.4010 0.4010
0.4143 0.4143 0.4143
0.4282 0.4282 0.4282
0.4423 0.4423 0.4423
0.4562 0.4562 0.4562
0.4698 0.4698 0.4698
0.4836 0.4836 0.4836
0.4982 0.4982 0.4982
0.5143 0.5143 0.5143
0.5320 0.5320 0.5320
0.5512 0.5512 0.5512
0.5712 0.5712 0.5712
0.5919 0.5919 0.5919
0.6107 0.6107 0.6107
0.6224 0.6224 0.6224
0.2408 0.2408 0.2408
0.2463 0.2463 0.2463
0.2506 0.2506 0.2506
0.2546 0.2546 0.2546
0.2594 0.2594 0.2594
0.2663 0.2663 0.2663
0.2774 0.2774 0.2774
0.2933 0.2933 0.2933
0.3126 0.3126 0.3126
0.3323 0.3323 0.3323
0.3495 0.3495 0.3495
0.3631 0.3631 0.3631
0.3736 0.3736 0.3736
0.3827 0.3827 0.3827
0.3917 0.3917 0.3917
0.4013 0.4013 0.4013
0.4119 0.4119 0.4119
0.4237 0.4237 0.4237
0.4368 0.4368 0.4368
0.4508 0.4508 0.4508
0.4653 0.4653 0.4653
0.4797 0.4797 0.4797
0.4937 0.4937 0.4937
0.5072 0.5072 0.5072
0.5211 0.5211 0.5211
0.5359 0.5359 0.5359
0.5523 0.5523 0.5523
0.5704 0.5704 0.5704
0.5896 0.5896 0.5896
0.6097 0.6097 0.6097
0.6280 0.6280 0.6280
0.6397 0.6397 0.6397
0.2576 0.2576 0.2576
0.2633 0.2633 0.2633
0.2679 0.2679 0.2679
0.2721 0.2721 0.2721
0.2767 0.2767 0.2767
0.2829 0.2829 0.2829
0.2925 0.2925 0.2925
0.3073 0.3073 0.3073
0.3267 0.3267 0.3267
0.3481 0.3481 0.3481
0.3679 0.3679 0.3679
0.3842 0.3842 0.3842
0.3966 0.3966 0.3966
0.4066 0.4066 0.4066
0.4158 0.4158 0.4158
0.4254 0.4254 0.4254
0.4357 0.4357 0.4357
0.4472 0.4472 0.4472
0.4599 0.4599 0.4599
0.4738 0.4738 0.4738
0.4884 0.4884 0.4884
0.5033 0.5033 0.5033
0.5177 0.5177 0.5177
0.5315 0.5315 0.5315
0.5451 0.5451 0.5451
0.5590 0.5590 0.5590
0.5741 0.5741 0.5741
0.5908 0.5908 0.5908
0.6089 0.6089 0.6089
0.6282 0.6282 0.6282
0.6460 0.6460 0.6460
0.6577 0.6577 0.6577
0.2752 0.2752 0.2752
0.2810 0.2810 0.2810
0.2858 0.2858 0.2858
0.2903 0.2903 0.2903
0.2950 0.2950 0.2950
0.3007 0.3007 0.3007
0.3090 0.3090 0.3090
0.3223 0.3223 0.3223
0.3409 0.3409 0.3409
0.3631 0.3631 0.3631
0.3853 0.3853 0.3853
0.4043 0.4043 0.4043
0.4191 0.4191 0.4191
0.4305 0.4305 0.4305
0.4403 0.4403 0.4403
0.4500 0.4500 0.4500
0.4602 0.4602 0.4602
0.4713 0.4713 0.4713
0.4836 0.4836 0.4836
0.4971 0.4971 0.4971
0.5117 0.5117 0.5117
0.5268 0.5268 0.5268
0.5417 0.5417 0.5417
0.5560 0.5560 0.5560
0.5697 0.5697 0.5697
0.5832 0.5832 0.5832
0.5973 0.5973 0.5973
0.6127 0.6127 0.6127
0.6294 0.6294 0.6294
0.6475 0.6475 0.6475
0.6646 0.6646 0.6646
0.6762 0.6762 0.6762
0.2935 0.2935 0.2935
0.2994 0.2994 0.2994
0.3044 0.3044 0.3044
0.3091 0.3091 0.3091
0.3141 0.3141 0.3141
0.3195 0.3195 0.3195
0.3268 0.3268 0.3268
0.3384 0.3384 0.3384
0.3557 0.3557 0.3557
0.3779 0.3779 0.3779
0.4016 0.4016 0.4016
0.4234 0.4234 0.4234
0.4408 0.4408 0.4408
0.4541 0.4541 0.4541
0.4649 0.4649 0.4649
0.4748 0.4748 0.4748
0.4850 0.4850 0.4850
0.4959 0.4959 0.4959
0.5077 0.5077 0.5077
0.5208 0.5208 0.5208
0.5351 0.5351 0.5351
0.5501 0.5501 0.5501
0.5654 0.5654 0.5654
0.5802 0.5802 0.5802
0.5943 0.5943 0.5943
0.6078 0.6078 0.6078
0.6214 0.6214 0.6214
0.6357 0.6357 0.6357
0.6511 0.6511 0.6511
0.6678 0.6678 0.6678
0.6838 0.6838 0.6838
0.6950 0.6950 0.6950
0.3124 0.3124 0.3124
0.3184 0.3184 0.3184
0.3236 0.3236 0.3236
0.3286 0.3286 0.3286
0.3338 0.3338 0.3338
0.3394 0.3394 0.3394
0.3461 0.3461 0.3461
0.3561 0.3561 0.3561
0.3716 0.3716 0.3716
0.3928 0.3928 0.3928
0.4173 0.4173 0.4173
0.4413 0.4413 0.4413
0.4616 0.4616 0.4616
0.4773 0.4773 0.4773
0.4894 0.4894 0.4894
0.4999 0.4999 0.4999
0.5102 0.5102 0.5102
0.5209 0.5209 0.5209
0.5323 0.5323 0.5323
0.5449 0.5449 0.5449
0.5586 0.5586 0.5586
0.5734 0.5734 0.5734
0.5887 0.5887 0.5887
0.6039 0.6039 0.6039
0.6186 0.6186 0.6186
0.6325 0.6325 0.6325
0.6461 0.6461 0.6461
0.6598 0.6598 0.6598
0.6740 0.6740 0.6740
0.6892 0.6892 0.6892
0.7037 0.7037 0.7037
0.7143 0.7143 0.7143
0.3317 0.3317 0.3317
0.3378 0.3378 0.3378
0.3433 0.3433 0.3433
0.3486 0.3486 0.3486
0.3542 0.3542 0.3542
0.3601 0.3601 0.3601
0.3667 0.3667 0.3667
0.3755 0.3755 0.3755
0.3890 0.3890 0.3890
0.4085 0.4085 0.4085
0.4327 0.4327 0.4327
0.4583 0.4583 0.4583
0.4814 0.4814 0.4814
0.4997 0.4997 0.4997
0.5137 0.5137 0.5137
0.5251 0.5251 0.5251
0.5356 0.5356 0.5356
0.5461 0.5461 0.5461
0.5572 0.5572 0.5572
0.5692 0.5692 0.5692
0.5823 0.5823 0.5823
0.5966 0.5966 0.5966
0.6118 0.6118 0.6118
0.6273 0.6273 0.6273
0.6425 0.6425 0.6425
0.6570 0.6570 0.6570
0.6709 0.6709 0.6709
0.6844 0.6844 0.6844
0.6979 0.6979 0.6979
0.7118 0.7118 0.7118
0.7248 0.7248 0.7248
0.7346 0.7346 0.7346
0.3517 0.3517 0.3517
0.3579 0.3579 0.3579
0.3637 0.3637 0.3637
0.3695 0.3695 0.3695
0.3755 0.3755 0.3755
0.3818 0.3818 0.3818
0.3886 0.3886 0.3886
0.3966 0.3966 0.3966
0.4081 0.4081 0.4081
0.4254 0.4254 0.4254
0.4484 0.4484 0.4484
0.4746 0.4746 0.4746
0.5000 0.5000 0.5000
0.5212 0.5212 0.5212
0.5376 0.5376 0.5376
0.5503 0.5503 0.5503
0.5612 0.5612 0.5612
0.5717 0.5717 0.5717
0.5825 0.5825 0.5825
0.5939 0.5939 0.5939
0.6063 0.6063 0.6063
0.6200 0.6200 0.6200
0.6348 0.6348 0.6348
0.6504 0.6504 0.6504
0.6661 0.6661 0.6661
0.6813 0.6813 0.6813
0.6958 0.6958 0.6958
0.7095 0.7095 0.7095
0.7225 0.7225 0.7225
0.7354 0.7354 0.7354
0.7474 0.7474 0.7474
0.7562 0.7562 0.7562
0.3722 0.3722 0.3722
0.3786 0.3786 0.3786
0.3848 0.3848 0.3848
0.3911 0.3911 0.3911
0.3976 0.3976 0.3976
0.4043 0.4043 0.4043
0.4113 0.4113 0.4113
0.4189 0.4189 0.4189
0.4289 0.4289 0.4289
0.4438 0.4438 0.4438
0.4649 0.4649 0.4649
0.4907 0.4907 0.4907
0.5177 0.5177 0.5177
0.5416 0.5416 0.5416
0.5607 0.5607 0.5607
0.5751 0.5751 0.5751
0.5867 0.5867 0.5867
0.5974 0.5974 0.5974
0.6080 0.6080 0.6080
0.6189 0.6189 0.6189
0.6306 0.6306 0.6306
0.6435 0.6435 0.6435
0.6579 0.6579 0.6579
0.6734 0.6734 0.6734
0.6895 0.6895 0.6895
0.7054 0.7054 0.7054
0.7205 0.7205 0.7205
0.7346 0.7346 0.7346
0.7476 0.7476 0.7476
0.7599 0.7599 0.7599
0.7711 0.7711 0.7711
0.7791 0.7791 0.7791
0.3935 0.3935 0.3935
0.4002 0.4002 0.4002
0.4067 0.4067 0.4067
0.4134 0.4134 0.4134
