lut/adanmq/Adanmq_Ilford_Delta_3200.cube
TITLE "Adanmq_Ilford Delta 3200"
LUT_3D_SIZE 5
DOMAIN_MIN 0.000000 0.000000 0.000000
DOMAIN_MAX 0.903226 0.903226 0.903226
0.0223 0.0223 0.0223
0.0410 0.0410 0.0410
0.0768 0.0768 0.0768
0.1193 0.1193 0.1193
0.1884 0.1884 0.1884
0.0784 0.0784 0.0784
0.1166 0.1166 0.1166
0.1624 0.1624 0.1624
0.2275 0.2275 0.2275
0.3135 0.3135 0.3135
0.1553 0.1553 0.1553
0.2089 0.2089 0.2089
0.2640 0.2640 0.2640
0.3516 0.3516 0.3516
0.4759 0.4759 0.4759
0.2576 0.2576 0.2576
0.3073 0.3073 0.3073
0.4158 0.4158 0.4158
0.5033 0.5033 0.5033
0.6089 0.6089 0.6089
0.3935 0.3935 0.3935
0.4422 0.4422 0.4422
0.5830 0.5830 0.5830
0.6675 0.6675 0.6675
0.7729 0.7729 0.7729
0.0276 0.0276 0.0276
0.0855 0.0855 0.0855
0.1237 0.1237 0.1237
0.1586 0.1586 0.1586
0.2322 0.2322 0.2322
0.0952 0.0952 0.0952
0.1519 0.1519 0.1519
0.1911 0.1911 0.1911
0.2661 0.2661 0.2661
0.3865 0.3865 0.3865
0.1711 0.1711 0.1711
0.2185 0.2185 0.2185
0.3099 0.3099 0.3099
0.3912 0.3912 0.3912
0.4818 0.4818 0.4818
0.2765 0.2765 0.2765
0.3122 0.3122 0.3122
0.4403 0.4403 0.4403
0.5233 0.5233 0.5233
0.6358 0.6358 0.6358
0.4123 0.4123 0.4123
0.4659 0.4659 0.4659
0.5494 0.5494 0.5494
0.6865 0.6865 0.6865
0.7787 0.7787 0.7787
0.0491 0.0491 0.0491
0.1443 0.1443 0.1443
0.2308 0.2308 0.2308
0.2598 0.2598 0.2598
0.3052 0.3052 0.3052
0.1383 0.1383 0.1383
0.2188 0.2188 0.2188
0.2885 0.2885 0.2885
0.3637 0.3637 0.3637
0.4468 0.4468 0.4468
0.1981 0.1981 0.1981
0.2871 0.2871 0.2871
0.3885 0.3885 0.3885
0.4440 0.4440 0.4440
0.5410 0.5410 0.5410
0.3071 0.3071 0.3071
0.3692 0.3692 0.3692
0.4821 0.4821 0.4821
0.5901 0.5901 0.5901
0.6799 0.6799 0.6799
0.4695 0.4695 0.4695
0.5138 0.5138 0.5138
0.5850 0.5850 0.5850
0.7189 0.7189 0.7189
0.8058 0.8058 0.8058
0.0853 0.0853 0.0853
0.1670 0.1670 0.1670
0.3291 0.3291 0.3291
0.3984 0.3984 0.3984
0.3897 0.3897 0.3897
0.2186 0.2186 0.2186
0.3138 0.3138 0.3138
0.3951 0.3951 0.3951
0.4943 0.4943 0.4943
0.5380 0.5380 0.5380
0.2704 0.2704 0.2704
0.3895 0.3895 0.3895
0.4844 0.4844 0.4844
0.5531 0.5531 0.5531
0.6206 0.6206 0.6206
0.3573 0.3573 0.3573
0.4554 0.4554 0.4554
0.5674 0.5674 0.5674
0.6530 0.6530 0.6530
0.7125 0.7125 0.7125
0.5092 0.5092 0.5092
0.5664 0.5664 0.5664
0.6574 0.6574 0.6574
0.7585 0.7585 0.7585
0.8601 0.8601 0.8601
0.1397 0.1397 0.1397
0.2075 0.2075 0.2075
0.3772 0.3772 0.3772
0.4575 0.4575 0.4575
0.5178 0.5178 0.5178
0.3217 0.3217 0.3217
0.4000 0.4000 0.4000
0.4642 0.4642 0.4642
0.6079 0.6079 0.6079
0.6803 0.6803 0.6803
0.3877 0.3877 0.3877
0.5163 0.5163 0.5163
0.5903 0.5903 0.5903
0.6339 0.6339 0.6339
0.7364 0.7364 0.7364
0.4461 0.4461 0.4461
0.5744 0.5744 0.5744
0.6635 0.6635 0.6635
0.7330 0.7330 0.7330
0.7927 0.7927 0.7927
0.5684 0.5684 0.5684
0.6457 0.6457 0.6457
0.7435 0.7435 0.7435
0.8237 0.8237 0.8237
0.8880 0.8880 0.8880
