lut/adanmq/Adanmq_Polaroid_600.cube
TITLE "Adanmq_Polaroid 600"
LUT_3D_SIZE 5
DOMAIN_MIN 0.000000 0.000000 0.000000
DOMAIN_MAX 0.903226 0.903226 0.903226
0.1180 0.0732 0.0447
0.2652 0.0742 0.0393
0.4428 0.0772 0.0394
0.6209 0.0802 0.0322
0.8126 0.0759 0.0166
0.1440 0.2358 0.0525
0.2716 0.2451 0.0589
0.4289 0.2622 0.0600
0.5865 0.2592 0.0675
0.7738 0.2462 0.0506
0.1579 0.4138 0.0376
0.3108 0.4290 0.0457
0.4565 0.4468 0.0709
0.6254 0.4516 0.0399
0.7876 0.4497 0.0549
0.1524 0.5885 0.0039
0.3438 0.5828 0.0006
0.4502 0.6075 0.0023
0.6320 0.6229 0.0462
0.8243 0.6196 0.0008
0.1400 0.7698 0.0002
0.3566 0.7502 0.0002
0.4366 0.7933 0.0002
0.6117 0.7780 0.0002
0.8084 0.7843 0.0002
0.1264 0.0708 0.1620
0.2775 0.0897 0.1819
0.4512 0.0913 0.1792
0.6238 0.0691 0.1660
0.8177 0.0672 0.1860
0.1519 0.2159 0.1671
0.2715 0.2504 0.1973
0.4485 0.2598 0.1870
0.6062 0.2684 0.1995
0.7781 0.2570 0.1920
0.1831 0.3900 0.1722
0.3341 0.4120 0.1988
0.4672 0.4551 0.2125
0.6268 0.4732 0.2183
0.7942 0.4735 0.2627
0.1731 0.5692 0.1735
0.3596 0.5561 0.1825
0.4875 0.5955 0.2094
0.6407 0.5987 0.2020
0.8200 0.6421 0.2481
0.1393 0.7527 0.1687
0.3470 0.7344 0.1546
0.5321 0.7338 0.1464
0.6318 0.7653 0.1695
0.8325 0.7660 0.1883
0.1326 0.0835 0.3083
0.2725 0.1220 0.3631
0.4571 0.1462 0.3778
0.6002 0.1311 0.3877
0.7906 0.0814 0.3536
0.1536 0.2326 0.3307
0.2847 0.2615 0.3670
0.4491 0.2900 0.3883
0.6288 0.2872 0.3688
0.7790 0.2879 0.3781
0.1951 0.3736 0.3315
0.3315 0.4223 0.3605
0.4588 0.4588 0.3859
0.6419 0.4585 0.3801
0.8000 0.4656 0.4032
0.2261 0.5411 0.3238
0.3734 0.5716 0.3597
0.4932 0.5974 0.3664
0.6417 0.6407 0.4177
0.8182 0.6803 0.4560
0.2246 0.7391 0.3132
0.3679 0.7304 0.3434
0.5283 0.7192 0.3498
0.6669 0.7785 0.4534
0.8569 0.7906 0.4789
0.1297 0.0974 0.5017
0.3182 0.1135 0.5237
0.4323 0.1857 0.5844
0.6139 0.1820 0.5742
0.7439 0.1502 0.5906
0.1405 0.2792 0.5221
0.3056 0.2825 0.5328
0.4417 0.3301 0.5889
0.6367 0.3666 0.5973
0.7738 0.3438 0.5767
0.1926 0.3899 0.5320
0.3355 0.4262 0.5482
0.4658 0.4602 0.5777
0.6248 0.4744 0.5852
0.7901 0.4804 0.5799
0.2305 0.5340 0.5181
0.3823 0.5643 0.5341
0.5041 0.6179 0.5633
0.6467 0.6505 0.5851
0.8292 0.6639 0.6140
0.2212 0.7273 0.5234
0.4170 0.7261 0.5389
0.5399 0.7606 0.5762
0.6830 0.7960 0.5971
0.8561 0.8523 0.6673
0.1196 0.0985 0.7143
0.3397 0.0971 0.7147
0.4119 0.1843 0.7882
0.5915 0.1928 0.7850
0.7796 0.1841 0.7914
0.1157 0.3156 0.7187
0.3302 0.3134 0.7245
0.4614 0.3126 0.7638
0.5905 0.4063 0.7939
0.7715 0.3981 0.7964
0.1636 0.4201 0.7453
0.3476 0.4592 0.7448
0.4704 0.4681 0.7518
0.6155 0.5120 0.7897
0.7931 0.5684 0.7903
0.2247 0.5608 0.7330
0.3938 0.5740 0.7325
0.5160 0.6192 0.7629
0.6663 0.6609 0.7915
0.8199 0.6843 0.8101
0.2192 0.7266 0.7323
0.4164 0.7288 0.7443
0.5562 0.7693 0.7789
0.7103 0.8245 0.8102
0.8695 0.8767 0.8529
