lut/image-tools/_CHK_LUMINOSITY.CUBE
#Created by: Adobe Photoshop Export Color Lookup Plugin
TITLE "Luminosity_Check"
#LUT size
LUT_3D_SIZE 32
#data domain
DOMAIN_MIN 0.0 0.0 0.0
DOMAIN_MAX 1.0 1.0 1.0
#LUT data points
0.000000 0.000000 0.000000
0.004547 0.004547 0.004547
0.009064 0.009064 0.009064
0.013641 0.013641 0.013641
0.018188 0.018188 0.018188
0.022766 0.022766 0.022766
0.027405 0.027405 0.027405
0.032043 0.032043 0.032043
0.036743 0.036743 0.036743
0.041473 0.041473 0.041473
0.046265 0.046265 0.046265
0.051117 0.051117 0.051117
0.056030 0.056030 0.056030
0.061005 0.061005 0.061005
0.066071 0.066071 0.066071
0.071198 0.071198 0.071198
0.076416 0.076416 0.076416
0.081726 0.081726 0.081726
0.087158 0.087158 0.087158
0.092682 0.092682 0.092682
0.098297 0.098297 0.098297
0.104034 0.104034 0.104034
0.109894 0.109894 0.109894
0.115875 0.115875 0.115875
0.121979 0.121979 0.121979
0.128235 0.128235 0.128235
0.134674 0.134674 0.134674
0.141235 0.141235 0.141235
0.147919 0.147919 0.147919
0.154816 0.154816 0.154816
0.161835 0.161835 0.161835
0.169067 0.169067 0.169067
0.008911 0.008911 0.008911
0.013489 0.013489 0.013489
0.018036 0.018036 0.018036
0.022644 0.022644 0.022644
0.027222 0.027222 0.027222
0.031891 0.031891 0.031891
0.036560 0.036560 0.036560
0.041321 0.041321 0.041321
0.046082 0.046082 0.046082
0.050964 0.050964 0.050964
0.055878 0.055878 0.055878
0.060852 0.060852 0.060852
0.065887 0.065887 0.065887
0.071014 0.071014 0.071014
0.076233 0.076233 0.076233
0.081543 0.081543 0.081543
0.086975 0.086975 0.086975
0.092468 0.092468 0.092468
0.098114 0.098114 0.098114
0.103851 0.103851 0.103851
0.109711 0.109711 0.109711
0.115692 0.115692 0.115692
0.121796 0.121796 0.121796
0.128052 0.128052 0.128052
0.134460 0.134460 0.134460
0.140991 0.140991 0.140991
0.147705 0.147705 0.147705
0.154572 0.154572 0.154572
0.161591 0.161591 0.161591
0.168793 0.168793 0.168793
0.176208 0.176208 0.176208
0.183746 0.183746 0.183746
0.017883 0.017883 0.017883
0.022461 0.022461 0.022461
0.027069 0.027069 0.027069
0.031738 0.031738 0.031738
0.036438 0.036438 0.036438
0.041168 0.041168 0.041168
0.045929 0.045929 0.045929
0.050812 0.050812 0.050812
0.055695 0.055695 0.055695
0.060669 0.060669 0.060669
0.065704 0.065704 0.065704
0.070862 0.070862 0.070862
0.076050 0.076050 0.076050
0.081390 0.081390 0.081390
0.086792 0.086792 0.086792
0.092316 0.092316 0.092316
0.097931 0.097931 0.097931
0.103638 0.103638 0.103638
0.109497 0.109497 0.109497
0.115479 0.115479 0.115479
0.121582 0.121582 0.121582
0.127838 0.127838 0.127838
0.134247 0.134247 0.134247
0.140778 0.140778 0.140778
0.147491 0.147491 0.147491
0.154327 0.154327 0.154327
0.161377 0.161377 0.161377
0.168579 0.168579 0.168579
0.175934 0.175934 0.175934
0.183472 0.183472 0.183472
0.191193 0.191193 0.191193
0.199066 0.199066 0.199066
0.026947 0.026947 0.026947
0.031586 0.031586 0.031586
0.036285 0.036285 0.036285
0.040985 0.040985 0.040985
0.045776 0.045776 0.045776
0.050629 0.050629 0.050629
0.055542 0.055542 0.055542
0.060516 0.060516 0.060516
0.065552 0.065552 0.065552
0.070679 0.070679 0.070679
0.075897 0.075897 0.075897
0.081207 0.081207 0.081207
0.086609 0.086609 0.086609
0.092102 0.092102 0.092102
0.097717 0.097717 0.097717
0.103455 0.103455 0.103455
0.109314 0.109314 0.109314
0.115295 0.115295 0.115295
0.121399 0.121399 0.121399
0.127625 0.127625 0.127625
0.134033 0.134033 0.134033
0.140564 0.140564 0.140564
0.147247 0.147247 0.147247
0.154114 0.154114 0.154114
0.161133 0.161133 0.161133
0.168335 0.168335 0.168335
0.175690 0.175690 0.175690
0.183228 0.183228 0.183228
0.190948 0.190948 0.190948
0.198822 0.198822 0.198822
0.206848 0.206848 0.206848
0.215027 0.215027 0.215027
0.036133 0.036133 0.036133
0.040833 0.040833 0.040833
0.045624 0.045624 0.045624
0.050476 0.050476 0.050476
0.055389 0.055389 0.055389
0.060333 0.060333 0.060333
0.065399 0.065399 0.065399
0.070496 0.070496 0.070496
0.075714 0.075714 0.075714
0.081024 0.081024 0.081024
0.086426 0.086426 0.086426
0.091919 0.091919 0.091919
0.097534 0.097534 0.097534
0.103271 0.103271 0.103271
0.109100 0.109100 0.109100
0.115082 0.115082 0.115082
0.121185 0.121185 0.121185
0.127411 0.127411 0.127411
0.133820 0.133820 0.133820
0.140350 0.140350 0.140350
0.147034 0.147034 0.147034
0.153900 0.153900 0.153900
0.160889 0.160889 0.160889
0.168091 0.168091 0.168091
0.175446 0.175446 0.175446
0.182983 0.182983 0.182983
0.190674 0.190674 0.190674
0.198547 0.198547 0.198547
0.206573 0.206573 0.206573
0.214783 0.214783 0.214783
0.223145 0.223145 0.223145
0.231628 0.231628 0.231628
0.045471 0.045471 0.045471
0.050323 0.050323 0.050323
0.055206 0.055206 0.055206
0.060181 0.060181 0.060181
0.065216 0.065216 0.065216
0.070343 0.070343 0.070343
0.075562 0.075562 0.075562
0.080841 0.080841 0.080841
0.086243 0.086243 0.086243
0.091736 0.091736 0.091736
0.097351 0.097351 0.097351
0.103058 0.103058 0.103058
0.108917 0.108917 0.108917
0.114868 0.114868 0.114868
0.121002 0.121002 0.121002
0.127228 0.127228 0.127228
0.133606 0.133606 0.133606
0.140106 0.140106 0.140106
0.146820 0.146820 0.146820
0.153625 0.153625 0.153625
0.160645 0.160645 0.160645
0.167847 0.167847 0.167847
0.175201 0.175201 0.175201
0.182739 0.182739 0.182739
0.190430 0.190430 0.190430
0.198273 0.198273 0.198273
0.206329 0.206329 0.206329
0.214508 0.214508 0.214508
0.222839 0.222839 0.222839
0.231354 0.231354 0.231354
0.240021 0.240021 0.240021
0.248840 0.248840 0.248840
0.055023 0.055023 0.055023
0.060028 0.060028 0.060028
0.065033 0.065033 0.065033
0.070160 0.070160 0.070160
0.075348 0.075348 0.075348
0.080658 0.080658 0.080658
0.086060 0.086060 0.086060
0.091553 0.091553 0.091553
0.097168 0.097168 0.097168
0.102875 0.102875 0.102875
0.108734 0.108734 0.108734
0.114685 0.114685 0.114685
0.120758 0.120758 0.120758
0.126984 0.126984 0.126984
0.133362 0.133362 0.133362
0.139893 0.139893 0.139893
0.146576 0.146576 0.146576
0.153412 0.153412 0.153412
0.160431 0.160431 0.160431
0.167603 0.167603 0.167603
0.174957 0.174957 0.174957
0.182465 0.182465 0.182465
0.190155 0.190155 0.190155
0.197998 0.197998 0.197998
0.206024 0.206024 0.206024
0.214203 0.214203 0.214203
0.222595 0.222595 0.222595
0.231079 0.231079 0.231079
0.239716 0.239716 0.239716
0.248535 0.248535 0.248535
0.257507 0.257507 0.257507
0.266602 0.266602 0.266602
0.064880 0.064880 0.064880
0.070007 0.070007 0.070007
0.075195 0.075195 0.075195
0.080505 0.080505 0.080505
0.085876 0.085876 0.085876
0.091370 0.091370 0.091370
0.096985 0.096985 0.096985
0.102692 0.102692 0.102692
0.108521 0.108521 0.108521
0.114471 0.114471 0.114471
0.120544 0.120544 0.120544
0.126801 0.126801 0.126801
0.133179 0.133179 0.133179
0.139679 0.139679 0.139679
0.146362 0.146362 0.146362
0.153198 0.153198 0.153198
0.160156 0.160156 0.160156
0.167358 0.167358 0.167358
0.174683 0.174683 0.174683
0.182220 0.182220 0.182220
0.189911 0.189911 0.189911
0.197754 0.197754 0.197754
0.205780 0.205780 0.205780
0.213959 0.213959 0.213959
0.222290 0.222290 0.222290
0.230774 0.230774 0.230774
0.239441 0.239441 0.239441
0.248230 0.248230 0.248230
0.257202 0.257202 0.257202
0.266296 0.266296 0.266296
0.275543 0.275543 0.275543
0.284943 0.284943 0.284943
0.075012 0.075012 0.075012
0.080292 0.080292 0.080292
0.085693 0.085693 0.085693
0.091187 0.091187 0.091187
0.096771 0.096771 0.096771
0.102478 0.102478 0.102478
0.108337 0.108337 0.108337
0.114288 0.114288 0.114288
0.120361 0.120361 0.120361
0.126587 0.126587 0.126587
0.132935 0.132935 0.132935
0.139465 0.139465 0.139465
0.146118 0.146118 0.146118
0.152924 0.152924 0.152924
0.159943 0.159943 0.159943
0.167145 0.167145 0.167145
0.174438 0.174438 0.174438
0.181976 0.181976 0.181976
0.189636 0.189636 0.189636
0.197479 0.197479 0.197479
0.205505 0.205505 0.205505
0.213654 0.213654 0.213654
0.221985 0.221985 0.221985
0.230530 0.230530 0.230530
0.239166 0.239166 0.239166
0.247955 0.247955 0.247955
0.256897 0.256897 0.256897
0.265991 0.265991 0.265991
0.275238 0.275238 0.275238
0.284607 0.284607 0.284607
0.294128 0.294128 0.294128
0.303802 0.303802 0.303802
0.085510 0.085510 0.085510
0.091003 0.091003 0.091003
0.096588 0.096588 0.096588
0.102295 0.102295 0.102295
0.108124 0.108124 0.108124
0.114075 0.114075 0.114075
0.120148 0.120148 0.120148
0.126404 0.126404 0.126404
0.132751 0.132751 0.132751
0.139252 0.139252 0.139252
0.145905 0.145905 0.145905
0.152740 0.152740 0.152740
0.159729 0.159729 0.159729
0.166870 0.166870 0.166870
0.174194 0.174194 0.174194
0.181702 0.181702 0.181702
0.189392 0.189392 0.189392
0.197235 0.197235 0.197235
0.205231 0.205231 0.205231
0.213409 0.213409 0.213409
0.221741 0.221741 0.221741
0.230225 0.230225 0.230225
0.238831 0.238831 0.238831
0.247650 0.247650 0.247650
0.256592 0.256592 0.256592
0.265686 0.265686 0.265686
0.274902 0.274902 0.274902
0.284332 0.284332 0.284332
0.293854 0.293854 0.293854
0.303497 0.303497 0.303497
0.313293 0.313293 0.313293
0.323212 0.323212 0.323212
0.096405 0.096405 0.096405
0.102112 0.102112 0.102112
0.107910 0.107910 0.107910
0.113892 0.113892 0.113892
0.119965 0.119965 0.119965
0.126160 0.126160 0.126160
0.132507 0.132507 0.132507
0.139008 0.139008 0.139008
0.145660 0.145660 0.145660
0.152496 0.152496 0.152496
0.159454 0.159454 0.159454
0.166656 0.166656 0.166656
0.173981 0.173981 0.173981
0.181458 0.181458 0.181458
0.189117 0.189117 0.189117
0.196960 0.196960 0.196960
0.204956 0.204956 0.204956
0.213135 0.213135 0.213135
0.221436 0.221436 0.221436
0.229950 0.229950 0.229950
0.238586 0.238586 0.238586
0.247375 0.247375 0.247375
0.256287 0.256287 0.256287
0.265381 0.265381 0.265381
0.274628 0.274628 0.274628
0.283997 0.283997 0.283997
0.293518 0.293518 0.293518
0.303162 0.303162 0.303162
0.312958 0.312958 0.312958
0.322876 0.322876 0.322876
0.332947 0.332947 0.332947
0.343140 0.343140 0.343140
0.107727 0.107727 0.107727
0.113678 0.113678 0.113678
0.119751 0.119751 0.119751
0.125977 0.125977 0.125977
0.132324 0.132324 0.132324
0.138824 0.138824 0.138824
0.145447 0.145447 0.145447
0.152283 0.152283 0.152283
0.159241 0.159241 0.159241
0.166412 0.166412 0.166412
0.173706 0.173706 0.173706
0.181213 0.181213 0.181213
0.188873 0.188873 0.188873
0.196686 0.196686 0.196686
0.204681 0.204681 0.204681
0.212860 0.212860 0.212860
0.221161 0.221161 0.221161
0.229645 0.229645 0.229645
0.238281 0.238281 0.238281
0.247040 0.247040 0.247040
0.255981 0.255981 0.255981
0.265076 0.265076 0.265076
0.274292 0.274292 0.274292
0.283691 0.283691 0.283691
0.293213 0.293213 0.293213
0.302856 0.302856 0.302856
0.312653 0.312653 0.312653
0.322571 0.322571 0.322571
0.332611 0.332611 0.332611
0.342804 0.342804 0.342804
0.353088 0.353088 0.353088
0.363525 0.363525 0.363525
0.119568 0.119568 0.119568
0.125763 0.125763 0.125763
0.132111 0.132111 0.132111
0.138580 0.138580 0.138580
0.145233 0.145233 0.145233
0.152039 0.152039 0.152039
0.158997 0.158997 0.158997
0.166168 0.166168 0.166168
0.173462 0.173462 0.173462
0.180969 0.180969 0.180969
0.188599 0.188599 0.188599
0.196442 0.196442 0.196442
0.204437 0.204437 0.204437
0.212555 0.212555 0.212555
0.220886 0.220886 0.220886
0.229340 0.229340 0.229340
0.238007 0.238007 0.238007
0.246796 0.246796 0.246796
0.255707 0.255707 0.255707
0.264771 0.264771 0.264771
0.274017 0.274017 0.274017
0.283356 0.283356 0.283356
0.292877 0.292877 0.292877
0.302521 0.302521 0.302521
0.312286 0.312286 0.312286
0.322205 0.322205 0.322205
0.332245 0.332245 0.332245
0.342468 0.342468 0.342468
0.352753 0.352753 0.352753
0.363190 0.363190 0.363190
0.373749 0.373749 0.373749
0.384399 0.384399 0.384399
0.131897 0.131897 0.131897
0.138397 0.138397 0.138397
0.145020 0.145020 0.145020
0.151794 0.151794 0.151794
0.158783 0.158783 0.158783
0.165924 0.165924 0.165924
0.173218 0.173218 0.173218
0.180695 0.180695 0.180695
0.188354 0.188354 0.188354
0.196167 0.196167 0.196167
0.204132 0.204132 0.204132
0.212311 0.212311 0.212311
0.220612 0.220612 0.220612
0.229065 0.229065 0.229065
0.237701 0.237701 0.237701
0.246460 0.246460 0.246460
0.255402 0.255402 0.255402
0.264465 0.264465 0.264465
0.273682 0.273682 0.273682
0.283081 0.283081 0.283081
0.292572 0.292572 0.292572
0.302216 0.302216 0.302216
0.311981 0.311981 0.311981
0.321899 0.321899 0.321899
0.331940 0.331940 0.331940
0.342102 0.342102 0.342102
0.352417 0.352417 0.352417
0.362823 0.362823 0.362823
0.373383 0.373383 0.373383
0.384033 0.384033 0.384033
0.394836 0.394836 0.394836
0.405731 0.405731 0.405731
0.144775 0.144775 0.144775
0.151581 0.151581 0.151581
0.158539 0.158539 0.158539
0.165680 0.165680 0.165680
0.172974 0.172974 0.172974
0.180450 0.180450 0.180450
0.188110 0.188110 0.188110
0.195892 0.195892 0.195892
0.203888 0.203888 0.203888
0.212036 0.212036 0.212036
0.220306 0.220306 0.220306
0.228790 0.228790 0.228790
0.237396 0.237396 0.237396
0.246155 0.246155 0.246155
0.255096 0.255096 0.255096
0.264191 0.264191 0.264191
0.273376 0.273376 0.273376
0.282745 0.282745 0.282745
0.292236 0.292236 0.292236
0.301880 0.301880 0.301880
0.311646 0.311646 0.311646
0.321564 0.321564 0.321564
0.331573 0.331573 0.331573
0.341797 0.341797 0.341797
0.352081 0.352081 0.352081
0.362488 0.362488 0.362488
0.373047 0.373047 0.373047
0.383698 0.383698 0.383698
0.394470 0.394470 0.394470
0.405365 0.405365 0.405365
0.416382 0.416382 0.416382
0.427490 0.427490 0.427490
0.158295 0.158295 0.158295
0.165436 0.165436 0.165436
0.172729 0.172729 0.172729
0.180206 0.180206 0.180206
0.187836 0.187836 0.187836
0.195648 0.195648 0.195648
0.203613 0.203613 0.203613
0.211731 0.211731 0.211731
0.220062 0.220062 0.220062
0.228516 0.228516 0.228516
0.237122 0.237122 0.237122
0.245880 0.245880 0.245880
0.254791 0.254791 0.254791
0.263855 0.263855 0.263855
0.273071 0.273071 0.273071
0.282410 0.282410 0.282410
0.291931 0.291931 0.291931
0.301575 0.301575 0.301575
0.311340 0.311340 0.311340
0.321228 0.321228 0.321228
0.331268 0.331268 0.331268
0.341431 0.341431 0.341431
0.351715 0.351715 0.351715
0.362122 0.362122 0.362122
0.372681 0.372681 0.372681
0.383331 0.383331 0.383331
0.394104 0.394104 0.394104
0.405029 0.405029 0.405029
0.416016 0.416016 0.416016
0.427124 0.427124 0.427124
0.438354 0.438354 0.438354
0.449677 0.449677 0.449677
0.172485 0.172485 0.172485
0.179962 0.179962 0.179962
0.187592 0.187592 0.187592
0.195404 0.195404 0.195404
0.203339 0.203339 0.203339
0.211487 0.211487 0.211487
0.219818 0.219818 0.219818
0.228241 0.228241 0.228241
0.236877 0.236877 0.236877
0.245605 0.245605 0.245605
0.254517 0.254517 0.254517
0.263580 0.263580 0.263580
0.272766 0.272766 0.272766
0.282104 0.282104 0.282104
0.291595 0.291595 0.291595
0.301239 0.301239 0.301239
0.311035 0.311035 0.311035
0.320923 0.320923 0.320923
0.330963 0.330963 0.330963
0.341125 0.341125 0.341125
0.351379 0.351379 0.351379
0.361816 0.361816 0.361816
0.372314 0.372314 0.372314
0.382996 0.382996 0.382996
0.393799 0.393799 0.393799
0.404663 0.404663 0.404663
0.415680 0.415680 0.415680
0.426788 0.426788 0.426788
0.437988 0.437988 0.437988
0.449310 0.449310 0.449310
0.460754 0.460754 0.460754
0.472260 0.472260 0.472260
0.187347 0.187347 0.187347
0.195129 0.195129 0.195129
0.203094 0.203094 0.203094
0.211243 0.211243 0.211243
0.219513 0.219513 0.219513
0.227966 0.227966 0.227966
0.236542 0.236542 0.236542
0.245300 0.245300 0.245300
0.254211 0.254211 0.254211
0.263275 0.263275 0.263275
0.272491 0.272491 0.272491
0.281830 0.281830 0.281830
0.291290 0.291290 0.291290
0.300934 0.300934 0.300934
0.310699 0.310699 0.310699
0.320587 0.320587 0.320587
0.330597 0.330597 0.330597
0.340790 0.340790 0.340790
0.351074 0.351074 0.351074
0.361481 0.361481 0.361481
0.372009 0.372009 0.372009
0.382660 0.382660 0.382660
0.393402 0.393402 0.393402
0.404297 0.404297 0.404297
0.415314 0.415314 0.415314
0.426392 0.426392 0.426392
0.437622 0.437622 0.437622
0.448944 0.448944 0.448944
0.460388 0.460388 0.460388
0.471893 0.471893 0.471893
0.483521 0.483521 0.483521
0.495209 0.495209 0.495209
0.202820 0.202820 0.202820
0.210968 0.210968 0.210968
0.219238 0.219238 0.219238
0.227692 0.227692 0.227692
0.236267 0.236267 0.236267
0.245026 0.245026 0.245026
0.253937 0.253937 0.253937
0.262970 0.262970 0.262970
0.272156 0.272156 0.272156
0.281494 0.281494 0.281494
0.290985 0.290985 0.290985
0.300598 0.300598 0.300598
0.310333 0.310333 0.310333
0.320282 0.320282 0.320282
0.330292 0.330292 0.330292
0.340424 0.340424 0.340424
0.350708 0.350708 0.350708
0.361115 0.361115 0.361115
0.371643 0.371643 0.371643
0.382263 0.382263 0.382263
0.393036 0.393036 0.393036
0.403961 0.403961 0.403961
0.414948 0.414948 0.414948
0.426056 0.426056 0.426056
0.437256 0.437256 0.437256
0.448578 0.448578 0.448578
0.459991 0.459991 0.459991
0.471497 0.471497 0.471497
0.483093 0.483093 0.483093
0.494843 0.494843 0.494843
0.506622 0.506622 0.506622
0.518524 0.518524 0.518524
0.218964 0.218964 0.218964
0.227386 0.227386 0.227386
0.235992 0.235992 0.235992
0.244720 0.244720 0.244720
0.253601 0.253601 0.253601
0.262695 0.262695 0.262695
0.271881 0.271881 0.271881
0.281189 0.281189 0.281189
0.290680 0.290680 0.290680
0.300293 0.300293 0.300293
0.310028 0.310028 0.310028
0.319916 0.319916 0.319916
0.329926 0.329926 0.329926
0.340088 0.340088 0.340088
0.350342 0.350342 0.350342
0.360748 0.360748 0.360748
0.371307 0.371307 0.371307
0.381927 0.381927 0.381927
0.392700 0.392700 0.392700
0.403564 0.403564 0.403564
0.414551 0.414551 0.414551
0.425659 0.425659 0.425659
0.436859 0.436859 0.436859
0.448181 0.448181 0.448181
0.459595 0.459595 0.459595
0.471130 0.471130 0.471130
0.482758 0.482758 0.482758
0.494446 0.494446 0.494446
0.506256 0.506256 0.506256
0.518158 0.518158 0.518158
0.530121 0.530121 0.530121
0.542206 0.542206 0.542206
0.235718 0.235718 0.235718
0.244446 0.244446 0.244446
0.253326 0.253326 0.253326
0.262360 0.262360 0.262360
0.271545 0.271545 0.271545
0.280884 0.280884 0.280884
0.290344 0.290344 0.290344
0.299957 0.299957 0.299957
0.309692 0.309692 0.309692
0.319611 0.319611 0.319611
0.329620 0.329620 0.329620
0.339752 0.339752 0.339752
0.350037 0.350037 0.350037
0.360443 0.360443 0.360443
0.370941 0.370941 0.370941
0.381592 0.381592 0.381592
0.392303 0.392303 0.392303
0.403229 0.403229 0.403229
0.414215 0.414215 0.414215
0.425293 0.425293 0.425293
0.436493 0.436493 0.436493
0.447815 0.447815 0.447815
0.459229 0.459229 0.459229
0.470734 0.470734 0.470734
0.482330 0.482330 0.482330
0.494049 0.494049 0.494049
0.505859 0.505859 0.505859
0.517731 0.517731 0.517731
0.529694 0.529694 0.529694
0.541809 0.541809 0.541809
0.553955 0.553955 0.553955
0.566193 0.566193 0.566193
0.253021 0.253021 0.253021
0.262085 0.262085 0.262085
0.271271 0.271271 0.271271
0.280579 0.280579 0.280579
0.290039 0.290039 0.290039
0.299652 0.299652 0.299652
0.309387 0.309387 0.309387
0.319275 0.319275 0.319275
0.329254 0.329254 0.329254
0.339417 0.339417 0.339417
0.349670 0.349670 0.349670
0.360046 0.360046 0.360046
0.370575 0.370575 0.370575
0.381256 0.381256 0.381256
0.391968 0.391968 0.391968
0.402863 0.402863 0.402863
0.413818 0.413818 0.413818
0.424927 0.424927 0.424927
0.436127 0.436127 0.436127
0.447418 0.447418 0.447418
0.458832 0.458832 0.458832
0.470367 0.470367 0.470367
0.481964 0.481964 0.481964
0.493683 0.493683 0.493683
0.505463 0.505463 0.505463
0.517334 0.517334 0.517334
0.529327 0.529327 0.529327
0.541382 0.541382 0.541382
0.553528 0.553528 0.553528
0.565765 0.565765 0.565765
0.578094 0.578094 0.578094
0.590454 0.590454 0.590454
0.270935 0.270935 0.270935
0.280243 0.280243 0.280243
0.289703 0.289703 0.289703
0.299316 0.299316 0.299316
0.309052 0.309052 0.309052
0.318939 0.318939 0.318939
0.328949 0.328949 0.328949
0.339081 0.339081 0.339081
0.349335 0.349335 0.349335
0.359741 0.359741 0.359741
0.370239 0.370239 0.370239
0.380859 0.380859 0.380859
0.391602 0.391602 0.391602
0.402466 0.402466 0.402466
0.413452 0.413452 0.413452
0.424530 0.424530 0.424530
0.435760 0.435760 0.435760
0.447052 0.447052 0.447052
0.458466 0.458466 0.458466
0.469971 0.469971 0.469971
0.481567 0.481567 0.481567
0.493256 0.493256 0.493256
0.505035 0.505035 0.505035
0.516937 0.516937 0.516937
0.528931 0.528931 0.528931
0.540985 0.540985 0.540985
0.553162 0.553162 0.553162
0.565369 0.565369 0.565369
0.577667 0.577667 0.577667
0.590057 0.590057 0.590057
0.602539 0.602539 0.602539
0.615051 0.615051 0.615051
0.289398 0.289398 0.289398
0.299011 0.299011 0.299011
0.308746 0.308746 0.308746
0.318604 0.318604 0.318604
0.328613 0.328613 0.328613
0.338715 0.338715 0.338715
0.348999 0.348999 0.348999
0.359375 0.359375 0.359375
0.369873 0.369873 0.369873
0.380524 0.380524 0.380524
0.391296 0.391296 0.391296
0.402130 0.402130 0.402130
0.413116 0.413116 0.413116
0.424164 0.424164 0.424164
0.435364 0.435364 0.435364
0.446655 0.446655 0.446655
0.458069 0.458069 0.458069
0.469604 0.469604 0.469604
0.481201 0.481201 0.481201
0.492889 0.492889 0.492889
0.504700 0.504700 0.504700
0.516571 0.516571 0.516571
0.528534 0.528534 0.528534
0.540588 0.540588 0.540588
0.552734 0.552734 0.552734
0.564941 0.564941 0.564941
0.577240 0.577240 0.577240
0.589630 0.589630 0.589630
0.602081 0.602081 0.602081
0.614655 0.614655 0.614655
0.627258 0.627258 0.627258
0.639923 0.639923 0.639923
0.308380 0.308380 0.308380
0.318268 0.318268 0.318268
0.328278 0.328278 0.328278
0.338409 0.338409 0.338409
0.348663 0.348663 0.348663
0.359039 0.359039 0.359039
0.369537 0.369537 0.369537
0.380157 0.380157 0.380157
0.390900 0.390900 0.390900
0.401764 0.401764 0.401764
0.412720 0.412720 0.412720
0.423798 0.423798 0.423798
0.434998 0.434998 0.434998
0.446289 0.446289 0.446289
0.457703 0.457703 0.457703
0.469208 0.469208 0.469208
0.480804 0.480804 0.480804
0.492493 0.492493 0.492493
0.504272 0.504272 0.504272
0.516144 0.516144 0.516144
0.528137 0.528137 0.528137
0.540192 0.540192 0.540192
0.552338 0.552338 0.552338
0.564575 0.564575 0.564575
0.576874 0.576874 0.576874
0.589233 0.589233 0.589233
0.601685 0.601685 0.601685
0.614227 0.614227 0.614227
0.626831 0.626831 0.626831
0.639465 0.639465 0.639465
0.652191 0.652191 0.652191
0.664978 0.664978 0.664978
0.327942 0.327942 0.327942
0.338043 0.338043 0.338043
0.348297 0.348297 0.348297
0.358673 0.358673 0.358673
0.369171 0.369171 0.369171
0.379791 0.379791 0.379791
0.390564 0.390564 0.390564
0.401428 0.401428 0.401428
0.412354 0.412354 0.412354
0.423462 0.423462 0.423462
0.434631 0.434631 0.434631
0.445923 0.445923 0.445923
0.457306 0.457306 0.457306
0.468811 0.468811 0.468811
0.480408 0.480408 0.480408
0.492096 0.492096 0.492096
0.503906 0.503906 0.503906
0.515778 0.515778 0.515778
0.527740 0.527740 0.527740
0.539764 0.539764 0.539764
0.551941 0.551941 0.551941
0.564148 0.564148 0.564148
0.576447 0.576447 0.576447
0.588806 0.588806 0.588806
0.601257 0.601257 0.601257
0.613831 0.613831 0.613831
0.626404 0.626404 0.626404
0.639069 0.639069 0.639069
0.651794 0.651794 0.651794
0.664581 0.664581 0.664581
0.677429 0.677429 0.677429
0.690338 0.690338 0.690338
0.347961 0.347961 0.347961
0.358337 0.358337 0.358337
0.368835 0.368835 0.368835
0.379456 0.379456 0.379456
0.390198 0.390198 0.390198
0.401031 0.401031 0.401031
0.411987 0.411987 0.411987
0.423035 0.423035 0.423035
0.434235 0.434235 0.434235
0.445526 0.445526 0.445526
0.456940 0.456940 0.456940
0.468445 0.468445 0.468445
0.480011 0.480011 0.480011
0.491730 0.491730 0.491730
0.503479 0.503479 0.503479
0.515350 0.515350 0.515350
0.527313 0.527313 0.527313
0.539368 0.539368 0.539368
0.551544 0.551544 0.551544
0.563751 0.563751 0.563751
0.576050 0.576050 0.576050
0.588409 0.588409 0.588409
0.600861 0.600861 0.600861
0.613373 0.613373 0.613373
0.625977 0.625977 0.625977
0.638641 0.638641 0.638641
0.651367 0.651367 0.651367
0.664124 0.664124 0.664124
0.676971 0.676971 0.676971
0.689941 0.689941 0.689941
0.702881 0.702881 0.702881
0.715881 0.715881 0.715881
0.368469 0.368469 0.368469
0.379089 0.379089 0.379089
0.389832 0.389832 0.389832
0.400696 0.400696 0.400696
0.411652 0.411652 0.411652
0.422699 0.422699 0.422699
0.433899 0.433899 0.433899
0.445160 0.445160 0.445160
0.456543 0.456543 0.456543
0.468048 0.468048 0.468048
0.479614 0.479614 0.479614
0.491302 0.491302 0.491302
0.503082 0.503082 0.503082
0.514923 0.514923 0.514923
0.526947 0.526947 0.526947
0.538971 0.538971 0.538971
0.551117 0.551117 0.551117
0.563324 0.563324 0.563324
