lut/image-tools/_CHK_LUMINOSITY.CUBE
#Created by: Adobe Photoshop Export Color Lookup Plugin
TITLE "Luminosity_Check"
#LUT size
LUT_3D_SIZE 5
#data domain
#LUT data points
DOMAIN_MIN 0.000000 0.000000 0.000000
DOMAIN_MAX 0.903226 0.903226 0.903226
0.000000 0.000000 0.000000
0.032043 0.032043 0.032043
0.066071 0.066071 0.066071
0.104034 0.104034 0.104034
0.147919 0.147919 0.147919
0.064880 0.064880 0.064880
0.102692 0.102692 0.102692
0.146362 0.146362 0.146362
0.197754 0.197754 0.197754
0.257202 0.257202 0.257202
0.144775 0.144775 0.144775
0.195892 0.195892 0.195892
0.255096 0.255096 0.255096
0.321564 0.321564 0.321564
0.394470 0.394470 0.394470
0.253021 0.253021 0.253021
0.319275 0.319275 0.319275
0.391968 0.391968 0.391968
0.470367 0.470367 0.470367
0.553528 0.553528 0.553528
0.389465 0.389465 0.389465
0.467682 0.467682 0.467682
0.550720 0.550720 0.550720
0.637787 0.637787 0.637787
0.728088 0.728088 0.728088
0.011658 0.011658 0.011658
0.044189 0.044189 0.044189
0.079407 0.079407 0.079407
0.119354 0.119354 0.119354
0.165924 0.165924 0.165924
0.078186 0.078186 0.078186
0.117889 0.117889 0.117889
0.164215 0.164215 0.164215
0.218658 0.218658 0.218658
0.280853 0.280853 0.280853
0.162567 0.162567 0.162567
0.216705 0.216705 0.216705
0.278656 0.278656 0.278656
0.347595 0.347595 0.347595
0.422668 0.422668 0.422668
0.276489 0.276489 0.276489
0.345215 0.345215 0.345215
0.420074 0.420074 0.420074
0.500336 0.500336 0.500336
0.585114 0.585114 0.585114
0.417542 0.417542 0.417542
0.497559 0.497559 0.497559
0.582214 0.582214 0.582214
0.670563 0.670563 0.670563
0.761871 0.761871 0.761871
0.023376 0.023376 0.023376
0.056671 0.056671 0.056671
0.093414 0.093414 0.093414
0.135529 0.135529 0.135529
0.184998 0.184998 0.184998
0.092102 0.092102 0.092102
0.134033 0.134033 0.134033
0.183197 0.183197 0.183197
0.240601 0.240601 0.240601
0.305450 0.305450 0.305450
0.181458 0.181458 0.181458
0.238556 0.238556 0.238556
0.303162 0.303162 0.303162
0.374451 0.374451 0.374451
0.451599 0.451599 0.451599
0.300934 0.300934 0.300934
0.372009 0.372009 0.372009
0.448944 0.448944 0.448944
0.530914 0.530914 0.530914
0.617157 0.617157 0.617157
0.446289 0.446289 0.446289
0.528137 0.528137 0.528137
0.614227 0.614227 0.614227
0.703735 0.703735 0.703735
0.795837 0.795837 0.795837
0.035309 0.035309 0.035309
0.069641 0.069641 0.069641
0.108124 0.108124 0.108124
0.152740 0.152740 0.152740
0.205200 0.205200 0.205200
0.106750 0.106750 0.106750
0.151123 0.151123 0.151123
0.203339 0.203339 0.203339
0.263550 0.263550 0.263550
0.330933 0.330933 0.330933
0.201477 0.201477 0.201477
0.261414 0.261414 0.261414
0.328583 0.328583 0.328583
0.402100 0.402100 0.402100
0.481110 0.481110 0.481110
0.326263 0.326263 0.326263
0.399567 0.399567 0.399567
0.478455 0.478455 0.478455
0.562103 0.562103 0.562103
0.649658 0.649658 0.649658
0.475739 0.475739 0.475739
0.559235 0.559235 0.559235
0.646698 0.646698 0.646698
0.737274 0.737274 0.737274
0.830109 0.830109 0.830109
0.047546 0.047546 0.047546
0.083160 0.083160 0.083160
0.123657 0.123657 0.123657
0.170990 0.170990 0.170990
0.226501 0.226501 0.226501
0.122192 0.122192 0.122192
0.169281 0.169281 0.169281
0.224548 0.224548 0.224548
0.287445 0.287445 0.287445
0.357269 0.357269 0.357269
0.222565 0.222565 0.222565
0.285248 0.285248 0.285248
0.354828 0.354828 0.354828
0.430481 0.430481 0.430481
0.511322 0.511322 0.511322
0.352448 0.352448 0.352448
0.427887 0.427887 0.427887
0.508606 0.508606 0.508606
0.593781 0.593781 0.593781
0.682556 0.682556 0.682556
0.505859 0.505859 0.505859
0.590912 0.590912 0.590912
0.679535 0.679535 0.679535
0.771057 0.771057 0.771057
0.864594 0.864594 0.864594
