lut/image-tools/_CHK_LUMINOSITY.CUBE
#Created by: Adobe Photoshop Export Color Lookup Plugin
TITLE "Luminosity_Check"
#LUT size
LUT_3D_SIZE 8
#data domain
#LUT data points
DOMAIN_MIN 0.000000 0.000000 0.000000
DOMAIN_MAX 0.903226 0.903226 0.903226
0.000000 0.000000 0.000000
0.018188 0.018188 0.018188
0.036743 0.036743 0.036743
0.056030 0.056030 0.056030
0.076416 0.076416 0.076416
0.098297 0.098297 0.098297
0.121979 0.121979 0.121979
0.147919 0.147919 0.147919
0.036133 0.036133 0.036133
0.055389 0.055389 0.055389
0.075714 0.075714 0.075714
0.097534 0.097534 0.097534
0.121185 0.121185 0.121185
0.147034 0.147034 0.147034
0.175446 0.175446 0.175446
0.206573 0.206573 0.206573
0.075012 0.075012 0.075012
0.096771 0.096771 0.096771
0.120361 0.120361 0.120361
0.146118 0.146118 0.146118
0.174438 0.174438 0.174438
0.205505 0.205505 0.205505
0.239166 0.239166 0.239166
0.275238 0.275238 0.275238
0.119568 0.119568 0.119568
0.145233 0.145233 0.145233
0.173462 0.173462 0.173462
0.204437 0.204437 0.204437
0.238007 0.238007 0.238007
0.274017 0.274017 0.274017
0.312286 0.312286 0.312286
0.352753 0.352753 0.352753
0.172485 0.172485 0.172485
0.203339 0.203339 0.203339
0.236877 0.236877 0.236877
0.272766 0.272766 0.272766
0.311035 0.311035 0.311035
0.351379 0.351379 0.351379
0.393799 0.393799 0.393799
0.437988 0.437988 0.437988
0.235718 0.235718 0.235718
0.271545 0.271545 0.271545
0.309692 0.309692 0.309692
0.350037 0.350037 0.350037
0.392303 0.392303 0.392303
0.436493 0.436493 0.436493
0.482330 0.482330 0.482330
0.529694 0.529694 0.529694
0.308380 0.308380 0.308380
0.348663 0.348663 0.348663
0.390900 0.390900 0.390900
0.434998 0.434998 0.434998
0.480804 0.480804 0.480804
0.528137 0.528137 0.528137
0.576874 0.576874 0.576874
0.626831 0.626831 0.626831
0.389465 0.389465 0.389465
0.433472 0.433472 0.433472
0.479248 0.479248 0.479248
0.526520 0.526520 0.526520
0.575226 0.575226 0.575226
0.625122 0.625122 0.625122
0.676117 0.676117 0.676117
0.728088 0.728088 0.728088
0.006653 0.006653 0.006653
0.024933 0.024933 0.024933
0.043701 0.043701 0.043701
0.063354 0.063354 0.063354
0.084259 0.084259 0.084259
0.106750 0.106750 0.106750
0.131226 0.131226 0.131226
0.158051 0.158051 0.158051
0.043060 0.043060 0.043060
0.062683 0.062683 0.062683
0.083527 0.083527 0.083527
0.105957 0.105957 0.105957
0.130371 0.130371 0.130371
0.157135 0.157135 0.157135
0.186554 0.186554 0.186554
0.218628 0.218628 0.218628
0.082794 0.082794 0.082794
0.105194 0.105194 0.105194
0.129517 0.129517 0.129517
0.156189 0.156189 0.156189
0.185516 0.185516 0.185516
0.217560 0.217560 0.217560
0.252106 0.252106 0.252106
0.289062 0.289062 0.289062
0.128693 0.128693 0.128693
0.155273 0.155273 0.155273
0.184509 0.184509 0.184509
0.216431 0.216431 0.216431
0.250916 0.250916 0.250916
0.287781 0.287781 0.287781
0.326874 0.326874 0.326874
0.368103 0.368103 0.368103
0.183502 0.183502 0.183502
0.215332 0.215332 0.215332
0.249725 0.249725 0.249725
0.286530 0.286530 0.286530
0.325592 0.325592 0.325592
0.366699 0.366699 0.366699
0.409790 0.409790 0.409790
0.454620 0.454620 0.454620
0.248566 0.248566 0.248566
0.285278 0.285278 0.285278
0.324219 0.324219 0.324219
0.365326 0.365326 0.365326
0.408325 0.408325 0.408325
0.453125 0.453125 0.453125
0.499542 0.499542 0.499542
0.547485 0.547485 0.547485
0.322906 0.322906 0.322906
0.363922 0.363922 0.363922
0.406860 0.406860 0.406860
0.451599 0.451599 0.451599
0.497986 0.497986 0.497986
0.545837 0.545837 0.545837
0.595062 0.595062 0.595062
0.645416 0.645416 0.645416
0.405396 0.405396 0.405396
0.450073 0.450073 0.450073
0.496399 0.496399 0.496399
0.544220 0.544220 0.544220
0.593414 0.593414 0.593414
0.643707 0.643707 0.643707
0.695068 0.695068 0.695068
0.747345 0.747345 0.747345
0.013306 0.013306 0.013306
0.031708 0.031708 0.031708
0.050812 0.050812 0.050812
0.070862 0.070862 0.070862
0.092316 0.092316 0.092316
0.115479 0.115479 0.115479
0.140778 0.140778 0.140778
0.168579 0.168579 0.168579
0.050140 0.050140 0.050140
0.070160 0.070160 0.070160
0.091553 0.091553 0.091553
0.114685 0.114685 0.114685
0.139893 0.139893 0.139893
0.167603 0.167603 0.167603
0.197998 0.197998 0.197998
0.231049 0.231049 0.231049
0.090820 0.090820 0.090820
0.113892 0.113892 0.113892
0.139008 0.139008 0.139008
0.166626 0.166626 0.166626
0.196960 0.196960 0.196960
0.229919 0.229919 0.229919
0.265381 0.265381 0.265381
0.303162 0.303162 0.303162
0.138153 0.138153 0.138153
0.165680 0.165680 0.165680
0.195892 0.195892 0.195892
0.228790 0.228790 0.228790
0.264191 0.264191 0.264191
0.301880 0.301880 0.301880
0.341766 0.341766 0.341766
0.383698 0.383698 0.383698
0.194855 0.194855 0.194855
0.227692 0.227692 0.227692
0.262970 0.262970 0.262970
0.300598 0.300598 0.300598
0.340424 0.340424 0.340424
0.382263 0.382263 0.382263
0.426056 0.426056 0.426056
0.471497 0.471497 0.471497
0.261780 0.261780 0.261780
0.299316 0.299316 0.299316
0.339050 0.339050 0.339050
0.380859 0.380859 0.380859
0.424530 0.424530 0.424530
0.469971 0.469971 0.469971
0.516937 0.516937 0.516937
0.565369 0.565369 0.565369
0.337708 0.337708 0.337708
0.379456 0.379456 0.379456
0.423035 0.423035 0.423035
0.468414 0.468414 0.468414
0.515350 0.515350 0.515350
0.563721 0.563721 0.563721
0.613373 0.613373 0.613373
0.664124 0.664124 0.664124
0.421570 0.421570 0.421570
0.466858 0.466858 0.466858
0.513794 0.513794 0.513794
0.562103 0.562103 0.562103
0.611725 0.611725 0.611725
0.662445 0.662445 0.662445
0.714111 0.714111 0.714111
0.766693 0.766693 0.766693
0.020020 0.020020 0.020020
0.038635 0.038635 0.038635
0.058014 0.058014 0.058014
0.078522 0.078522 0.078522
0.100586 0.100586 0.100586
0.124481 0.124481 0.124481
0.150635 0.150635 0.150635
0.179443 0.179443 0.179443
0.057343 0.057343 0.057343
0.077820 0.077820 0.077820
0.099792 0.099792 0.099792
0.123657 0.123657 0.123657
0.149719 0.149719 0.149719
0.178436 0.178436 0.178436
0.209839 0.209839 0.209839
0.243805 0.243805 0.243805
0.099030 0.099030 0.099030
0.122833 0.122833 0.122833
0.148834 0.148834 0.148834
0.177429 0.177429 0.177429
0.208771 0.208771 0.208771
0.242615 0.242615 0.242615
0.278992 0.278992 0.278992
0.317566 0.317566 0.317566
0.147919 0.147919 0.147919
0.176422 0.176422 0.176422
0.207672 0.207672 0.207672
0.241486 0.241486 0.241486
0.277740 0.277740 0.277740
0.316254 0.316254 0.316254
0.356903 0.356903 0.356903
0.399567 0.399567 0.399567
0.206604 0.206604 0.206604
0.240356 0.240356 0.240356
0.276489 0.276489 0.276489
0.314941 0.314941 0.314941
0.355560 0.355560 0.355560
0.398132 0.398132 0.398132
0.442505 0.442505 0.442505
0.488556 0.488556 0.488556
0.275269 0.275269 0.275269
0.313629 0.313629 0.313629
0.354187 0.354187 0.354187
0.396667 0.396667 0.396667
0.441040 0.441040 0.441040
0.487030 0.487030 0.487030
0.534546 0.534546 0.534546
0.583466 0.583466 0.583466
0.352753 0.352753 0.352753
0.395233 0.395233 0.395233
0.439484 0.439484 0.439484
0.485443 0.485443 0.485443
0.532928 0.532928 0.532928
0.581757 0.581757 0.581757
0.631866 0.631866 0.631866
0.683014 0.683014 0.683014
0.437988 0.437988 0.437988
0.483887 0.483887 0.483887
0.531342 0.531342 0.531342
0.580139 0.580139 0.580139
0.630188 0.630188 0.630188
0.681274 0.681274 0.681274
0.733307 0.733307 0.733307
0.786102 0.786102 0.786102
0.026764 0.026764 0.026764
0.045624 0.045624 0.045624
0.065399 0.065399 0.065399
0.086426 0.086426 0.086426
0.109100 0.109100 0.109100
0.133789 0.133789 0.133789
0.160889 0.160889 0.160889
0.190674 0.190674 0.190674
0.064728 0.064728 0.064728
0.085693 0.085693 0.085693
0.108337 0.108337 0.108337
0.132935 0.132935 0.132935
0.159973 0.159973 0.159973
0.189636 0.189636 0.189636
0.221985 0.221985 0.221985
0.256897 0.256897 0.256897
0.107544 0.107544 0.107544
0.132111 0.132111 0.132111
0.158997 0.158997 0.158997
0.188599 0.188599 0.188599
0.220886 0.220886 0.220886
0.255676 0.255676 0.255676
0.292877 0.292877 0.292877
0.332245 0.332245 0.332245
0.158051 0.158051 0.158051
0.187561 0.187561 0.187561
0.219788 0.219788 0.219788
0.254486 0.254486 0.254486
0.291595 0.291595 0.291595
0.330933 0.330933 0.330933
0.372284 0.372284 0.372284
0.415649 0.415649 0.415649
0.218658 0.218658 0.218658
0.253326 0.253326 0.253326
0.290344 0.290344 0.290344
0.329590 0.329590 0.329590
0.370941 0.370941 0.370941
0.414185 0.414185 0.414185
0.459229 0.459229 0.459229
0.505859 0.505859 0.505859
0.289093 0.289093 0.289093
0.328247 0.328247 0.328247
0.369537 0.369537 0.369537
0.412720 0.412720 0.412720
0.457703 0.457703 0.457703
0.504272 0.504272 0.504272
0.552307 0.552307 0.552307
0.601685 0.601685 0.601685
0.368134 0.368134 0.368134
0.411255 0.411255 0.411255
0.456146 0.456146 0.456146
0.502716 0.502716 0.502716
0.550720 0.550720 0.550720
0.600037 0.600037 0.600037
0.650513 0.650513 0.650513
0.701965 0.701965 0.701965
0.454620 0.454620 0.454620
0.501129 0.501129 0.501129
0.549072 0.549072 0.549072
0.598358 0.598358 0.598358
0.648804 0.648804 0.648804
0.700256 0.700256 0.700256
0.752594 0.752594 0.752594
0.805634 0.805634 0.805634
0.033600 0.033600 0.033600
0.052734 0.052734 0.052734
0.072937 0.072937 0.072937
0.094513 0.094513 0.094513
0.117889 0.117889 0.117889
0.143433 0.143433 0.143433
0.171509 0.171509 0.171509
0.202271 0.202271 0.202271
0.072235 0.072235 0.072235
0.093781 0.093781 0.093781
0.117096 0.117096 0.117096
0.142548 0.142548 0.142548
0.170532 0.170532 0.170532
0.201202 0.201202 0.201202
0.234497 0.234497 0.234497
0.270294 0.270294 0.270294
0.116272 0.116272 0.116272
0.141663 0.141663 0.141663
0.169525 0.169525 0.169525
0.200134 0.200134 0.200134
0.233368 0.233368 0.233368
0.269073 0.269073 0.269073
0.307068 0.307068 0.307068
0.347229 0.347229 0.347229
0.168579 0.168579 0.168579
0.199066 0.199066 0.199066
0.232239 0.232239 0.232239
0.267822 0.267822 0.267822
0.305786 0.305786 0.305786
0.345856 0.345856 0.345856
0.387970 0.387970 0.387970
0.431976 0.431976 0.431976
0.231079 0.231079 0.231079
0.266632 0.266632 0.266632
0.304474 0.304474 0.304474
0.344513 0.344513 0.344513
0.386566 0.386566 0.386566
0.430481 0.430481 0.430481
0.476135 0.476135 0.476135
0.523315 0.523315 0.523315
0.303192 0.303192 0.303192
0.343140 0.343140 0.343140
0.385162 0.385162 0.385162
0.429016 0.429016 0.429016
0.474579 0.474579 0.474579
0.521729 0.521729 0.521729
0.570251 0.570251 0.570251
0.620087 0.620087 0.620087
0.383728 0.383728 0.383728
0.427521 0.427521 0.427521
0.473053 0.473053 0.473053
0.520142 0.520142 0.520142
0.568634 0.568634 0.568634
0.618408 0.618408 0.618408
0.669281 0.669281 0.669281
0.721100 0.721100 0.721100
0.471497 0.471497 0.471497
0.518555 0.518555 0.518555
0.566986 0.566986 0.566986
0.616699 0.616699 0.616699
0.667572 0.667572 0.667572
0.719360 0.719360 0.719360
0.771973 0.771973 0.771973
0.825195 0.825195 0.825195
0.040497 0.040497 0.040497
0.060028 0.060028 0.060028
0.080658 0.080658 0.080658
0.102875 0.102875 0.102875
0.126984 0.126984 0.126984
0.153412 0.153412 0.153412
0.182465 0.182465 0.182465
0.214203 0.214203 0.214203
0.079956 0.079956 0.079956
0.102112 0.102112 0.102112
0.126160 0.126160 0.126160
0.152496 0.152496 0.152496
0.181458 0.181458 0.181458
0.213135 0.213135 0.213135
0.247345 0.247345 0.247345
0.283997 0.283997 0.283997
0.125305 0.125305 0.125305
0.151581 0.151581 0.151581
0.180450 0.180450 0.180450
0.212036 0.212036 0.212036
0.246155 0.246155 0.246155
0.282745 0.282745 0.282745
0.321564 0.321564 0.321564
0.362457 0.362457 0.362457
0.179443 0.179443 0.179443
0.210907 0.210907 0.210907
0.244995 0.244995 0.244995
0.281464 0.281464 0.281464
0.320251 0.320251 0.320251
0.361084 0.361084 0.361084
0.403931 0.403931 0.403931
0.448517 0.448517 0.448517
0.243835 0.243835 0.243835
0.280243 0.280243 0.280243
0.318909 0.318909 0.318909
0.359711 0.359711 0.359711
0.402466 0.402466 0.402466
0.447021 0.447021 0.447021
0.493256 0.493256 0.493256
0.540955 0.540955 0.540955
0.317596 0.317596 0.317596
0.358307 0.358307 0.358307
0.401031 0.401031 0.401031
0.445526 0.445526 0.445526
0.491730 0.491730 0.491730
0.539368 0.539368 0.539368
0.588379 0.588379 0.588379
0.638641 0.638641 0.638641
0.399597 0.399597 0.399597
0.444000 0.444000 0.444000
0.490112 0.490112 0.490112
0.537750 0.537750 0.537750
0.586731 0.586731 0.586731
0.636932 0.636932 0.636932
0.688171 0.688171 0.688171
0.740295 0.740295 0.740295
0.488556 0.488556 0.488556
0.536194 0.536194 0.536194
0.585114 0.585114 0.585114
0.635223 0.635223 0.635223
0.686462 0.686462 0.686462
0.738556 0.738556 0.738556
0.791443 0.791443 0.791443
0.844879 0.844879 0.844879
0.047546 0.047546 0.047546
0.067413 0.067413 0.067413
0.088593 0.088593 0.088593
0.111481 0.111481 0.111481
0.136414 0.136414 0.136414
0.163727 0.163727 0.163727
0.193817 0.193817 0.193817
0.226501 0.226501 0.226501
0.087891 0.087891 0.087891
0.110657 0.110657 0.110657
0.135529 0.135529 0.135529
0.162781 0.162781 0.162781
0.192749 0.192749 0.192749
0.225403 0.225403 0.225403
0.260498 0.260498 0.260498
0.298004 0.298004 0.298004
0.134674 0.134674 0.134674
0.161835 0.161835 0.161835
0.191711 0.191711 0.191711
0.224274 0.224274 0.224274
0.259277 0.259277 0.259277
0.296722 0.296722 0.296722
0.336334 0.336334 0.336334
0.377960 0.377960 0.377960
0.190674 0.190674 0.190674
0.223114 0.223114 0.223114
0.258118 0.258118 0.258118
0.295410 0.295410 0.295410
0.334991 0.334991 0.334991
0.376556 0.376556 0.376556
0.420074 0.420074 0.420074
0.465302 0.465302 0.465302
0.256897 0.256897 0.256897
0.294159 0.294159 0.294159
0.333618 0.333618 0.333618
0.375153 0.375153 0.375153
0.418610 0.418610 0.418610
0.463776 0.463776 0.463776
0.510590 0.510590 0.510590
0.558807 0.558807 0.558807
0.332275 0.332275 0.332275
0.373749 0.373749 0.373749
0.417145 0.417145 0.417145
0.462280 0.462280 0.462280
0.509033 0.509033 0.509033
0.557190 0.557190 0.557190
0.606659 0.606659 0.606659
0.657318 0.657318 0.657318
0.415680 0.415680 0.415680
0.460754 0.460754 0.460754
0.507416 0.507416 0.507416
0.555573 0.555573 0.555573
0.604980 0.604980 0.604980
0.655609 0.655609 0.655609
0.707184 0.707184 0.707184
0.759583 0.759583 0.759583
0.505859 0.505859 0.505859
0.553955 0.553955 0.553955
0.603363 0.603363 0.603363
0.653900 0.653900 0.653900
0.705475 0.705475 0.705475
0.757874 0.757874 0.757874
0.810944 0.810944 0.810944
0.864594 0.864594 0.864594
